public/lut/01.cube
TITLE "17x17x17 Adobe/IRIDAS cube 3D LUT exported with GrossGrade v0.2.2 (beta) 64 bit"
DOMAIN_MIN 0 0 0
DOMAIN_MAX 1 1 1
LUT_3D_SIZE 17
0.022080000 0.048985001 0.051020000
0.027402874 0.049669001 0.049711440
0.064227127 0.054692499 0.046269875
0.107063636 0.062477876 0.046891998
0.143354267 0.066478506 0.046358749
0.176682502 0.070729688 0.046669811
0.208055630 0.074789248 0.047332000
0.236274824 0.076939315 0.047596000
0.262779504 0.078860506 0.048985001
0.286863118 0.080743372 0.049966063
0.308522135 0.082124747 0.051269751
0.328892082 0.083169125 0.052347001
0.350062490 0.086406246 0.054295000
0.371042341 0.090273313 0.056313004
0.393604279 0.093897998 0.058662001
0.416182756 0.095984131 0.059905253
0.440788001 0.098728999 0.061643001
0.022080000 0.052836124 0.052264065
0.028881313 0.055283751 0.052264061
0.069852442 0.061191626 0.046891998
0.116139941 0.069356002 0.047552001
0.155328572 0.074244499 0.047552001
0.190937132 0.078849189 0.047552001
0.223906517 0.082842566 0.048032250
0.253829181 0.085978001 0.048682690
0.279533625 0.088142812 0.049626250
0.303314567 0.090449877 0.050978001
0.324960321 0.091917127 0.051892251
0.345302016 0.093155310 0.053163875
0.365470439 0.096856624 0.055012312
0.385585219 0.100365497 0.056857817
0.405985534 0.103055000 0.058585562
0.428346217 0.104605190 0.059905253
0.450262815 0.105782002 0.061055999
0.022080000 0.072339378 0.060756750
0.023657063 0.073369436 0.060756750
0.090434127 0.096805751 0.048023999
0.159380764 0.106049307 0.046935558
0.210153878 0.112797759 0.046357878
0.254147679 0.119452938 0.047463998
0.290278882 0.125213370 0.049582876
0.320739239 0.129620448 0.051768623
0.346816748 0.133130625 0.053083126
0.368328482 0.136004880 0.054654434
0.387601614 0.137807131 0.055803500
0.406034768 0.139874935 0.056935437
0.424529493 0.143203005 0.058737125
0.442354351 0.146865755 0.060500503
0.460005164 0.148908630 0.062226377
0.478847116 0.149677753 0.063845128
0.499814630 0.150246501 0.066062376
0.021932250 0.097498819 0.070030309
0.022030750 0.097551569 0.069098257
0.078025185 0.127885506 0.059018999
0.203924030 0.157271639 0.036077373
0.266557962 0.163020208 0.037654370
0.316777438 0.167974502 0.038982872
0.355077088 0.173277512 0.040788312
0.388940126 0.178122133 0.042743370
0.415799171 0.181772068 0.044412997
0.438048363 0.184993565 0.046307933
0.456560731 0.187244892 0.048938245
0.473033518 0.189126760 0.051055621
0.489239126 0.192247078 0.053645372
0.504820704 0.195594072 0.056661192
0.522066474 0.198706582 0.060349319
0.536923707 0.199972391 0.064941257
0.549716473 0.198079079 0.070003003
0.021291999 0.122439750 0.077766001
0.021291999 0.122439750 0.076444879
0.077829748 0.159348637 0.066006251
0.221519709 0.207736254 0.022326495
0.323333502 0.222659498 0.021685747
0.375774264 0.223527998 0.026565187
0.414373547 0.226368383 0.028290000
0.447649896 0.230143696 0.030409563
0.474388480 0.232683256 0.033514500
0.497155815 0.235141754 0.035830937
0.517231882 0.238237992 0.039715622
0.535836816 0.240609437 0.042974062
0.552280724 0.243403256 0.046888500
0.568047166 0.246491134 0.051476628
0.584650874 0.249513373 0.055171754
0.599613547 0.250384808 0.059826069
0.609729767 0.245688260 0.065784998
0.020502999 0.145526439 0.082270376
0.020502999 0.145712063 0.080920935
0.076269999 0.187831178 0.070634939
0.227918163 0.250516355 0.014440684
0.356396377 0.279665679 0.003893375
0.435723305 0.288144916 0.008082625
0.471196711 0.284422696 0.014834814
0.502097189 0.284931391 0.018531313
0.529740870 0.287755638 0.021488938
0.551898479 0.289371073 0.026663750
0.571528196 0.290928364 0.031838875
0.590965152 0.293315321 0.036767125
0.609922051 0.296457618 0.040845312
0.626037240 0.299125940 0.046668503
0.641840518 0.301065117 0.052057069
0.655794442 0.299606383 0.056507070
0.666127563 0.294504315 0.063774563
0.020502999 0.165836513 0.083630502
0.020996124 0.166279018 0.082152873
0.073987752 0.212923497 0.072156876
0.228496343 0.285620153 0.012321183
0.372416377 0.321082115 0.002366000
0.464972138 0.338662505 0.002366000
0.522493243 0.343492270 0.004731000
0.551678896 0.339876235 0.010152438
0.577072918 0.339886636 0.015573874
0.601302028 0.342020690 0.020404372
0.620917141 0.342738390 0.026910251
0.639516056 0.344307065 0.033120312
0.657637000 0.347628385 0.039820254
0.674333453 0.349325567 0.045730941
0.690084040 0.349284649 0.052262127
0.705170274 0.346789420 0.057936199
0.717898488 0.342394143 0.064093873
0.021291999 0.185596392 0.085424252
0.021291999 0.186219379 0.084117748
0.073764250 0.236079767 0.073639251
0.226965025 0.314330906 0.012124370
0.379225940 0.354415238 0.002809250
0.483531058 0.380267352 0.002612251
0.550712764 0.390061617 0.001577000
0.595109105 0.393092394 0.005963815
0.617600679 0.388260841 0.011779190
0.638985276 0.387221158 0.019961124
0.662422955 0.390517384 0.027846629
0.681880534 0.392261565 0.034746438
0.698240936 0.392449409 0.041460633
0.715639949 0.392763317 0.047627386
0.732235253 0.394234717 0.056848947
0.746983707 0.391858906 0.064192392
0.760097206 0.386378706 0.071765885
0.022080000 0.202732503 0.086742505
0.022080000 0.203189135 0.085480377
0.068974756 0.252124012 0.074785620
0.212793231 0.331262559 0.014292932
0.366630256 0.374780506 0.002957000
0.478890777 0.405150175 0.003154000
0.566120863 0.425711632 0.002366000
0.615800023 0.431704223 0.001281566
0.655077517 0.435580522 0.012617501
0.675607681 0.432361066 0.022326626
0.694257021 0.431071162 0.033514254
0.715320587 0.432816267 0.043337628
0.734626055 0.434419513 0.050826758
0.751234114 0.434066176 0.058066949
0.769340634 0.434062004 0.064929888
0.784335852 0.431758344 0.072256759
0.793794036 0.426606536 0.091263510
0.022425188 0.217461810 0.089110062
0.022819689 0.217628807 0.087849997
0.061605755 0.264625430 0.076472186
0.194403976 0.342427373 0.022770241
0.348139942 0.389119953 0.003302188
0.456793368 0.419574112 0.003154000
0.559885800 0.447874367 0.002366000
0.628114998 0.463468999 0.001577000
0.671457648 0.468793124 0.008329316
0.707412064 0.474083483 0.029670250
0.724569380 0.470477253 0.043081000
0.742549241 0.469404608 0.054453500
0.763770401 0.471176416 0.063373692
0.783088267 0.471994370 0.071360633
0.798911273 0.468755186 0.077409446
0.814267278 0.465469211 0.083930314
0.823554873 0.466856182 0.121406376
0.023164500 0.231042504 0.094051123
0.023607749 0.230980635 0.093269438
0.049077127 0.269179881 0.080471754
0.159791037 0.340778410 0.046016045
0.309283614 0.394357890 0.003548750
0.421964228 0.426053017 0.003154000
0.526840270 0.457003236 0.002956999
0.619034171 0.482283741 0.002366000
0.680467069 0.496097624 0.005224130
0.717398226 0.502340913 0.029916938
0.750756800 0.508055031 0.057050500
0.769043505 0.505586505 0.068825185
0.786765516 0.503586948 0.078525253
0.805917978 0.502380371 0.086180821
0.825079858 0.501587510 0.092132129
0.841169834 0.498846769 0.099957764
0.848601162 0.506610513 0.164160132
0.025234001 0.246652618 0.101036496
0.025234001 0.246507302 0.100182757
0.037605248 0.270921141 0.087068938
0.125271708 0.333652169 0.070076674
0.261478662 0.396916628 0.008476933
0.389949709 0.431105196 0.003154000
0.492571414 0.462626696 0.002661500
0.593383610 0.492410988 0.001577000
0.675310671 0.515792012 0.005766565
0.722947240 0.527350903 0.031838689
0.756467342 0.532856584 0.060830064
0.788356781 0.537054420 0.086333185
0.806554675 0.533527911 0.095167942
0.824887574 0.531723619 0.103909135
0.844932437 0.532094479 0.113472886
0.861219168 0.530719638 0.122341879
0.863855839 0.546207249 0.226382747
0.026023000 0.261604488 0.111672506
0.026023000 0.261433303 0.110916436
0.032331623 0.275854737 0.097566880
0.095889390 0.328632921 0.086342938
0.212734506 0.392980248 0.034413755
0.352972299 0.434608102 0.003499187
0.463348925 0.466719389 0.003154000
0.561308861 0.498210907 0.002119438
0.653584242 0.527378023 0.010843007
0.721222281 0.548117399 0.036832564
0.759697139 0.555961609 0.068608381
0.792172968 0.559763491 0.094050571
0.823028743 0.563259721 0.116772756
0.842064917 0.561429679 0.124878570
0.860039473 0.559756637 0.133185893
0.874609709 0.560226619 0.150292709
0.876733005 0.587495506 0.296848506
0.027747940 0.278097898 0.126736701
0.027747940 0.277971715 0.125886261
0.031247251 0.288108259 0.112879269
0.075074695 0.330311328 0.098245956
0.177571416 0.386966944 0.067211278
0.308190823 0.440774828 0.006357888
0.432866961 0.473591089 0.002661499
0.535324216 0.505717397 0.003893316
0.625938833 0.535045207 0.017792137
0.703984261 0.561247647 0.047974449
0.759347916 0.579264700 0.083975136
0.793604612 0.584967971 0.114708714
0.825599015 0.587688744 0.135698721
0.853773892 0.589075685 0.148611531
0.872223616 0.588011205 0.157083929
0.887106121 0.590166390 0.178002000
0.890237749 0.624830127 0.345179200
0.030852629 0.300336033 0.148015916
0.030852629 0.300011724 0.147270784
0.033711754 0.306278408 0.134556398
0.066728882 0.338420630 0.115848579
0.152731612 0.384480000 0.097284645
0.270831019 0.444013506 0.033198044
0.396412373 0.483952254 0.003844264
0.512618601 0.515938282 0.006702827
0.604477406 0.544211388 0.024347266
0.680830300 0.570784330 0.056773763
0.745066881 0.594581008 0.096065760
0.793188989 0.611421704 0.140378654
0.826235533 0.614756882 0.162038296
0.857382238 0.616611838 0.174986511
0.883917272 0.619182765 0.188065052
0.898571134 0.621739507 0.209568366
0.901768386 0.665265679 0.398831069
0.037210900 0.331486046 0.178277254
0.036520530 0.331383198 0.177664876
0.039966464 0.333662987 0.165170640
0.068405412 0.358762562 0.145827398
0.141527832 0.394576162 0.127269566
0.242225990 0.446299791 0.076209143
0.356899440 0.492284715 0.026220182
0.472352445 0.525343478 0.022967361
0.571429253 0.554808497 0.040606298
0.655022740 0.582512856 0.071972288
0.726867437 0.607827067 0.110340215
0.782547474 0.628093243 0.149663076
0.828855395 0.643730998 0.196473226
0.862147510 0.647937417 0.216278017
0.886866689 0.651173651 0.231011271
0.908481181 0.655473411 0.247664049
0.912284136 0.709668159 0.456169456
0.239766002 0.511897981 0.364665002
0.239766002 0.511838019 0.364573121
0.247052997 0.514672875 0.365310490
0.267063558 0.521778584 0.367117435
0.305596232 0.534194469 0.370555758
0.354387254 0.549178302 0.375988066
0.411532044 0.568135262 0.381868631
0.468888968 0.597705364 0.372000009
0.542573035 0.629037499 0.359100997
0.617325306 0.652537823 0.365177691
0.684430480 0.672542512 0.379114389
0.742900550 0.689490616 0.394524425
0.800506234 0.708254218 0.421358019
0.848125696 0.725968361 0.455699414
0.877764463 0.739162385 0.488338292
0.899026155 0.752440572 0.524604797
0.912470996 0.765769005 0.567049980
0.020552311 0.048294000 0.054131936
0.025875125 0.049626250 0.055955440
0.061919685 0.054051500 0.052874502
0.103636257 0.061347436 0.052054252
0.138391435 0.065540813 0.051017690
0.171995565 0.069702439 0.050175998
0.201759756 0.072492309 0.050262813
0.230033204 0.074537061 0.050640814
0.255979270 0.076010883 0.050935563
0.279374510 0.077950500 0.051933561
0.301076919 0.078709066 0.052961063
0.321558058 0.079069376 0.054214187
0.342642486 0.081743374 0.055685375
0.363661498 0.084628187 0.057515442
0.384991080 0.087710127 0.059229188
0.407721847 0.089433253 0.061019000
0.433728188 0.093166500 0.062769815
0.019812623 0.052836124 0.056581378
0.025825877 0.055283748 0.057120752
0.067263246 0.061191626 0.052874502
0.115357690 0.069320314 0.052136876
0.153869003 0.074149057 0.051017690
0.189401060 0.078033127 0.050681625
0.221656069 0.081795000 0.051309060
0.251524985 0.085188121 0.052179623
0.277833551 0.087979384 0.052836124
0.301920116 0.090693057 0.053809937
0.324745208 0.093365125 0.055407625
0.345830649 0.095385306 0.056855626
0.366286993 0.098269247 0.058659125
0.387157172 0.102076568 0.060462378
0.407312065 0.104771383 0.062189192
0.429794759 0.107240431 0.064377628
0.454684317 0.110016502 0.066580810
0.021341249 0.072855994 0.063553311
0.023607749 0.073879428 0.063625999
0.088859499 0.097267881 0.051426433
0.158662021 0.106075183 0.049667500
0.209014133 0.113149628 0.049154498
0.253360361 0.119141944 0.050177500
0.287898958 0.124398366 0.052139752
0.318244994 0.128714323 0.054012936
0.343837798 0.131858125 0.055250686
0.365935832 0.134716630 0.056390125
0.385494947 0.137013122 0.057898562
0.404039055 0.139321879 0.058735937
0.422671795 0.142332375 0.060462128
0.440902352 0.145847872 0.062188879
0.458562255 0.147868752 0.064376943
0.477485716 0.148947746 0.066025622
0.498623252 0.149019822 0.068154186
0.021291999 0.097551569 0.071187004
0.022770438 0.098620884 0.071120374
0.075886682 0.127343372 0.061300565
0.203717321 0.157978565 0.038293995
0.265910119 0.163264260 0.039912686
0.316570550 0.168354511 0.040552936
0.354845077 0.173532948 0.042225432
0.388399243 0.178299770 0.044137560
0.415368438 0.181772068 0.045547932
0.437947243 0.185086817 0.047634743
0.455951065 0.187047899 0.050260182
0.472297758 0.189098999 0.052836120
0.488207757 0.192028269 0.054927316
0.503963828 0.195178509 0.057934195
0.520932317 0.198456824 0.062005755
0.535862267 0.199749947 0.066613749
0.549207091 0.197643578 0.071092568
0.020700250 0.122743689 0.079127997
0.021439750 0.123973198 0.079127997
0.075597443 0.158429638 0.068528436
0.220319211 0.207872495 0.024002185
0.322977513 0.223065808 0.023756124
0.375524282 0.223850191 0.028240688
0.414589405 0.226677746 0.029177500
0.447216630 0.230311379 0.031493437
0.474214405 0.232804999 0.034253750
0.497221142 0.235192075 0.037309371
0.517337501 0.238405123 0.040448941
0.535866797 0.240964130 0.044000000
0.552116990 0.243588939 0.048247311
0.567857742 0.246519625 0.052098002
0.584314227 0.249483377 0.055998500
0.599321544 0.250335693 0.060795754
0.609230459 0.245533004 0.066858940
0.019714000 0.145579070 0.083572187
0.020502999 0.146636739 0.083572187
0.073507011 0.186330453 0.073121876
0.225232527 0.250282735 0.016017621
0.355027318 0.279825956 0.004090625
0.435456753 0.288852394 0.009561312
0.471171647 0.284850001 0.016313251
0.501700461 0.285361081 0.020010000
0.529601216 0.288190514 0.022622315
0.552112877 0.289858818 0.028142437
0.571547091 0.291240066 0.032824501
0.590978920 0.293709397 0.037753060
0.609919548 0.296816438 0.042324506
0.625963688 0.299335063 0.047986940
0.641729474 0.301188320 0.053042192
0.655532598 0.299598396 0.057282072
0.665966332 0.294463366 0.064485498
0.020256435 0.165836513 0.084914252
0.020502999 0.166685775 0.084488623
0.070967309 0.211025134 0.074374557
0.224326864 0.284787834 0.014736308
0.370610029 0.321008265 0.002366000
0.464164376 0.338810474 0.001675626
0.522592306 0.344019651 0.005470688
0.551147521 0.340332121 0.011582500
0.576660156 0.340407640 0.017053124
0.601305008 0.342474908 0.021439502
0.620782375 0.343202889 0.028142123
0.639358044 0.344729275 0.033859376
0.657517791 0.348021954 0.040553253
0.674344897 0.349575818 0.046532322
0.690034986 0.349380583 0.052876692
0.705040157 0.346822530 0.058848195
0.717804611 0.342459142 0.064624809
0.020502999 0.185596392 0.086685933
0.020946812 0.186403766 0.086267620
0.071282439 0.234223515 0.075790055
0.222449541 0.313342750 0.014145119
0.377206594 0.354086459 0.002809250
0.481744409 0.380042315 0.002366001
0.550259948 0.390139461 0.001577000
0.594729483 0.393357515 0.006702940
0.616900563 0.388553411 0.013307001
0.638757229 0.387689531 0.021488814
0.662191212 0.390915245 0.029325064
0.681664407 0.392568529 0.035781626
0.698066711 0.392683595 0.042590816
0.715440214 0.393004149 0.048714887
0.732112169 0.394390017 0.057502702
0.746843934 0.391898513 0.065285511
0.759887695 0.386394471 0.072823569
0.021291999 0.202444002 0.088015623
0.021686001 0.203369439 0.087353438
0.066290438 0.250259250 0.076412693
0.208738416 0.330046505 0.016214868
0.364511728 0.374607980 0.002957000
0.477432936 0.404989421 0.003154000
0.565643191 0.425837129 0.002366000
0.615642428 0.432000637 0.002020816
0.654566646 0.435882598 0.014489939
0.675288022 0.432693064 0.023410628
0.693914592 0.431374609 0.035042375
0.715044558 0.433037966 0.044252817
0.734343886 0.434606612 0.051616002
0.750999928 0.434277445 0.059133880
0.769144058 0.434144795 0.065523572
0.784136593 0.431901991 0.073191322
0.793689132 0.426762372 0.092481881
0.022080000 0.217461810 0.090354063
0.022869000 0.218307436 0.089734562
0.059708811 0.263259441 0.077613004
0.191013098 0.341157228 0.025225990
0.346421540 0.389050692 0.003548750
0.455680937 0.419604748 0.003154000
0.559537172 0.448076636 0.002366000
0.628133774 0.463691205 0.001577000
0.671195507 0.469060957 0.009463005
0.707028747 0.474276632 0.031148689
0.724202871 0.470682025 0.044086248
0.742281795 0.469583690 0.055642627
0.763583422 0.471380234 0.064342067
0.782912552 0.472078502 0.072369136
0.798719645 0.468866676 0.078264192
0.814238787 0.465594888 0.084527194
0.823493958 0.467032373 0.122513689
0.023164500 0.231104001 0.095238745
0.023657000 0.231988624 0.094853245
0.047794253 0.267965615 0.081654005
0.157866210 0.339686573 0.048118547
0.307717055 0.394186467 0.003696500
0.421579391 0.426263362 0.003154000
0.526560068 0.457214594 0.002661500
0.618995905 0.482507348 0.002366000
0.680275857 0.496347427 0.006259192
0.717105567 0.502590597 0.031000875
0.750499487 0.508265018 0.058202691
0.768797278 0.505724490 0.069828309
0.786535800 0.503656089 0.079544254
0.805677831 0.502507269 0.087125257
0.824961007 0.501669884 0.092948817
0.841098070 0.498970449 0.100694135
0.848488212 0.506877840 0.165375695
0.025234001 0.246914253 0.102031559
0.025234001 0.247492999 0.101669058
0.036865626 0.270157933 0.088035822
0.124176592 0.332900912 0.071776174
0.259950995 0.396624267 0.009413560
0.389518946 0.431279242 0.003154000
0.492256731 0.462740153 0.002661500
0.593222082 0.492650777 0.001577000
0.675274730 0.516010165 0.006505503
0.722715735 0.527489066 0.033366811
0.756256461 0.532978296 0.061968189
0.788218617 0.537185967 0.087167874
0.806331575 0.533661127 0.095985696
0.824759841 0.531884015 0.104709700
0.844836116 0.532208979 0.114168450
0.861122608 0.530834317 0.123177260
0.863743305 0.546280384 0.227132753
0.026023000 0.261748999 0.112688571
0.026023000 0.262084514 0.112358257
0.031641874 0.275303125 0.098466188
0.095022134 0.328342438 0.087179564
0.211432546 0.392386407 0.035906509
0.352526486 0.434734881 0.003499188
0.462944239 0.466881037 0.003154000
0.561075747 0.498408824 0.002119438
0.653443515 0.527520835 0.011582006
0.721041799 0.548260689 0.038180750
0.759499669 0.556033611 0.069649130
0.792047620 0.559907079 0.094852939
0.822890401 0.563312948 0.117645010
0.841971755 0.561522245 0.125495940
0.859942853 0.559857130 0.133765265
0.874508977 0.560337603 0.151037648
0.876733005 0.587596297 0.297235012
0.027747940 0.278232336 0.127345026
0.027747940 0.278610557 0.127050817
0.031198002 0.287932098 0.113623708
0.074604884 0.329988539 0.098742262
0.176899612 0.386538625 0.068246089
0.307869971 0.440885812 0.006702890
0.432636052 0.473775119 0.002661498
0.535059571 0.505855739 0.004041066
0.625802636 0.535158813 0.018531637
0.703872919 0.561393559 0.048670884
0.759232402 0.579347193 0.084562756
0.793456435 0.585052073 0.115136020
0.825469196 0.587749004 0.136301324
0.853683352 0.589169204 0.149381891
0.872189641 0.588112056 0.157574058
0.887080193 0.590300322 0.178573579
0.890261054 0.624885857 0.345277607
0.030852629 0.300366044 0.148537204
0.030852629 0.300696790 0.148300156
0.033711754 0.306278408 0.135166273
0.066281132 0.338247359 0.116470955
0.152299494 0.384184450 0.098042272
0.270410657 0.443940073 0.033926923
0.396166384 0.483968526 0.004238763
0.512240171 0.516021729 0.006801330
0.604105592 0.544285953 0.025086829
0.680520177 0.570850372 0.057354264
0.744903684 0.594623804 0.096710257
0.793020427 0.611505389 0.140980154
0.826151907 0.614880204 0.162556738
0.857316494 0.616700172 0.175398737
0.883840084 0.619229555 0.188285246
0.898545980 0.621751845 0.209765002
0.901768386 0.665271282 0.398913026
0.036520530 0.331601739 0.178706631
0.037210900 0.331909448 0.178706631
0.039326221 0.333751559 0.166042298
0.067975417 0.358619988 0.146546558
0.141244844 0.394455135 0.127875000
0.241888449 0.446181893 0.077119015
0.356597573 0.492259353 0.026712744
0.472253710 0.525351107 0.023411175
0.571072757 0.554801345 0.040951490
0.654790819 0.582465112 0.072458781
0.726722658 0.607846200 0.110676400
0.782430649 0.628142178 0.149928838
0.828713655 0.643754840 0.196859464
0.862147510 0.647981644 0.216760889
0.886872590 0.651302874 0.231334776
0.908427835 0.655476213 0.247817308
0.912284136 0.709668159 0.456238598
0.239615992 0.511897981 0.364755958
0.239766002 0.511897981 0.364665002
0.247052997 0.514680922 0.365401447
0.266835243 0.521736085 0.367196262
0.305459380 0.534183085 0.370645016
0.354172170 0.549163580 0.376051992
0.411471725 0.568124831 0.382116854
0.468906462 0.597721934 0.372362077
0.542428374 0.628988504 0.359293818
0.617300749 0.652611256 0.365421772
0.684462726 0.672669590 0.379462540
0.742900550 0.689490616 0.394641250
0.800461769 0.708243728 0.421358019
0.848113298 0.725983560 0.455782861
0.877764463 0.739194870 0.488401890
0.899026155 0.752399206 0.524643898
0.912470996 0.765804589 0.567049980
0.017348999 0.048985001 0.076327249
0.018975250 0.048985001 0.079097562
0.049957000 0.053488001 0.093562126
0.095358752 0.059603814 0.089175813
0.135223135 0.064378999 0.082648002
0.168923810 0.068156250 0.077745572
0.198288128 0.069869749 0.072385743
0.226268709 0.070533000 0.069269001
0.251355648 0.071060002 0.067005627
0.274440944 0.072330624 0.066043504
0.295308858 0.072168753 0.065558746
0.314977944 0.072330631 0.066043504
0.335219353 0.073966376 0.067356750
0.356437176 0.076321691 0.069950812
0.378827155 0.079162002 0.072535627
0.401387960 0.081510313 0.074451193
0.426090479 0.085226499 0.076393127
0.017348999 0.053486563 0.079129562
0.017447563 0.049752314 0.078549057
0.050142627 0.053728566 0.093648620
0.098055758 0.061855379 0.088742629
0.141894311 0.068956256 0.081429310
0.177445322 0.072610818 0.076401629
0.207708061 0.075220749 0.070960373
0.235749900 0.076406121 0.067995563
0.260603487 0.077240877 0.066597253
0.283428609 0.078249693 0.065558746
0.305383235 0.079633370 0.065803193
0.325854272 0.080969185 0.066597059
0.345949829 0.082927376 0.068373688
0.366440237 0.085579686 0.070118882
0.387973726 0.088517316 0.072603688
0.410399765 0.090518378 0.074486881
0.433443904 0.092755690 0.075994492
0.015771000 0.072856002 0.090343878
0.018186314 0.077541254 0.092300251
0.058157124 0.097034127 0.098416626
0.136575326 0.108429506 0.094670244
0.192825630 0.113840625 0.085765377
0.235884756 0.117962442 0.080828816
0.273118138 0.121985123 0.077649131
0.304083884 0.125375569 0.075560749
0.331164658 0.129060626 0.075127624
0.354331613 0.131958365 0.075628497
0.376353383 0.135292366 0.076873630
0.395323128 0.138017625 0.078312248
0.414371610 0.141434267 0.080207624
0.433361322 0.144455940 0.082128376
0.452405542 0.146223366 0.084007248
0.470662355 0.145478114 0.085288748
0.492389381 0.144449502 0.085712500
0.019664750 0.103151128 0.099580370
0.020404376 0.104545757 0.099921003
0.054129872 0.125580624 0.107476123
0.176595449 0.160442889 0.093196303
0.252748519 0.167300820 0.085898370
0.303584576 0.171542570 0.079437941
0.344563335 0.175555259 0.073770933
0.375470012 0.177864254 0.071276627
0.402066886 0.180980951 0.071768500
0.423580706 0.183170766 0.072358876
0.443083137 0.186202332 0.074443497
0.458975077 0.188319445 0.076355875
0.474544317 0.190831184 0.079133563
0.490467668 0.193404883 0.082362756
0.507171154 0.194936261 0.085823625
0.522294581 0.193157077 0.088208191
0.536962628 0.187759340 0.088239253
0.019812625 0.126480877 0.105192877
0.020552313 0.127613500 0.105491810
0.048771374 0.151219755 0.110489257
0.157144025 0.196422815 0.088135928
0.303441882 0.229897380 0.077260502
0.362074554 0.231793493 0.073037691
0.408188522 0.234660625 0.064912498
0.443288416 0.236506119 0.061349250
0.471261263 0.238551751 0.061801750
0.494276494 0.240197569 0.061512247
0.515395701 0.243068501 0.063477501
0.532334685 0.245048687 0.066338815
0.547631025 0.246724129 0.070032001
0.562712073 0.248804927 0.074120440
0.576832235 0.249636248 0.078099623
0.588901103 0.247374326 0.083189249
