public/lut/01.cube
TITLE "17x17x17 Adobe/IRIDAS cube 3D LUT exported with GrossGrade v0.2.2 (beta) 64 bit"
DOMAIN_MIN 0 0 0
DOMAIN_MAX 1 1 1
LUT_3D_SIZE 5
0.022080000 0.048985001 0.051020000
0.143354267 0.066478506 0.046358749
0.262779504 0.078860506 0.048985001
0.350062490 0.086406246 0.054295000
0.440788001 0.098728999 0.061643001
0.021291999 0.122439750 0.077766001
0.323333502 0.222659498 0.021685747
0.474388480 0.232683256 0.033514500
0.552280724 0.243403256 0.046888500
0.609729767 0.245688260 0.065784998
0.022080000 0.202732503 0.086742505
0.366630256 0.374780506 0.002957000
0.655077517 0.435580522 0.012617501
0.734626055 0.434419513 0.050826758
0.793794036 0.426606536 0.091263510
0.026023000 0.261604488 0.111672506
0.212734506 0.392980248 0.034413755
0.653584242 0.527378023 0.010843007
0.823028743 0.563259721 0.116772756
0.876733005 0.587495506 0.296848506
0.239766002 0.511897981 0.364665002
0.305596232 0.534194469 0.370555758
0.542573035 0.629037499 0.359100997
0.800506234 0.708254218 0.421358019
0.912470996 0.765769005 0.567049980
0.018137001 0.053812001 0.122450501
0.112694502 0.057438999 0.156295002
0.261833519 0.068528995 0.136500761
0.353345752 0.070001498 0.128829747
0.447973251 0.082415998 0.143983006
0.020305749 0.128779501 0.175516486
0.181889251 0.230210751 0.226111993
0.437548757 0.253862023 0.195298001
0.519319713 0.252662480 0.172932759
0.582133770 0.238509506 0.167559505
0.021686001 0.221442759 0.202522755
0.170539767 0.322271496 0.203004748
0.597436666 0.461581498 0.240496263
0.716601729 0.463430047 0.217355236
0.781418204 0.449629545 0.237361521
0.027797250 0.288478017 0.214311257
0.101316504 0.355532467 0.200211510
0.580007792 0.534784436 0.170508012
0.796939790 0.579633534 0.247587010
0.874118030 0.599963009 0.350270510
0.242900759 0.520777762 0.387349010
0.284745485 0.537036002 0.393226266
0.526612759 0.629390001 0.397509009
0.789982259 0.712773263 0.443785757
0.910666764 0.769559979 0.579726040
0.020502999 0.062516503 0.189215004
0.076060995 0.053651001 0.213686496
0.287636995 0.061349500 0.257172018
0.388920724 0.063524753 0.261366487
0.464760482 0.076414496 0.267058015
0.024051500 0.138705999 0.250191003
0.087586254 0.211269498 0.298424482
0.430411994 0.282034010 0.377896249
0.511579514 0.245320752 0.338472754
0.566043258 0.219027758 0.309830010
0.027206000 0.247500002 0.331181496
0.097655505 0.338625520 0.369214982
0.446821004 0.476072490 0.425468504
0.657374263 0.492811024 0.437060773
0.739073038 0.451086521 0.384233505
0.040779006 0.364313006 0.383561254
0.115929008 0.416163266 0.385851979
0.445512772 0.530627489 0.443583250
0.749065518 0.627111256 0.478576541
0.867124796 0.638315320 0.478748262
0.258139998 0.554217994 0.466448486
0.301470757 0.569347501 0.469815254
0.470436513 0.625753522 0.495438010
0.750068784 0.731670976 0.529638529
0.904152513 0.787572503 0.633528471
0.023657000 0.079341501 0.243173748
0.057803750 0.059266999 0.246482253
0.262852013 0.063379496 0.306177735
0.419567227 0.074028745 0.334483981
0.476518512 0.080415249 0.338113993
0.026812000 0.156412259 0.306020498
0.053256750 0.199219018 0.325816751
0.285594255 0.224795997 0.392687738
0.514303982 0.252868235 0.423844516
0.535981953 0.172872752 0.378626227
0.029374251 0.253442258 0.377347499
0.065399259 0.318338752 0.401459515
0.369747788 0.457314253 0.484004259
0.632370353 0.522342205 0.552272737
0.710593998 0.445434034 0.495872736
0.043813754 0.388998270 0.466926247
0.140014023 0.455778241 0.482385516
0.438690543 0.561021090 0.539911509
0.610011816 0.630714536 0.566156030
0.830211759 0.654678524 0.599843204
0.327416241 0.606989741 0.557787776
0.372094482 0.623603523 0.567728043
0.512503028 0.676412523 0.602272987
0.706821322 0.756205797 0.641183257
0.885292053 0.814084232 0.727548718
0.025234001 0.096314996 0.283443987
0.044493005 0.063952997 0.271514744
0.228058517 0.065083504 0.331599474
0.402615756 0.091955751 0.377247989
0.487208992 0.086965002 0.384577006
0.028388999 0.171508998 0.347801238
0.035485502 0.169024006 0.340054512
0.164920002 0.134039253 0.356208742
0.400687754 0.092168003 0.379323244
0.488637269 0.086965002 0.385535240
0.031937502 0.268954515 0.420796007
0.040591002 0.290897757 0.427751243
0.227259025 0.401683033 0.508023977
0.524939775 0.439065516 0.568513989
0.674430013 0.399213016 0.552442014
0.043632500 0.379603267 0.493605494
0.074607261 0.411538243 0.501427770
0.354309022 0.545551777 0.591291010
0.604387999 0.625181258 0.672993302
0.797664762 0.645844042 0.699246526
0.081950001 0.508556008 0.569572985
0.384489745 0.646669507 0.645776987
0.557214975 0.713609517 0.701458454
0.730491996 0.783762753 0.764257491
0.872491002 0.837342978 0.818722010
