public/lut/02.cube
TITLE "17x17x17 Adobe/IRIDAS cube 3D LUT exported with GrossGrade v0.2.2 (beta) 64 bit"
DOMAIN_MIN 0 0 0
DOMAIN_MAX 1 1 1
LUT_3D_SIZE 17
0.011040000 0.050347999 0.051020000
0.016264312 0.053486563 0.050978001
0.072276995 0.058883123 0.044918373
0.135147318 0.064307436 0.041900937
0.193137258 0.067167751 0.038837250
0.245215312 0.070003003 0.037852000
0.292518020 0.070533000 0.036569875
0.336633086 0.071876504 0.035486002
0.379137516 0.075166494 0.034697000
0.416969478 0.077859499 0.033563811
0.451032877 0.080713749 0.033119999
0.482090563 0.084999807 0.033119999
0.509446263 0.089489505 0.033909000
0.534240663 0.093167558 0.033909000
0.554973841 0.095190495 0.034697000
0.575240195 0.097529002 0.034697000
0.593095005 0.097529002 0.035486002
0.011040000 0.054731000 0.054131936
0.016313562 0.058348812 0.052919749
0.076964498 0.066112757 0.045597184
0.145617515 0.072578378 0.040410504
0.205724135 0.076588809 0.037901249
0.259803116 0.080787063 0.036569875
0.309649467 0.084040128 0.034795564
0.354846984 0.086632311 0.033218563
0.397074580 0.090270557 0.032430563
0.435506940 0.093761683 0.031247124
0.469790459 0.097720936 0.030015251
0.500859499 0.102646500 0.030015251
0.527297258 0.106728502 0.030803312
0.550547540 0.109933563 0.030803312
0.571229339 0.112909563 0.030852625
0.590067327 0.113729626 0.031592313
0.606419444 0.112348065 0.032430563
0.017250374 0.084771626 0.071819499
0.021833563 0.087724440 0.071331501
0.088621378 0.106353000 0.056038249
0.173804134 0.120660059 0.044185434
0.249800518 0.131067872 0.035683002
0.309762865 0.139786437 0.032134436
0.363236159 0.146434635 0.028881622
0.412630737 0.153690502 0.025086498
0.455606788 0.160746634 0.023164624
0.494544119 0.167766631 0.021587623
0.529649019 0.174975500 0.020798750
0.560807943 0.181920066 0.020700125
0.586456418 0.187130511 0.021489127
0.608689725 0.190585196 0.022425067
0.626560152 0.191474006 0.023263128
0.643512368 0.190783188 0.024643125
0.656796694 0.184402630 0.026220126
0.018778063 0.133012071 0.092886567
0.021094812 0.134761944 0.091303319
0.085608937 0.161434278 0.074583501
0.179523453 0.182245776 0.055685747
0.268216759 0.196177885 0.040742878
0.342753559 0.207818329 0.031345624
0.400756389 0.217623129 0.026318874
0.453423947 0.227107197 0.021636749
0.500510454 0.237846702 0.019073749
0.541546404 0.247911349 0.018926000
0.577537596 0.256765515 0.018778063
0.609917223 0.264704466 0.018630313
0.635385811 0.271067590 0.020207312
0.657223105 0.273902565 0.021144062
0.673884571 0.273522168 0.022721063
0.689016521 0.270068765 0.024298063
0.699582994 0.258727759 0.024298064
0.023262750 0.183791012 0.104444504
0.025332939 0.185701624 0.102707878
0.086566374 0.212201133 0.092846751
0.178773329 0.243939444 0.061668687
0.265093267 0.256348014 0.050173253
0.350465238 0.268819362 0.038834941
0.421072900 0.281450123 0.030951250
0.479817748 0.292042434 0.026170935
0.528556228 0.302308738 0.023262750
0.572828829 0.313656121 0.023065750
0.610457540 0.322790742 0.024051750
0.641460717 0.329163611 0.024889313
0.666704237 0.333838761 0.026417499
0.688634396 0.336313367 0.028142504
0.706660986 0.336262375 0.030754503
0.723195791 0.333286643 0.032528497
0.732849777 0.318998992 0.031148752
0.036373250 0.236567050 0.106785998
0.038787689 0.238097876 0.104894996
0.108415566 0.270866334 0.094069809
0.199586898 0.305700243 0.060642436
0.272317946 0.317065179 0.052218564
0.346489429 0.325212121 0.047111999
0.429207385 0.338930011 0.040846311
0.494838983 0.349899441 0.034845125
0.546896815 0.360274076 0.033711374
0.591817975 0.369780630 0.033267811
0.631124735 0.378103316 0.034795877
0.663725078 0.384000003 0.035830811
0.689227760 0.387476325 0.038393814
0.710203052 0.387989372 0.040784311
0.728570521 0.386691630 0.042575002
0.746344984 0.383420348 0.043303125
0.758489728 0.369248241 0.041030876
0.053466253 0.288318902 0.108940504
0.055895694 0.289184779 0.106854193
0.132092893 0.323868275 0.091988496
0.228489459 0.358518213 0.055672742
0.303050369 0.373042405 0.044551749
0.359471768 0.377845645 0.047375999
0.423447520 0.386355132 0.048032254
0.500974417 0.400810242 0.048361007
0.557939351 0.410000384 0.046336628
0.604134202 0.418304265 0.048260566
0.643892884 0.425789505 0.051218130
0.678068757 0.431504637 0.052959632
0.707125485 0.434887171 0.054645009
0.728645205 0.434093595 0.056516446
0.745771050 0.430695772 0.058628004
0.764225423 0.426479638 0.058826253
0.778639495 0.413677663 0.055142630
0.067130126 0.329918087 0.115480259
0.067130126 0.328974664 0.113310881
0.148048818 0.363180101 0.096902192
0.247504398 0.397576541 0.059063248
0.330484003 0.417793155 0.042656250
0.384576052 0.424949765 0.047241062
0.430592418 0.428656965 0.053524256
0.491636157 0.437795818 0.057648692
0.560507834 0.450317472 0.064414635
0.610638082 0.457921982 0.066739514
0.651961267 0.464900732 0.071586445
0.685463905 0.469555914 0.076566391
0.714894593 0.472469896 0.079318576
0.740180969 0.471842468 0.078410268
0.760458291 0.467814326 0.076595321
0.778688192 0.463391274 0.076908819
0.794082046 0.451756209 0.074717700
0.072879501 0.361505508 0.127325505
0.073390000 0.360910505 0.124756068
0.158736765 0.393837750 0.107172504
0.261980355 0.428479075 0.066051871
0.348556757 0.450822264 0.046534747
0.412234366 0.463005543 0.046218876
0.458726406 0.469231397 0.055631630
0.497622311 0.473523259 0.066901505
0.551522553 0.482511520 0.077347010
0.613187075 0.493969113 0.090164192
0.656973004 0.499453366 0.097389013
0.691548824 0.503338337 0.103728071
0.720559239 0.505878508 0.108831003
0.747263432 0.505653977 0.107688189
0.770482183 0.501537561 0.102138370
0.791836917 0.495903313 0.098573446
0.806923032 0.482978493 0.103325009
0.078492999 0.389966697 0.143788189
0.079396881 0.389624238 0.141126364
0.166630805 0.420319051 0.125233501
0.274948061 0.456111014 0.079247117
0.362916738 0.478518426 0.056145750
0.432165951 0.492937416 0.054399375
0.484862030 0.502942443 0.058525629
0.527189195 0.510156989 0.074454881
0.557594121 0.514242649 0.094084881
0.606145978 0.522864759 0.112083130
0.660252273 0.532683849 0.128409371
0.695338488 0.535385132 0.137048930
0.724841535 0.536700666 0.144140512
0.751812398 0.536277354 0.145504117
0.776393890 0.532089293 0.139099807
0.799903870 0.525403619 0.130360305
0.817197919 0.512342989 0.140718073
0.088991374 0.417077124 0.165824503
0.089151502 0.416637689 0.163759619
0.175045371 0.443832368 0.148766369
0.287167907 0.479819894 0.099532120
0.381144762 0.503020227 0.069850996
0.451296180 0.517544210 0.068933062
0.509823203 0.529735208 0.072247133
0.551796556 0.538469315 0.085785076
0.583811283 0.545310497 0.113683261
0.608739734 0.549748480 0.139478758
0.651613116 0.557852268 0.160670131
0.697297394 0.565372169 0.178299427
0.726816773 0.565340638 0.188409001
0.753942549 0.564723492 0.192536309
0.780208409 0.561827779 0.187002108
0.805014193 0.555131495 0.173313111
0.827888846 0.547976255 0.196104616
0.106753998 0.445193559 0.196247071
0.107357815 0.444926888 0.194196060
0.188402995 0.467604250 0.177554384
0.300502151 0.502540827 0.132045805
0.401580334 0.527120113 0.094411127
0.474520981 0.542045653 0.093650937
0.533300221 0.554637551 0.099534623
0.578846931 0.564770460 0.111618757
0.612344921 0.573695302 0.140257820
0.636993587 0.579607725 0.173989937
0.655284941 0.582733929 0.202530444
0.690275967 0.589096129 0.227444932
0.726950943 0.593211830 0.241629437
0.754663348 0.592834055 0.246434867
0.781398296 0.591175258 0.243835047
0.808427095 0.586200893 0.230670795
0.833664358 0.587645590 0.276578873
0.136920005 0.477405995 0.241192266
0.136852652 0.476863444 0.238964647
0.212387875 0.495065987 0.220148385
0.320309639 0.527383804 0.182651132
0.420939267 0.552862763 0.140314013
0.502940714 0.568831146 0.133716390
0.559534788 0.581191242 0.143140525
0.606287420 0.591581225 0.157346040
0.642567992 0.601456046 0.180359274
0.667581022 0.608902097 0.217472509
0.683640480 0.612553418 0.251150131
0.696080208 0.615134239 0.280471504
0.723790526 0.620038509 0.299409509
0.757161438 0.622339547 0.305538327
0.784208894 0.621041179 0.305746019
0.809828043 0.617981076 0.298219800
0.838367701 0.629472017 0.366657764
0.196683317 0.519417703 0.300317198
0.196496010 0.519075692 0.299260616
0.256516546 0.531014204 0.280825317
0.355409414 0.557674706 0.251661450
0.450224042 0.582967639 0.208835438
0.529552221 0.598822773 0.200096384
0.590233505 0.610959888 0.208012462
0.634310186 0.620589674 0.224976212
0.670099199 0.629571378 0.245168269
0.696369827 0.637329876 0.271738678
0.714507520 0.643260300 0.307536870
0.726633489 0.646239400 0.337062240
0.736128747 0.648453057 0.361426562
0.758969009 0.652385414 0.375481635
0.788056135 0.652847707 0.375015736
0.813663065 0.651388466 0.367256463
0.845108867 0.670738280 0.446814597
0.282015711 0.565215826 0.365422308
0.281764150 0.564847767 0.364143878
0.326356471 0.573540807 0.352025658
0.408962905 0.593957961 0.329580516
0.493335098 0.617161214 0.295926452
0.568479538 0.632490396 0.285057694
0.626081705 0.643867195 0.293555737
0.669757605 0.652760983 0.306870013
0.700087011 0.659861207 0.322520316
0.724414706 0.666600764 0.340591431
0.745437086 0.674108684 0.367011696
0.759957314 0.679448605 0.395058244
0.769535661 0.682137430 0.417317450
0.778059483 0.684543848 0.436661422
0.792724252 0.686527729 0.447417200
0.818893373 0.686393201 0.441300452
0.850783825 0.714212954 0.534035206
0.387020409 0.610866010 0.429683626
0.386764526 0.610670984 0.429000407
0.415996701 0.615995347 0.422781408
0.477045715 0.633361399 0.406559855
0.543737531 0.653061569 0.385537744
0.608227015 0.667057693 0.377217293
0.659683049 0.676965952 0.383451551
0.700225174 0.685545921 0.393318683
0.730778754 0.692451000 0.404526740
0.755080760 0.698456645 0.417937398
0.773506284 0.704324782 0.434095889
0.787862062 0.710192263 0.452056319
0.798866034 0.714223444 0.470926970
0.807373166 0.717389762 0.489962012
0.814978719 0.720876336 0.508170068
0.823816776 0.723377526 0.521694243
0.860162318 0.757166803 0.620722055
0.691452980 0.740957022 0.612483978
0.691657364 0.741032004 0.612480819
0.696016610 0.742522478 0.613361835
0.704798341 0.744802475 0.614180982
0.716332495 0.746502280 0.613221526
0.731010795 0.749231040 0.613689065
0.746868730 0.752326488 0.614218771
0.764919877 0.756462634 0.615966082
0.783770502 0.761617005 0.619260013
0.800438762 0.766595006 0.624109030
0.812844515 0.769729614 0.626299620
0.824948668 0.773949623 0.633380651
0.836764038 0.779085994 0.644515216
0.847222090 0.784935951 0.658837378
0.855640769 0.790509999 0.676428020
0.863295019 0.795557320 0.693359137
0.873966992 0.800679982 0.707920015
0.010251000 0.050347999 0.051686000
0.014046188 0.052264065 0.051644377
0.068462998 0.057283625 0.046979621
0.129804134 0.063310005 0.044782810
0.186872080 0.066097751 0.042561125
0.238778189 0.067919627 0.040896188
0.285556883 0.068122499 0.040118437
0.329695225 0.068258002 0.038837314
0.371549517 0.070134312 0.037753377
0.408989191 0.072264001 0.036964435
0.442482293 0.074028187 0.036915123
0.473428071 0.077672251 0.036175437
0.501326859 0.082061566 0.036422003
0.525606155 0.085025311 0.036964435
0.546495676 0.087265939 0.037013687
0.566419363 0.089350753 0.037063003
0.585106850 0.089405380 0.037013687
0.011040000 0.054131936 0.054772310
0.015524625 0.057202246 0.055366687
0.075660259 0.065105818 0.047681559
0.145574838 0.071150877 0.042609502
0.204386622 0.074277811 0.040362690
0.258591563 0.077731684 0.039379686
0.307682902 0.080169000 0.038048938
0.351955742 0.081819572 0.036569875
0.393864959 0.084788375 0.035436690
0.431758314 0.088086307 0.035436690
0.465682685 0.091625564 0.034647752
0.496239752 0.096047312 0.034647752
0.523111641 0.100543998 0.034697000
0.546252608 0.103610188 0.034697000
0.565947592 0.105709068 0.035436690
0.585015059 0.107564561 0.036224749
0.602170289 0.106502682 0.036224749
0.016559999 0.084377870 0.072339058
0.021094812 0.087342933 0.072373688
0.087875001 0.106033631 0.057243749
0.174016014 0.120305561 0.045548808
0.249939799 0.130088568 0.036569878
0.310434163 0.138052702 0.034155313
0.363074720 0.144232750 0.030360125
0.411878407 0.150297254 0.027058372
0.454593152 0.156655997 0.025431188
0.493353933 0.163312629 0.024593873
0.527873099 0.170153141 0.023804875
0.558540344 0.176383927 0.023066124
0.583799124 0.181150943 0.023804873
0.605928957 0.184809431 0.024593875
0.623561561 0.185405061 0.025480503
0.640549123 0.185084641 0.026269503
0.654051244 0.179264188 0.027747875
0.018137002 0.132531896 0.093333445
0.021094812 0.134722680 0.092410631
0.085582130 0.161417827 0.075528510
0.180471390 0.182778135 0.056274001
0.268723279 0.196097434 0.041511379
0.343558490 0.207351014 0.032726251
0.401610404 0.217234701 0.027846560
0.453972608 0.226455510 0.023164498
0.500913501 0.236626014 0.020552311
0.541701794 0.246530071 0.020404438
0.577275097 0.255056083 0.020256501
0.609238207 0.262724221 0.019763501
0.634337246 0.268579334 0.021094752
0.655936718 0.271332026 0.021882940
0.672607541 0.271048129 0.023459937
0.687797964 0.267862201 0.024396690
0.698579192 0.256772697 0.025036938
0.023115000 0.183791012 0.105430573
0.025332939 0.185388878 0.103352875
0.086870246 0.212470889 0.093631938
0.179424062 0.243876427 0.062286563
0.265568197 0.256486923 0.051310439
0.351467431 0.268969566 0.039572626
0.421950459 0.281414062 0.031690814
0.480424643 0.291779369 0.026910437
0.528899848 0.301716089 0.024396500
0.572989404 0.312926024 0.024002438
0.610365868 0.322015643 0.025086377
0.641229749 0.328140855 0.025628813
0.666225374 0.332598388 0.027156500
0.688190937 0.335104764 0.028585754
0.706142783 0.335132658 0.031000881
0.722835302 0.332481623 0.032528497
0.732462823 0.318042368 0.031148752
0.035830811 0.236347750 0.107638873
0.038640000 0.238077119 0.105341747
0.108795121 0.271198452 0.094562069
0.200419709 0.306296587 0.060786184
0.273330063 0.317590058 0.053035315
0.347423941 0.325647801 0.047770500
0.429773659 0.339067191 0.041565433
0.495273650 0.349872679 0.035584249
0.547249556 0.360032678 0.034451064
0.592057228 0.369245857 0.034451064
0.631039441 0.377518743 0.035535000
0.663472533 0.383404434 0.036570501
0.689003825 0.386750966 0.039179064
0.709942579 0.387209296 0.040926252
0.728239417 0.385980517 0.042912878
0.746012092 0.382565826 0.043761246
0.758240342 0.368550330 0.041797563
0.053466253 0.288318902 0.109505810
0.055651255 0.289180398 0.107200436
0.132554948 0.324516267 0.092518061
0.229600832 0.359121561 0.055782244
0.304433823 0.373757482 0.045099624
0.360577404 0.378376007 0.048075061
0.424357533 0.386665791 0.049109757
0.501402199 0.401026040 0.049269564
0.558376849 0.410122216 0.047618940
0.604405463 0.418211073 0.049325880
0.643945754 0.425612450 0.052099567
0.678068101 0.431274891 0.053610504
0.707005978 0.434581369 0.055049509
0.728541136 0.433857679 0.057097577
0.745625436 0.430308253 0.058628004
0.764021516 0.426061571 0.059159253
0.778546393 0.413440466 0.055142630
0.067130126 0.330062836 0.116144888
0.068958819 0.330570728 0.114160821
0.148548573 0.363712877 0.097434253
0.248436019 0.398190081 0.059510998
0.331858039 0.418416083 0.043217253
0.385742545 0.425456673 0.047897808
0.431187123 0.428922623 0.054688070
0.492315292 0.438057810 0.058791507
0.560808003 0.450359941 0.065229699
0.610888422 0.457917303 0.067765318
0.652058363 0.464900732 0.072169006
0.685463607 0.469479233 0.077220269
0.714808583 0.472349912 0.079882696
0.740158498 0.471748918 0.079051316
0.760362089 0.467625767 0.077088632
0.778522789 0.463096231 0.077338569
0.793979943 0.451520950 0.074993894
0.072879501 0.361597300 0.127910942
0.075287871 0.362392396 0.125828937
0.159128621 0.394274056 0.107886940
0.263027549 0.429149628 0.066573314
0.349718690 0.451323897 0.047066249
0.413733482 0.463621110 0.046752125
0.459413469 0.469565660 0.056726445
0.498114586 0.473721772 0.067715570
0.551929951 0.482637405 0.078495890
0.613431394 0.494068623 0.090996005
0.657001853 0.499485910 0.098139957
0.691542983 0.503350496 0.104437940
0.720530808 0.505849600 0.109182008
0.747282803 0.505694270 0.108307809
0.770503521 0.501480103 0.102650695
0.791813850 0.495769799 0.098971315
0.806805193 0.482753873 0.103682257
0.078492999 0.390096605 0.144166678
0.080352627 0.390668124 0.142343327
0.166853324 0.420708179 0.126127571
0.275813729 0.456745178 0.079884864
0.363815159 0.479022652 0.056731060
0.433179557 0.493377447 0.054996878
0.485726357 0.503297627 0.059093066
0.527771175 0.510457695 0.075201944
0.557845414 0.514393806 0.095057003
0.606330991 0.523020327 0.113119379
0.660284519 0.532687664 0.129389375
0.695368052 0.535419464 0.137781709
0.724782586 0.536629140 0.144800439
0.751831949 0.536292076 0.145859748
0.776398599 0.532058299 0.139539048
0.799870193 0.525291145 0.130646855
0.817171752 0.512254536 0.141102567
0.088554248 0.417107880 0.166288182
0.090666816 0.417769909 0.164908305
0.175365880 0.444149077 0.149437562
0.287493706 0.480122417 0.100118682
0.381867021 0.503436685 0.070541561
0.451910734 0.517864585 0.069572248
0.510403574 0.530011296 0.072862066
0.552323639 0.538728178 0.086653583
0.584029019 0.545451283 0.114378445
0.608865261 0.549853802 0.140232816
0.651659727 0.557938278 0.161714688
0.697278917 0.565403700 0.179000124
0.726801515 0.565340638 0.188850701
0.753889143 0.564723492 0.193252936
0.780203760 0.561859846 0.187421113
0.804996729 0.555113673 0.173541173
0.827869773 0.547998011 0.196479052
0.106753998 0.445264846 0.196681440
0.108475879 0.445717633 0.195154130
0.188728675 0.467962354 0.178268746
0.300724983 0.502867520 0.133180112
0.402030945 0.527428210 0.095211253
0.474830419 0.542268276 0.094286501
0.533676684 0.554969847 0.100574374
0.579104304 0.564982772 0.112305440
0.612583280 0.573854446 0.141040131
0.637116969 0.579645157 0.174500003
0.655406952 0.582822025 0.203434497
0.690290034 0.589163661 0.228089616
0.726917684 0.593244910 0.242252365
0.754638970 0.592873752 0.246725619
0.781393647 0.591181874 0.244128555
0.808427095 0.586163878 0.230934247
0.833664358 0.587662160 0.276833564
0.137192950 0.477602541 0.241676018
0.138279080 0.477677882 0.240239263
0.212471515 0.495337576 0.221220389
0.320416212 0.527515173 0.183134690
0.421191633 0.553127170 0.141275644
0.503226101 0.569107115 0.134559900
0.559777021 0.581466794 0.144075900
0.606482148 0.591736734 0.158015549
0.642693400 0.601579666 0.180769444
0.667697966 0.608971953 0.217899203
0.683734417 0.612620354 0.251558900
0.696042836 0.615171731 0.280908763
0.723790467 0.620088220 0.299923331
0.757154107 0.622339547 0.305756330
0.784208894 0.621034920 0.306114137
0.809801817 0.618013024 0.298517942
0.838367701 0.629505754 0.366867453
0.196683317 0.519464910 0.300618857
0.197243199 0.519476295 0.299855381
0.256807566 0.531387866 0.281822145
0.355708361 0.557907581 0.252616704
0.450375229 0.583102465 0.209439576
0.529778540 0.598966897 0.200713381
0.590432107 0.611114264 0.208673477
0.634518206 0.620737433 0.225820601
0.670297980 0.629724801 0.245943949
0.696410596 0.637362659 0.271997631
0.714562237 0.643313944 0.307869494
0.726648510 0.646271765 0.337327689
0.736199200 0.648571730 0.361783803
0.759012699 0.652438104 0.375745624
0.788083851 0.652875125 0.375191927
0.813689351 0.651394188 0.367420793
0.845133603 0.670704484 0.446828276
0.282030851 0.565268993 0.365536571
0.283204138 0.565448880 0.365024209
0.326802254 0.573831856 0.352867961
0.409074426 0.594069839 0.330008149
0.493518561 0.617296100 0.296492726
0.568663478 0.632652521 0.285696775
0.626195431 0.643977702 0.293994904
0.669873536 0.652884603 0.307411015
0.700127304 0.659884572 0.322787166
0.724440336 0.666611791 0.340876758
0.745441973 0.674167514 0.367227823
0.759964645 0.679482222 0.395213455
0.769530892 0.682137549 0.417461932
0.778084815 0.684574246 0.436799020
0.792724252 0.686527669 0.447559655
0.818893373 0.686428964 0.441372961
0.850783825 0.714247048 0.534035206
0.387100041 0.610959291 0.429983258
0.387400925 0.610875368 0.429464102
0.416228980 0.616137683 0.423086762
0.477120459 0.633401275 0.407250911
0.543889463 0.653178990 0.386131614
0.608309567 0.667145967 0.377560824
0.659741044 0.677046955 0.383738756
0.700283647 0.685587168 0.393529296
0.730834603 0.692507863 0.404768407
0.755131960 0.698496819 0.418209791
0.773508608 0.704367042 0.434202999
0.787836611 0.710208654 0.452234447
0.798872709 0.714291513 0.471104831
0.807457805 0.717431664 0.490084857
0.815007150 0.720977068 0.508335590
0.823818862 0.723382533 0.521752954
0.860162318 0.757166803 0.620722055
0.691452980 0.740957022 0.612483978
0.691657364 0.741032004 0.612480819
0.696016610 0.742522478 0.613365054
0.704901516 0.744834960 0.614310861
0.716332495 0.746473014 0.613297999
0.731055915 0.749287128 0.613860488
0.746883750 0.752341151 0.614291668
0.764919877 0.756484568 0.616044760
0.783770502 0.761633575 0.619281948
0.800438762 0.766595006 0.624109030
0.812844515 0.769750953 0.626410961
0.824959576 0.773985267 0.633457184
0.836738765 0.779076755 0.644527256
0.847228467 0.784956753 0.658880472
0.855640769 0.790509999 0.676428020
0.863295019 0.795557320 0.693359137
0.873966992 0.800679982 0.707920015
0.010251000 0.048465874 0.060603876
0.012617063 0.051060937 0.062829308
0.051118128 0.054773625 0.063291624
0.111172885 0.059191126 0.063061371
0.169816509 0.061643001 0.063061371
0.224848121 0.062878005 0.060430437
0.273830146 0.061934374 0.058023877
0.318059832 0.060537998 0.055660002
0.356972158 0.060016502 0.053544875
0.391552299 0.060089875 0.052039690
0.422274500 0.060313374 0.051086750
0.451261461 0.062114254 0.050415125
0.478082001 0.065010004 0.049737375
0.502741754 0.067264818 0.049014997
0.523792803 0.069394998 0.047849499
0.543502867 0.070394754 0.047849499
0.563201785 0.070922501 0.046531122
0.010251000 0.051643685 0.063901253
0.011927500 0.052423377 0.065141499
0.054850250 0.057894003 0.064960442
0.119744129 0.063084751 0.062054753
0.181003302 0.067020811 0.061472874
0.237961441 0.068656877 0.059162062
0.287113696 0.068386555 0.056291375
0.331485599 0.067877062 0.055111751
0.371067464 0.068451434 0.052981377
0.407102644 0.070817187 0.051753126
0.438614547 0.072187811 0.050503999
0.467353255 0.073950998 0.050205123
0.493793696 0.076769121 0.049143251
0.518322527 0.079356693 0.047849499
0.538446188 0.080785751 0.046531122
0.557744682 0.081577942 0.046531122
0.575452507 0.080566943 0.045815937
0.011237125 0.076756880 0.084315248
0.015032313 0.081382185 0.087251186
0.075273007 0.100059748 0.086587623
0.168827638 0.110216618 0.069458067
0.244266644 0.115728378 0.061642006
0.305814683 0.120760620 0.059225626
0.359566271 0.124467626 0.057689127
0.407711506 0.129855931 0.056919500
0.448411137 0.133429125 0.054402001
0.483815134 0.136689752 0.053190999
0.514542639 0.139889002 0.051238626
0.541885257 0.143581748 0.050234750
0.564637125 0.145414621 0.048697375
0.583630323 0.145081684 0.046961002
0.599390030 0.143261373 0.045447875
0.614599288 0.140960947 0.043628622
0.629858017 0.136720240 0.043531500
0.013553813 0.126023561 0.111647002
0.015918877 0.129212886 0.112026505
0.073041625 0.156198636 0.109442569
0.176215649 0.177407891 0.089425005
0.267729789 0.188695207 0.073512755
0.346773565 0.197477072 0.061605312
0.406095028 0.203709081 0.055912565
0.455508322 0.209783837 0.053022310
0.499172598 0.214792579 0.048286624
0.537311554 0.220791712 0.046464816
0.568429232 0.224861473 0.045228314
0.596178770 0.228898019 0.044457875
0.618346453 0.231502399 0.043586940
0.637063742 0.230222315 0.042197812
0.652439713 0.226941675 0.040827934
0.666064143 0.221784562 0.039575562
0.678978562 0.212956458 0.038886752
0.017447498 0.177135244 0.124126755
0.020996124 0.181056932 0.123307310
0.081276126 0.214023381 0.121441379
0.180126339 0.246155024 0.097933009
0.271554410 0.258737743 0.088989124
0.359612882 0.268948942 0.072545126
0.433095396 0.280140907 0.061448757
0.489190400 0.288323164 0.057312995
0.534155488 0.294215024 0.052046880
0.574804068 0.301938444 0.049218126
0.608666539 0.307558119 0.048540503
0.636606753 0.312109381 0.048627749
0.659669638 0.313883483 0.047844753
0.679373801 0.312707067 0.045979373
0.695892155 0.309020370 0.044047497
0.709220409 0.301830828 0.042254001
