public/lut/02.cube
TITLE "17x17x17 Adobe/IRIDAS cube 3D LUT exported with GrossGrade v0.2.2 (beta) 64 bit"
DOMAIN_MIN 0 0 0
DOMAIN_MAX 1 1 1
LUT_3D_SIZE 5
0.011040000 0.050347999 0.051020000
0.193137258 0.067167751 0.038837250
0.379137516 0.075166494 0.034697000
0.509446263 0.089489505 0.033909000
0.593095005 0.097529002 0.035486002
0.023262750 0.183791012 0.104444504
0.265093267 0.256348014 0.050173253
0.528556228 0.302308738 0.023262750
0.666704237 0.333838761 0.026417499
0.732849777 0.318998992 0.031148752
0.072879501 0.361505508 0.127325505
0.348556757 0.450822264 0.046534747
0.551522553 0.482511520 0.077347010
0.720559239 0.505878508 0.108831003
0.806923032 0.482978493 0.103325009
0.136920005 0.477405995 0.241192266
0.420939267 0.552862763 0.140314013
0.642567992 0.601456046 0.180359274
0.723790526 0.620038509 0.299409509
0.838367701 0.629472017 0.366657764
0.691452980 0.740957022 0.612483978
0.716332495 0.746502280 0.613221526
0.783770502 0.761617005 0.619260013
0.836764038 0.779085994 0.644515216
0.873966992 0.800679982 0.707920015
0.010251000 0.050178248 0.102302499
0.131997764 0.062661253 0.119792752
0.352482527 0.054454751 0.114699498
0.471520752 0.052180249 0.099771500
0.550834000 0.054613248 0.078352496
0.011040000 0.149736255 0.190207005
0.236888498 0.256798267 0.223768994
0.527733028 0.267073274 0.183927998
0.637677550 0.259218276 0.146484256
0.686371803 0.213414997 0.098108754
0.036274500 0.343510270 0.201369509
0.331847250 0.467197269 0.246555507
0.570953727 0.499825507 0.278945744
0.714781523 0.505379498 0.255021513
0.799929261 0.466426998 0.193360254
0.140839770 0.491216779 0.306945026
0.421985477 0.580680728 0.375683248
0.655127048 0.628137767 0.347514272
0.729799986 0.633411229 0.405524015
0.841888011 0.635482728 0.397668004
0.688614488 0.740598738 0.619523764
0.717350483 0.751428485 0.629272223
0.783715487 0.765138745 0.631798744
0.837095022 0.781467736 0.652111769
0.874543965 0.802108228 0.711907744
0.010251000 0.051020000 0.188059509
0.115416497 0.059866749 0.213813752
0.342750013 0.058662005 0.231337503
0.466104746 0.051353000 0.224562004
0.553319991 0.047243997 0.180437505
0.011829000 0.116426505 0.265014768
0.142416000 0.204071015 0.331740975
0.474364221 0.234971762 0.352193236
0.597111464 0.202293262 0.312779248
0.644077778 0.144390509 0.200882763
0.016165501 0.304245532 0.366616011
0.219085515 0.433500528 0.410847008
0.541904509 0.522284031 0.466908991
0.709971786 0.504374504 0.438454509
0.795673013 0.433014512 0.308301032
0.088305511 0.473133504 0.384677529
0.416579306 0.581447005 0.470404029
0.613440514 0.641567051 0.522791266
0.734648466 0.657274008 0.539993465
0.849994779 0.658022046 0.493462771
0.675224006 0.735899508 0.638507009
0.707337022 0.750274062 0.649770498
0.780339003 0.777994037 0.678019524
0.839448750 0.791802526 0.683000028
0.878504515 0.810121000 0.731342554
0.011040000 0.058205254 0.256443739
0.088322252 0.060017001 0.278101981
0.358657271 0.067851998 0.319743514
0.470206261 0.064662002 0.322814018
0.542841971 0.062077753 0.298061252
0.012420001 0.104795508 0.312326252
0.069828250 0.146188006 0.349161267
0.393247515 0.194620252 0.409284979
0.555257022 0.192857489 0.410869241
0.608186007 0.126480013 0.336208016
0.016559999 0.244498253 0.406691253
0.117793500 0.362132013 0.463625491
0.481037021 0.495762706 0.538518012
0.685341001 0.514798224 0.552718461
0.767599225 0.410204530 0.460187018
0.031937253 0.426892251 0.488557994
0.258026034 0.546692252 0.531594217
0.565333545 0.629782557 0.594213486
0.707112789 0.687699497 0.630739748
0.858311772 0.671056032 0.612321556
0.627842247 0.718016505 0.650444031
0.671545744 0.735657513 0.669238806
0.769420505 0.780499697 0.708707452
0.844096243 0.810916245 0.738229990
0.886268258 0.825885236 0.767423511
0.012617000 0.063952997 0.303921014
0.056413755 0.061496250 0.317483991
0.309012502 0.067578495 0.374306977
0.483726025 0.083457999 0.409364253
0.543138981 0.084716998 0.408347994
0.014194000 0.090131752 0.339633018
0.024248501 0.084806502 0.339406997
0.235539272 0.084793001 0.385682493
0.482293993 0.083917499 0.412544250
0.546068490 0.085959494 0.411578745
0.017348999 0.186131001 0.411334991
0.028585752 0.198150754 0.426802754
0.224154025 0.230686009 0.470968008
0.534677267 0.325830042 0.545506716
0.722262502 0.435901999 0.599335492
0.024643000 0.338104755 0.503448486
0.053498257 0.370952249 0.521200180
0.359871507 0.482035995 0.590631247
0.644635797 0.571789324 0.666127503
0.823095262 0.682846010 0.731314003
0.058053002 0.513877988 0.581049979
0.513038754 0.692354739 0.678038001
0.664519012 0.746756017 0.729717493
0.795324266 0.807038784 0.787625790
0.891403019 0.847705007 0.831276000
