public/lut/03.cube
TITLE "17x17x17 Adobe/IRIDAS cube 3D LUT exported with GrossGrade v0.2.2 (beta) 64 bit"
DOMAIN_MIN 0 0 0
DOMAIN_MAX 1 1 1
LUT_3D_SIZE 17
0.020502999 0.049669001 0.051020000
0.025036875 0.050347999 0.050389998
0.059717499 0.054773625 0.045007247
0.104066007 0.061784688 0.044004999
0.141672492 0.065505750 0.041948251
0.176985696 0.069133751 0.040217001
0.209407642 0.071909003 0.039429002
0.239820331 0.073935308 0.038640000
0.268042982 0.075167999 0.037852000
0.294021070 0.076383561 0.037852000
0.317734987 0.076661997 0.038147502
0.340730071 0.077308439 0.038640000
0.363606274 0.079701498 0.039429002
0.386979699 0.083053879 0.040362690
0.411518425 0.085789882 0.041758999
0.437656343 0.087436624 0.042516001
0.465555012 0.089599997 0.042516001
0.019763311 0.052919749 0.052961063
0.025776563 0.055914126 0.052961063
0.064995065 0.061114814 0.046313874
0.112991072 0.068854563 0.044096623
0.153815567 0.073606312 0.041185249
0.190802693 0.076559812 0.039675251
0.225260511 0.079902381 0.038689312
0.257866502 0.082782999 0.037852000
0.285499513 0.084136382 0.037852000
0.310791999 0.085441373 0.037852000
0.334881872 0.086533442 0.037852000
0.357483953 0.087147184 0.037852000
0.379421145 0.089800060 0.038640000
0.401620030 0.093097247 0.039429002
0.424645036 0.095177874 0.040217001
0.450208336 0.096709564 0.040994000
0.475020558 0.096868813 0.041041814
0.019714000 0.073369749 0.061932124
0.020552250 0.073880121 0.061346002
0.082551248 0.095755756 0.049044125
0.154966503 0.104044870 0.044278376
0.207936496 0.110498875 0.039915875
0.256001621 0.116507120 0.036619186
0.293473661 0.121464126 0.036372624
0.327193141 0.125496253 0.035140689
0.355246633 0.128677875 0.034894124
0.378996611 0.131303445 0.034894124
0.399756491 0.132797495 0.035584502
0.419837207 0.134028628 0.035584502
0.439992875 0.136894256 0.035880126
0.460009724 0.140223682 0.037161626
0.480141133 0.142326370 0.038049005
0.501366258 0.142329872 0.039429002
0.524995267 0.142124742 0.040994000
0.019566249 0.098301195 0.070560127
0.019664750 0.098301195 0.069633566
0.066311628 0.126256004 0.061558940
0.199567899 0.153057501 0.040007811
0.264793098 0.158696815 0.035534877
0.320489764 0.163481519 0.030508123
0.361008286 0.168012381 0.029128125
0.397478402 0.172423080 0.028043622
0.427274406 0.175457448 0.027107686
0.451795220 0.178453326 0.027107686
0.472540647 0.180505201 0.027107686
0.490641356 0.182149634 0.027895685
0.508214772 0.184545815 0.029029436
0.526087821 0.187577128 0.030409439
0.544976592 0.191016570 0.032726191
0.562347472 0.192104712 0.035830941
0.576436758 0.190139145 0.039722439
0.018926000 0.123973504 0.078615248
0.018926000 0.123735003 0.077338003
0.066469133 0.156815261 0.068816245
0.214087278 0.200803757 0.023164686
0.323474526 0.214786500 0.025431748
0.382862866 0.216947198 0.022868499
0.423906922 0.219078004 0.020404123
0.459263980 0.222206816 0.018876437
0.489227533 0.224545255 0.018728500
0.513353944 0.226700306 0.019517500
0.535259902 0.229379252 0.020601375
0.555573761 0.231726378 0.022277251
0.574599028 0.233928263 0.024051500
0.592224240 0.236879632 0.026812002
0.610357583 0.239770129 0.029472878
0.628065109 0.240661800 0.032381251
0.639966488 0.235786751 0.035683002
0.017348999 0.146890998 0.082735687
0.017890749 0.147075251 0.081392564
0.063541561 0.184902191 0.072485499
0.219456345 0.243952066 0.007787001
0.359880507 0.267112434 0.007934938
0.445427239 0.277374357 0.011236937
0.485491067 0.274613708 0.011779375
0.517620862 0.274661005 0.012321813
0.547233224 0.277060866 0.012321813
0.572014332 0.278647929 0.013799749
0.592964351 0.279888362 0.016313437
0.614071071 0.281898141 0.018383563
0.634762108 0.284870237 0.021489000
0.652813852 0.287504077 0.025628505
0.670132697 0.289740354 0.030163130
0.685798347 0.288486481 0.032923065
0.699360788 0.282878876 0.035486002
0.017348999 0.167323261 0.083916754
0.018087750 0.167620763 0.082764566
0.060342375 0.209516138 0.073761627
0.217543662 0.278173834 0.006850685
0.375090122 0.307761401 0.002366001
0.480160594 0.323588252 0.004238499
0.539829254 0.329718262 0.007097000
0.572472095 0.327293217 0.007886001
0.598685741 0.326725155 0.010251001
0.623916566 0.328564763 0.012518939
0.644865751 0.329701126 0.016855875
0.664808154 0.330861628 0.020453690
0.685257494 0.333653241 0.023854628
0.704127014 0.335821271 0.028240882
0.721449971 0.336106271 0.032725759
0.738618612 0.333548576 0.036520943
0.752435267 0.329228640 0.040407129
0.018137001 0.187195018 0.085677370
0.018137002 0.187275261 0.084745310
0.060437940 0.232234895 0.075218745
0.216238782 0.305410296 0.009166997
0.379245400 0.340816706 0.003351250
0.498439312 0.362316757 0.002366000
0.572777331 0.372422725 0.003203312
0.617965281 0.376809746 0.008329254
0.643178463 0.373558223 0.011483816
0.665051460 0.371826649 0.015426253
0.689758539 0.374469161 0.020108942
0.710249722 0.376726449 0.025825879
0.727648556 0.377341658 0.030902131
0.745948434 0.377848089 0.035831075
0.765870452 0.379012704 0.040582579
0.782971263 0.376870155 0.045672942
0.797245324 0.371528924 0.050202008
0.018926000 0.204173505 0.087187000
0.018926000 0.204554006 0.086127125
0.056208499 0.248418510 0.075849876
0.201478720 0.322500825 0.012814055
0.365169525 0.361996770 0.003943000
0.488862574 0.387162864 0.003154000
0.590491295 0.404889256 0.001084501
0.641608655 0.412228882 0.006456378
0.680397511 0.417067528 0.016954003
0.704947352 0.415494502 0.021981440
0.723762512 0.413961768 0.029768752
0.745839834 0.415385574 0.036372811
0.766539454 0.417461514 0.042290255
0.784110785 0.417698145 0.048515383
0.803144395 0.417827010 0.053467758
0.821377814 0.415619254 0.056873381
0.831794024 0.410805017 0.072031505
0.018926000 0.218884751 0.089544311
0.019664750 0.219293386 0.088700749
0.049846750 0.260918140 0.077886686
0.180151597 0.335652590 0.019714300
0.346276373 0.375890195 0.003943000
0.463260889 0.403057337 0.003154000
0.577084064 0.425973237 0.002218062
0.657228947 0.440697193 0.004139693
0.698625624 0.447506070 0.015328189
0.734901547 0.453860432 0.033612814
0.756353021 0.452476323 0.043002687
0.774704635 0.451090932 0.050757814
0.796517253 0.452816069 0.058246255
0.818171084 0.453997374 0.063028127
0.834862769 0.451570868 0.068539821
0.851835251 0.448376805 0.071883947
0.862176299 0.450497627 0.104201749
0.020009875 0.232703865 0.094465874
0.020009875 0.232703865 0.093922690
0.039986502 0.265540868 0.081886373
0.142030090 0.336465210 0.044160105
0.306194246 0.381230116 0.003745750
0.425314873 0.411502361 0.003154000
0.537485600 0.436562389 0.002366000
0.642092228 0.457544357 0.001577003
0.708517015 0.472308487 0.016461380
0.746143818 0.479852319 0.035781626
0.780532718 0.487055629 0.058674753
0.801537097 0.486900330 0.070839316
0.821411371 0.484688491 0.074931003
0.840784669 0.483779728 0.081507064
0.862710834 0.483022392 0.084176376
0.879943252 0.480696440 0.090046450
0.885477602 0.490561992 0.150186375
0.022080000 0.248349249 0.101693437
0.022080000 0.248204872 0.100940935
0.030951627 0.268282950 0.088475436
0.107380457 0.329858780 0.072945178
0.252534837 0.386672825 0.004830062
0.390880942 0.416662604 0.003943000
0.499341398 0.444167018 0.002907750
0.609224319 0.468532890 0.001577000
0.699595213 0.488944083 0.014736446
0.752362132 0.503241897 0.042644814
0.786297739 0.510302007 0.065997183
0.819476068 0.516146123 0.087977000
0.840901613 0.514401793 0.095938876
0.861090660 0.512455523 0.100365072
0.882988930 0.512816250 0.106864572
0.900351524 0.511956096 0.114812702
0.898193002 0.531063676 0.213699624
0.022869000 0.263263255 0.112380505
0.022869000 0.263199747 0.111717060
0.026910126 0.274596632 0.099010259
0.080206633 0.325173616 0.089023374
0.195126012 0.387982249 0.026378755
0.351817250 0.419961601 0.003696437
0.467380136 0.449765980 0.003154000
0.572553575 0.476023436 0.002119436
0.673844755 0.500586748 0.011631506
0.746010840 0.520748973 0.050206129
0.789882779 0.532530785 0.077911258
0.822516143 0.537775397 0.099440001
0.855359733 0.542624712 0.119120508
0.877756715 0.541805625 0.125217006
0.898421764 0.540029466 0.128772765
0.913861036 0.541069508 0.143354401
0.907744765 0.573819518 0.285831511
0.023804940 0.279709697 0.127364770
0.023854252 0.279583722 0.126756445
0.026614750 0.287796617 0.114625767
0.063172877 0.327522486 0.100298263
0.156823605 0.382339001 0.068894848
0.303786069 0.427900761 0.003795064
0.432634413 0.456891418 0.003154001
0.543963611 0.485195547 0.001922187
0.644505680 0.510125160 0.010004946
0.726210594 0.533583879 0.052852310
0.786140263 0.552937925 0.094441950
0.824465215 0.562477291 0.121742599
0.856276751 0.566601694 0.141747907
0.887770593 0.568861783 0.151799411
0.910280049 0.567825556 0.154861793
0.925848246 0.570740581 0.173306927
0.919020116 0.611747146 0.336741984
0.026910504 0.302053541 0.148854166
0.026910504 0.301854461 0.148603201
0.029078504 0.306459516 0.136617288
0.056245700 0.336581022 0.118564524
0.133561611 0.380073249 0.103305019
0.255560994 0.438926250 0.014786177
0.395650208 0.466856122 0.003548498
0.516209722 0.497241318 0.003154004
0.620646596 0.521264732 0.014095765
0.703467667 0.544329226 0.048647001
0.769036233 0.567059457 0.103696503
0.820506215 0.586891770 0.149577454
0.856263638 0.593511879 0.170977041
0.889741659 0.595953465 0.180939198
0.919370115 0.598992765 0.190719947
0.936382413 0.602164268 0.207500383
0.927878380 0.652975559 0.393606663
0.032479838 0.333333611 0.179396003
0.032529153 0.333142847 0.178995430
0.034549277 0.334057122 0.167263210
0.058677476 0.357599050 0.149325877
0.124000274 0.392505348 0.131641373
0.221645430 0.442032188 0.071889468
0.352414012 0.481801212 0.003203554
0.475580901 0.509542644 0.003548525
0.580024958 0.534964740 0.029128043
0.672049582 0.558394313 0.060105164
0.750407457 0.581696510 0.107096888
0.807005763 0.601455927 0.158927947
0.856143832 0.620698750 0.204615593
0.892483473 0.627519608 0.225014955
0.920752823 0.631292641 0.235639960
0.944340229 0.636071861 0.249379978
0.936378241 0.697927237 0.453298390
0.232443005 0.514958978 0.367962986
0.232598633 0.514958978 0.367962986
0.238621622 0.517295599 0.368407875
0.256974459 0.523959816 0.370238394
0.292168498 0.535451531 0.373364002
0.338452369 0.549698591 0.378671736
0.393217266 0.567078590 0.385466129
0.450842589 0.595009863 0.369393051
0.529860020 0.624021530 0.339520007
0.613156974 0.644423306 0.343792677
0.684630990 0.661177993 0.375999629
0.749798357 0.675021887 0.391120553
0.809859514 0.691698492 0.425852776
0.862049043 0.711349368 0.460130095
0.895479620 0.726742625 0.490828514
0.918010592 0.741398871 0.524702132
0.930795014 0.756623030 0.565980971
0.018975250 0.049669001 0.055407625
0.022770438 0.050347999 0.058389060
0.056788690 0.053651001 0.054887563
0.100100443 0.060758125 0.050845250
0.136534885 0.064378999 0.048246626
0.170755371 0.067167744 0.044780377
0.202562556 0.069869563 0.043864623
0.232315138 0.070927620 0.042701378
0.260418177 0.071941063 0.041662626
0.285480052 0.072718002 0.041613374
0.308927178 0.073070809 0.041662626
0.331586987 0.072749630 0.041662626
0.354332805 0.073933624 0.042420875
0.378250897 0.076844499 0.043169938
0.402387142 0.079309128 0.043911938
0.428368449 0.080323689 0.044645872
0.457320511 0.083513558 0.045371875
0.018186312 0.052836124 0.057777878
0.022770436 0.055914126 0.058956247
0.061163567 0.061776876 0.054286812
0.111809812 0.068887256 0.049580313
0.150898010 0.072710119 0.046889376
0.189043447 0.075756058 0.044095185
0.223205373 0.078673691 0.043122128
0.254342616 0.081443630 0.042372312
0.282606572 0.083247438 0.041662626
0.308341950 0.085078120 0.041662626
0.333094120 0.087482192 0.041662626
0.356540054 0.088801131 0.042372312
0.379252166 0.090881631 0.043122128
0.402446836 0.094048247 0.043911938
0.425037980 0.096487060 0.044645872
0.450807720 0.098448619 0.046045002
0.477983773 0.099956945 0.046757370
0.018975250 0.073880248 0.065217629
0.020552311 0.074388504 0.064726755
0.079966255 0.096513994 0.053628750
0.154084876 0.104700752 0.048420686
0.206403822 0.110901877 0.044276938
0.254193574 0.116188124 0.040214814
0.290967345 0.120850503 0.039477501
0.324067444 0.124802507 0.038246062
0.351776302 0.127609998 0.037901249
0.375350207 0.129835829 0.037901249
0.396982372 0.131608993 0.037950560
0.417239636 0.133471936 0.037950560
0.437647969 0.135821804 0.038689312
0.458071917 0.138888881 0.039625254
0.478379697 0.140976936 0.040993251
0.499640733 0.141280308 0.042419065
0.523855567 0.140542686 0.043864623
0.018926000 0.098673575 0.072548814
0.019664750 0.099757694 0.072548814
0.063712314 0.125602797 0.064936690
0.198155463 0.153802082 0.042316057
0.264763296 0.159562945 0.038343247
0.319723964 0.163787827 0.033415746
0.360923588 0.168421641 0.031394936
0.396607935 0.172479823 0.030163122
0.426690459 0.175653189 0.028733874
0.451202154 0.178379580 0.028240936
0.471779525 0.180308938 0.028635373
0.489641607 0.181985021 0.029522063
0.506963193 0.184393883 0.030507999
0.524880648 0.187117770 0.032036003
0.543662190 0.190560579 0.034451004
0.561020792 0.191858456 0.038098376
0.575469792 0.189502329 0.041184250
0.018186312 0.124036133 0.080086499
0.018926000 0.124893442 0.080086499
0.063009873 0.155472815 0.072174251
0.210452899 0.200945988 0.025529999
0.323161364 0.215762675 0.027698936
0.382380754 0.217495695 0.025135936
0.424118906 0.219574064 0.022080438
0.458901525 0.222567201 0.020404188
0.488867700 0.224912375 0.020206938
0.513483763 0.226859450 0.020601436
0.535233080 0.229598463 0.022129500
0.555568218 0.232037053 0.023755688
0.574257076 0.234162927 0.025579188
0.591834784 0.236941516 0.027895877
0.610032678 0.239887878 0.030803379
0.627479851 0.240769744 0.033366509
0.639429212 0.235602066 0.037013687
0.017348999 0.146960750 0.084913693
0.017348999 0.147669256 0.084488250
0.060341131 0.183360621 0.075744376
0.214622036 0.243816450 0.009610501
0.357451349 0.267517060 0.009462688
0.444685698 0.278243423 0.013257813
0.485539615 0.275317788 0.014046500
0.517343879 0.275393128 0.014342001
0.546600163 0.277540624 0.014342000
0.572106123 0.279182017 0.015130688
0.593214810 0.280263960 0.017792189
0.613860786 0.282312989 0.019911312
0.634549320 0.285261810 0.023016689
0.652736783 0.287819088 0.026910443
0.669901311 0.290051818 0.031345818
0.685489774 0.288486153 0.033859689
0.699077725 0.282827556 0.036767188
0.017348999 0.167030126 0.085367061
0.017348999 0.167872891 0.085367061
0.057015002 0.207219332 0.076409191
0.210937738 0.277370572 0.008575685
0.371333390 0.307560623 0.002366000
0.478221983 0.323744774 0.005026874
0.539343655 0.330428004 0.008575438
0.571526706 0.327881217 0.010103188
0.598009169 0.327376008 0.012124375
0.623746276 0.329327941 0.014440626
0.644738555 0.330400586 0.018334316
0.664531708 0.331475377 0.021932440
0.684912562 0.334173262 0.025382318
0.703910828 0.336111784 0.029719319
0.721187472 0.336307824 0.033859443
0.738471210 0.333717078 0.037260257
0.752194107 0.329296142 0.041131504
0.017398251 0.186799943 0.087574057
0.017841501 0.187472135 0.086909182
0.057450060 0.230139330 0.077518001
0.209099144 0.304319233 0.011532933
0.375560194 0.340656579 0.003351250
0.495473295 0.362138331 0.002366000
0.571661115 0.372517973 0.003696375
0.616922379 0.377238542 0.010547003
0.641981900 0.374007404 0.013701377
0.664550543 0.372456193 0.017545877
0.689295352 0.375034273 0.021882879
0.709806144 0.377217054 0.027304318
0.727258861 0.377775580 0.032429881
0.745625854 0.378116190 0.037309512
0.765532255 0.379227161 0.041974328
0.782690704 0.377039999 0.046386633
0.796951294 0.371545404 0.051566444
0.018186312 0.203814253 0.088864498
0.018580813 0.204554006 0.088208124
0.053124122 0.246065989 0.078191623
0.194559783 0.321121991 0.015475743
0.361693978 0.361695021 0.003943000
0.486631185 0.387116611 0.003154000
0.589364290 0.405027986 0.001084501
0.640849769 0.412669510 0.007590129
0.679472148 0.417583078 0.018827377
0.704233587 0.415946186 0.024248816
0.723031700 0.414331824 0.031542815
0.745242774 0.415754408 0.038094066
0.766115725 0.417754769 0.043739192
0.783741593 0.418038100 0.049843758
0.802804172 0.417991698 0.054713443
0.821139276 0.415805757 0.058340009
0.831520677 0.411046803 0.073512197
0.018926000 0.218884751 0.091157250
0.019270750 0.219635680 0.090540878
0.047394440 0.258813322 0.079520568
0.175011531 0.334178835 0.023061549
0.343496770 0.375683367 0.003943000
0.461777627 0.403187424 0.003154000
0.576172471 0.426189423 0.002218062
0.656861663 0.441131324 0.004583507
0.698059082 0.447974235 0.017249940
0.734232664 0.454353005 0.035830937
0.755708218 0.452825874 0.044693191
0.774194598 0.451475352 0.052583687
0.796055913 0.453100622 0.059491314
0.817752063 0.454234868 0.064340755
0.834509611 0.451716393 0.069546007
0.851578414 0.448566437 0.072886758
0.861916542 0.450751513 0.105791815
0.020009875 0.232858941 0.095879935
0.020453688 0.233333245 0.095648751
0.038289376 0.263798326 0.083251812
0.139023036 0.334850699 0.047667354
0.303308457 0.381103128 0.003745750
0.424573809 0.411722630 0.003154000
0.537147164 0.436933070 0.002366000
0.641965449 0.457949877 0.002020817
0.708153009 0.472738057 0.017939817
0.745695412 0.480246931 0.037255563
0.779986143 0.487360865 0.060228564
0.801045179 0.487139225 0.072306193
0.820874631 0.484898061 0.076366685
0.840390503 0.483951867 0.082581878
0.862433255 0.483215868 0.085139818
0.879780591 0.480852038 0.090904824
0.885217786 0.490903437 0.151518196
0.022080000 0.248540193 0.102535933
0.022080000 0.249163941 0.102535933
0.030261563 0.267581433 0.089781754
0.105738148 0.328684777 0.075156488
0.249970376 0.386620015 0.005175062
0.390520871 0.416904896 0.003943000
0.498618662 0.444429487 0.002907750
0.608921885 0.468832523 0.001133751
0.699212193 0.489295244 0.016214883
0.751994789 0.503552318 0.043653253
0.785895228 0.510643184 0.067418627
0.819171011 0.516391218 0.089059502
0.840597749 0.514556646 0.097106248
0.860778153 0.512571692 0.101486512
0.882795572 0.512984157 0.107599571
0.900188088 0.512139916 0.115501761
0.898042500 0.531296968 0.214603379
0.022869000 0.263433278 0.113369316
0.022869002 0.263666749 0.113040879
0.026910126 0.274059623 0.100418508
0.078902632 0.324590802 0.090268813
0.193198934 0.387481004 0.028345630
0.351170540 0.420135975 0.003696437
0.466679066 0.449953258 0.003154000
0.572122276 0.476242542 0.002119436
0.673592210 0.500883102 0.012370757
0.745648921 0.521003425 0.051111061
0.789599180 0.532808304 0.078820936
0.822184622 0.537963450 0.100571260
0.855144739 0.542788029 0.120056070
0.877553463 0.541973770 0.126089692
0.898224533 0.540152729 0.129623264
0.913751364 0.541240573 0.144168228
0.907660902 0.573948085 0.286448389
0.024445999 0.279969186 0.128261939
0.024445999 0.280219465 0.128204942
0.026565501 0.287512660 0.115899459
0.062178556 0.326927423 0.101103328
0.155764550 0.381759644 0.070837155
0.302927732 0.428150445 0.003252815
0.432188421 0.457033694 0.003449875
0.543671250 0.485481888 0.001626313
0.644235194 0.510361910 0.010744447
0.725922108 0.533762455 0.053956494
0.785898685 0.553122640 0.095359385
0.824188471 0.562672079 0.122680217
0.856052637 0.566746414 0.142470539
0.887595654 0.569022238 0.152536482
0.910140574 0.567983389 0.155599475
0.925759196 0.570845187 0.173921615
0.919020116 0.611795425 0.336942613
0.026910504 0.302213222 0.149622396
0.027009130 0.302357107 0.149404645
0.029078504 0.306354910 0.137656718
0.055750262 0.336366504 0.119314767
0.132786170 0.379765898 0.104618698
0.254645944 0.438880444 0.015820805
0.395250112 0.466986775 0.003154000
0.515804529 0.497336388 0.003597816
0.620049119 0.521386206 0.014835326
0.702975154 0.544443548 0.049338564
0.768785298 0.567185521 0.104248255
0.820179284 0.587022603 0.150203258
0.856132090 0.593697131 0.171615422
0.889669240 0.596052647 0.181373686
0.919285715 0.599091113 0.191288248
0.936347961 0.602300704 0.207875445
0.927830398 0.653019488 0.393762857
0.033218652 0.333550930 0.180221319
0.033218652 0.333652824 0.180221319
0.034598529 0.334192574 0.168194130
0.058145601 0.357599050 0.150172874
0.123467088 0.392421663 0.132511184
0.220924065 0.441811055 0.073540270
0.351767659 0.482034326 0.003548680
0.475119770 0.509663403 0.003253027
0.579334378 0.535013855 0.029817982
0.671508014 0.558451235 0.060662292
0.750096798 0.581812084 0.107765704
0.806809664 0.601554036 0.159411564
0.856018484 0.620792925 0.205151290
0.892427444 0.627615333 0.225347266
0.920651674 0.631381333 0.235955700
0.944340229 0.636117697 0.249666914
0.936378241 0.697964907 0.453368485
0.232443005 0.514958978 0.368053019
0.232443005 0.514958978 0.367962986
0.238491803 0.517247498 0.368522942
0.256817251 0.523959816 0.370340377
0.292193264 0.535519361 0.373612642
0.338279814 0.549672723 0.378781766
0.393243223 0.567131102 0.385807693
0.450702161 0.594990015 0.369614631
0.529627860 0.623975098 0.339718878
0.613040328 0.644443870 0.343891203
0.684497714 0.661195278 0.376175702
0.749705315 0.674971282 0.391158938
0.809752464 0.691728771 0.425928175
0.861987352 0.711357415 0.460157841
0.895504832 0.726643503 0.490731359
0.918010592 0.741478801 0.524702132
0.930795014 0.756623030 0.565980971
0.015081501 0.050347999 0.079738751
0.016609313 0.050305560 0.082446001
0.042390253 0.054051500 0.096853748
0.086774446 0.060163938 0.096896872
0.131405368 0.062733628 0.087986253
0.169195697 0.065470688 0.080613755
0.200610638 0.066756003 0.072816752
0.230237827 0.066824630 0.067192122
0.257876009 0.066824630 0.063196376
0.282981485 0.066824630 0.060467687
0.306241870 0.066616878 0.058784373
0.327848613 0.066097505 0.057872627
0.350018263 0.066409752 0.058402002
0.373198211 0.068461500 0.059692875
0.398666263 0.070135131 0.061467003
0.424546361 0.072201125 0.063061371
0.451455891 0.075230621 0.064129248
0.015721750 0.054691061 0.083616748
0.015032250 0.052222751 0.082352437
0.042439565 0.054213185 0.097230688
0.087857828 0.060385127 0.096840493
0.137430683 0.066368498 0.086716317
0.177078113 0.069628812 0.078827873
0.209746882 0.072158061 0.070546500
0.239398643 0.072836310 0.065081254
0.266855210 0.072904378 0.061611377
0.291197300 0.073162124 0.059311062
0.315109193 0.073959433 0.057913564
0.337552577 0.074433312 0.057257127
0.359655857 0.075185813 0.058023877
0.382010698 0.077446878 0.059090875
0.405860811 0.079763494 0.060917005
0.431130022 0.080718376 0.062015504
0.457554460 0.082629688 0.062561437
0.014194000 0.074321248 0.094452128
0.015721750 0.077540249 0.095926933
0.051501002 0.097784504 0.102233753
0.126415372 0.108210936 0.099395812
0.186654508 0.113188498 0.086519502
0.232406259 0.116198324 0.077230752
0.272753894 0.118677497 0.071182624
0.306471765 0.121257693 0.066010624
0.335667610 0.123777747 0.063558377
0.361020237 0.126069546 0.062405251
0.384944499 0.128716365 0.062189247
0.406292766 0.131009132 0.062483750
0.426950008 0.133814245 0.063061371
0.448302835 0.136583745 0.064311191
0.469680399 0.137533501 0.065479502
0.491259396 0.136352062 0.066415563
0.515968621 0.134422883 0.065410249
0.017201062 0.104596570 0.104044870
0.017348999 0.105973572 0.104348749
0.044294182 0.125645623 0.111430436
0.157004654 0.158511013 0.100795627
0.245448112 0.165914521 0.089399502
0.301278770 0.169141769 0.077563189
0.346171409 0.172283873 0.067951247
0.381135345 0.174010262 0.060869001
0.409895360 0.176112130 0.058488436
0.433782905 0.177905202 0.056263249
0.455210388 0.180419326 0.056031123
0.473273277 0.182419136 0.056619562
0.490189403 0.184398517 0.057923626
0.508156478 0.186530441 0.059788622
0.527242839 0.187874332 0.061574876
0.544569910 0.185527772 0.063209496
0.561407864 0.178836331 0.063138746
0.017447500 0.128048494 0.109152749
0.017546000 0.128879428 0.109177500
0.039711125 0.150533006 0.114237383
0.133966610 0.192037076 0.097034179
0.291687131 0.223551750 0.088358000
0.361462653 0.228053138 0.078088373
0.412280530 0.229833126 0.064387500
0.451621532 0.230644122 0.055027436
0.482576132 0.232226253 0.052094996
0.507589459 0.233324140 0.049541499
0.531153619 0.235538006 0.047960877
0.550884366 0.237145364 0.048059374
0.567870736 0.238543004 0.049786873
0.584352851 0.240070686 0.052252315
0.600029290 0.240972877 0.055354379
0.614185810 0.238295078 0.058081381
