public/lut/03.cube
TITLE "17x17x17 Adobe/IRIDAS cube 3D LUT exported with GrossGrade v0.2.2 (beta) 64 bit"
DOMAIN_MIN 0 0 0
DOMAIN_MAX 1 1 1
LUT_3D_SIZE 5
0.020502999 0.049669001 0.051020000
0.141672492 0.065505750 0.041948251
0.268042982 0.075167999 0.037852000
0.363606274 0.079701498 0.039429002
0.465555012 0.089599997 0.042516001
0.018926000 0.123973504 0.078615248
0.323474526 0.214786500 0.025431748
0.489227533 0.224545255 0.018728500
0.574599028 0.233928263 0.024051500
0.639966488 0.235786751 0.035683002
0.018926000 0.204173505 0.087187000
0.365169525 0.361996770 0.003943000
0.680397511 0.417067528 0.016954003
0.766539454 0.417461514 0.042290255
0.831794024 0.410805017 0.072031505
0.022869000 0.263263255 0.112380505
0.195126012 0.387982249 0.026378755
0.673844755 0.500586748 0.011631506
0.855359733 0.542624712 0.119120508
0.907744765 0.573819518 0.285831511
0.232443005 0.514958978 0.367962986
0.292168498 0.535451531 0.373364002
0.529860020 0.624021530 0.339520007
0.809859514 0.691698492 0.425852776
0.930795014 0.756623030 0.565980971
0.016559999 0.054295000 0.126378745
0.099965751 0.058053002 0.161549509
0.263337761 0.063952997 0.145265505
0.370134771 0.059566248 0.129807249
0.477200747 0.069068000 0.141657263
0.017348999 0.129933745 0.180515260
0.168333247 0.231003240 0.231381506
0.438983023 0.251056522 0.191881254
0.530986786 0.245886773 0.158794001
0.604117513 0.227483749 0.148273006
0.018728750 0.224436492 0.210321501
0.145542264 0.319195986 0.211425245
0.598716021 0.453670025 0.249960750
0.735191762 0.455953002 0.218775257
0.809862018 0.439833522 0.221117020
0.024248751 0.292159498 0.221870273
0.089757502 0.356707007 0.208859518
0.572354794 0.518291473 0.174339503
0.816155553 0.566052794 0.255601496
0.901532531 0.589196563 0.342108011
0.236258000 0.524580956 0.392470986
0.273372769 0.539498746 0.398102224
0.506112754 0.624722481 0.392962962
0.796408474 0.698296487 0.448922276
0.927771211 0.761281013 0.579917014
0.018137001 0.063667499 0.194745988
0.065702751 0.054933999 0.217072487
0.270724535 0.063094005 0.263641506
0.387995511 0.061495498 0.273293257
0.475975513 0.069470003 0.278429508
0.021291999 0.140777752 0.255643725
0.072213247 0.208616495 0.299784243
0.398614258 0.278231740 0.382228732
0.520088255 0.242138252 0.349698544
0.588026285 0.206355751 0.313945234
0.024051500 0.249114990 0.336069971
0.078559257 0.333544254 0.372156501
0.430502057 0.476279497 0.431665510
0.657584250 0.492009997 0.435301214
0.756284535 0.441543519 0.369858027
0.038048752 0.370304495 0.392531276
0.105849013 0.419134527 0.395007521
0.426681727 0.531890988 0.451075017
0.740718246 0.621292472 0.486166745
0.886534214 0.633170009 0.473079026
0.247447491 0.557619452 0.473859012
0.288293779 0.572245300 0.477173984
0.452127010 0.627385497 0.502120495
0.743776500 0.724104047 0.532664716
0.916382492 0.782496452 0.638090014
0.021291999 0.081244998 0.247689247
0.049414001 0.060462996 0.248526990
0.242325276 0.064519003 0.308781773
0.407358766 0.076536752 0.340428263
0.477969229 0.080415249 0.347753495
0.023657000 0.158626258 0.310497999
0.044510499 0.196595997 0.327074230
0.250190020 0.220060244 0.389419258
0.500446022 0.251778007 0.430249989
0.536819756 0.164810240 0.385376006
0.026023000 0.255903721 0.381507009
0.055013500 0.315161765 0.402757227
0.338544518 0.452503741 0.484843731
0.617729008 0.517495751 0.555777788
0.727746010 0.435496509 0.496022493
0.039820254 0.390819758 0.470557779
0.125327259 0.453892261 0.485584259
0.412370265 0.559381008 0.543265283
0.604090095 0.631179512 0.565390289
0.839228749 0.649379015 0.591834545
0.319411755 0.611158013 0.564693749
0.367137253 0.628814042 0.575600982
0.499954015 0.678472281 0.608557224
0.693716049 0.755100250 0.643334985
0.890660763 0.812277794 0.732065797
0.022869000 0.097529002 0.286327004
0.038049001 0.064943999 0.272517979
0.210000008 0.066475496 0.332634985
0.389929265 0.094261996 0.380621493
0.481097013 0.089165002 0.388933986
0.025234001 0.173002496 0.349858493
0.030162752 0.167495996 0.340745479
0.142659500 0.136053503 0.355282247
0.387308508 0.093530253 0.381867498
0.482755005 0.089165002 0.389968991
0.028388999 0.270630002 0.422510505
0.035091504 0.288750231 0.427852482
0.203868002 0.398809552 0.505172014
0.502914011 0.439912528 0.568597317
0.677520990 0.396896005 0.556463480
0.039034251 0.381477505 0.495294005
0.063802011 0.409114242 0.501413286
0.331319511 0.543004751 0.589329481
0.586157799 0.624734223 0.671740055
0.804092765 0.642490745 0.699783742
0.076661997 0.510809004 0.571579993
0.360882759 0.643703997 0.644360006
0.541682005 0.712543011 0.700945973
0.716717005 0.782104254 0.762841284
0.873549998 0.837172985 0.816972017
