public/lut/04.cube
TITLE "17x17x17 Adobe/IRIDAS cube 3D LUT exported with GrossGrade v0.2.2 (beta) 64 bit"
DOMAIN_MIN 0 0 0
DOMAIN_MAX 1 1 1
LUT_3D_SIZE 5
0.022869000 0.045462999 0.046181001
0.191348255 0.049838752 0.028191499
0.350303501 0.041376501 0.018926000
0.470639497 0.041948251 0.022869002
0.599735022 0.038640000 0.030754000
0.086322255 0.162232012 0.059112500
0.306172758 0.215325758 0.012617248
0.537721515 0.252938986 0.003154000
0.671769738 0.284947991 0.001774250
0.775470495 0.260471255 0.001971250
0.277971029 0.397422016 0.005914499
0.491631508 0.443900764 0.001577000
0.710462570 0.484295011 0.001577000
0.807929754 0.491065502 0.002957251
0.861049533 0.456874013 0.044549011
0.413083494 0.520584226 0.003351251
0.578327537 0.553629994 0.007097251
0.761877775 0.594939530 0.031148508
0.869194746 0.610727012 0.068102509
0.882408738 0.601920545 0.267329514
0.533286989 0.663047016 0.311928004
0.559235454 0.672410011 0.320353001
0.657576501 0.704550028 0.378986001
0.791744769 0.750419259 0.454153240
0.918653011 0.804588020 0.583387017
0.020502999 0.046891998 0.104230754
0.083288997 0.053488750 0.145839751
0.277005523 0.045814998 0.170552015
0.447025508 0.025431501 0.165498495
0.568578959 0.025234001 0.162799746
0.026614752 0.157024756 0.181364760
0.178749755 0.223408759 0.209244996
0.427713752 0.246649250 0.217717499
0.591951787 0.263892502 0.214736000
0.749446988 0.253341973 0.198359266
0.130549252 0.374383271 0.236461252
0.349665523 0.441260040 0.248403758
0.580550015 0.494345278 0.259934247
0.710597754 0.499882281 0.245846987
0.831086516 0.476422757 0.249407247
0.294945002 0.504036725 0.240671754
0.446674526 0.553499758 0.234311253
0.640398741 0.598126233 0.264847487
0.786064506 0.619400263 0.278354496
0.876765251 0.607331753 0.321633995
0.508794248 0.658358216 0.363082498
0.539814711 0.671641231 0.358892500
0.642531514 0.708213747 0.404655516
0.785359740 0.754301786 0.477064490
0.916924238 0.807004988 0.597084522
0.021291999 0.050683998 0.179679513
0.047565501 0.050178248 0.200594991
0.186360985 0.057129502 0.226205498
0.351886272 0.056192752 0.265648007
0.522974014 0.039823003 0.291212022
0.026614752 0.158818275 0.284695506
0.103937253 0.207261503 0.303438008
0.306187272 0.239700004 0.341954768
0.496797264 0.248254493 0.366609514
0.706264496 0.209036261 0.333014727
0.042890001 0.340401024 0.402653515
0.198879749 0.413706273 0.417146504
0.438766539 0.475584507 0.436787009
0.607072234 0.479493022 0.432333231
0.806816936 0.452573031 0.373572528
0.111200005 0.478676498 0.423287511
0.283295751 0.528508246 0.446510494
0.517670035 0.585633039 0.479894012
0.691348255 0.627520800 0.490239739
0.865382791 0.620127261 0.436668754
0.417544484 0.641610503 0.475479484
0.453106999 0.651831985 0.481759965
0.582893014 0.706480026 0.508030534
0.755996823 0.766509473 0.554250777
0.914013982 0.818162501 0.650331497
0.024445999 0.065364257 0.260258496
0.030754250 0.051185001 0.235438749
0.133465260 0.060314000 0.267035246
0.302649260 0.063092753 0.317647219
0.459736228 0.067846254 0.351016492
0.029177001 0.174159512 0.361793756
0.059002001 0.199129745 0.350028008
0.204417020 0.208815023 0.368065745
0.392260730 0.233349755 0.406637013
0.563507736 0.166251510 0.400829226
0.039034501 0.326212257 0.463275015
0.126041740 0.385632038 0.465426266
0.350358486 0.449104249 0.487344235
0.504222035 0.473728776 0.515403271
0.742502272 0.421927273 0.469920009
0.046714246 0.431692243 0.522945464
0.158822238 0.505204022 0.529708683
0.414790273 0.568902731 0.556008518
0.584577680 0.618827522 0.576745749
0.831360817 0.604948521 0.538989544
0.235540241 0.619782507 0.556481719
0.292770267 0.640950263 0.570638537
0.475664020 0.701735735 0.616993487
0.701222777 0.775886476 0.679054737
0.903047979 0.831225216 0.732985973
0.027600000 0.086071998 0.328247994
0.024445999 0.053002000 0.267854005
0.087117508 0.063094005 0.301660508
0.246077508 0.080415249 0.365048259
0.417806000 0.073648997 0.405362993
0.030754000 0.188243255 0.417108744
0.030556999 0.160072997 0.376817495
0.076706260 0.134358764 0.355899483
0.236994505 0.079814002 0.367229760
0.420354247 0.073648997 0.407667756
0.037062999 0.314421475 0.504950523
0.042315252 0.323733032 0.497371972
0.121611014 0.364354521 0.512356043
0.303673983 0.384364754 0.530951977
0.565797508 0.400149524 0.567538977
0.040994000 0.394955993 0.560065985
0.050154503 0.423444510 0.562542319
0.195494011 0.510982037 0.602655292
0.423693031 0.566785812 0.653105021
0.688253760 0.595322251 0.684634030
0.043264002 0.441482008 0.581049979
0.096455008 0.561769247 0.637179017
0.269069016 0.661955953 0.694337010
0.604901552 0.767979741 0.768655777
0.885127008 0.842646003 0.823904991
