public/lut/04.cube
TITLE "17x17x17 Adobe/IRIDAS cube 3D LUT exported with GrossGrade v0.2.2 (beta) 64 bit"
DOMAIN_MIN 0 0 0
DOMAIN_MAX 1 1 1
LUT_3D_SIZE 17
0.022869000 0.045462999 0.046181001
0.025924439 0.046847560 0.046847560
0.061332755 0.046803124 0.040314127
0.123406194 0.049669001 0.034992687
0.191348255 0.049838752 0.028191499
0.247067302 0.047111999 0.022326563
0.288260639 0.044279873 0.019221500
0.319978416 0.042090189 0.018580813
0.350303501 0.041376501 0.018926000
0.379793793 0.041758999 0.019714000
0.409367144 0.041472126 0.020502999
0.439908504 0.041233063 0.021291999
0.470639497 0.041948251 0.022869002
0.504486322 0.043264002 0.024593752
0.539191782 0.043170497 0.026121629
0.569708407 0.040945433 0.028388999
0.599735022 0.038640000 0.030754000
0.023657000 0.048161939 0.046847560
0.025924439 0.049495440 0.047552001
0.063859373 0.051432375 0.040409751
0.126980767 0.055246126 0.034992684
0.197214514 0.056581378 0.026614500
0.258487582 0.054208063 0.020059124
0.303534895 0.052707750 0.016905125
0.338415891 0.051589813 0.017398249
0.369400680 0.051005688 0.017398249
0.399494261 0.052248187 0.018186312
0.429822296 0.053184126 0.018975250
0.459868371 0.053184126 0.020009873
0.490237325 0.055025749 0.021341249
0.520967424 0.056243502 0.022277253
0.551833391 0.054910619 0.024495250
0.581092119 0.051830120 0.026121628
0.608457744 0.047278501 0.028438250
0.034204125 0.068095624 0.052754249
0.035042375 0.068636812 0.052754249
0.071834251 0.078736253 0.046269875
0.143708184 0.086726680 0.035830997
0.216056138 0.090548374 0.023854749
0.293717891 0.093631685 0.012518938
0.351821631 0.097676255 0.009068375
0.400496721 0.103882127 0.008969751
0.441018105 0.110283501 0.009758750
0.474545687 0.115709871 0.010546749
0.505676866 0.119950622 0.011335750
0.535041571 0.123683691 0.011582312
0.563560247 0.126558632 0.012912750
0.592604280 0.127943307 0.013948001
0.620003998 0.126249000 0.016066751
0.644878507 0.119962990 0.018432749
0.670845985 0.110482752 0.020798750
0.053689003 0.107577883 0.060239561
0.053775381 0.107233763 0.059077434
0.100392886 0.123793200 0.045816876
0.174847901 0.137486011 0.035436310
0.254896462 0.145075202 0.020207435
0.332479537 0.150079504 0.006702811
0.393941790 0.159010634 0.003154000
0.449123591 0.169995770 0.003154000
0.495561779 0.180663958 0.003301938
0.532826424 0.190704688 0.003301937
0.565961897 0.198932946 0.003301937
0.596544266 0.204962134 0.003449687
0.624973238 0.210427448 0.003449687
0.652384102 0.213632762 0.003597625
0.678757727 0.210634932 0.004632876
0.703781426 0.201118052 0.007589938
0.730104208 0.189166948 0.010694623
0.086322255 0.162232012 0.059112500
0.086322255 0.162132636 0.057820123
0.134275511 0.179448500 0.038507245
0.227069527 0.201717436 0.025875183
0.306172758 0.215325758 0.012617248
0.380933672 0.220416382 0.004977562
0.436251521 0.229099005 0.003351250
0.487973660 0.240848377 0.003154000
0.537721515 0.252938986 0.003154000
0.578507900 0.263247013 0.002366000
0.613227129 0.273881137 0.002366000
0.643693507 0.281362146 0.002366000
0.671769738 0.284947991 0.001774250
0.698466599 0.287099808 0.001429248
0.724011779 0.285441130 0.000788999
0.750416279 0.277136326 0.000049315
0.775470495 0.260471255 0.001971250
0.129589245 0.226357058 0.046777375
0.129979253 0.226048946 0.045214001
0.183762625 0.243121624 0.024692563
0.274088502 0.264899284 0.013947749
0.366531491 0.288309127 0.006210063
0.435758561 0.299715102 0.002069812
0.488530338 0.302903861 0.002366000
0.536880255 0.310893238 0.002366000
0.582405031 0.323041797 0.002366000
0.623197079 0.333468825 0.002366000
0.656989753 0.341102868 0.002070125
0.684949636 0.346944124 0.001577000
0.710472882 0.350637257 0.001577000
0.735509276 0.351528645 0.000789000
0.761199236 0.348752558 0.000789000
0.783614337 0.338030070 0.001330751
0.806721270 0.319910556 0.001577000
0.177976385 0.289109886 0.031937122
0.178723276 0.288933724 0.030409370
0.239400774 0.306157291 0.011926997
0.325137585 0.325879067 0.006407060
0.411904633 0.346974522 0.002661499
0.488146007 0.364791781 0.001577000
0.540903509 0.372227252 0.001872875
0.586552739 0.376843899 0.002365999
0.628587782 0.384751022 0.001872875
0.666515708 0.394122213 0.001577000
0.698050976 0.400582761 0.001577000
0.724394381 0.404548645 0.001577000
0.748418450 0.407423019 0.000789000
0.769143522 0.407274753 0.000789001
0.789430141 0.400761008 0.001675627
0.810964584 0.388160557 0.002858501
0.835848510 0.373951882 0.002858501
0.227420852 0.347605765 0.018285055
0.228000730 0.347435415 0.016806617
0.289973021 0.362745345 0.004928685
0.374640852 0.381987661 0.001922188
0.453578919 0.400143534 0.001577000
0.527886629 0.417492896 0.001577000
0.590338945 0.430140138 0.001576999
0.633448601 0.434826225 0.001577000
0.671128392 0.437470704 0.001577000
0.702856719 0.441197604 0.001577000
0.732724011 0.447960049 0.001281500
0.759271741 0.452914357 0.000789000
0.780447125 0.452636331 0.001232251
0.799128413 0.449773341 0.002020816
0.815883756 0.445157140 0.004928693
0.834874749 0.434342891 0.007984066
0.855522633 0.417664170 0.009758762
0.277971029 0.397422016 0.005914499
0.279207587 0.397386700 0.005174812
0.337827265 0.409295142 0.002267375
0.419049233 0.427231580 0.002366000
0.491631508 0.443900764 0.001577000
0.558471560 0.458474517 0.001577000
0.625310242 0.473252028 0.001084500
0.673635840 0.481283009 0.000789000
0.710462570 0.484295011 0.001577000
0.740865469 0.486356497 0.001577000
0.765285254 0.487992406 0.001577000
0.788031816 0.490511358 0.001823563
0.807929754 0.491065502 0.002957251
0.825489521 0.487838447 0.005667754
0.840336084 0.482474029 0.011237131
0.852262378 0.473204911 0.018580819
0.861049533 0.456874013 0.044549011
0.323922068 0.437814176 0.003943000
0.325104624 0.437724948 0.003548500
0.379619002 0.448511034 0.002366000
0.457890421 0.465876371 0.002366000
0.524808168 0.480522305 0.001577000
0.588307261 0.494145870 0.001577000
0.647228301 0.506293535 0.000789000
0.702818036 0.517454565 0.000000001
0.740758419 0.522668242 0.001577000
0.772038043 0.524080932 0.001922188
0.795664966 0.524134159 0.002366000
0.813909948 0.523824096 0.004780875
0.830804586 0.524051726 0.008526378
0.845309258 0.522281528 0.016214756
0.857415020 0.515337944 0.024889695
0.866865456 0.505549908 0.035682134
0.866497099 0.495651811 0.090322249
0.363519996 0.470737487 0.004731000
0.364362806 0.470506668 0.003992250
0.413496494 0.479704380 0.003154000
0.487337440 0.496306360 0.002366000
0.550446749 0.509461641 0.002366000
0.608910918 0.521619022 0.001872875
0.663839519 0.532887757 0.001577000
0.715538859 0.543217242 0.001380375
0.760433972 0.552366138 0.003055876
0.790063381 0.554997861 0.006111375
0.817400873 0.555748343 0.006111375
0.836064577 0.555334032 0.011089312
0.848111391 0.553740919 0.022178378
0.858345568 0.551087022 0.034350079
0.868920505 0.546217322 0.046000637
0.879002154 0.536777258 0.056573261
0.871119142 0.530347228 0.141661003
0.394292355 0.498555243 0.003696437
0.395090878 0.498427033 0.003696437
0.438820988 0.505567789 0.003943000
0.507490575 0.520957649 0.003400563
0.567982674 0.533680856 0.004189250
0.622574747 0.544989467 0.005224125
0.674071431 0.555661082 0.006259376
0.721385539 0.565644681 0.010103440
0.764591336 0.574839175 0.013060875
0.801165819 0.582872987 0.018038314
0.825824440 0.584265530 0.023559062
0.848409951 0.584046304 0.027698375
0.861393452 0.582430065 0.040800758
0.868972898 0.579275310 0.058217015
0.878237188 0.575498581 0.072568201
0.889098346 0.567935646 0.084609129
0.876578748 0.564754367 0.200991631
0.413083494 0.520584226 0.003351251
0.413698733 0.520528615 0.003154001
0.451902092 0.525904417 0.003153999
0.518633842 0.540583491 0.004583250
0.578327537 0.553629994 0.007097251
0.631172776 0.564740837 0.011384940
0.679680705 0.575263143 0.016165379
0.722561538 0.585393131 0.023608070
0.761877775 0.594939530 0.031148508
0.798980236 0.603821278 0.036208507
0.828782201 0.611109138 0.049035259
0.848855138 0.611454725 0.059730947
0.869194746 0.610727012 0.068102509
0.878910422 0.608639240 0.085126035
0.887182772 0.604746997 0.104289524
0.896666408 0.598931611 0.121635266
0.882408738 0.601920545 0.267329514
0.427069753 0.540618300 0.008181693
0.427536130 0.540558517 0.007442005
0.458399892 0.544726014 0.003301942
0.523319304 0.558917522 0.005372256
0.582486451 0.571677268 0.011730194
0.634217680 0.582943022 0.020355010
0.679867327 0.593562424 0.030754395
0.720227003 0.603988826 0.041702084
0.756878018 0.613922954 0.052077897
0.790250599 0.623439729 0.063656025
0.821003795 0.632140875 0.075751968
0.847368896 0.639315724 0.093220532
0.866661787 0.639664948 0.108625107
0.883752167 0.638598204 0.123609118
0.894355178 0.636232913 0.144957006
0.905260801 0.630984426 0.159882993
0.894444525 0.640780449 0.316965997
0.435985774 0.560606718 0.011927503
0.436332554 0.560599744 0.011286443
0.459421128 0.562597036 0.007688875
0.520229638 0.575652957 0.012419943
0.580218911 0.588603199 0.019418508
0.631544650 0.600481153 0.030951636
0.675071895 0.611248255 0.044711765
0.714044452 0.621962130 0.059376895
0.748835385 0.632131517 0.073536530
0.779622078 0.641887546 0.088150896
0.808179915 0.651432872 0.104473159
0.835080624 0.661123693 0.126116410
0.860167503 0.668750763 0.152434558
0.880144298 0.670267284 0.172012001
0.898675501 0.670235157 0.191451445
0.913853884 0.668023884 0.207703933
0.906920254 0.686725438 0.379057050
0.444532245 0.580666542 0.014983037
0.444819063 0.580619335 0.014983037
0.460486263 0.581347585 0.008674038
0.511288822 0.592417657 0.013750600
0.568779647 0.604630351 0.023608221
0.621465862 0.616660237 0.036669102
0.665877819 0.628107071 0.051536229
0.703038335 0.638941050 0.068460666
0.734686613 0.649192452 0.089907914
0.763980806 0.659453034 0.110882722
0.791607261 0.669570565 0.132347211
0.818725348 0.680006206 0.155245095
0.845511794 0.691881239 0.188003555
0.871736586 0.700617909 0.217099398
0.897273481 0.706233323 0.240372151
0.920523763 0.709040761 0.261885911
0.919256628 0.741545916 0.453584522
0.533286989 0.663047016 0.311928004
0.533344209 0.663047016 0.311818302
0.536729336 0.664384007 0.312251627
0.545812786 0.667737901 0.313746482
0.559235454 0.672410011 0.320353001
0.577357829 0.678678811 0.328515828
0.600163400 0.685947597 0.341365993
0.627303839 0.694247723 0.359199047
0.657576501 0.704550028 0.378986001
0.689841628 0.715713799 0.399233997
0.722795963 0.727277398 0.418991894
0.756144524 0.737408817 0.431389511
0.791744769 0.750419259 0.454153240
0.830685198 0.766164184 0.483294457
0.866234183 0.781262517 0.513821781
0.897782624 0.794799507 0.545238912
0.918653011 0.804588020 0.583387017
0.022869000 0.045462999 0.047552001
0.023657000 0.046181001 0.049539439
0.054850254 0.046891998 0.048807625
0.113401331 0.048337188 0.044546064
0.178426370 0.048509501 0.038834937
0.235377371 0.046403188 0.032430500
0.276336521 0.042842813 0.028339498
0.314164698 0.039083000 0.024987623
0.348827064 0.035978626 0.022721125
0.377596855 0.035633877 0.023065874
0.407025486 0.034894187 0.023558438
0.436450660 0.034155440 0.024347438
0.467817247 0.034155440 0.026121689
0.502405584 0.034155440 0.029177129
0.534869611 0.034056813 0.032134812
0.563339055 0.031789437 0.033810377
0.591192365 0.030163126 0.036076877
0.023607749 0.048809748 0.050175998
0.025135439 0.050131999 0.051430378
0.060528558 0.052052375 0.048200127
0.119910143 0.055246126 0.043950502
0.185968742 0.056697436 0.037901249
0.247461811 0.054208063 0.030704875
0.292175978 0.051885251 0.026811812
0.331057370 0.048376184 0.023805059
0.366816849 0.045951940 0.021932125
0.398980200 0.046665248 0.022721125
0.430909693 0.047633313 0.023509188
0.464241117 0.048071750 0.024347438
0.498531461 0.048161939 0.026121689
0.533395708 0.049495440 0.027649377
0.567825496 0.049409937 0.029965943
0.600369871 0.046667118 0.031444438
0.628301322 0.042273752 0.033810437
0.032774996 0.068131812 0.055285752
0.035042439 0.069175065 0.055916190
0.070371062 0.079633936 0.050303251
0.141622394 0.087523192 0.040405810
0.212901503 0.091742128 0.029867124
0.289660513 0.094096817 0.018088125
0.348723501 0.096092246 0.011631499
0.397182107 0.101230249 0.011187876
0.437921941 0.106117189 0.011976812
0.472264946 0.110198632 0.012075374
0.504429102 0.113860756 0.012863439
0.534568131 0.117232509 0.013701688
0.564737320 0.118875504 0.014736250
0.595666707 0.119833559 0.016116062
0.625107288 0.118645057 0.017792502
0.651044726 0.113290496 0.020059127
0.676946223 0.103520624 0.023115374
0.052471321 0.108162887 0.061821625
0.054290507 0.108918577 0.061821625
0.099269502 0.125197247 0.047938436
0.174342453 0.139516190 0.038389623
0.253484190 0.147094265 0.024101060
0.331260145 0.151833147 0.009807624
0.394221932 0.160071075 0.004928311
0.449117035 0.169989124 0.003252625
0.495812178 0.179837197 0.003301937
0.533274353 0.188967824 0.003301937
0.566785455 0.196679071 0.003400436
0.597854078 0.202421263 0.003449686
0.626907468 0.207225695 0.002908062
0.655431807 0.209887519 0.003745561
0.682822883 0.206589192 0.005273249
0.707706869 0.197837263 0.008329439
0.733150423 0.186205506 0.012223185
0.085903190 0.162867993 0.062370375
0.087509118 0.163810566 0.061384127
0.132932127 0.180895761 0.041518629
0.225684896 0.203327060 0.028832182
0.305026650 0.217207894 0.015623374
0.380899191 0.222075447 0.006062250
0.438190579 0.230396509 0.002563000
0.489113599 0.241933629 0.002415250
0.538002014 0.253106236 0.002415250
0.578948498 0.262951791 0.002366000
0.613665342 0.273524195 0.002366000
0.644147515 0.281175911 0.001626312
0.672485113 0.284440219 0.001576999
0.699916899 0.286085367 0.000838250
0.725932121 0.284504831 0.000641062
0.752421498 0.276495457 0.000739688
0.777251601 0.259195745 0.002908000
0.128473431 0.226936504 0.049868252
0.130755812 0.228025377 0.049227942
0.182734072 0.244681805 0.026959127
0.272135645 0.266141802 0.016412310
0.365039766 0.290122896 0.007885499
0.435995311 0.301840603 0.001823563
0.489333272 0.304422051 0.001626312
0.537138104 0.311977386 0.002366000
0.582195640 0.323969305 0.002366000
0.622965753 0.333787888 0.002366000
0.656612098 0.340935290 0.001823563
0.684331775 0.346635044 0.001577000
0.709969699 0.350186437 0.001576999
0.735690594 0.351063937 0.000789000
0.761689484 0.348469138 0.000887502
0.784388542 0.337816685 0.002070189
0.808281302 0.319552958 0.001774250
0.177127451 0.289711446 0.034943871
0.179588526 0.290646017 0.034154933
0.238406777 0.307442009 0.014144810
0.323724777 0.326987356 0.007392996
0.410227269 0.348410547 0.002217812
0.487682432 0.366426587 0.001577000
0.541082799 0.373953879 0.001577000
0.586293459 0.378099144 0.001626312
0.628082871 0.385761648 0.001626312
0.666158080 0.394895762 0.001577000
0.697620988 0.400919467 0.001577000
0.723753870 0.404600829 0.001577000
0.747978985 0.407423019 0.000789001
0.768731952 0.407003880 0.001527750
0.789269447 0.400407463 0.002415190
0.811355710 0.388181567 0.004090375
0.836551666 0.373738647 0.002858502
0.225961208 0.348006338 0.020847991
0.229084969 0.349282444 0.019812804
0.288744897 0.363936037 0.005717059
0.373207062 0.383068442 0.002366000
0.452069730 0.401125818 0.001577000
0.525892556 0.418264061 0.001577000
0.589392781 0.431006670 0.001576999
0.632336736 0.435587794 0.001577000
0.669980049 0.438026100 0.001577000
0.702152193 0.441684186 0.001577000
0.732181132 0.448289990 0.001577000
0.758505344 0.453100413 0.001527750
0.779803395 0.452636331 0.001527751
0.798684359 0.449669331 0.002759940
0.815366507 0.445056856 0.005766508
0.834633291 0.434490293 0.009462504
0.854963303 0.417641461 0.012173576
0.276375502 0.397969127 0.008181437
0.279273510 0.398795635 0.007392937
0.336679399 0.410273135 0.002316688
0.417738110 0.428022742 0.002366000
0.489917934 0.444627643 0.001724937
0.556857467 0.459149659 0.001577000
0.624014974 0.473995835 0.000789000
0.672656119 0.481973261 0.000838251
0.709257782 0.484848082 0.001577000
0.740008056 0.486817509 0.001577000
0.764357030 0.488183558 0.001872875
0.787223220 0.490624338 0.002562938
0.807390392 0.491241753 0.003696252
0.824850142 0.487970293 0.007195942
0.839711726 0.482572317 0.012814509
0.851441741 0.473306924 0.020503009
0.860214651 0.457117498 0.047615319
0.321926355 0.438368201 0.005421438
0.324414879 0.438892454 0.005421438
0.378288627 0.449133337 0.003104750
0.456642061 0.466628760 0.002366000
0.523566186 0.481129408 0.002316688
0.587124169 0.494759560 0.001577000
0.645857990 0.506897986 0.000789000
0.701637387 0.518037915 0.000739688
0.739570439 0.523143291 0.002661438
0.770979881 0.524411082 0.002316688
0.794839680 0.524312437 0.002661500
0.812972784 0.523963928 0.005519750
0.829996884 0.524284840 0.010004816
0.844345689 0.522464991 0.017693380
0.856596768 0.515512884 0.026713010
0.866089344 0.505695879 0.037600946
0.865923345 0.495877236 0.092912808
0.361254930 0.471070498 0.004731000
0.363453060 0.471576303 0.004731000
0.412135690 0.480133891 0.003154000
0.485981256 0.496684402 0.003104750
0.549091458 0.509867191 0.002809250
0.607423663 0.522029459 0.002612188
0.662302017 0.533271968 0.002612188
0.713973820 0.543573320 0.002858812
0.759011686 0.552798510 0.004534313
0.788806140 0.555383563 0.007540563
0.816327751 0.556025624 0.007146562
0.835010767 0.555590212 0.012814312
0.847108245 0.553940654 0.024248566
0.857466638 0.551287889 0.036599517
0.868277550 0.546338975 0.047738321
0.878425121 0.536852479 0.058164198
0.870754659 0.530461848 0.143451884
0.392498493 0.498869121 0.003696437
0.393880129 0.499096304 0.003943000
0.437009424 0.505786777 0.003943000
0.505897224 0.521168470 0.003943000
0.566546559 0.533984959 0.004928312
0.621256769 0.545218647 0.006259375
0.672720253 0.555881262 0.007984377
0.719668567 0.565926313 0.012321565
0.762927055 0.575159550 0.015524937
0.799901724 0.583153903 0.019960564
0.824805021 0.584569573 0.025825564
0.847444475 0.584354162 0.029965812
0.860533059 0.582719207 0.042979065
0.868291795 0.579473615 0.059914827
0.877699196 0.575726271 0.074458137
0.888723195 0.568083048 0.085935511
0.876357079 0.564824998 0.202334821
0.411636204 0.520807266 0.003351252
0.412752748 0.521018684 0.004090688
0.450428009 0.526148081 0.003647124
0.517187595 0.540769815 0.004681752
0.577065945 0.553821802 0.008033751
0.629944921 0.564966917 0.012666378
0.678463459 0.575473309 0.018235819
0.721359611 0.585614920 0.025875071
0.760684848 0.595180988 0.033366635
0.797804654 0.604096532 0.038439378
0.827769458 0.611406386 0.050833382
0.848129928 0.611646116 0.061473880
0.868423045 0.610960603 0.069652393
0.878335774 0.608819008 0.086812779
0.886746645 0.604885578 0.105522901
0.896385193 0.598980844 0.122629322
0.882322073 0.602017462 0.267898440
0.425878137 0.540774703 0.008920442
0.426768363 0.540898025 0.008920442
0.456951499 0.544714868 0.003499006
0.522148132 0.558996439 0.006259569
0.581348300 0.571792424 0.013060882
0.633184731 0.583123088 0.021685697
0.678781867 0.593790889 0.032578018
0.719359457 0.604202569 0.043245774
0.756007493 0.614112973 0.053660464
0.789327502 0.623648286 0.065474711
0.820222139 0.632299781 0.077143773
0.846713006 0.639469147 0.094804846
0.866142750 0.639797390 0.110030115
0.883231103 0.638661742 0.125132933
0.894026160 0.636290610 0.146019429
0.905015647 0.631039202 0.160858482
0.894421220 0.640798032 0.317183137
0.435177386 0.560713470 0.012666378
0.435828865 0.560781002 0.012666378
0.458023250 0.562607527 0.007787375
0.519322097 0.575714707 0.013159503
0.579123855 0.588660300 0.020799069
0.630678773 0.600598574 0.032380819
0.674142778 0.611379147 0.045831893
0.713214874 0.622077525 0.060789902
0.747990131 0.632241249 0.074993901
0.778879285 0.641953468 0.089406520
0.807426751 0.651521146 0.106118590
0.834539473 0.661235809 0.127574340
0.859660327 0.668830216 0.153642491
0.879776359 0.670348823 0.172848806
0.898422718 0.670282841 0.192411512
0.913685322 0.668143570 0.208276048
0.906920254 0.686725438 0.379225940
0.443815172 0.580772996 0.015721787
0.444317549 0.580875158 0.015721787
0.459577501 0.581385195 0.009413725
0.510343552 0.592424393 0.013898415
0.567905784 0.604669392 0.024347035
0.620657146 0.616704881 0.037457164
0.665192127 0.628196120 0.052769665
0.702353060 0.639028430 0.069434918
0.734011829 0.649284363 0.090714045
0.763308883 0.659470260 0.111905970
0.791142225 0.669669867 0.133283481
0.818256319 0.680098534 0.156143218
0.845139146 0.691954732 0.188957855
0.871447086 0.700660706 0.217802092
0.897182584 0.706339180 0.240820095
0.920467556 0.709085345 0.262427062
0.919256628 0.741545916 0.453584522
0.533116400 0.663003862 0.312038630
0.533172607 0.663003862 0.312038630
0.536612093 0.664346635 0.312369615
0.545750082 0.667704225 0.313899279
0.559146047 0.672393084 0.320466489
0.577306271 0.678709090 0.328660816
0.600094438 0.685991645 0.341596305
0.627192795 0.694272459 0.359298378
0.657532930 0.704589844 0.379243076
0.689778805 0.715711236 0.399397701
0.722762704 0.727311075 0.419244826
0.756105840 0.737461329 0.431538552
0.791676641 0.750429034 0.454277635
0.830639601 0.766178250 0.483397037
0.866226196 0.781271756 0.513893366
0.897782624 0.794794977 0.545297861
0.918653011 0.804588020 0.583387017
0.020601625 0.044737998 0.060603876
0.021291999 0.044096623 0.062829815
0.034894504 0.048118751 0.074485622
0.073852010 0.052837498 0.084258690
0.133806244 0.049578752 0.085419625
0.194793195 0.046224564 0.082962684
0.247298896 0.042323373 0.078197002
0.293281347 0.038196750 0.073053434
0.335003912 0.034303002 0.067703754
0.372704506 0.031296436 0.063241564
0.408165634 0.028191624 0.060861252
0.436565161 0.027353751 0.060752690
0.465116262 0.026910502 0.063114628
0.496137410 0.027600000 0.066258997
0.524993896 0.027600000 0.069345504
0.549995542 0.027600000 0.070952624
0.574616253 0.027600000 0.072221249
0.020601625 0.046846684 0.062791750
0.020601625 0.046180561 0.063367002
0.034943815 0.048249561 0.075024500
0.074552953 0.052960314 0.084261492
0.139346942 0.051513001 0.085300319
0.204544246 0.049617875 0.080956690
0.257541388 0.047586564 0.076140508
0.303776234 0.044034749 0.070829250
0.346388966 0.040595938 0.065129064
0.385059446 0.038295001 0.061329942
0.421004623 0.036372811 0.059930749
0.454655647 0.033662502 0.059329499
0.486891806 0.032134812 0.059929941
0.520207107 0.032331876 0.061899561
0.549850047 0.032824315 0.065303065
0.573052645 0.032085497 0.067963444
0.593884647 0.030606186 0.068190195
0.021390500 0.067075871 0.074623495
0.024347374 0.070485748 0.077340066
0.052352626 0.084061377 0.086775497
0.113524646 0.090481691 0.089947686
0.180666268 0.093870372 0.087451369
0.241936073 0.095048755 0.081664249
0.302167237 0.095345378 0.075533748
0.352106273 0.096273877 0.072536625
0.396931648 0.097243883 0.069056503
0.437572658 0.097844377 0.067023627
0.475939631 0.099981122 0.067224629
0.511557579 0.103129625 0.068827063
0.544952095 0.106785506 0.070852876
0.577654958 0.108582810 0.072486006
0.609847903 0.106733009 0.074846253
0.643574119 0.102988496 0.074753687
0.678772628 0.092485875 0.071851254
0.036372941 0.109759763 0.087974243
0.037900761 0.110554263 0.088383377
0.076378569 0.126608253 0.095679879
0.144589722 0.146054074 0.090078555
0.223352462 0.154292256 0.083920620
0.294714272 0.159655765 0.075109877
0.360790998 0.164092749 0.064612061
0.416509300 0.167248264 0.057198998
0.466707975 0.171122059 0.052391123
0.507982433 0.175595388 0.049686123
0.545366943 0.179013819 0.049371123
0.580989599 0.183282524 0.050526500
0.611470222 0.187280953 0.053680621
0.639694393 0.189363018 0.057367377
0.668810964 0.186391130 0.060070310
0.700657368 0.179843605 0.059651751
0.734567881 0.169020206 0.056335248
0.065723754 0.164584130 0.098109499
0.067895435 0.165483311 0.098509371
0.114049755 0.184917748 0.102247626
0.189177394 0.209056184 0.083174564
0.272814274 0.227791637 0.080706626
0.348398179 0.235243797 0.070446000
0.415760517 0.242061883 0.057266247
0.472657442 0.248755246 0.047168184
0.523829997 0.254981011 0.039648499
0.567429304 0.261856616 0.035287499
0.604619741 0.269713879 0.034894500
0.637362421 0.274769574 0.036857314
0.665484786 0.277014643 0.041703753
0.692032278 0.277669847 0.046398759
0.719064355 0.276198387 0.049955882
0.748750865 0.267195016 0.051589247
