public/lut/05.cube
TITLE "17x17x17 Adobe/IRIDAS cube 3D LUT exported with GrossGrade v0.2.2 (beta) 64 bit"
DOMAIN_MIN 0 0 0
DOMAIN_MAX 1 1 1
LUT_3D_SIZE 17
0.036274001 0.040217001 0.040994000
0.038492125 0.040945437 0.040945437
0.063242748 0.040896874 0.035683125
0.117043763 0.043264002 0.031049876
0.177303761 0.045462999 0.026417250
0.236072257 0.043495562 0.019418813
0.278284639 0.041280873 0.016066873
0.312254548 0.038985189 0.014194000
0.340308011 0.037457500 0.014588501
0.369107246 0.037408188 0.014983000
0.398488998 0.038147502 0.016066875
0.429082751 0.037852000 0.017348999
0.461621016 0.038049001 0.018926002
0.497141272 0.039429002 0.020650940
0.537034154 0.040217001 0.022967504
0.572711647 0.038590748 0.025283316
0.605454981 0.035486002 0.028388999
0.037802689 0.044551812 0.042468689
0.039281126 0.045231503 0.042468689
0.065798253 0.047281250 0.037260186
0.121211328 0.051923439 0.031049876
0.183971316 0.054485124 0.024297811
0.247958392 0.054122873 0.017102124
0.297421277 0.053228565 0.013011437
0.334953278 0.053139251 0.011927564
0.368035823 0.052439690 0.012666313
0.398317516 0.053651877 0.013455250
0.429153502 0.056342311 0.014243312
0.460811198 0.057311002 0.015327812
0.492852092 0.058643810 0.016609313
0.525915265 0.060477939 0.018334253
0.560878098 0.061326370 0.020650940
0.593108416 0.057227749 0.022967504
0.623837292 0.051732562 0.025283312
0.050592002 0.069031000 0.048723377
0.051218376 0.069530934 0.048723377
0.079361007 0.080390006 0.041947126
0.138224944 0.089128315 0.034253936
0.205242500 0.095661506 0.024248499
0.276063979 0.098836124 0.011877876
0.341943771 0.104426503 0.004534248
0.393704116 0.110889941 0.002661626
0.438129634 0.118844748 0.004140125
0.474808037 0.126039311 0.005026750
0.508538008 0.133217633 0.005815750
0.540041149 0.138802320 0.006160812
0.571176291 0.143437371 0.007392750
0.602282822 0.146722376 0.008428002
0.634523630 0.146682009 0.010546749
0.662792206 0.139392927 0.013060564
0.690644920 0.127794996 0.016165374
0.076113008 0.118130133 0.055449124
0.076179631 0.118130133 0.055369250
0.104739383 0.129887506 0.043805499
0.180442020 0.148479819 0.031493310
0.247365937 0.158822581 0.020010184
0.327421695 0.165425763 0.004583374
0.384639084 0.171789631 0.000000000
0.436020225 0.181740582 0.000000000
0.487494648 0.193778768 0.000000000
0.530195773 0.204872578 0.000000000
0.566775858 0.215399891 0.000000000
0.600228310 0.224206567 0.000000000
0.632326722 0.230802193 0.000147938
0.662744284 0.236361891 0.000147938
0.693379104 0.236461133 0.000295687
0.722261131 0.226424560 0.002069939
0.750265837 0.212580696 0.005963623
0.115602501 0.183067262 0.049660251
0.115853757 0.182909757 0.048493624
0.149177998 0.195579872 0.032429747
0.227505401 0.215904132 0.020158121
0.313686520 0.237920746 0.008476999
0.381303400 0.248508513 0.001478812
0.437870622 0.251852751 0.000000000
0.486010462 0.260733932 0.000000000
0.532676816 0.272716492 0.000000000
0.576489508 0.284305006 0.000000000
0.615426481 0.294043362 0.000000000
0.648131192 0.303579956 0.000000000
0.679056466 0.310096264 0.000000000
0.708266020 0.312612146 0.000000000
0.737799823 0.312140495 0.000000000
0.765177608 0.303720057 0.000000000
0.792357743 0.285080999 0.000000000
0.164936259 0.252551943 0.034352187
0.165161118 0.252371401 0.033613186
0.204654247 0.265376240 0.016905189
0.281351268 0.284296751 0.007491686
0.364745140 0.305624098 0.001478812
0.441156775 0.324974746 0.000000000
0.496161848 0.333695054 0.000000000
0.541362226 0.337775767 0.000000000
0.584723830 0.345267117 0.000000000
0.625073671 0.356393635 0.000000000
0.662101626 0.365686357 0.000000000
0.692909718 0.372099936 0.000000000
0.721067905 0.376914799 0.000000000
0.746487498 0.379265517 0.000000000
0.772808433 0.375840545 0.000000000
0.798430443 0.364212483 0.000542438
0.824367225 0.346378505 0.000789000
0.217101142 0.318769783 0.019320121
0.217280641 0.318484753 0.018581057
0.259259760 0.330774009 0.005224498
0.338673741 0.349525332 0.000443625
0.413554400 0.367714286 0.000000000
0.486058950 0.385531008 0.000000000
0.549227715 0.400124013 0.000000000
0.594365239 0.406496823 0.000000000
0.633794248 0.410452634 0.000000000
0.669759572 0.415657967 0.000000000
0.702839613 0.422657281 0.000000000
0.733303845 0.429787457 0.000000000
0.759692013 0.432704270 0.000000000
0.782639980 0.432584852 0.000000001
0.802989006 0.428235024 0.001380129
0.825658321 0.415967047 0.004188942
0.850509644 0.399130285 0.004139629
0.271009028 0.376533657 0.004189122
0.271796554 0.376589894 0.003745871
0.312050343 0.385261476 0.000000000
0.389250040 0.402924329 0.000000000
0.458014786 0.419400036 0.000000000
0.523755431 0.434933901 0.000000000
0.586695611 0.449706286 0.000000000
0.642050922 0.461469650 0.000000000
0.679337740 0.465451032 0.000000000
0.712523639 0.467937529 0.000000000
0.740786314 0.470373511 0.000000000
0.766682565 0.474363476 0.000000000
0.791556895 0.477529138 0.000443814
0.812184989 0.475152463 0.002168567
0.830882549 0.470115572 0.005815760
0.846929073 0.460790128 0.012518700
0.861870766 0.442482978 0.029867021
0.321173489 0.423048496 0.000000000
0.321390778 0.422972620 0.000000000
0.359147638 0.430040002 0.000000000
0.433204591 0.447452635 0.000000000
0.497485489 0.461884499 0.000000000
0.558198690 0.475896299 0.000000000
0.614701629 0.488349259 0.000000000
0.670276284 0.500296235 0.000000000
0.715242028 0.508907557 0.000000000
0.747699261 0.511482298 0.000000000
0.776678622 0.512821078 0.000295875
0.798049331 0.512916565 0.001035250
0.818206251 0.513615489 0.003351503
0.836301684 0.513131022 0.008969883
0.852748752 0.506834507 0.016165890
0.864318609 0.496889830 0.027403140
0.866923988 0.483890533 0.075475514
0.363274336 0.458815694 0.000789000
0.363549769 0.458747178 0.000789000
0.396842629 0.464550018 0.000000000
0.467111349 0.481198460 0.000000000
0.527893841 0.494718015 0.000000000
0.583517134 0.507036030 0.000000000
0.636894464 0.518561006 0.000000000
0.687021792 0.529156923 0.000000000
0.734691322 0.538984835 0.000000000
0.770495415 0.545384705 0.002266937
0.798728168 0.546730936 0.003055938
0.824103773 0.547132254 0.003548750
0.839864790 0.546205223 0.012074627
0.853294492 0.544306517 0.023115141
0.865529060 0.539887428 0.036956135
0.876762688 0.529414713 0.049040325
0.871492028 0.521256804 0.128075376
0.397480398 0.489091873 0.000493125
0.397776455 0.489028513 0.000493125
0.426457465 0.493228614 0.000000000
0.490814954 0.508189380 0.000295875
0.548869848 0.521241009 0.000295875
0.600893617 0.532501101 0.001084500
0.649885118 0.542983174 0.002168375
0.696908653 0.553062320 0.003696501
0.740516484 0.562579632 0.007097251
0.781515956 0.571442604 0.008230938
0.810747862 0.576084852 0.015476000
0.836022019 0.576770604 0.018876562
0.855557859 0.575997651 0.026614254
0.865376890 0.573154509 0.044961520
0.875241756 0.569021404 0.061685394
0.887416899 0.561126292 0.075587571
0.877049506 0.555684507 0.185369626
0.416631401 0.511526823 0.000000000
0.416916370 0.511467099 0.000000000
0.441417009 0.513983905 0.000000000
0.503661036 0.528163314 0.000789001
0.560831606 0.541339755 0.002415000
0.611283958 0.552286625 0.005273750
0.658278763 0.562711895 0.008822002
0.701729655 0.572733581 0.013701690
0.741367340 0.582365930 0.020946689
0.778788447 0.591546178 0.026515750
0.814634323 0.600471497 0.032873750
0.838845611 0.603460670 0.044653062
0.860767603 0.603074789 0.053582437
0.875450373 0.601373255 0.068923898
0.884375691 0.597288311 0.089723766
0.895320833 0.591045558 0.108929202
0.882660925 0.591217339 0.248856559
0.432108253 0.530814290 0.002563002
0.432330877 0.530757070 0.002020564
0.451477230 0.532407105 0.000000000
0.509981990 0.546031892 0.000641063
0.566405714 0.558487475 0.005323001
0.616794288 0.569904327 0.011730126
0.661362529 0.580020368 0.019123130
0.702196956 0.589971721 0.028142385
0.739146471 0.599962533 0.037054002
0.773871720 0.609551191 0.046631817
0.807387531 0.618825018 0.056804381
0.837124527 0.627447724 0.072745129
0.859736800 0.629155219 0.087172762
0.879874587 0.628336549 0.100953028
0.891245365 0.625661373 0.124597400
0.902193546 0.619909883 0.144696146
0.891597271 0.626545250 0.299623489
0.440304488 0.547830462 0.007244939
0.440521806 0.547753811 0.007097000
0.454944700 0.548142731 0.002612252
0.510408044 0.560532928 0.004879131
0.566194713 0.573254943 0.009955632
0.616812348 0.585166812 0.018630259
0.660191536 0.595458567 0.030014887
0.698872089 0.605656147 0.043229014
0.734823406 0.615672767 0.055091269
0.767677486 0.625564575 0.066872701
0.798179805 0.635466158 0.080979086
0.828207433 0.645150483 0.096128151
0.856199861 0.653807700 0.119849794
0.876242042 0.654728830 0.142488942
0.896303654 0.653856695 0.162608013
0.909704089 0.650412083 0.182540119
0.902615190 0.663610458 0.347425669
0.447878242 0.564476132 0.010349628
0.448001742 0.564521611 0.009709381
0.457804888 0.564228714 0.003548378
0.506509423 0.574992120 0.008378314
0.561880112 0.587061405 0.016067129
0.612154186 0.598578393 0.026269756
0.655596793 0.609702766 0.038931139
0.693301320 0.620020986 0.052805826
0.727688909 0.630246401 0.069097638
0.758553386 0.640195727 0.085265264
0.787513912 0.650150418 0.101473272
0.815777957 0.660492480 0.121413335
0.843808889 0.671975136 0.151275799
0.871400952 0.680266976 0.179771557
0.895310044 0.682128370 0.202119827
0.916047633 0.682282865 0.225020498
0.913507640 0.705500662 0.403266430
0.453277737 0.580668807 0.012174069
0.453394294 0.580651999 0.012124753
0.460982949 0.580056250 0.006456522
0.500607312 0.588626981 0.008969833
0.550598621 0.599744916 0.016856119
0.601512074 0.611292124 0.028191425
0.646464050 0.622407496 0.041872241
0.684190035 0.633260131 0.056484807
0.716564298 0.643466711 0.074875049
0.745508432 0.653653145 0.097237863
0.773689270 0.664217591 0.119736366
0.802075326 0.675231695 0.142843112
0.831587911 0.687350094 0.170280993
0.860909164 0.700864732 0.210978210
0.892188132 0.710018873 0.240805969
0.919161916 0.714473665 0.266815722
0.921380699 0.749830782 0.467854053
0.539919972 0.660234988 0.308968991
0.539919972 0.660234988 0.308968991
0.541927397 0.660973728 0.309073120
0.548980951 0.663718939 0.310090244
0.559979200 0.667760491 0.314533234
0.574601531 0.672914386 0.322313130
0.593558967 0.679695785 0.331094891
0.616294026 0.686785638 0.346104980
0.643106997 0.695572495 0.363873482
0.672958851 0.706300557 0.383840352
0.705333114 0.717667401 0.404267997
0.739273906 0.729573011 0.422080368
0.776118755 0.742068231 0.440429509
0.816806614 0.758321404 0.470028400
0.859778166 0.776890874 0.505182564
0.896219313 0.792753279 0.540584803
0.919793010 0.804087996 0.582898974
0.035486002 0.040217001 0.042468689
0.036274001 0.040217001 0.042468689
0.059365373 0.040945437 0.040991314
0.111193508 0.042421374 0.037013751
0.169833511 0.044783309 0.033267811
0.227327257 0.042749751 0.026269376
0.270050108 0.040556189 0.022424936
0.305273920 0.037457436 0.019516872
0.338098407 0.034401562 0.017595123
0.368323922 0.033267874 0.017250374
0.396592498 0.033267874 0.018087750
0.426185817 0.033267874 0.019615438
0.458648562 0.033267874 0.020650938
0.495488793 0.033267874 0.023706378
0.534929156 0.034007497 0.026762629
0.567874253 0.031740125 0.029127754
0.600629747 0.029374188 0.031444438
0.037013683 0.044599123 0.043911938
0.037802689 0.045231503 0.044551812
0.064226814 0.047936000 0.041038062
0.119449697 0.051923439 0.035485938
0.180402368 0.055080436 0.030212374
0.242135823 0.054122873 0.023164690
0.290936053 0.052822940 0.018827436
0.329606891 0.050877124 0.016017623
0.363841385 0.048879936 0.014983000
0.395000279 0.048580691 0.014983000
0.426088512 0.051407501 0.015771000
0.457993448 0.052439690 0.017595250
0.491230696 0.053697687 0.019122999
0.526981711 0.055614501 0.021242687
0.563023508 0.056209125 0.022967504
0.596504271 0.051920310 0.025332630
0.628888726 0.046571188 0.027649313
0.051218372 0.070028253 0.050047621
0.051218376 0.069530934 0.049409501
0.078427441 0.080797747 0.043402437
0.137645185 0.089909375 0.036372684
0.204495013 0.096149378 0.026565189
0.274159819 0.099601813 0.014342375
0.341002136 0.104194634 0.005766124
0.392619640 0.109973498 0.003400438
0.436271638 0.117276192 0.004583438
0.473415375 0.123939693 0.005717125
0.507119775 0.130153432 0.006160875
0.539181948 0.135761693 0.006900187
0.570583403 0.140143186 0.008132376
0.602683902 0.142856076 0.009167003
0.635794461 0.142848805 0.011483626
0.665061235 0.136408553 0.013800190
0.693027079 0.124238871 0.017595373
0.076113008 0.118444510 0.056624126
0.076509506 0.118711010 0.056545626
0.104718566 0.130659580 0.044630125
0.180205464 0.149615824 0.032874055
0.247298762 0.159624696 0.020798374
0.326307744 0.166303143 0.006061811
0.384969592 0.172530577 0.000887500
0.436533272 0.182416141 0.000000000
0.487349004 0.193813264 0.000000000
0.530133128 0.204692200 0.000000000
0.566879034 0.215050623 0.000000000
0.600598097 0.223810121 0.000000000
0.632822454 0.230213389 0.000147938
0.663771331 0.235352814 0.000147938
0.694847047 0.235426262 0.000197188
0.723631978 0.225693628 0.002069939
0.751560211 0.211686999 0.006703185
0.115533128 0.183312505 0.051092245
0.116174005 0.183670446 0.050461307
0.148894116 0.196313888 0.033906750
0.226611078 0.216562241 0.020946186
0.312885106 0.238672450 0.010152686
0.380698383 0.249246314 0.002217750
0.438456416 0.252508700 0.000000000
0.486468613 0.261206061 0.000000000
0.532553375 0.273050100 0.000000000
0.576420903 0.284371555 0.000000000
0.615423620 0.293942392 0.000000000
0.648019731 0.303376406 0.000000000
0.678875506 0.309903890 0.000000000
0.708513975 0.312274814 0.000000000
0.738257587 0.311889619 0.000000000
0.765848517 0.303606182 0.000000000
0.792927146 0.284679443 0.000591750
0.164726675 0.252984643 0.035288874
0.165687874 0.253404200 0.035091877
0.204462737 0.266106784 0.018284937
0.280446053 0.284726888 0.008329187
0.364099950 0.306219608 0.002217750
0.440965176 0.325788319 0.000000000
0.496434808 0.334776521 0.000000000
0.541454673 0.338406056 0.000000000
0.584456384 0.345718741 0.000000000
0.624873161 0.356781930 0.000000000
0.661957622 0.365868092 0.000000000
0.692724466 0.372132957 0.000000000
0.720656455 0.376748085 0.000000000
0.746298313 0.379074186 0.000000000
0.772771120 0.375664741 0.000000000
0.798669577 0.364152670 0.000788939
0.824794173 0.346177816 0.000789000
0.216657072 0.318984151 0.020798558
0.218037084 0.319482893 0.020306058
0.258843511 0.331050843 0.006061809
0.338156730 0.350017756 0.000542250
0.413002640 0.368314385 0.000000000
0.485355943 0.385927528 0.000000000
0.548874557 0.400559664 0.000000000
0.594334781 0.407017142 0.000000000
0.633569300 0.410865963 0.000000000
0.669473231 0.415981472 0.000000000
0.702719748 0.422937036 0.000000000
0.733034313 0.429882079 0.000000000
0.759494603 0.432823151 0.000000000
0.782455146 0.432536066 0.000000001
0.802885592 0.428213388 0.001380130
0.825665116 0.416013151 0.004879316
0.850565970 0.399069101 0.004632753
0.270555645 0.376709163 0.004829809
0.271903992 0.377191573 0.004484996
0.311830968 0.385809332 0.000000000
0.388585836 0.403273106 0.000000000
0.457436711 0.419798106 0.000000000
0.523179591 0.435281277 0.000000000
0.585843325 0.449959785 0.000000000
0.641526461 0.461719334 0.000000000
0.678842545 0.465622902 0.000000000
0.712071061 0.468097627 0.000000000
0.740496576 0.470520169 0.000000000
0.766363025 0.474468678 0.000000000
0.791207552 0.477580160 0.000443815
0.811945081 0.475218087 0.002168568
0.830566466 0.470147073 0.006554885
0.846741199 0.460830718 0.013257887
0.861433625 0.442525715 0.030606708
0.320405155 0.423287332 0.000739688
0.321835071 0.423638910 0.000739688
0.358718514 0.430307627 0.000000000
0.432632804 0.447805882 0.000000000
0.496848494 0.462180555 0.000000000
0.557518423 0.476203322 0.000000000
0.614117622 0.488645911 0.000000000
0.669756770 0.500605762 0.000000000
0.714762688 0.509213150 0.000000000
0.747231901 0.511634648 0.000000000
0.776269019 0.512948155 0.000394501
0.797649622 0.513028324 0.001183001
0.817874193 0.513707519 0.003696252
0.836045146 0.513190508 0.009364196
0.852409244 0.506866634 0.016954266
0.863887131 0.496952981 0.028536392
0.866695166 0.483954668 0.076408073
0.362336367 0.459027171 0.000789000
0.363072187 0.459201157 0.000789000
0.396253228 0.464708328 0.000000000
0.466756523 0.481406122 0.000000000
0.527358949 0.494915038 0.000000000
0.582893193 0.507226527 0.000000000
0.636336863 0.518715024 0.000000000
0.686417699 0.529275835 0.000000000
0.734160006 0.539186478 0.000000000
0.769837499 0.545584083 0.002612125
0.798209310 0.546899974 0.003794688
0.823809564 0.547194481 0.004189312
0.839499772 0.546290278 0.012814315
0.852967799 0.544383466 0.023854580
0.865206599 0.539943218 0.037686449
0.876491189 0.529441059 0.049681075
0.871288538 0.521252811 0.128805622
0.396655321 0.489261687 0.000493125
0.397364259 0.489388466 0.000493125
0.425849736 0.493307769 0.000000000
0.490250617 0.508306921 0.000295875
0.548256397 0.521428704 0.001035188
0.600352883 0.532573342 0.001626625
0.649291635 0.543075860 0.002612188
0.696279407 0.553138971 0.004435814
0.739951491 0.562689543 0.007885749
0.780797184 0.571599007 0.009709376
0.810263932 0.576168001 0.016214751
0.835571587 0.576842964 0.019172125
0.855236411 0.576082885 0.027353818
0.865090728 0.573206604 0.046060644
0.875018060 0.569112420 0.062232204
0.887208045 0.561179399 0.076054886
0.877001882 0.555705905 0.185891628
0.416139841 0.511607468 0.000000000
0.416528583 0.511687160 0.000000000
0.440935582 0.514067233 0.000000000
0.503165662 0.528274894 0.000789001
0.560221016 0.541369438 0.002612250
0.610830903 0.552384198 0.005717000
0.657754600 0.562843084 0.009610689
0.701161861 0.572802901 0.014687004
0.740880013 0.582481265 0.021685626
0.778287411 0.591649115 0.027649438
0.814061582 0.600569606 0.033662125
0.838497162 0.603590369 0.045801815
0.860296607 0.603165448 0.054603003
0.875240684 0.601415515 0.069799148
0.884172142 0.597347558 0.090405770
0.895181298 0.591102540 0.109611452
0.882581890 0.591267645 0.249332488
0.431662738 0.530913115 0.002760252
0.432162553 0.530970991 0.002760252
0.450925261 0.532491088 0.000000000
0.509407640 0.546098292 0.000641064
0.565889478 0.558559477 0.005323001
0.616277337 0.569918096 0.012469126
0.660912871 0.580102146 0.019862128
0.701783240 0.590095699 0.028881758
0.738642335 0.600020707 0.037835006
0.773398995 0.609640718 0.047833256
0.806953490 0.618884563 0.057384565
0.836774826 0.627543449 0.073378816
0.859400690 0.629238009 0.088029452
0.879644156 0.628416836 0.101681463
0.891009450 0.625720263 0.125420347
0.902154922 0.619969070 0.145020455
0.891575933 0.626511574 0.299653500
0.439883560 0.547852397 0.007244940
0.440318912 0.547907531 0.007244940
0.454481810 0.548204720 0.002612252
0.509930730 0.560597062 0.004977632
0.565866768 0.573254943 0.010103381
0.616424501 0.585200548 0.019369258
0.659810245 0.595508099 0.030508013
0.698590815 0.605685234 0.043635894
0.734552860 0.615688682 0.055683207
0.767426133 0.625549257 0.067386776
0.797923148 0.635493338 0.081231646
0.827894926 0.645186424 0.096818522
0.855926037 0.653840005 0.120683588
0.876018226 0.654778421 0.142982692
0.896144748 0.653941870 0.163081452
0.909645081 0.650453210 0.182742804
0.902574658 0.663610458 0.347503692
0.447594434 0.564521611 0.010448255
0.447594434 0.564521611 0.010448255
0.457413435 0.564249933 0.004140126
0.506189644 0.575043797 0.008378315
0.561507404 0.587105215 0.016067129
0.611779094 0.598571658 0.026811503
0.655258298 0.609760046 0.039227013
0.693029642 0.620064735 0.053457391
0.727311790 0.630295217 0.069795206
0.758251607 0.640225589 0.085687891
0.787233531 0.650182664 0.101881526
0.815520883 0.660526991 0.121967152
0.843598485 0.672017395 0.151925281
0.871360958 0.680311799 0.180002958
0.895269394 0.682133913 0.202504382
0.916019499 0.682293773 0.225201741
0.913507640 0.705500662 0.403266430
0.452970058 0.580655336 0.012124753
0.453193665 0.580757380 0.012124753
0.460795641 0.580219746 0.006555086
0.500389457 0.588690817 0.009117774
0.550341368 0.599790394 0.016905371
0.601130486 0.611311316 0.028191425
0.646152973 0.622410595 0.042535305
0.683950543 0.633287668 0.057028931
0.716460347 0.643538654 0.075132176
0.745326042 0.653656006 0.097408615
0.773451746 0.664300919 0.120358117
0.801889122 0.675297022 0.143231615
0.831479073 0.687394023 0.170540750
0.860779941 0.700902283 0.211174041
0.892074943 0.710024059 0.241103604
0.919103861 0.714544535 0.267080784
0.921376944 0.749830782 0.467791051
0.539863765 0.660234988 0.309192121
0.539863765 0.660234988 0.309192121
0.541927397 0.660973728 0.309184670
0.548958838 0.663707376 0.310090244
0.559925795 0.667760491 0.314555198
0.574546158 0.672914386 0.322313130
0.593558967 0.679695785 0.331094891
0.616246819 0.686785638 0.346162915
0.643106997 0.695610583 0.364002973
0.672917068 0.706340373 0.383932501
0.705325842 0.717682898 0.404398859
0.739273906 0.729611099 0.422182262
0.776041031 0.742030978 0.440444469
0.816806614 0.758314252 0.470082402
0.859778166 0.776890874 0.505182564
0.896219313 0.792757869 0.540592074
0.919793010 0.804087996 0.582898974
0.032430500 0.040217001 0.053153250
0.033169314 0.039527502 0.053843625
0.044904377 0.041566249 0.060804375
0.079516441 0.045909002 0.069749996
0.134364516 0.043356627 0.069651380
0.193177819 0.041233063 0.066042066
0.240370512 0.039724503 0.062121499
0.283407390 0.036619186 0.057046436
0.323445797 0.032725997 0.052549995
0.361243635 0.029620813 0.048390314
0.395940870 0.027206000 0.045818251
0.428824991 0.024445999 0.044745501
0.457786888 0.023755625 0.046355251
0.491289616 0.024544500 0.049794503
0.526299417 0.025234001 0.052996002
0.553824365 0.025184747 0.056695942
0.580723405 0.025234001 0.059199497
0.032529123 0.044551812 0.055631939
0.032529123 0.043910436 0.055123370
0.048220124 0.047789186 0.064049125
0.087697886 0.051742688 0.070239000
0.149260998 0.051209815 0.068689443
0.208139941 0.051293060 0.063905440
0.259418666 0.050035186 0.058761433
0.301969916 0.047578875 0.053915933
0.342192382 0.044669688 0.049284376
0.380047560 0.041077003 0.045253687
0.416140079 0.039477251 0.044166565
0.452001005 0.038738064 0.044166565
0.487606585 0.037506189 0.044844061
0.524227619 0.037554000 0.046279378
0.562034488 0.038386878 0.049164943
0.595111370 0.036863618 0.051917940
0.625562549 0.031592313 0.051484689
0.040994000 0.071085125 0.066854000
0.041758500 0.072472498 0.067837998
0.065994374 0.083471745 0.075423747
0.119113207 0.094273560 0.071795687
0.185729623 0.100869752 0.066925250
0.245219305 0.103590243 0.060493879
0.305976003 0.105260499 0.053046249
0.358727992 0.107035942 0.047920689
0.405687153 0.109776132 0.044455998
0.448953539 0.111961938 0.041700251
0.488212526 0.114131622 0.040663376
0.525191188 0.117688566 0.041279502
0.559814394 0.122203872 0.044099629
0.594432950 0.125451490 0.046921067
0.629734099 0.124512613 0.049654379
0.665429533 0.120127872 0.050390817
0.700528264 0.107781127 0.050445125
0.062642135 0.119760633 0.077647559
0.063643254 0.120070264 0.077678502
0.092251509 0.134568453 0.081625372
0.157511339 0.155846447 0.067552626
0.228991762 0.169164822 0.064210624
0.299979657 0.176186383 0.055565625
0.365535200 0.181905583 0.043735556
0.423127830 0.187939510 0.033711366
0.475573838 0.193281710 0.026663559
0.522641897 0.199284583 0.020897498
0.562027514 0.206043646 0.018777624
0.598678648 0.211798474 0.020207558
0.632462502 0.217122704 0.023361560
0.662654996 0.220030963 0.027304627
0.693224788 0.219259396 0.032430254
0.727212489 0.210523129 0.034746252
0.760858059 0.196711689 0.034056749
0.100451998 0.182552010 0.086224131
0.101130687 0.182912201 0.086224131
0.136218131 0.200786874 0.082761131
0.200445071 0.222240239 0.061168563
0.285493910 0.244682997 0.054228619
0.354856074 0.257831693 0.047237251
0.420549899 0.261486501 0.035481248
0.478132904 0.269237012 0.024297748
0.528072119 0.278136045 0.016362999
0.573796511 0.285515249 0.011188000
0.614081025 0.291690886 0.009166876
0.649541438 0.299926937 0.009413438
0.679758787 0.306535512 0.013208376
0.709558189 0.307937860 0.016954068
0.739005983 0.306232780 0.022868756
0.769020259 0.299220324 0.027107127
