public/lut/05.cube
TITLE "17x17x17 Adobe/IRIDAS cube 3D LUT exported with GrossGrade v0.2.2 (beta) 64 bit"
DOMAIN_MIN 0 0 0
DOMAIN_MAX 1 1 1
LUT_3D_SIZE 5
0.036274001 0.040217001 0.040994000
0.177303761 0.045462999 0.026417250
0.340308011 0.037457500 0.014588501
0.461621016 0.038049001 0.018926002
0.605454981 0.035486002 0.028388999
0.115602501 0.183067262 0.049660251
0.313686520 0.237920746 0.008476999
0.532676816 0.272716492 0.000000000
0.679056466 0.310096264 0.000000000
0.792357743 0.285080999 0.000000000
0.321173489 0.423048496 0.000000000
0.497485489 0.461884499 0.000000000
0.715242028 0.508907557 0.000000000
0.818206251 0.513615489 0.003351503
0.866923988 0.483890533 0.075475514
0.432108253 0.530814290 0.002563002
0.566405714 0.558487475 0.005323001
0.739146471 0.599962533 0.037054002
0.859736800 0.629155219 0.087172762
0.891597271 0.626545250 0.299623489
0.539919972 0.660234988 0.308968991
0.559979200 0.667760491 0.314533234
0.643106997 0.695572495 0.363873482
0.776118755 0.742068231 0.440429509
0.919793010 0.804087996 0.582898974
0.031543002 0.041758999 0.090549998
0.085927002 0.047596000 0.127533004
0.267440259 0.042698998 0.151068002
0.444704294 0.021094749 0.143037751
0.575430751 0.023065999 0.144522503
0.051020000 0.180446997 0.168535516
0.197863489 0.235177994 0.196099758
0.440819025 0.275417507 0.189824000
0.608470559 0.294662029 0.186106503
0.775855482 0.287306756 0.181725010
0.198985010 0.401598006 0.212927490
0.376520783 0.460744262 0.207889751
0.589119434 0.511000037 0.219489500
0.725880802 0.519781470 0.218146995
0.843090236 0.497969002 0.238319993
0.338572770 0.521803498 0.189590752
0.457768500 0.559316754 0.183444008
0.640688241 0.602048755 0.220345497
0.791174769 0.636793733 0.257236511
0.888208270 0.630889535 0.335485995
0.521246016 0.656801999 0.349084258
0.544043303 0.666586459 0.347023726
0.630674720 0.698416770 0.384009004
0.770480514 0.745118737 0.459377527
0.918375492 0.805900455 0.593505979
0.031937502 0.044004999 0.161810011
0.056173749 0.043634500 0.183871746
0.182190001 0.051020000 0.209738016
0.354795992 0.048980251 0.248296767
0.541676044 0.032331504 0.273194492
0.041182250 0.168636262 0.276181996
0.115397751 0.221348509 0.299580514
0.314550519 0.264510751 0.339247733
0.520328522 0.273977518 0.357680768
0.735349000 0.254692733 0.316792488
0.073390007 0.375315547 0.389250994
0.223239750 0.433156043 0.400811732
0.454533994 0.488431484 0.428846538
0.625474095 0.510395527 0.424827278
0.827875495 0.487281501 0.364580512
0.165664509 0.496243507 0.394361526
0.305292010 0.534098029 0.417817771
0.523405790 0.595413506 0.447542250
0.690888524 0.640479803 0.464191020
0.878750503 0.645557284 0.434471250
0.450635999 0.640218019 0.460167497
0.476770520 0.648790777 0.466157258
0.576445460 0.695722997 0.476706505
0.743449211 0.755941272 0.527451515
0.916337490 0.815587044 0.638092995
0.037062999 0.056506753 0.241901249
0.042509500 0.044004999 0.221068501
0.129459515 0.053326502 0.250481486
0.297906250 0.056974754 0.299281269
0.475849003 0.058655754 0.339872509
0.043264002 0.182524502 0.357173771
0.071629241 0.210516006 0.350540459
0.209499508 0.229064003 0.367384523
0.408452272 0.268103749 0.408842772
0.626095533 0.207029253 0.401727736
0.054614499 0.343909770 0.462349266
0.138359994 0.401753515 0.465914011
0.360049516 0.464179754 0.485824764
0.519222736 0.501115263 0.517902017
0.774235010 0.453287512 0.456674039
0.073392242 0.456037253 0.502812982
0.169689745 0.512751520 0.514854252
0.416826755 0.577936769 0.542604268
0.595534801 0.630127966 0.574864984
0.853228569 0.644061983 0.541035295
0.285617709 0.624043763 0.541465282
0.321497977 0.636983752 0.549743533
0.476147264 0.689693987 0.590604484
0.688772261 0.764235198 0.651554048
0.906424761 0.828590989 0.719109237
0.040994000 0.080059998 0.322427988
0.037852000 0.046891998 0.263948739
0.083066002 0.055881999 0.288978517
0.230397254 0.071184002 0.349702239
0.426120996 0.070003003 0.401917994
0.044737998 0.196615756 0.421975493
0.044554748 0.173552513 0.391793996
0.071140505 0.151284993 0.368245006
0.245616019 0.158391505 0.403942525
0.429168254 0.070003003 0.404762268
0.051686000 0.328226000 0.512115002
0.053481750 0.331924498 0.507888794
0.128917009 0.384059489 0.522026002
0.288056493 0.405118763 0.541661263
0.591086507 0.433629513 0.585561991
0.054933999 0.399350733 0.560408771
0.059099000 0.416732997 0.562826991
0.192557767 0.517732501 0.602931261
0.428838253 0.590124309 0.664302468
0.725626051 0.632456243 0.708464026
0.056820001 0.435654014 0.575127006
0.089496255 0.532105207 0.619335532
0.243625015 0.642177999 0.680093527
0.563552022 0.751947522 0.755794227
0.886763990 0.841904998 0.823247015
