public/lut/06.cube
TITLE "17x17x17 Adobe/IRIDAS cube 3D LUT exported with GrossGrade v0.2.2 (beta) 64 bit"
DOMAIN_MIN 0 0 0
DOMAIN_MAX 1 1 1
LUT_3D_SIZE 17
0.022869000 0.051020000 0.071584001
0.037605561 0.049711440 0.070598684
0.059090875 0.050263125 0.070994124
0.085941441 0.054052562 0.073456436
0.123686746 0.058509752 0.077399999
0.158846751 0.062442563 0.078619003
0.197508872 0.066891372 0.079880744
0.240638569 0.071647249 0.082212128
0.279884517 0.075418502 0.084261000
0.315926373 0.078283004 0.086014874
0.354436129 0.082936123 0.089651749
0.390575320 0.087821499 0.094776370
0.421726257 0.090677001 0.099323504
0.449869990 0.093167558 0.102780625
0.473656654 0.094727501 0.106135875
0.493844271 0.094650127 0.107179001
0.507844985 0.090462998 0.105295002
0.025184751 0.068044752 0.073104814
0.036865875 0.073218182 0.070036128
0.073730439 0.076674692 0.063486062
0.114542075 0.082038134 0.071384631
0.151419133 0.087849624 0.077430815
0.200356990 0.096958376 0.079760626
0.249214202 0.104120813 0.082182504
0.295011520 0.109783381 0.085591935
0.340914756 0.116126880 0.088645123
0.383534312 0.121365190 0.092007622
0.418590933 0.124152318 0.096084006
0.449279934 0.125795126 0.100061879
0.478052706 0.127645940 0.103139624
0.504086673 0.129700318 0.105762005
0.523397446 0.129566193 0.109054193
0.539070725 0.126490250 0.110319182
0.550256014 0.118547000 0.107431442
0.027501499 0.091831245 0.075543374
0.039970562 0.098549373 0.074126184
0.058645502 0.110202253 0.063090876
0.120261699 0.116081439 0.048886567
0.186788633 0.124899499 0.060966000
0.244334817 0.134454817 0.068047501
0.299698383 0.144804999 0.075411133
0.351147354 0.154350311 0.083248250
0.395387024 0.161856994 0.089379117
0.433722764 0.168399870 0.096033625
0.470003247 0.171679005 0.100990370
0.502377629 0.174025491 0.105829805
0.530077994 0.176311016 0.109392256
0.554673195 0.178198114 0.112057440
0.573688149 0.177601501 0.115224004
0.588287234 0.172944054 0.117212936
0.598911762 0.163538620 0.114792503
0.032824315 0.117799133 0.081684873
0.044221938 0.123546816 0.080297127
0.067265749 0.139425129 0.071411125
0.089648701 0.151122898 0.054768436
0.179019377 0.162964582 0.036570188
0.262340546 0.173500001 0.049207304
0.333201647 0.185095519 0.059738815
0.393350095 0.194675758 0.067396119
0.444298148 0.202391699 0.075408429
0.486994684 0.209759384 0.084648184
0.522622705 0.216539130 0.094070688
0.552422643 0.221987143 0.103420243
0.577060163 0.226820394 0.111721992
0.599499822 0.230164886 0.118332446
0.616306543 0.229889706 0.123520374
0.631025672 0.225091815 0.126093313
0.641121268 0.213651016 0.124542564
0.045264751 0.150352001 0.087848246
0.060198627 0.158281952 0.085761562
0.079353258 0.173682749 0.077454127
0.109223634 0.193881005 0.056294680
0.145719260 0.205283001 0.034894750
0.253060669 0.219848499 0.020552438
0.348367125 0.230804503 0.030458879
0.427033305 0.242535755 0.043775693
0.485317230 0.249982253 0.054428753
0.533748031 0.256263912 0.064883627
0.576195240 0.263663471 0.076517873
0.610426784 0.269671172 0.087006561
0.637593746 0.274485230 0.095793754
0.658420444 0.277667373 0.105212316
0.674333632 0.278210104 0.115045257
0.684224844 0.275424004 0.124539748
0.686090469 0.265633523 0.130356506
0.064593874 0.188117072 0.096766189
0.082812190 0.197272867 0.094050445
0.102580629 0.216456324 0.078091942
0.124408565 0.234560058 0.062246181
0.167068616 0.254715145 0.031690937
0.215521008 0.263911694 0.019911624
0.326056361 0.279944986 0.016609311
0.431268960 0.290435255 0.017102253
0.511753678 0.300030947 0.030212319
0.568440378 0.306426376 0.044444185
0.614672601 0.311859041 0.057645500
0.654997230 0.317441851 0.070183247
0.685993493 0.322725922 0.081906691
0.710151434 0.326170862 0.093287759
0.727418423 0.326022625 0.104277514
0.739230394 0.322753698 0.115373135
0.743335664 0.313016236 0.123316377
0.091358759 0.231659517 0.108022511
0.110133447 0.243560389 0.101112686
0.131667137 0.264020622 0.078899875
0.152691200 0.281608582 0.061870433
0.187778756 0.301531911 0.034596000
0.243742138 0.317066908 0.016855875
0.300514638 0.324191511 0.016559998
0.411219865 0.340035588 0.014982999
0.509878159 0.348606139 0.013307001
0.588818550 0.354977340 0.021144057
0.643272638 0.358819008 0.038245618
0.685298204 0.362259716 0.053500872
0.720572054 0.367666155 0.068036005
0.751133204 0.372878075 0.083009139
0.771297753 0.372708768 0.096257508
0.784760058 0.367786109 0.107289575
0.792429626 0.358245641 0.116465874
0.123815827 0.278599858 0.119875193
0.142160088 0.295011550 0.100690626
0.166010827 0.313562781 0.075947061
0.191729322 0.332086414 0.052948363
0.220494643 0.349952966 0.028043369
0.271915972 0.365533710 0.015869625
0.336191386 0.376196474 0.015327749
0.394024104 0.383570731 0.014539187
0.495210439 0.396999955 0.013406000
0.588098168 0.402005345 0.012173750
0.661365092 0.404050648 0.016905181
0.711343765 0.406990528 0.036668994
0.748670399 0.410634071 0.053221308
0.780780673 0.412731409 0.069421321
0.806568801 0.414810866 0.085045189
0.823891640 0.411975414 0.099392638
0.833111048 0.401948154 0.110136621
0.156511515 0.328234017 0.125122502
0.178241938 0.345315754 0.100541875
0.206057250 0.362776250 0.071928248
0.233583391 0.379664779 0.046249114
0.266019285 0.396651506 0.020502746
0.305567086 0.408313513 0.015376999
0.362957656 0.420570254 0.014489875
0.424983799 0.428809434 0.013750749
0.482800007 0.434857041 0.013011499
0.578952789 0.446440458 0.011483813
0.662456036 0.448386252 0.010645499
0.728359222 0.448471069 0.018679496
0.771988988 0.450821757 0.039814003
0.807112992 0.452074111 0.056885511
0.833704531 0.452678025 0.073891886
0.856578290 0.452069700 0.088964880
0.868368030 0.443709522 0.102825500
0.190669253 0.375538737 0.131156996
0.217413813 0.392428815 0.102334686
0.251766354 0.409602880 0.068652064
0.279767334 0.424239874 0.041255806
0.314157575 0.439610869 0.016559750
0.356024057 0.450373679 0.014194000
0.396177322 0.460173190 0.013701500
0.453557432 0.469632298 0.012962187
0.514032662 0.476139247 0.012223000
0.571194530 0.481531799 0.011483813
0.659871101 0.489329159 0.010251000
0.734652817 0.487525403 0.009216438
0.786403358 0.487796485 0.025333192
0.827827871 0.489527076 0.046874207
0.857879043 0.489705622 0.064898700
0.880692959 0.486399382 0.080172136
0.898314178 0.482198745 0.094775811
0.225917622 0.420639873 0.134758621
0.257263571 0.436534882 0.102668568
0.296885014 0.452387780 0.067322746
0.327408671 0.465918690 0.037289120
0.360061228 0.478221506 0.016559750
0.401599079 0.488432378 0.013406000
0.444587618 0.497612119 0.012617000
0.490758270 0.506452978 0.011829000
0.547370553 0.513934731 0.011040000
0.605308414 0.518544912 0.010251000
0.659264386 0.521856725 0.009955499
0.736745894 0.526084304 0.008674000
0.796335757 0.523816228 0.011730256
0.841370344 0.523169160 0.034845147
0.875410497 0.522239506 0.055868015
0.899914086 0.518857598 0.072583385
0.920672774 0.515043616 0.086569376
0.260572553 0.462593675 0.139989749
0.295753449 0.477660686 0.104591817
0.338650107 0.491807550 0.069352999
0.374711931 0.503376186 0.039744750
0.407816082 0.513431549 0.022425124
0.445505619 0.523343086 0.012124500
0.489340633 0.531750202 0.011828999
0.533367217 0.539761782 0.011040000
0.579556882 0.546895802 0.010251000
0.634346008 0.552002847 0.009906250
0.689402759 0.554898560 0.009167125
0.740342021 0.557585180 0.008427750
0.800467491 0.557524323 0.007886001
0.852804303 0.553777397 0.021784713
0.889885962 0.552036464 0.044448704
0.915496111 0.550111592 0.062906951
0.937187910 0.546414912 0.078007437
0.293109775 0.499266267 0.145958751
0.329439551 0.513345480 0.108739123
0.374994874 0.526876867 0.072446004
0.414149314 0.535281301 0.048360247
0.447368026 0.543925285 0.032331251
0.483997762 0.553229392 0.017594691
0.526106298 0.561265111 0.010842750
0.569893599 0.568432570 0.010250999
0.614221752 0.574796498 0.009463000
0.663735390 0.580502510 0.009117813
0.717415035 0.584141016 0.008477001
0.765164196 0.585742295 0.007885999
0.808144212 0.586982250 0.007097000
0.861753762 0.583279967 0.008723389
0.902039886 0.580734074 0.032036271
0.929005086 0.579809844 0.051926389
0.949485481 0.575736761 0.069328502
0.326194912 0.532653749 0.151408941
0.363636523 0.545557320 0.113402814
0.411148101 0.558073342 0.077170692
0.450799018 0.563739538 0.059289198
0.484383732 0.571173072 0.043243572
0.523185492 0.579795480 0.029177010
0.562254548 0.587650537 0.016757134
0.606715679 0.594936728 0.009463002
0.652422845 0.600980043 0.008674000
0.695227325 0.606333971 0.008526250
0.739748240 0.610195577 0.007885999
0.784409761 0.611684263 0.007097000
0.826812685 0.612461150 0.006899998
0.868669748 0.611647904 0.005667940
0.910207450 0.608171523 0.020700134
0.941078782 0.605390549 0.040794875
0.961550057 0.603603244 0.058199614
0.363488287 0.566001534 0.155772761
0.400587410 0.576845109 0.118696764
0.448745161 0.587375164 0.086612761
0.489494115 0.591900408 0.072123021
0.523578703 0.597743511 0.057029761
0.561930418 0.605307400 0.042632014
0.599968076 0.612300158 0.029966010
0.641550303 0.618586004 0.018334132
0.686919391 0.624641776 0.009758258
0.730164409 0.630042851 0.007787375
0.767769754 0.634083867 0.007096999
0.807148099 0.636619508 0.006850748
0.849158287 0.637560487 0.006308999
0.892357767 0.638732016 0.005520002
0.920121133 0.633207560 0.011237131
0.950260043 0.630464196 0.029916761
0.968317509 0.629876494 0.057891138
0.400808781 0.595697701 0.158010125
0.437196910 0.604684412 0.120178625
0.484585166 0.612487316 0.096079692
0.527148247 0.616430879 0.084165081
0.558097899 0.620395660 0.070054144
0.593738198 0.626953304 0.055704266
0.633481562 0.634356558 0.043107636
0.673359275 0.640692890 0.032035574
0.713580906 0.646260798 0.022720885
0.755409300 0.651911736 0.015278262
0.794665694 0.656534433 0.009856825
0.830673873 0.660549819 0.006210322
0.867688835 0.662737012 0.005520002
0.905679941 0.663483977 0.004928257
0.936643720 0.662759781 0.013898836
0.955115557 0.656290650 0.026860926
0.967068732 0.656406641 0.068560630
0.442328990 0.627574027 0.161204994
0.480480254 0.636136234 0.117877498
0.524497747 0.640103757 0.108439751
0.567918181 0.643609762 0.098847501
0.598586738 0.646610975 0.083902001
0.628108084 0.651514351 0.069924623
0.665072262 0.658247709 0.058573373
0.703834713 0.664541006 0.048106935
0.739983499 0.669716001 0.038245998
0.775481880 0.674631715 0.030507876
0.812049270 0.679328203 0.024642626
0.848123848 0.683757007 0.019467751
0.883171976 0.687519252 0.014588749
0.916530311 0.689948440 0.010398941
0.944890857 0.691256762 0.028980041
0.957501292 0.687532842 0.060194083
0.965685010 0.680940986 0.077155001
0.021341249 0.043401439 0.077522442
0.042125877 0.047596000 0.087894686
0.069953561 0.048294000 0.091279119
0.099755257 0.051602751 0.095632628
0.126822382 0.052960001 0.095949247
0.158872932 0.055051874 0.101680934
0.195939332 0.058355190 0.104717188
0.231698066 0.060386874 0.104507186
0.267528445 0.062695123 0.105846070
0.302088946 0.065221369 0.106776878
0.336845994 0.069500506 0.108909875
0.371291667 0.075133748 0.110828936
0.402138829 0.078405373 0.114049442
0.430072337 0.080178127 0.117464371
0.454504609 0.081538506 0.118833125
0.476306021 0.082560375 0.116786622
0.490224302 0.079191625 0.112057626
0.020552311 0.069589190 0.096138999
0.036076874 0.079049371 0.102753505
0.078250185 0.079976499 0.105355814
0.124505378 0.086810999 0.109152444
0.167183504 0.092416376 0.111998692
0.212224066 0.098283380 0.115080312
0.256897390 0.104354560 0.117515877
0.299954385 0.111120068 0.119882241
0.341490537 0.117686689 0.123403311
0.379238665 0.122698307 0.127727613
0.413727075 0.126624241 0.130801007
0.445341229 0.130110815 0.134563312
0.473702937 0.133314431 0.139377445
0.497855365 0.135712937 0.143579558
0.519419312 0.136250317 0.146488518
0.536734760 0.132992744 0.144725382
0.547983468 0.124129683 0.138401628
0.021242686 0.094542876 0.100093119
0.042027313 0.101949938 0.107856303
0.069991559 0.111561373 0.103181630
0.130853638 0.119617693 0.096316628
0.189653814 0.130339310 0.109620497
0.240811199 0.139982134 0.116600432
0.294505328 0.150450990 0.119571693
0.345006943 0.158479571 0.123509750
0.388382345 0.164569244 0.128009304
0.427640796 0.170204252 0.132188112
0.463830113 0.174331933 0.135375813
0.495187491 0.177495867 0.139800072
0.521708369 0.180354178 0.145312622
0.545175791 0.182708368 0.150072441
0.565044999 0.182358116 0.152612507
0.581467867 0.178653046 0.152989179
0.590428114 0.166127756 0.147227943
0.022080000 0.120010816 0.104570247
0.049965378 0.133210763 0.112988815
0.079732940 0.144547805 0.107445188
0.119618386 0.163581833 0.081413239
0.206824750 0.172603697 0.078141876
0.281731308 0.183481261 0.094932370
0.344704390 0.194989830 0.103645176
0.398133039 0.205046326 0.110752881
0.445415497 0.214239508 0.119323179
0.485030621 0.222312272 0.128335133
0.518148124 0.228619143 0.136476755
0.545999110 0.233911008 0.144949555
0.572861314 0.237690955 0.152119011
0.596977711 0.241281062 0.159435242
0.616096675 0.241037816 0.162950322
0.630880535 0.234786436 0.162496760
0.639730871 0.220703512 0.158393934
0.026417626 0.150703549 0.112655878
0.069010690 0.169078246 0.121362008
0.096088812 0.180880129 0.116259627
0.135371014 0.205291823 0.086585559
0.187570438 0.218742937 0.066443436
0.286409557 0.229039311 0.061441686
0.366861582 0.239613563 0.077981569
0.436404347 0.251019776 0.089874506
0.490037084 0.259980589 0.100384817
0.536612153 0.268883824 0.109215625
0.576202333 0.277197629 0.120333187
0.607350111 0.283974677 0.132045567
0.631644070 0.289123029 0.143976122
0.651781857 0.293520868 0.155066505
0.667294860 0.295883000 0.166155085
0.677534521 0.291581690 0.172213495
0.682267129 0.276282609 0.170361936
0.039909124 0.186229691 0.120666318
0.095786318 0.210893989 0.131414816
0.122785427 0.225633383 0.121296562
0.154968321 0.250149250 0.093412176
0.207550377 0.270568877 0.061646812
0.267234743 0.281008154 0.047769688
0.369667530 0.291275799 0.040755879
0.453337163 0.299072772 0.059074387
0.522739410 0.308765531 0.075663440
0.574643791 0.317013294 0.087547183
0.616975427 0.323521495 0.099812686
0.653034031 0.330647886 0.114371061
0.682646692 0.337328553 0.129059255
0.705354571 0.342286557 0.143052638
0.722090364 0.343742549 0.155338258
0.733399987 0.338511646 0.163609937
0.735094011 0.326007187 0.169636190
0.062535010 0.227763698 0.130374193
0.127660006 0.256102562 0.143340513
0.153848514 0.275292158 0.123573557
0.183518767 0.297415614 0.094866797
0.225026697 0.317949593 0.062014878
0.288142949 0.332466066 0.042041626
0.353238374 0.341871262 0.030014932
0.456120193 0.352041215 0.025431313
0.534770966 0.357011825 0.045279495
0.598027229 0.363578796 0.064308681
0.646547854 0.369110346 0.080569677
0.684880018 0.374643892 0.096767306
0.718437433 0.381266445 0.112559259
0.747763038 0.387928039 0.129101709
0.767205417 0.389985263 0.143545389
0.780656695 0.384342939 0.153096199
0.787091494 0.374138743 0.163429677
0.090096772 0.272918344 0.143767431
0.160212144 0.303944647 0.154004931
0.186859950 0.324055493 0.124969497
0.219211474 0.344828039 0.093684241
0.254768282 0.364381671 0.062793367
0.307787180 0.380001485 0.038662814
0.377407491 0.391976118 0.027353996
0.442358136 0.399265379 0.018137245
0.538539231 0.407274574 0.016461618
0.606620073 0.408267677 0.039119612
0.664275408 0.412533581 0.061896496
0.710155487 0.417512923 0.081529304
0.745213330 0.422181457 0.100153372
0.776311338 0.426978707 0.116487570
0.802184880 0.432019919 0.133377701
0.820110738 0.429020345 0.145859271
0.828585267 0.418126464 0.156862006
0.123218760 0.319201320 0.157059118
0.190885901 0.350494325 0.161498368
0.221909240 0.371208936 0.125437379
0.256980449 0.389913499 0.091277808
0.297180235 0.408888310 0.058119938
0.338983953 0.423351139 0.038327999
0.397102267 0.435830265 0.023854248
0.468276650 0.445006222 0.017792497
0.531176448 0.450828433 0.011385187
0.614632130 0.457341164 0.013454998
0.676276684 0.456125766 0.039942056
0.727831006 0.457843125 0.065758303
0.768993974 0.461135596 0.086394385
0.802303731 0.465458065 0.105023697
0.829889536 0.469142467 0.121931829
0.851716995 0.468893796 0.138448581
0.862363994 0.458746642 0.151265308
0.160623997 0.363353997 0.170394927
0.222728640 0.394315034 0.167580247
0.257195026 0.415750563 0.124811508
0.294205457 0.432344049 0.090517551
0.335272849 0.449247956 0.059143305
0.378703505 0.463087678 0.041282624
0.424846530 0.475189477 0.026072372
0.485214621 0.484799683 0.018728560
0.555022418 0.492731810 0.013553623
0.613887846 0.497408569 0.009463000
0.688956082 0.501092255 0.017940313
0.743390441 0.498730540 0.045827750
0.787231565 0.499584138 0.070720136
0.825285792 0.502622366 0.093577959
0.853785813 0.504439175 0.112313829
0.875876307 0.502079010 0.129526019
0.892661095 0.496474236 0.144068688
0.198719323 0.404519022 0.185065314
0.252021670 0.435645700 0.171427011
0.291637510 0.456253409 0.127101809
0.331775904 0.471978128 0.090747610
0.372207016 0.485904992 0.062681690
0.416432321 0.498800308 0.046229690
0.464338154 0.510898530 0.030803682
0.512680054 0.519782364 0.020059496
0.574765086 0.527860105 0.016560186
0.638814986 0.534112275 0.012370562
0.695564091 0.537635863 0.008624750
0.755872726 0.538860917 0.027304374
0.802061319 0.536715448 0.054651506
0.841082990 0.535546839 0.080431402
0.872235179 0.537090898 0.102342576
0.895469427 0.534468353 0.121298075
0.915572405 0.530900657 0.136448637
0.233973578 0.445041507 0.196761131
0.283443511 0.475183964 0.176859260
0.328430861 0.494215667 0.130281940
0.372595727 0.509012282 0.092344612
0.413222671 0.519936204 0.069802001
0.454983503 0.530989766 0.054412376
0.502617180 0.542510867 0.039023370
0.549053192 0.551387131 0.025234306
0.598683059 0.558028936 0.016017810
0.660067022 0.565191805 0.016116437
0.718383670 0.569909215 0.014884187
0.767647386 0.572142959 0.016165376
0.812365353 0.569456339 0.038828570
0.853956699 0.567031205 0.067287400
0.886556566 0.567265332 0.090725206
0.911595047 0.566123843 0.112250835
0.932553947 0.561829448 0.128213376
0.265891999 0.482671827 0.205798820
0.312591493 0.509477317 0.182428584
0.362017453 0.527722299 0.132001176
0.408194572 0.540735006 0.096488558
0.450461835 0.549360454 0.077654630
0.489483356 0.558778346 0.062210001
0.534682155 0.569416225 0.048350684
0.582259357 0.578182757 0.034894433
0.629400194 0.585164547 0.022277437
0.680680335 0.590885818 0.012814440
0.738346219 0.597563505 0.018580750
0.787965953 0.600594342 0.019862000
0.826635122 0.600811481 0.029078629
0.864984930 0.597020507 0.051460646
0.898759067 0.596705139 0.078673147
0.925428510 0.594882727 0.101788655
0.945064664 0.590396523 0.121585935
0.298311293 0.517923355 0.211096570
0.341585577 0.541244149 0.186278388
0.393777788 0.558745563 0.132673874
0.441137969 0.569638014 0.101011634
0.484425992 0.576211691 0.085709065
0.523793757 0.585363507 0.071493879
0.565170765 0.594627559 0.057650689
0.611602306 0.603093624 0.045373067
0.659748793 0.609815061 0.033366695
0.705461323 0.615608931 0.021784514
0.752037406 0.620484054 0.016362630
0.802279413 0.626211047 0.022573128
0.845681429 0.628822029 0.030902008
0.877005219 0.626726508 0.042320266
0.909098029 0.623473406 0.065562762
0.937701404 0.620843172 0.089754947
0.957603574 0.619539320 0.111804113
0.334801465 0.553709686 0.212660626
0.374075651 0.572141290 0.187796682
0.427648336 0.587697923 0.134021372
0.476495445 0.596624136 0.107661135
0.519298673 0.602199495 0.095009759
0.557908177 0.610092819 0.080746263
0.597769618 0.618216097 0.068259381
0.640230000 0.625585258 0.056331754
0.685772836 0.631885529 0.044917256
0.731251001 0.637706399 0.034154821
0.772133887 0.642039239 0.024642948
0.816092789 0.647498488 0.024593811
0.861989021 0.652708828 0.033958253
0.897317111 0.654769003 0.047799449
0.920101762 0.650067151 0.055015571
0.948000550 0.647186875 0.078097269
0.968420744 0.646975636 0.103575133
0.371378660 0.584560335 0.215725005
0.407771170 0.601098359 0.187069938
0.462494284 0.614711106 0.132035628
0.513284206 0.621241927 0.114256509
0.553684294 0.625458300 0.102776758
0.588950574 0.632171571 0.088778451
0.629697561 0.640135288 0.077185504
0.669799209 0.647283018 0.066267885
0.710421681 0.653288126 0.056233197
0.753177702 0.659107625 0.045633201
0.794191837 0.663772166 0.035683136
0.832168519 0.667146623 0.025874946
0.871819198 0.674486458 0.034253500
0.907597959 0.679248750 0.048525263
0.936049998 0.680142522 0.059737202
0.955038846 0.674591541 0.071023986
0.967676997 0.673274517 0.113018006
0.413122118 0.618839622 0.214046866
0.447472870 0.631774783 0.184544817
0.504263520 0.643038273 0.131655619
0.552730680 0.647137821 0.123008564
0.593792915 0.651207745 0.112492628
0.622948706 0.655768633 0.099259257
0.659588695 0.662947059 0.088879064
0.698648512 0.670020461 0.078892499
0.735359311 0.675590277 0.068347305
0.772048950 0.680714905 0.058439746
0.810089648 0.685365915 0.048731126
0.848049760 0.689211786 0.038393691
0.883404791 0.692309439 0.029472880
0.917606771 0.702134967 0.046988264
0.944213271 0.706909776 0.070118412
0.956624866 0.705551147 0.100912519
0.965573728 0.699300766 0.119990185
0.021291999 0.039429002 0.090289503
0.036027625 0.042655811 0.101972193
0.070171624 0.043538876 0.111131996
0.100960940 0.043538876 0.117872566
0.130732372 0.044276997 0.122890875
0.160266310 0.045007247 0.128048554
0.193005770 0.046889499 0.132417753
0.226947576 0.049707375 0.133507252
0.261049628 0.052997876 0.134806246
0.295061141 0.057316687 0.136973128
0.328301758 0.062296502 0.138454497
0.362595111 0.068017684 0.138999879
0.393649250 0.071908124 0.141910508
0.422193825 0.074884124 0.145233631
0.447524786 0.077338755 0.146480873
0.469355881 0.078769565 0.142617553
0.484190613 0.076661997 0.135405868
0.021193374 0.062464569 0.113974564
0.035830501 0.070673935 0.119029053
0.075716063 0.066631757 0.125149190
0.124911070 0.070644751 0.128881931
0.164863050 0.076359250 0.134190306
0.204753563 0.081452429 0.136170432
0.245807767 0.085925817 0.140905112
0.286394596 0.090988502 0.145516872
0.327375412 0.100769512 0.147758007
0.365406871 0.107939690 0.150683120
0.400213063 0.112324432 0.155320361
0.431651801 0.115813382 0.159290001
0.460382938 0.120691627 0.161092058
0.485065341 0.123868555 0.162678331
0.505426824 0.123407938 0.164139867
0.522088766 0.119892307 0.161758617
0.533897340 0.112190001 0.151892066
0.020502999 0.099868625 0.136970878
0.029078500 0.107778564 0.141862184
0.069567129 0.113748625 0.145568758
0.137030572 0.122621752 0.151935935
0.197575882 0.135697752 0.157950640
0.251471967 0.144521371 0.161175311
0.301431775 0.152925387 0.164876625
0.349239022 0.161452994 0.169273555
0.392252773 0.169079632 0.172866389
0.430352390 0.174971372 0.176605999
0.463747114 0.179365247 0.180124372
0.493450075 0.184074193 0.184653565
0.520862460 0.188264132 0.189147249
0.544559419 0.190349370 0.192704692
0.563852549 0.189167500 0.194337502
0.579637587 0.184671864 0.192800015
0.590312004 0.172076494 0.182845503
0.020502999 0.125067502 0.136412308
0.034204192 0.138465822 0.147281051
0.089401878 0.149862632 0.156306922
0.136117309 0.163499951 0.144790441
0.207901120 0.174288765 0.149042547
0.273964584 0.188770130 0.160739616
0.331263334 0.201423138 0.167932749
0.383738279 0.212463081 0.171834499
0.430626452 0.221161574 0.176626951
0.472190261 0.228075311 0.181880191
0.508454323 0.234328568 0.186809063
0.539023638 0.240198076 0.192255318
0.566405535 0.244498149 0.197746754
0.590634108 0.247814536 0.203734264
0.610207140 0.247052908 0.206712753
0.624513030 0.240085557 0.205023751
0.635030091 0.225758955 0.197426066
0.021094749 0.155432254 0.144471124
0.046532437 0.172073305 0.153540432
0.109721877 0.192137510 0.165954873
0.152212828 0.208379015 0.150181562
0.215298131 0.224784002 0.124238126
0.298511267 0.233989507 0.132842943
0.370517373 0.248022750 0.147926882
0.431256890 0.260805964 0.157848209
0.481505513 0.271216482 0.165731624
0.525626302 0.281009048 0.174285948
0.564572871 0.291116893 0.184236258
0.594172597 0.299647808 0.195106506
0.618429601 0.305755228 0.205209017
0.638372481 0.309312195 0.214070812
0.658340573 0.309383392 0.219210133
0.672421575 0.302322686 0.219059989
