public/lut/06.cube
TITLE "17x17x17 Adobe/IRIDAS cube 3D LUT exported with GrossGrade v0.2.2 (beta) 64 bit"
DOMAIN_MIN 0 0 0
DOMAIN_MAX 1 1 1
LUT_3D_SIZE 5
0.022869000 0.051020000 0.071584001
0.123686746 0.058509752 0.077399999
0.279884517 0.075418502 0.084261000
0.421726257 0.090677001 0.099323504
0.507844985 0.090462998 0.105295002
0.045264751 0.150352001 0.087848246
0.145719260 0.205283001 0.034894750
0.485317230 0.249982253 0.054428753
0.637593746 0.274485230 0.095793754
0.686090469 0.265633523 0.130356506
0.156511515 0.328234017 0.125122502
0.266019285 0.396651506 0.020502746
0.482800007 0.434857041 0.013011499
0.771988988 0.450821757 0.039814003
0.868368030 0.443709522 0.102825500
0.293109775 0.499266267 0.145958751
0.447368026 0.543925285 0.032331251
0.614221752 0.574796498 0.009463000
0.808144212 0.586982250 0.007097000
0.949485481 0.575736761 0.069328502
0.442328990 0.627574027 0.161204994
0.598586738 0.646610975 0.083902001
0.739983499 0.669716001 0.038245998
0.883171976 0.687519252 0.014588749
0.965685010 0.680940986 0.077155001
0.022671750 0.038640000 0.127394259
0.110324502 0.039429002 0.151047245
0.248614267 0.043262251 0.185151249
0.381093740 0.058810249 0.197729751
0.474763006 0.071450502 0.193871990
0.020502999 0.174598753 0.226722762
0.212104738 0.235092998 0.258997023
0.468560249 0.294025242 0.290268987
0.605150700 0.326149762 0.309967756
0.678968012 0.314567983 0.310421765
0.051654004 0.330644518 0.263272256
0.337756753 0.428641498 0.309092760
0.542333961 0.475880742 0.233754247
0.738748014 0.504082441 0.303981781
0.823559284 0.514388025 0.370785028
0.170910001 0.474554002 0.308069259
0.428254783 0.566892028 0.339218259
0.617225051 0.606794298 0.261547744
0.785698295 0.629911065 0.247215495
0.908581257 0.653372765 0.401646018
0.324088991 0.583333015 0.346322745
0.581147552 0.704228044 0.430331737
0.696510494 0.730396032 0.425307244
0.828279018 0.760084033 0.448312014
0.943216205 0.773129225 0.468302250
0.022080000 0.046536498 0.214040995
0.099941500 0.038640000 0.230377510
0.196034506 0.037062999 0.229170009
0.350596756 0.043077003 0.279644966
0.458086491 0.057436500 0.287935019
0.024840001 0.198468253 0.343373239
0.158319011 0.277014732 0.385779262
0.405940533 0.274485260 0.389090240
0.550741792 0.310286760 0.403919756
0.651554465 0.315523744 0.402406991
0.038640503 0.369731516 0.431389511
0.243569508 0.454726279 0.456360996
0.498065501 0.508724928 0.475959003
0.680974543 0.544296741 0.516594768
0.776005507 0.529854000 0.500759006
0.104142755 0.503652990 0.456611753
0.325872034 0.566005528 0.479125500
0.576066256 0.634855270 0.504488289
0.742213786 0.663371205 0.499864995
0.888018966 0.689333975 0.552162707
0.217745483 0.591446519 0.459059000
0.520837545 0.680440247 0.531969428
0.672940493 0.754290998 0.546934009
0.815837741 0.782161832 0.562740564
0.929095984 0.803890526 0.621129990
0.024445999 0.084137253 0.338043004
0.087794751 0.046891998 0.312179744
0.222519755 0.043077003 0.331893742
0.280586243 0.040217001 0.314406484
0.435672998 0.048294000 0.367253751
0.029374251 0.245076001 0.458832771
0.130979508 0.327109247 0.490756780
0.341067493 0.309270740 0.481725514
0.492298245 0.291668504 0.479488522
0.627411246 0.321757525 0.494883507
0.045459501 0.396333516 0.534894526
0.191812992 0.481406510 0.560477257
0.458952010 0.536751747 0.575094461
0.613915205 0.545463502 0.586027741
0.736975193 0.541429043 0.589366496
0.088386506 0.526457191 0.580754519
0.283549488 0.600085974 0.598412991
0.533721745 0.648359299 0.622133970
0.685333252 0.691770017 0.634260297
0.851472259 0.713512301 0.686958492
0.173997253 0.618920743 0.579975247
0.475777268 0.701164484 0.619376481
0.620509505 0.744287729 0.657242954
0.774895787 0.801953733 0.677203238
0.907805502 0.823116481 0.732021987
0.029177001 0.150732994 0.450311989
0.063594252 0.068528995 0.384346485
0.193603009 0.062227000 0.412606508
0.302635014 0.066608995 0.436162263
0.340804011 0.044737998 0.404848009
0.033119999 0.292209983 0.541406274
0.113011256 0.371253997 0.574011743
0.260103524 0.347454011 0.556942999
0.433537513 0.349790752 0.567321301
0.536801755 0.307745516 0.560609758
0.045822002 0.427906990 0.606768489
0.153501764 0.502833724 0.633249760
0.412052035 0.567884505 0.670706034
0.545571804 0.551930189 0.655756474
0.650328517 0.534546494 0.655931950
0.077511504 0.531572223 0.647547245
0.252382249 0.610251486 0.675917029
0.495132506 0.670495987 0.713850021
0.693181455 0.719078541 0.753811002
0.776317477 0.717362761 0.753489494
0.159467995 0.634679019 0.677689016
0.478033513 0.731468260 0.726091743
0.620745540 0.770268500 0.760597467
0.762420237 0.810102463 0.799517989
0.878409028 0.840219021 0.830007970
