public/lut/07.cube
TITLE "17x17x17 Adobe/IRIDAS cube 3D LUT exported with GrossGrade v0.2.2 (beta) 64 bit"
DOMAIN_MIN 0 0 0
DOMAIN_MAX 1 1 1
LUT_3D_SIZE 17
0.011040000 0.051686000 0.052347001
0.024889000 0.053042561 0.050431624
0.062502250 0.055408873 0.046891998
0.114216201 0.058547813 0.044142436
0.175714746 0.058813252 0.039034251
0.240710810 0.057630874 0.034943562
0.299670398 0.055171747 0.032627501
0.349602848 0.051686000 0.031099189
0.392969519 0.050347999 0.029966000
0.430323184 0.051020000 0.029966000
0.463231981 0.052347001 0.029177001
0.491860747 0.053204812 0.029177001
0.519548237 0.056352001 0.029177003
0.544891119 0.060685065 0.030113755
0.569064379 0.064661629 0.032331999
0.592345774 0.068461254 0.033909000
0.616035998 0.074157998 0.037062999
0.011779687 0.062622376 0.053042561
0.033317562 0.070192501 0.051102936
0.085096374 0.077469558 0.045641623
0.147761777 0.082626440 0.040553436
0.227850497 0.087879814 0.033612814
0.304684460 0.091199003 0.029522125
0.367995203 0.092883818 0.026417436
0.424328238 0.094053626 0.024100747
0.470189631 0.096372999 0.022277126
0.509001374 0.100938000 0.021094624
0.542075634 0.104723126 0.020354999
0.569839239 0.107742004 0.019123126
0.595734954 0.113221444 0.019320127
0.617842138 0.119122632 0.020798815
0.638201833 0.124223560 0.022227876
0.656768262 0.126290813 0.023066126
0.676212788 0.131536812 0.026170876
0.018630251 0.090206131 0.056117501
0.052978188 0.105217941 0.051767189
0.114841878 0.118190996 0.045641623
0.191833898 0.129351512 0.037605125
0.282212377 0.138272747 0.029867126
0.365580887 0.146673694 0.023312375
0.433568895 0.154460639 0.018137500
0.492712766 0.161150932 0.014046498
0.540530026 0.169594631 0.011730124
0.580139935 0.178641945 0.010546749
0.614754856 0.186483502 0.009660125
0.643784106 0.193259925 0.009413563
0.667657793 0.200670257 0.010448251
0.688311160 0.207136631 0.011483690
0.707786262 0.211232245 0.012814125
0.723118722 0.212370753 0.014440440
0.739018500 0.213374615 0.018334126
0.036028005 0.130527392 0.062587939
0.074522875 0.150548577 0.055682123
0.161411762 0.176074252 0.044411685
0.240490854 0.191147953 0.037506621
0.341056406 0.203630641 0.026762249
0.421713263 0.215143010 0.018925689
0.488118142 0.226415202 0.014145123
0.551043630 0.236209378 0.010596187
0.601072371 0.247095764 0.008920563
0.639956713 0.259337038 0.008674001
0.672588229 0.268623561 0.009315063
0.701682150 0.275092840 0.009315064
0.726531029 0.283856839 0.010300502
0.746061265 0.293095589 0.013405817
0.763120830 0.296247840 0.015573941
0.777056515 0.293064713 0.017102379
0.791077495 0.294091046 0.020996125
0.070023254 0.188875496 0.060904749
0.127637252 0.215246379 0.046505559
0.220345140 0.245303124 0.039321624
0.324270159 0.274513811 0.032183688
0.408795774 0.287741244 0.023460250
0.484298170 0.295748025 0.018186312
0.546208858 0.305938870 0.015869623
0.606480956 0.316818058 0.012567937
0.655078769 0.327668488 0.012222751
0.691538632 0.336961806 0.013356500
0.723186612 0.346448511 0.015968500
0.751994133 0.354322195 0.017200751
0.776044726 0.361647487 0.019320000
0.793554008 0.367880523 0.023164194
0.810000539 0.372418642 0.026811501
0.824414492 0.371635795 0.028635066
0.837834001 0.370328009 0.031543251
0.127805188 0.256096065 0.052501313
0.198877499 0.283096045 0.040106252
0.297706902 0.313099265 0.034352373
0.393853277 0.341921002 0.033662438
0.483489633 0.361986816 0.029620875
0.547047198 0.372100502 0.026318876
0.605145514 0.379877746 0.023706622
0.660436153 0.387852490 0.021439251
0.702137530 0.396778077 0.022277063
0.736201406 0.405523986 0.023805127
0.767836571 0.413954616 0.026121562
0.795041740 0.421571016 0.028980061
0.816361964 0.428266853 0.032085065
0.832868218 0.434285492 0.036767565
0.848630667 0.438300371 0.040632691
0.863007009 0.439122617 0.042065565
0.873358548 0.435036868 0.044542063
0.208102658 0.326597899 0.039317120
0.286687016 0.351738155 0.034204498
0.380581141 0.379155993 0.033218622
0.471124232 0.406147897 0.037260439
0.552647829 0.427275896 0.040786631
0.619562924 0.440192968 0.038196631
0.665353537 0.448660761 0.039224006
0.713347793 0.454489142 0.037654508
0.750963390 0.458805889 0.038048502
0.779089987 0.464567959 0.039702129
0.807000875 0.471069783 0.042563878
0.831633866 0.476499140 0.045471005
0.851818204 0.482380390 0.048173010
0.866453290 0.489153147 0.053450882
0.880015194 0.492463142 0.056402259
0.891561031 0.491610080 0.057679694
0.901645124 0.488056272 0.058115378
0.303694695 0.393825829 0.031099189
0.378420025 0.415966034 0.031493690
0.462474346 0.440692961 0.036964506
0.546354115 0.464950532 0.044075321
0.623963177 0.486562908 0.053535130
0.684226036 0.500625908 0.055924322
0.731750548 0.511211038 0.058084253
0.768910110 0.518396318 0.058929764
0.799078345 0.520020425 0.059296448
0.820537388 0.518767834 0.059259951
0.842626154 0.522219539 0.060942572
0.864215374 0.526932061 0.063552633
0.880556166 0.531212926 0.067137316
0.892830551 0.534777403 0.069372766
0.903365731 0.538017511 0.071532696
0.913231254 0.538171649 0.072856694
0.922477543 0.533995748 0.073087260
0.394083500 0.451750517 0.033514500
0.457492769 0.469997823 0.036175936
0.534608722 0.492359877 0.044716626
0.605106354 0.512850463 0.055377819
0.677273750 0.532643199 0.067540258
0.730470777 0.545038283 0.074056759
0.773991346 0.555552006 0.077235252
0.809656501 0.562921107 0.080048695
0.837695479 0.567915976 0.080968499
0.856640756 0.568153560 0.080031008
0.873605132 0.568388045 0.080507502
0.889045596 0.570995450 0.081124753
0.901018739 0.573107481 0.083203003
0.910094678 0.575301290 0.086495005
0.919493437 0.577379346 0.087439001
0.928920329 0.579923391 0.088025004
0.936333001 0.574216008 0.086503997
0.472208112 0.500965416 0.043062311
0.522524655 0.514827013 0.046819691
0.589067042 0.533494651 0.057484377
0.652688980 0.551278770 0.069396682
0.714129269 0.568666399 0.082059994
0.769181550 0.583081841 0.090619877
0.806817770 0.591287196 0.095729373
0.839983582 0.599006772 0.099863872
0.865508139 0.604114592 0.102104813
0.883950830 0.608196139 0.102654003
0.897525132 0.608728349 0.100514807
0.909177303 0.607836068 0.099931754
0.917850077 0.608138263 0.101906508
0.925201595 0.610059977 0.104752064
0.932654023 0.612511456 0.106372938
0.938213587 0.613023043 0.104544498
0.944470525 0.609407783 0.101995125
0.536571145 0.542028368 0.057180498
0.579356074 0.552240312 0.059204314
0.635599017 0.567512274 0.070505880
0.693460047 0.583587945 0.082996875
0.744552255 0.598201334 0.094033375
0.797249138 0.612691700 0.102645248
0.835000157 0.621203899 0.108559124
0.864258587 0.628451467 0.114169620
0.888848245 0.634541512 0.118688881
0.905039668 0.638681769 0.119383939
0.916321635 0.642285407 0.121348754
0.925709546 0.642246544 0.121152252
0.933213592 0.640738606 0.121956125
0.938639641 0.640374184 0.124039307
0.942950726 0.640585601 0.124308869
0.947274029 0.640253663 0.121368244
0.951366425 0.637760520 0.117219999
0.591597319 0.577311337 0.073373690
0.631534815 0.585071981 0.072694935
0.677517176 0.597648382 0.083984934
0.727217674 0.611044884 0.094605185
0.773955464 0.624251485 0.104671001
0.820021927 0.637499511 0.113953687
0.858655334 0.648057938 0.121599063
0.884378791 0.654502392 0.127944499
0.905200124 0.660588264 0.134113431
0.920298576 0.665348470 0.138274312
0.929990888 0.668610811 0.139440119
0.938778102 0.671833575 0.140581250
0.945287108 0.670515120 0.139795750
0.947347701 0.667351723 0.141275004
0.950584650 0.666012824 0.140372306
0.953727245 0.665449858 0.139673442
0.958535731 0.663047314 0.134985805
0.634066761 0.605874002 0.089694254
0.673589647 0.612434685 0.086674690
0.714475155 0.623836279 0.097113878
0.756624103 0.634819567 0.105517879
0.799453735 0.646709263 0.115167007
0.839665055 0.658384740 0.124214627
0.874498248 0.669363379 0.131904483
0.898852408 0.676014423 0.138186947
0.916151524 0.681014001 0.144851744
0.929287374 0.685635269 0.150010869
0.938812792 0.689337134 0.152756378
0.946150541 0.691918731 0.154992312
0.951273739 0.694347501 0.157633498
0.954213500 0.692275167 0.158153132
0.956771016 0.690389574 0.157762259
0.959889770 0.690392792 0.157777637
0.963679254 0.686613023 0.152103752
0.666271091 0.628284931 0.103064887
0.704585373 0.633822024 0.097370252
0.744680047 0.645255923 0.107054129
0.781406403 0.655365825 0.115819007
0.819997668 0.666226745 0.125055209
0.856728077 0.676905453 0.133990392
0.886117935 0.686545193 0.141506210
0.907782376 0.694525957 0.149511829
0.923198044 0.698957443 0.155858129
0.934532166 0.702866852 0.163610712
0.943945050 0.706952095 0.168521330
0.950351954 0.709685385 0.170983821
0.954091907 0.711757958 0.175234199
0.958014131 0.713838041 0.177091196
0.961502910 0.713194728 0.175183326
0.964121222 0.711720943 0.173149392
0.966553450 0.709343135 0.168754518
0.694066405 0.648558378 0.114879131
0.732536376 0.653682292 0.106317513
0.770468771 0.665388942 0.118329629
0.805221677 0.675237954 0.126743689
0.838792622 0.684512854 0.135124773
0.870699346 0.694150627 0.144095197
0.897514522 0.703293383 0.151650146
0.915131867 0.711102247 0.159147948
0.928494751 0.716072142 0.167604521
0.939778566 0.719975233 0.175477758
0.948059142 0.723589480 0.181097269
0.952535748 0.726632237 0.185669392
0.956621647 0.728692234 0.189711019
0.960569561 0.730449617 0.191914514
0.963394225 0.732281268 0.192031756
0.965790212 0.731356204 0.190773144
0.968187988 0.729362786 0.186438769
0.717197180 0.664618790 0.116704687
0.758674800 0.669428170 0.105710998
0.794869781 0.682425261 0.120703377
0.828578591 0.692467451 0.130161375
0.857722998 0.701141953 0.140307054
0.884806514 0.710068047 0.150065303
0.907480955 0.719102025 0.159258962
0.923519790 0.726548195 0.167574137
0.933935702 0.732963204 0.177723929
0.944184422 0.736913919 0.185458943
0.950956404 0.740268826 0.193459898
0.954535782 0.743524849 0.200568646
0.958316147 0.746057749 0.205993772
0.962489963 0.747699976 0.208148271
0.965216815 0.749335229 0.208395705
0.967369020 0.751021683 0.207633391
0.969879210 0.749513984 0.203510210
0.742030978 0.680496991 0.116042003
0.784856796 0.684060574 0.101595871
0.816788018 0.698433399 0.119870998
0.849411547 0.709705889 0.133340687
0.875483274 0.718337238 0.144926012
0.897993147 0.726816475 0.155989751
0.917338610 0.735642254 0.168607995
0.930804610 0.742799222 0.178724065
0.940376043 0.748567998 0.186495006
0.948491156 0.753746688 0.195029691
0.953384757 0.756767392 0.202547133
0.956541598 0.759527862 0.210675880
0.959582031 0.762096524 0.216460004
0.962556958 0.763947248 0.220973119
0.964538336 0.765167773 0.222926244
0.966504335 0.766583264 0.221543059
0.967593014 0.766834974 0.221378997
0.009512250 0.049711440 0.064833187
0.015623187 0.053610437 0.068080746
0.047037940 0.056156751 0.070086062
0.098631389 0.056703001 0.065944001
0.160977513 0.056974750 0.061520629
0.223964751 0.055171374 0.056723751
0.280480385 0.052592624 0.051753189
0.328939408 0.048895560 0.048448499
0.370856464 0.045822002 0.046474811
0.406376451 0.045462999 0.046119314
0.437659115 0.045191124 0.045808252
0.464668363 0.044050813 0.045808252
0.493107080 0.044828188 0.046747185
0.519429982 0.047813695 0.048627436
0.544531286 0.050431624 0.049445689
0.567068756 0.051808812 0.050042685
0.590349972 0.054452814 0.052050062
0.010251000 0.065880373 0.070686564
0.023361310 0.077559009 0.078080505
0.071661130 0.081305310 0.074861936
0.141883448 0.084886812 0.067696124
0.215671390 0.087191135 0.061001502
0.287662119 0.085286498 0.054877684
0.350449920 0.085139938 0.050880816
0.402466208 0.086539872 0.049268689
0.447099447 0.087120757 0.047488753
0.486071140 0.087977380 0.046212312
0.519500613 0.091705568 0.046523374
0.547434032 0.096907936 0.048101496
0.573245108 0.102094442 0.049268689
0.596491575 0.106745079 0.051421002
0.619769573 0.112465389 0.055269875
0.643126965 0.118448392 0.058909312
0.664956391 0.122921810 0.062932871
0.011040000 0.095799692 0.078767493
0.036915503 0.110113375 0.084791809
0.097033314 0.129924312 0.079553381
0.188445970 0.138440758 0.069807686
0.275145799 0.143419489 0.059840247
0.356443495 0.146394253 0.049979128
0.424080700 0.148974687 0.044028126
0.476793259 0.152785942 0.040351562
0.521091819 0.155626565 0.039178379
0.560174346 0.158464819 0.037605502
0.591915607 0.163295940 0.037900999
0.618814111 0.169691175 0.039377313
0.642269731 0.175329775 0.041598000
0.663975000 0.180364683 0.045112625
0.685133755 0.185722992 0.048692569
0.703671038 0.188331947 0.052561067
0.720469713 0.188266620 0.055818189
0.025826193 0.142070636 0.091011129
0.066125251 0.163395762 0.091654003
0.141865015 0.190448508 0.075457066
0.242355660 0.212131962 0.066929005
0.338894665 0.220579073 0.055097938
0.420107067 0.224116564 0.044468123
0.486524463 0.228857815 0.037210874
0.541063130 0.235943690 0.033169437
0.589242995 0.243937775 0.031247251
0.629588425 0.251277715 0.029670250
0.660569251 0.257437348 0.030606378
0.685827017 0.263405830 0.033662312
0.708719254 0.269367397 0.037408251
0.728999853 0.273947835 0.040735006
0.746118665 0.275748074 0.045689445
0.761587977 0.274359375 0.049798440
0.776733100 0.272469133 0.053571377
0.056947563 0.200690567 0.101412684
0.113421440 0.226900250 0.092570998
0.189799011 0.255212516 0.075576559
0.305136204 0.284528017 0.064943060
0.396639884 0.301658809 0.058170628
0.478402615 0.303950429 0.048643187
0.542552769 0.308140725 0.041923691
0.594067812 0.316467077 0.038640313
0.640560985 0.323149472 0.036915377
0.681175411 0.329361022 0.036521126
0.712926686 0.337939709 0.039227001
0.737798631 0.346001983 0.044078000
0.758993626 0.350108087 0.047345001
0.778259218 0.352746576 0.050530691
0.795650423 0.355946183 0.055334508
0.810536325 0.355584592 0.059057131
0.822180152 0.347924799 0.059823692
0.113783568 0.266580015 0.110235691
0.176871389 0.295535326 0.081488937
0.260869503 0.321686476 0.066307940
0.366029114 0.350297779 0.062732190
0.466324091 0.375401229 0.058699250
0.538917005 0.386564702 0.055908881
0.596358120 0.384651273 0.052074440
0.642740786 0.386916667 0.050616503
0.684153259 0.394594818 0.051149439
0.723758996 0.401686043 0.051815879
0.755357027 0.407101452 0.054447502
0.778356373 0.412572503 0.059365690
0.799026489 0.418424815 0.063092187
0.818059206 0.422070026 0.066886194
0.833893239 0.423700184 0.071485065
0.847115159 0.422169626 0.073404372
0.857852519 0.413695425 0.072542250
0.184617087 0.337394267 0.107487068
0.252324224 0.361188769 0.069415122
0.342549264 0.385558486 0.058598500
0.435336411 0.410877973 0.060354754
0.526989162 0.435653269 0.065144755
0.598980308 0.449623168 0.065963753
0.651441097 0.455804378 0.067739256
0.692719758 0.455869079 0.066764005
0.730473697 0.458748132 0.067281440
0.766171575 0.464727312 0.068842135
0.796003997 0.469643325 0.072178632
0.817819118 0.473142296 0.076450191
0.837148070 0.478109717 0.080072127
0.852511644 0.482191145 0.083880700
0.865354776 0.482412517 0.088066377
0.877276182 0.479148149 0.089103818
0.888230920 0.472536564 0.087135136
0.264069915 0.403011322 0.101054944
0.337685287 0.422287166 0.065927252
0.418630540 0.443413764 0.061887942
0.504269600 0.466094762 0.067660131
0.585546792 0.488452941 0.077085823
0.653166890 0.503804564 0.083268255
0.705549777 0.511285841 0.085404754
0.742267787 0.516489387 0.089616567
0.774643064 0.517286062 0.089176573
0.805303574 0.517687500 0.089480504
0.831014156 0.520927370 0.092712879
0.851478219 0.524978042 0.096435197
0.866554201 0.527593613 0.099782385
0.880155683 0.529936969 0.102560893
0.891609788 0.532258511 0.106348321
0.902436078 0.530323923 0.106836632
0.912612915 0.522712588 0.103452131
0.342265189 0.459336191 0.100941062
0.412159175 0.473760635 0.072148994
0.485764444 0.491682202 0.066736065
0.559695065 0.511960506 0.075766936
0.635121584 0.531984925 0.087458566
0.700234890 0.549320936 0.098577812
0.750600576 0.557807803 0.101136059
0.787931800 0.563769162 0.106858887
0.814990282 0.568268299 0.112068623
0.840802550 0.568683982 0.112925008
0.860707998 0.566926181 0.114500821
0.874839544 0.567441523 0.117100812
0.887175739 0.569531143 0.120963067
0.898515642 0.571326435 0.124094129
0.910061240 0.572840154 0.125035942
0.919102609 0.572359502 0.124793373
0.926951110 0.563378811 0.119873442
0.415210426 0.507106721 0.111473568
0.477310449 0.518287778 0.081711061
0.548177063 0.534452200 0.076107688
0.612165570 0.551931620 0.087513439
0.678497553 0.569134533 0.099598505
0.739797652 0.585701406 0.110990368
0.786220610 0.595523953 0.117358252
0.823765874 0.602208197 0.121294387
0.849779248 0.607399762 0.127815127
0.869211435 0.610639691 0.134255424
0.885232985 0.609511614 0.136058688
0.895842850 0.606420100 0.137754247
0.904947639 0.606253624 0.141042054
0.913698137 0.608131468 0.145126000
0.922152162 0.607969880 0.145219237
0.929211617 0.605746865 0.142455250
0.936748505 0.599564850 0.136933997
0.476074874 0.547050059 0.126622051
0.529197693 0.554343283 0.094633996
0.595769346 0.568161070 0.086993441
0.657166541 0.583646953 0.098438315
0.713379204 0.598303616 0.109333068
0.767096817 0.613094926 0.121285312
0.814506769 0.625173211 0.130568311
0.847717762 0.631209612 0.136254132
0.873247445 0.637046158 0.142214760
0.890848160 0.641016424 0.149137303
0.904230118 0.643721879 0.155428931
0.914584637 0.643120348 0.158125311
0.921558022 0.640944541 0.160838932
0.927631378 0.639561176 0.164871886
0.933807194 0.639092505 0.165357634
0.938543618 0.636498988 0.161724135
0.943866193 0.632348835 0.156026810
0.525599003 0.581127048 0.143819630
0.575732172 0.586314261 0.111247435
0.636521876 0.596933126 0.100410879
0.692139983 0.610534906 0.111420631
0.743778646 0.623711050 0.121780626
0.789428055 0.636314869 0.132880121
0.834788322 0.648957372 0.142870188
0.867088914 0.655898213 0.149657369
0.889742196 0.661082864 0.155497387
0.905453563 0.665572643 0.163612813
0.917403042 0.668444276 0.172184512
0.926356256 0.670903742 0.177855313
0.933079243 0.669796228 0.180277377
0.938222110 0.667231679 0.183075801
0.942357838 0.666078091 0.184297681
0.946940362 0.664976835 0.182430327
0.952236652 0.661002278 0.174975559
0.567958534 0.609791517 0.161050245
0.614602745 0.612475455 0.125000373
0.672191560 0.620662212 0.109769948
0.720741332 0.633026004 0.120820560
0.769180000 0.645065546 0.130539864
0.809988201 0.656278372 0.140322566
0.849914730 0.667704582 0.150193810
0.881766260 0.676862180 0.159532830
0.901253045 0.681523383 0.166626364
0.916938245 0.686033130 0.173279762
0.927600205 0.689538240 0.182936385
0.934798002 0.691765785 0.192382187
0.940450549 0.693728805 0.198071569
0.945005834 0.692635298 0.201734886
0.949276447 0.691387057 0.203825384
0.953093052 0.689724445 0.201608062
0.957334161 0.685267985 0.194111824
0.600365698 0.631967843 0.173054576
0.647667944 0.634446204 0.136491954
0.705586314 0.642237902 0.119145378
0.748132408 0.653863728 0.129892945
0.791905761 0.664805293 0.139682829
0.830865979 0.675634146 0.149731994
0.864139915 0.685876727 0.159663439
0.893137097 0.695706964 0.170284882
0.910725296 0.701073408 0.178974256
0.924229860 0.704972804 0.185937643
0.935395002 0.708681464 0.192103252
0.940956175 0.711513638 0.205187187
0.944982231 0.713288903 0.213376522
0.949193716 0.715143681 0.219311520
0.953096509 0.713568628 0.220998645
0.956978917 0.711293221 0.218185082
0.960472047 0.708783329 0.212096199
0.626871169 0.651053667 0.182057306
0.674366593 0.653182030 0.142606065
0.734515727 0.660771191 0.122983560
0.774911523 0.672533810 0.134264067
0.813671112 0.683090627 0.145190880
0.849191844 0.692713857 0.154458687
0.877930522 0.702040434 0.164695129
0.901626110 0.711073399 0.175688565
0.919157863 0.718371630 0.185430437
0.931126356 0.722021699 0.192500710
0.940601170 0.725244343 0.199960575
0.946273565 0.728247344 0.208244681
0.949172378 0.730993569 0.220802724
0.952472627 0.732740700 0.229708821
0.956783056 0.734215498 0.235314772
0.959967852 0.732778072 0.235631391
0.963629842 0.731114924 0.228939205
0.648297310 0.667010367 0.178695366
0.695629418 0.668453813 0.139516875
0.761059463 0.676251829 0.118829742
0.801422656 0.688618481 0.131887004
0.836311281 0.699356318 0.144832075
0.865442157 0.708432794 0.155459315
0.891634226 0.717612743 0.167372942
0.911179841 0.726343811 0.180566370
0.925920904 0.733812988 0.190747932
0.936063528 0.739216685 0.201161936
0.944193423 0.742158771 0.209764123
0.949492097 0.745090187 0.217411131
0.952851951 0.748046517 0.228035137
0.955218554 0.750099301 0.240828693
0.958926439 0.751666784 0.248414829
0.961866319 0.753404975 0.252878994
0.964869261 0.751231968 0.246531695
0.676156223 0.683312893 0.171940938
0.720440567 0.683268249 0.134380504
0.787607133 0.690836132 0.112574622
0.824173570 0.704407454 0.129927695
0.857977688 0.715362966 0.143956244
0.881946802 0.724198937 0.157934815
0.902760744 0.733150899 0.172440872
0.920770407 0.741431057 0.185174063
0.932340086 0.748164892 0.196085691
0.941341400 0.753673613 0.206171051
0.947671890 0.757863104 0.214916617
0.952331662 0.760550022 0.223320931
0.956238747 0.763052404 0.228882745
0.957668424 0.765682697 0.243467897
0.959494770 0.767256320 0.255685508
0.961886287 0.768515050 0.261558264
0.963619828 0.769029558 0.262244552
0.009463000 0.050935999 0.090752244
0.011040000 0.053569503 0.094955750
0.036964752 0.058509126 0.101822004
0.081737325 0.062080625 0.105504692
0.145270497 0.059340999 0.102397874
0.210426614 0.055685751 0.099116810
0.269508779 0.052179500 0.095281877
0.322572231 0.048596311 0.091095567
0.366568625 0.045822002 0.087888248
0.402612746 0.044828624 0.085941501
0.435535908 0.044096623 0.085323498
0.464130819 0.043264002 0.084252246
0.492056608 0.043356627 0.084758006
0.518138826 0.045597628 0.086534880
0.544288814 0.047770504 0.088166751
0.568458378 0.049753875 0.087846756
0.591779351 0.052428875 0.088845000
0.009463000 0.068950064 0.100964621
0.015623251 0.077525251 0.106837250
0.051116064 0.082711004 0.115936130
0.119558714 0.085458308 0.116137438
0.196601808 0.084751002 0.108614869
0.266610801 0.081724629 0.099253252
0.327953935 0.079708621 0.092727751
0.380013168 0.078772947 0.088405944
0.423775256 0.076815002 0.084525749
0.460513443 0.075818434 0.081403382
0.493199170 0.077910684 0.080112502
0.521870255 0.080732748 0.080588751
0.546780348 0.083295628 0.080996312
0.569659948 0.086221077 0.081706636
0.593557596 0.090499260 0.083968878
0.617507935 0.094222501 0.086154312
0.638346255 0.096332118 0.087111250
0.010251000 0.104086749 0.114964880
0.022376126 0.120742127 0.126467437
0.064954877 0.134336755 0.128145739
0.150764152 0.142937317 0.129024863
0.240504757 0.144617870 0.118323244
0.319649309 0.145265996 0.108022504
0.385941386 0.145435378 0.101669252
0.441506147 0.146228746 0.097405061
0.487366557 0.148256376 0.094374120
0.525503337 0.151145995 0.091697685
0.558280528 0.153440773 0.090043619
0.587761283 0.157448679 0.090666629
0.613856673 0.163410753 0.093393251
0.638265550 0.170311555 0.096834250
0.661399007 0.173722997 0.099696502
0.684815943 0.174695373 0.100519255
0.704962969 0.174169511 0.100992367
0.016067129 0.152062580 0.133733317
0.042000506 0.171580017 0.136131689
0.103107952 0.190517068 0.140541434
0.189607918 0.212721825 0.135328814
0.299022019 0.219873697 0.123070061
0.384372860 0.222735822 0.112019807
0.451162219 0.225393385 0.103205815
0.508611619 0.228136763 0.095963188
0.555541217 0.230335400 0.092494749
0.593258262 0.234697029 0.091905996
0.626134098 0.239308938 0.091818124
0.654507518 0.242950201 0.092588745
0.679042459 0.248213232 0.095353253
0.700487792 0.253043264 0.098977566
0.721709847 0.254802853 0.101561628
0.743220568 0.253665030 0.102342620
0.761093616 0.250933528 0.101343378
0.038147502 0.214615881 0.151066363
0.081274807 0.231506079 0.149302751
0.156577885 0.257613242 0.145953119
0.249032021 0.282880813 0.127072304
0.352137357 0.302568763 0.123871744
0.441800594 0.306586683 0.113781869
0.509340644 0.309403509 0.104731753
0.562699795 0.313068986 0.098784566
0.609734237 0.316605866 0.095142879
0.649740577 0.321771830 0.094187438
0.684228897 0.328867376 0.094628505
0.712449074 0.333718389 0.096493192
0.734289467 0.336282372 0.099982627
0.754234076 0.338696390 0.104123324
0.773772061 0.340226740 0.106694251
0.792209387 0.335472614 0.106481500
