public/lut/07.cube
TITLE "17x17x17 Adobe/IRIDAS cube 3D LUT exported with GrossGrade v0.2.2 (beta) 64 bit"
DOMAIN_MIN 0 0 0
DOMAIN_MAX 1 1 1
LUT_3D_SIZE 5
0.011040000 0.051686000 0.052347001
0.175714746 0.058813252 0.039034251
0.392969519 0.050347999 0.029966000
0.519548237 0.056352001 0.029177003
0.616035998 0.074157998 0.037062999
0.070023254 0.188875496 0.060904749
0.408795774 0.287741244 0.023460250
0.655078769 0.327668488 0.012222751
0.776044726 0.361647487 0.019320000
0.837834001 0.370328009 0.031543251
0.394083500 0.451750517 0.033514500
0.677273750 0.532643199 0.067540258
0.837695479 0.567915976 0.080968499
0.901018739 0.573107481 0.083203003
0.936333001 0.574216008 0.086503997
0.634066761 0.605874002 0.089694254
0.799453735 0.646709263 0.115167007
0.916151524 0.681014001 0.144851744
0.951273739 0.694347501 0.157633498
0.963679254 0.686613023 0.152103752
0.742030978 0.680496991 0.116042003
0.875483274 0.718337238 0.144926012
0.940376043 0.748567998 0.186495006
0.959582031 0.762096524 0.216460004
0.967593014 0.766834974 0.221378997
0.009463000 0.052347001 0.137056500
0.116447501 0.062515251 0.174008995
0.345097005 0.051351748 0.186866760
0.482950509 0.044369500 0.181980997
0.588628292 0.046181001 0.174957007
0.017742751 0.216434255 0.240808740
0.228305757 0.289812028 0.256871015
0.520966530 0.299074531 0.252893239
0.661687016 0.309137523 0.238935754
0.768123507 0.299625993 0.217295244
0.171837762 0.439425051 0.327280760
0.434419274 0.510050237 0.297031283
0.684238970 0.551122248 0.319216728
0.806572080 0.559352994 0.318017244
0.876740754 0.528026283 0.296936750
0.373677254 0.583718479 0.396413237
0.588431835 0.636612773 0.316006005
0.784717739 0.676808000 0.349083513
0.884749293 0.696354747 0.385215521
0.919843733 0.685878992 0.420135021
0.503625512 0.677362263 0.401241243
0.695173979 0.736085236 0.368907005
0.790325284 0.764555693 0.454364479
0.869554520 0.795086741 0.535338044
0.930496216 0.817039490 0.608579993
0.010251000 0.060462002 0.214146018
0.046111748 0.061054751 0.246212989
0.255243003 0.064236999 0.261712998
0.405886531 0.057898249 0.279954016
0.520758033 0.054614499 0.283235490
0.017742751 0.218745247 0.331372231
0.098079756 0.250766009 0.349973500
0.356397510 0.268401027 0.368767738
0.547743499 0.266538024 0.373095751
0.701066494 0.250069737 0.339091748
0.060455002 0.396651506 0.433736026
0.209691763 0.451271266 0.450658262
0.491440535 0.513655007 0.467463493
0.671106517 0.505665958 0.462552011
0.806335986 0.461791992 0.398000002
0.139568001 0.538805246 0.500967979
0.326153517 0.588953972 0.500719488
0.577646971 0.640962541 0.523347020
0.770006537 0.682798982 0.554468513
0.891667724 0.676939547 0.519871831
0.245160490 0.640240490 0.538172007
0.522778034 0.708431959 0.544675946
0.680630445 0.767956972 0.568192482
0.812022805 0.803648472 0.621058762
0.914648533 0.833070993 0.708317995
0.011829000 0.082762748 0.286124021
0.020897251 0.057128251 0.262829989
0.164228767 0.064803004 0.296653032
0.333288997 0.064662002 0.314063728
0.470729500 0.069867507 0.339553475
0.018728750 0.229971260 0.398133278
0.039411001 0.225812748 0.385807991
0.200877249 0.224448502 0.386785001
0.421151757 0.252016246 0.412231743
0.603743255 0.240095496 0.415824980
0.037654500 0.373714030 0.479314506
0.101794004 0.406107008 0.487195730
0.350562990 0.464172006 0.504060030
0.532660246 0.478491008 0.525325239
0.726966977 0.419641286 0.480539501
0.076538250 0.507711470 0.558974445
0.171902001 0.548251510 0.564253569
0.425473750 0.605546474 0.586790442
0.635204494 0.663430214 0.615898490
0.847143054 0.637705743 0.596938789
0.109241247 0.597385764 0.601951003
0.320554495 0.685859025 0.630403757
0.512811244 0.742813468 0.668255508
0.708766937 0.798786759 0.715114713
0.905614972 0.847011745 0.775268495
0.014194000 0.103784002 0.342913985
0.011631751 0.054134000 0.268170238
0.089073002 0.061055999 0.307295024
0.248597756 0.071321003 0.345474005
0.425637990 0.072104000 0.377364993
0.018137001 0.232734501 0.441876739
0.018728750 0.193753511 0.409144998
0.050093759 0.165800750 0.382907748
0.254266769 0.204423755 0.423072755
0.499210507 0.234565258 0.464550257
0.027206000 0.359128505 0.516759992
0.030162752 0.339310020 0.503204226
0.060952507 0.329788029 0.494183004
0.265430033 0.355341017 0.505493522
0.585430026 0.405661017 0.552379966
0.041374501 0.469506741 0.584925771
0.054567255 0.469027758 0.575646996
0.147010759 0.514568269 0.596902490
0.399114788 0.572509766 0.638667285
0.733239532 0.612388015 0.683516026
0.061643001 0.553928971 0.641011000
0.124084249 0.611377001 0.656528473
0.261506021 0.681957483 0.698825002
0.544747531 0.774138749 0.765287519
0.890339971 0.859215975 0.844358981
