public/lut/08.cube
TITLE "17x17x17 Adobe/IRIDAS cube 3D LUT exported with GrossGrade v0.2.2 (beta) 64 bit"
DOMAIN_MIN 0 0 0
DOMAIN_MAX 1 1 1
LUT_3D_SIZE 5
0.022869000 0.047596000 0.048294000
0.107803002 0.053488750 0.043264002
0.288531005 0.055250999 0.037457500
0.456455261 0.049838752 0.038246252
0.602083027 0.048294000 0.051686000
0.132058010 0.194674492 0.060602501
0.320317507 0.248248264 0.037259750
0.553426266 0.270896763 0.012222999
0.690481722 0.287786245 0.014588251
0.777178526 0.253651023 0.040602751
0.344662011 0.411528528 0.031148501
0.488452494 0.452987522 0.029966000
0.714020967 0.497698009 0.032726005
0.813449502 0.491725266 0.043043502
0.861065507 0.448619008 0.092506006
0.386920989 0.503533721 0.036865503
0.532459736 0.538953185 0.045270503
0.732424736 0.584408760 0.078104511
0.847035289 0.601777256 0.108736008
0.880618513 0.593658984 0.289313495
0.590967000 0.672838986 0.337503999
0.608981013 0.678291798 0.345501006
0.669392467 0.694687009 0.388251990
0.778869271 0.731037021 0.446963489
0.921827972 0.791984975 0.581539989
0.020502999 0.048294000 0.140627757
0.070737749 0.054134000 0.151615754
0.251982778 0.057744749 0.177797496
0.413484782 0.048465002 0.193342000
0.573021770 0.043819748 0.174927264
0.032922998 0.187212259 0.227158502
0.171706244 0.244579256 0.248179749
0.407246739 0.270686775 0.256588757
0.566686749 0.284752488 0.250929773
0.714998484 0.253319502 0.205313265
0.104728505 0.377200007 0.280360520
0.306841254 0.431225032 0.307366759
0.546426713 0.490169495 0.314642012
0.689368248 0.495961249 0.311094522
0.820950747 0.454043508 0.257988006
0.193625510 0.478799522 0.273200274
0.365257502 0.523438275 0.303905517
0.583936453 0.576412261 0.317801535
0.747379243 0.607804775 0.340450495
0.874078512 0.600326538 0.351416230
0.561373770 0.671924531 0.395759761
0.585847020 0.681474209 0.395737261
0.660125017 0.705336511 0.423374474
0.773408771 0.739141226 0.483585030
0.920369506 0.796547771 0.602081776
0.023657000 0.061641499 0.243714511
0.038834501 0.052673001 0.222847998
0.191866487 0.064236999 0.261336982
0.352297008 0.074142501 0.280078501
0.513109982 0.060462002 0.268189013
0.031148501 0.199349761 0.337398499
0.093438499 0.231121495 0.330611736
0.282256752 0.257219255 0.352617979
0.477730274 0.283315241 0.380671263
0.653123260 0.232786760 0.310099006
0.042516001 0.345561504 0.422531009
0.157810241 0.404919028 0.433580250
0.411714017 0.462514460 0.451668978
0.591523528 0.483432502 0.457809508
0.758285463 0.416166008 0.342398494
0.065635003 0.455902755 0.446856022
0.182154000 0.506714225 0.462614983
0.466196239 0.564683437 0.493906736
0.644229770 0.609742284 0.509757817
0.861472011 0.610243797 0.460883021
0.448213488 0.656894445 0.516433001
0.486309767 0.667907715 0.524499536
0.599861979 0.709373474 0.552186012
0.748504221 0.762266517 0.585887015
0.915553451 0.810456991 0.674766541
0.026812000 0.085957751 0.312953502
0.025825750 0.054774247 0.257485002
0.137001991 0.066616245 0.308427751
0.307638496 0.083572492 0.338246226
0.485416502 0.098214254 0.358322501
0.030754000 0.209701255 0.407479256
0.049944997 0.219106495 0.375911236
0.181096762 0.228557751 0.380029768
0.379472464 0.254895508 0.417160004
0.527155280 0.151794255 0.381924242
0.038640000 0.337056249 0.482538223
0.080055997 0.372895002 0.477800012
0.315743983 0.441756755 0.497795284
0.478121519 0.462670565 0.522666216
0.703621686 0.426571488 0.478200018
0.040217001 0.410420269 0.525877953
0.086299494 0.466872483 0.534098744
0.348401994 0.552114487 0.568143010
0.561488032 0.599889517 0.592176259
0.807327509 0.587138534 0.562724531
0.219121233 0.629154205 0.606460750
0.334993243 0.665900052 0.627123475
0.496581495 0.711328208 0.657327235
0.707610786 0.772259712 0.700541258
0.899723470 0.821179271 0.757982969
0.028388999 0.104542002 0.351197988
0.025234001 0.056664001 0.279256761
0.089750506 0.068934001 0.323949009
0.244481504 0.089483008 0.367547750
0.443327010 0.091744997 0.405191004
0.031543002 0.210228503 0.436348736
0.030556999 0.181124493 0.400419742
0.071872763 0.160924762 0.372824758
0.249812007 0.133309245 0.393754274
0.446837008 0.092168003 0.408771992
0.037062999 0.320251495 0.507872999
0.037851498 0.319580019 0.504040718
0.150731027 0.385475516 0.519553542
0.324559510 0.394741267 0.534466982
0.613477468 0.416547000 0.566102505
0.040217001 0.385053992 0.554115772
0.040799752 0.391779542 0.556768537
0.216865778 0.514718056 0.602849960
0.478035808 0.572624028 0.655421793
0.768825293 0.593704283 0.695766270
0.041758999 0.422966003 0.583711982
0.082457259 0.552300513 0.643799305
0.361971498 0.689309001 0.707686007
0.648609281 0.770076990 0.768040240
0.882440984 0.839645028 0.823904991
