public/lut/08.cube
TITLE "17x17x17 Adobe/IRIDAS cube 3D LUT exported with GrossGrade v0.2.2 (beta) 64 bit"
DOMAIN_MIN 0 0 0
DOMAIN_MAX 1 1 1
LUT_3D_SIZE 17
0.022869000 0.047596000 0.048294000
0.023657000 0.046891998 0.047639623
0.037063375 0.048294000 0.046979997
0.069720067 0.050092436 0.043264002
0.107803002 0.053488750 0.043264002
0.150429681 0.055369873 0.041233063
0.196766272 0.057822749 0.039724503
0.243188828 0.057090811 0.038196750
0.288531005 0.055250999 0.037457500
0.331954002 0.053651001 0.037062999
0.374834001 0.052347001 0.037062999
0.416778207 0.051020000 0.037062999
0.456455261 0.049838752 0.038246252
0.495738357 0.052469816 0.042656254
0.535464585 0.054933999 0.047596000
0.571401119 0.052961059 0.049753442
0.602083027 0.048294000 0.051686000
0.023607749 0.050849624 0.049583063
0.025135439 0.051517189 0.049626250
0.042940125 0.054048311 0.048337188
0.081163064 0.057043374 0.043402940
0.124905124 0.061630499 0.042516001
0.171809867 0.063622311 0.038935810
0.220123395 0.065322123 0.037408125
0.269342899 0.065880373 0.035880063
0.314623624 0.064966813 0.035140749
0.357470572 0.063829876 0.034746312
0.399169385 0.063507184 0.034746312
0.439900041 0.062314004 0.034746312
0.478266329 0.061691001 0.036274001
0.515653610 0.064067185 0.039576754
0.551484406 0.065584816 0.043356631
0.585354209 0.061737619 0.046269882
0.612691700 0.054048311 0.048379939
0.040974874 0.077964626 0.058353752
0.041024126 0.077964626 0.057781626
0.071675122 0.089174882 0.053731501
0.129811078 0.099058501 0.048422374
0.190258622 0.106980756 0.043356627
0.254904568 0.112664372 0.035436373
0.314925283 0.116988629 0.030656001
0.368499160 0.120229259 0.026663812
0.417075872 0.124341875 0.024445748
0.460341632 0.127350375 0.023263250
0.498328626 0.129625008 0.022572875
0.533663630 0.131109506 0.023608124
0.566577077 0.131748870 0.026614500
0.597615361 0.133509129 0.031197693
0.627245605 0.134149760 0.036668509
0.653362989 0.126745671 0.041947696
0.675481498 0.112824880 0.044918373
0.075500265 0.128235072 0.065435059
0.075500265 0.128235072 0.064908251
0.108633883 0.141445637 0.056895878
0.185919702 0.161881506 0.049922314
0.253568769 0.171758324 0.042457934
0.327329636 0.179416567 0.032578062
0.390144140 0.184545517 0.024692185
0.443674594 0.190236628 0.019763872
0.493921101 0.195965320 0.015672874
0.538139939 0.202383757 0.013356499
0.575354218 0.208007753 0.012272436
0.607585907 0.211149827 0.013947936
0.637168944 0.213264316 0.017052935
0.665216446 0.216950893 0.022031128
0.690617442 0.215682879 0.028980320
0.712847948 0.202939361 0.037309509
0.733535230 0.185722888 0.042656250
0.132058010 0.194674492 0.060602501
0.132120445 0.194526762 0.060151748
0.164061382 0.205715880 0.053151499
0.239333212 0.229848817 0.046212681
0.320317507 0.248248264 0.037259750
0.390187681 0.256003708 0.027945312
0.452402920 0.258167118 0.021784747
0.505191505 0.264404505 0.015672935
0.553426266 0.270896763 0.012222999
0.596113682 0.275772631 0.010251000
0.632562280 0.280617267 0.009758500
0.663387477 0.285999209 0.011878001
0.690481722 0.287786245 0.014588251
0.714695513 0.288372070 0.020009881
0.737438500 0.287834764 0.027895760
0.759482622 0.277309239 0.035042133
0.777178526 0.253651023 0.040602751
0.195534438 0.262483329 0.051177375
0.195587933 0.262348652 0.050546814
0.225877121 0.271560788 0.044773873
0.293546021 0.292915285 0.039421938
0.374606997 0.316398561 0.033169750
0.451238334 0.331913710 0.026515814
0.512908995 0.337903947 0.019270811
0.559958518 0.336573631 0.015869623
0.603622377 0.339470625 0.013553749
0.644488275 0.344780803 0.011582438
0.678283811 0.348716438 0.012666625
0.705738246 0.349790245 0.014736438
0.730018795 0.350998372 0.018088002
0.751649737 0.351472616 0.024396820
0.772531748 0.349050194 0.032922946
0.792441249 0.337338746 0.039772756
0.808067560 0.310876757 0.042279437
0.254040003 0.321812272 0.042601246
0.254320323 0.321812272 0.042123124
0.282889903 0.330031008 0.037259873
0.346669853 0.350040525 0.034352437
0.418726027 0.370364249 0.031247124
0.494301766 0.388774455 0.028585939
0.557512283 0.398981512 0.023361500
0.607237220 0.403892606 0.019763315
0.648936987 0.403271109 0.017151626
0.684756219 0.404642195 0.017545627
0.716465533 0.407003641 0.018334627
0.741466701 0.406932771 0.020946503
0.763320148 0.405647010 0.024248878
0.782022119 0.405320764 0.031395260
0.798107743 0.400426507 0.040487636
0.816323340 0.386951238 0.048712067
0.833214879 0.363979518 0.051752128
0.309095591 0.373238921 0.035042185
0.309540927 0.373238921 0.034598935
0.336808324 0.381102711 0.030655935
0.391257942 0.399322271 0.030901937
0.460110486 0.417504966 0.029965999
0.528035522 0.433835149 0.029719440
0.593255818 0.447639704 0.028782940
0.645152986 0.454565823 0.025677815
0.687220216 0.458939970 0.024544066
0.719947457 0.456100225 0.023410879
0.745967984 0.453787357 0.026417129
0.771758735 0.454969168 0.028388880
0.791800737 0.454073966 0.033465132
0.805087686 0.448993444 0.041926824
0.818637609 0.442950338 0.049556892
0.834875643 0.431289822 0.058916260
0.851325691 0.408464223 0.063950635
0.344662011 0.411528528 0.031148501
0.345150471 0.411528528 0.031148501
0.373377502 0.419155538 0.027107500
0.426832497 0.436467588 0.028635249
0.488452494 0.452987522 0.029966000
0.553524256 0.468466699 0.031937502
0.616036892 0.482347012 0.034401629
0.673880100 0.492930055 0.032331504
0.714020967 0.497698009 0.032726005
0.749598861 0.500533342 0.032726005
0.775572658 0.498054862 0.034499876
0.794768929 0.494092703 0.038735066
0.813449502 0.491725266 0.043043502
0.825759530 0.487946451 0.051697761
0.837332904 0.480249643 0.061391518
0.850693703 0.469815373 0.070710517
0.861065507 0.448619008 0.092506006
0.370269299 0.442174315 0.029966000
0.370758742 0.442207575 0.029966000
0.397590011 0.449016184 0.025924375
0.454167664 0.467034370 0.028241063
0.510055721 0.482050508 0.031690937
0.572464705 0.496826470 0.034795940
0.631904542 0.509952843 0.039034441
0.689446628 0.522115469 0.042321812
0.732891321 0.528379798 0.040497627
0.766495287 0.531482816 0.042311311
0.797012806 0.533185899 0.043760002
0.815881073 0.528925896 0.048443623
0.828940868 0.523722470 0.055497941
0.839837790 0.520783246 0.065504253
0.851495743 0.513916731 0.075530201
0.864007175 0.501994610 0.086350948
0.868625402 0.487733126 0.128596991
0.383818626 0.466264874 0.030754000
0.384180307 0.466305941 0.030754000
0.409958869 0.472109377 0.026220251
0.465916961 0.489566624 0.029965814
0.525366366 0.504388511 0.034598626
0.582631528 0.517963469 0.039523065
0.639035106 0.530330122 0.044445876
0.693465590 0.542081594 0.050126128
0.741998315 0.551382899 0.051501747
0.775747180 0.555122972 0.052248124
0.803503752 0.557092726 0.055932626
0.830076873 0.558191836 0.058992065
0.842961788 0.553961992 0.067805126
0.849448562 0.548707485 0.081284888
0.858792007 0.542667627 0.094623521
0.873243928 0.532379270 0.104766384
0.874327779 0.523155391 0.172722489
0.388177365 0.486568928 0.032331999
0.388628930 0.486505181 0.032331999
0.414762706 0.491288751 0.028536625
0.471862376 0.507834911 0.033070877
0.533630908 0.523095131 0.039280999
0.588959932 0.535980999 0.045673937
0.641699493 0.547725320 0.052657813
0.693101585 0.559071481 0.059209753
0.740453005 0.569434524 0.064426996
0.779029489 0.575726688 0.065100059
0.806847513 0.578337848 0.069068372
0.830545545 0.579634309 0.076299250
0.851299822 0.580341518 0.083557434
0.857583404 0.574946046 0.099020578
0.865441322 0.569109321 0.115965769
0.878612459 0.561495721 0.128792629
0.877321362 0.556820273 0.227160007
0.386920989 0.503533721 0.036865503
0.387191743 0.503566265 0.036865503
0.409670740 0.507118762 0.031543128
0.471140414 0.523532987 0.037950382
0.532459736 0.538953185 0.045270503
0.588825941 0.551815987 0.053308066
0.640290022 0.563394785 0.062637754
0.688807547 0.574366510 0.070904382
0.732424736 0.584408760 0.078104511
0.773053825 0.593417346 0.083861940
0.805760264 0.598221958 0.085981630
0.827378690 0.600734353 0.097439632
0.847035289 0.601777256 0.108736008
0.863760293 0.601116657 0.120042026
0.871252120 0.595087528 0.139499009
0.882121086 0.589499474 0.159343213
0.880618513 0.593658984 0.289313495
0.392368793 0.521326363 0.044546321
0.392769337 0.521326363 0.044413008
0.409987539 0.523485780 0.036767133
0.467762738 0.538958430 0.044450007
0.527942836 0.554204166 0.053470451
0.585966885 0.567535281 0.063859642
0.636138082 0.578859091 0.074666075
0.680703580 0.589606225 0.085168712
0.721485496 0.599313021 0.094954766
0.759809971 0.608601570 0.104196586
0.794673324 0.616873682 0.112038523
0.822598934 0.622244179 0.119620018
0.842578411 0.624249160 0.134588212
0.859870553 0.624427199 0.150294855
0.873694360 0.621389687 0.168404743
0.887909293 0.617491364 0.188846797
0.889897883 0.631508589 0.336801231
0.400994629 0.540880144 0.052590508
0.401135206 0.540880144 0.052590508
0.412891388 0.541856706 0.044080384
0.463606119 0.554892063 0.051214509
0.523771405 0.570041120 0.062716387
0.580407798 0.584034443 0.075024948
0.630295873 0.595769227 0.087771393
0.671073198 0.605649889 0.100705899
0.709661961 0.615537405 0.112894014
0.745911360 0.624930561 0.124682263
0.778373361 0.633304358 0.134696886
0.809462249 0.641201973 0.145210460
0.836919129 0.648691535 0.160843283
0.855667889 0.649555445 0.179954544
0.874085605 0.648506701 0.200281918
0.891596496 0.647099912 0.221991107
0.899714231 0.673601270 0.391871065
0.420596927 0.564326346 0.059341852
0.420606911 0.564326346 0.059341852
0.427846551 0.564594746 0.052294105
0.470403761 0.574843049 0.055757858
0.522002518 0.587933362 0.067634039
0.575673282 0.601489007 0.082976721
0.624449372 0.613541543 0.097710170
0.665426850 0.624062181 0.111865230
0.701045930 0.633677244 0.126414418
0.731955588 0.642425478 0.141673476
0.762517512 0.651102424 0.156041160
0.792599142 0.659826517 0.170803964
0.821861386 0.667982042 0.184308857
0.850053668 0.677491844 0.207218438
0.874047220 0.680484295 0.231138155
0.894530594 0.678702354 0.255302668
0.914368510 0.723789990 0.453627765
0.590967000 0.672838986 0.337503999
0.590967000 0.672838986 0.337503999
0.592710376 0.673385501 0.337905228
0.599403560 0.675510287 0.340347677
0.608981013 0.678291798 0.345501006
0.619894266 0.681152463 0.354090631
0.634358764 0.685127735 0.363379359
0.651274502 0.689958930 0.374920189
0.669392467 0.694687009 0.388251990
0.690682054 0.701191783 0.403132677
0.716313660 0.709774494 0.419118524
0.745995224 0.720131695 0.434891760
0.778869271 0.731037021 0.446963489
0.814982235 0.745175660 0.470778048
0.855007946 0.762445211 0.504938185
0.896021366 0.779228330 0.540776074
0.921827972 0.791984975 0.581539989
0.021390561 0.046225440 0.054731000
0.022129312 0.046891998 0.056540437
0.034056313 0.048941813 0.058878187
0.066354133 0.050262813 0.058335125
0.108243816 0.052223064 0.057571441
0.151944190 0.053488750 0.056330316
0.199231073 0.054973625 0.056674004
0.245009586 0.054374561 0.055261251
0.287421942 0.052097999 0.053743001
0.326777935 0.050134562 0.053093940
0.366363883 0.048811063 0.053380750
0.405485272 0.046800625 0.053787876
0.442912132 0.045415062 0.053992063
0.482668847 0.045639936 0.057841066
0.522407234 0.046309248 0.061883189
0.558015466 0.043399561 0.062899679
0.589098990 0.039621938 0.061927751
0.022129312 0.050262813 0.057161689
0.022129314 0.050262813 0.057737313
0.039329942 0.056499124 0.062853999
0.077344939 0.057660561 0.060470376
0.120842062 0.061480250 0.059315003
0.166717127 0.062904939 0.057681251
0.214994580 0.064405188 0.056867436
0.262664199 0.064267434 0.056243502
0.307316571 0.062798999 0.054981310
0.348718256 0.061672248 0.054981314
0.388729870 0.062144879 0.055848502
0.428711444 0.062470566 0.057443067
0.467717588 0.062866561 0.058667123
0.507353425 0.064826563 0.062448885
0.546337366 0.067463934 0.066862881
0.582324684 0.065101124 0.069443814
0.612691700 0.058184374 0.067898378
0.036570124 0.079798564 0.066771254
0.037309814 0.080653444 0.067284502
0.067035004 0.093028747 0.067789681
0.124876946 0.103023000 0.062377002
0.185241133 0.109221071 0.058779810
0.245381743 0.114382938 0.053047378
0.302917153 0.116899751 0.048287690
0.353980303 0.119666122 0.046044439
0.400112242 0.123585373 0.045102313
0.441988885 0.125543490 0.045458872
0.480251223 0.127581194 0.046437126
0.515198529 0.130130813 0.047185313
0.548345804 0.132308066 0.050286688
0.581141651 0.134192556 0.056049008
0.614927053 0.135783628 0.061177131
0.644747019 0.130386487 0.064085066
0.669362366 0.115515120 0.064663127
0.072472759 0.130938709 0.074388370
0.073027633 0.131264582 0.074452370
0.104518257 0.145124257 0.068508439
0.183261752 0.167166829 0.061401129
0.251408964 0.178085253 0.056670062
0.321092188 0.184538200 0.049111627
0.384255290 0.188631564 0.040295560
0.436041713 0.193440139 0.036126308
0.484249592 0.198947325 0.032331746
0.527813971 0.204899877 0.030507684
0.564626575 0.208971694 0.029818123
0.595848382 0.211945951 0.031937622
0.625392199 0.214755252 0.037013687
0.654195845 0.218147010 0.044586439
0.682114065 0.216598377 0.050741002
0.706929564 0.205072120 0.055280000
0.729568899 0.187228575 0.055890627
0.127512634 0.197069690 0.072603628
0.128343940 0.197454691 0.072215125
0.161211818 0.209635735 0.064218812
0.233060896 0.232265070 0.058106311
0.314586133 0.252155751 0.051860750
0.383453935 0.261095762 0.042853378
0.446939558 0.262293637 0.036224872
0.499963224 0.268340379 0.029374188
0.545669734 0.274399996 0.025924500
0.587101281 0.278628558 0.023361251
0.624330521 0.283680409 0.023016311
0.655383527 0.289213568 0.024889126
0.681816936 0.292032719 0.029670252
0.706497192 0.291092366 0.036175758
0.731431782 0.290048540 0.043041382
0.755255818 0.279664397 0.048728503
0.774402916 0.253890276 0.050660122
0.188985258 0.264360756 0.063358627
0.189542815 0.264648795 0.062962629
0.222688124 0.275256008 0.055229373
0.287493944 0.294895560 0.050785936
0.367396027 0.318630010 0.045562997
0.444491237 0.335705906 0.038735624
0.508072972 0.342589080 0.031000562
0.553676367 0.339744568 0.028782811
0.595699012 0.341823131 0.025579501
0.634858668 0.346767366 0.023607999
0.670171559 0.350970954 0.023657313
0.697732925 0.352062911 0.026220251
0.721067190 0.353259742 0.030507814
0.744165182 0.353365302 0.036224883
0.767139792 0.350880593 0.045328692
0.788942456 0.338959426 0.049635630
0.805552483 0.311626822 0.051039439
0.244928002 0.322802663 0.054023873
0.245804578 0.323156059 0.054023873
0.276248842 0.331894815 0.047834061
0.339544535 0.351145893 0.044896685
0.410849899 0.371637017 0.042306498
0.487421244 0.391036034 0.039083816
0.551440954 0.402115494 0.034648001
0.601742685 0.406836540 0.030261189
0.640953302 0.405118346 0.027945314
0.676133156 0.405874431 0.028043501
0.708244741 0.408359528 0.028635193
0.733594060 0.408295542 0.031198127
0.755313754 0.406893462 0.034796003
0.774913073 0.406352222 0.041820511
0.792838335 0.401030898 0.050053012
0.813051581 0.388210863 0.057286568
0.831641614 0.364260435 0.057413753
0.297196597 0.373214632 0.045164622
0.297532231 0.373359770 0.045164622
0.328342438 0.381723702 0.040541373
0.382931113 0.399667352 0.040932685
0.451751649 0.417816222 0.040015563
0.519378066 0.434337556 0.039674878
0.584732711 0.448639721 0.039330065
0.637323201 0.455490798 0.035436377
0.679123700 0.459336221 0.033563502
0.711433053 0.456157684 0.032331690
0.737904906 0.454188347 0.035584316
0.764204144 0.455559373 0.037407883
0.784403205 0.454558045 0.042664696
0.798796237 0.449356735 0.050299451
0.814014912 0.443314463 0.058119517
0.832180142 0.432146192 0.066034138
0.848985255 0.408875942 0.071368389
0.332262188 0.411087304 0.040162690
0.332692713 0.411211818 0.040162690
0.362539798 0.418471277 0.035929501
0.417885244 0.436052829 0.038147125
0.479610294 0.452721834 0.039576437
0.544994354 0.468694329 0.040884372
0.607649565 0.482773662 0.042914625
0.666249394 0.493755192 0.041312188
0.706448615 0.498170912 0.041312188
0.742275357 0.500750959 0.040544439
0.768395126 0.498212516 0.042013314
0.787663817 0.494062930 0.046931062
0.806833327 0.491964251 0.051555499
0.820323646 0.488332689 0.059592694
0.832950234 0.480566919 0.068853945
0.847855210 0.470301032 0.077699512
0.859047830 0.449381828 0.099695191
0.357951880 0.441698939 0.037457690
0.358750820 0.441987365 0.037457690
0.387638748 0.448281944 0.032922875
0.444986939 0.466374487 0.036471501
0.501514077 0.481610566 0.039576437
0.564321041 0.496760458 0.042915061
0.624086738 0.510032535 0.046592377
0.681902170 0.522497773 0.050694939
0.726123273 0.528928518 0.048784189
0.759896696 0.531680226 0.050098315
0.790308893 0.533185542 0.051071748
0.809865415 0.529048443 0.055600252
0.823576748 0.523970723 0.062542692
0.835546970 0.521041811 0.072212696
0.847835481 0.514055908 0.082389951
0.861724675 0.502248883 0.092323266
0.867141008 0.488254994 0.134625122
0.371374696 0.465693563 0.036767311
0.371965498 0.465828747 0.036767311
0.399116993 0.470998138 0.032922875
0.456330121 0.488584131 0.036816686
0.516874373 0.503728509 0.041738562
0.575112343 0.517647922 0.046594061
0.631842256 0.530238390 0.051945753
0.686460018 0.542174459 0.057831690
0.735494494 0.551917374 0.059649877
0.770155728 0.555634677 0.059423000
0.798390448 0.557498455 0.062803686
0.825383723 0.558628976 0.065623939
0.838872015 0.554290533 0.074414693
0.845583916 0.548963666 0.088258952
0.855956018 0.542838156 0.100668631
0.871502280 0.532554567 0.109674752
0.873335302 0.523415387 0.177197188
0.377538949 0.485911816 0.037556250
0.377685815 0.485954314 0.037556250
0.404248118 0.490265608 0.033810437
0.462858349 0.506932855 0.039182313
0.525463760 0.522651017 0.045930628
0.581915379 0.535655975 0.052439377
0.635532677 0.547688484 0.059567939
0.687031984 0.559111357 0.066203438
0.734686255 0.569619656 0.071546994
0.774235785 0.576329470 0.072489433
0.802550256 0.578868091 0.075620934
0.826595068 0.580220878 0.082951501
0.847886384 0.580897093 0.090332069
0.854768455 0.575253367 0.104749396
0.863546729 0.569312274 0.120730452
0.877263665 0.561648905 0.133151248
0.876591325 0.557053089 0.230572999
0.379016697 0.502867877 0.042027000
0.379650205 0.502990186 0.042027000
0.402034074 0.506468415 0.036664251
0.463607460 0.522832334 0.043106131
0.525726914 0.538641930 0.050741315
0.582819462 0.551659763 0.059380442
0.635246873 0.563454688 0.068827704
0.683680594 0.574473798 0.076961569
0.727690697 0.584533811 0.084365323
0.768706977 0.593768239 0.090473190
0.802162528 0.598850608 0.092534386
0.824230909 0.601229966 0.103521325
0.844489098 0.602171123 0.113892823
0.861674964 0.601452470 0.125220582
0.869654179 0.595245898 0.143826768
0.880970299 0.589669883 0.163029447
0.880360126 0.593944073 0.291533887
0.385833681 0.520907879 0.049271327
0.385833681 0.520907879 0.049271327
0.403507680 0.523559928 0.043150067
0.461735904 0.538489938 0.048532508
0.522369981 0.553863585 0.058253821
0.580774665 0.567503512 0.069196314
0.632085681 0.578975439 0.080260769
0.676532626 0.589706361 0.090853900
0.717627347 0.599454105 0.100462884
0.756310046 0.608822644 0.109738767
0.791472197 0.617179096 0.117848895
0.820185602 0.622727871 0.124628082
0.840727687 0.624690294 0.139035285
0.858294547 0.624719322 0.154527664
0.872536421 0.621599376 0.171984926
0.887272954 0.617765307 0.191935480
0.889903724 0.631591260 0.337475747
0.396600485 0.540659964 0.056776069
0.397084773 0.540716112 0.056776069
0.410091937 0.542797089 0.050838944
0.459287792 0.554670930 0.054313947
0.519861639 0.569949746 0.066489562
0.576519012 0.584024072 0.078777187
0.627046049 0.595904291 0.091901511
0.668342888 0.605859637 0.104771584
0.707175851 0.615824997 0.117123388
0.743433297 0.625166297 0.128749385
0.776025951 0.633563697 0.138817966
0.807446837 0.641483366 0.149321914
0.835275292 0.648998499 0.164737657
0.854427874 0.649951041 0.183407351
0.873244345 0.648817420 0.203192547
0.891133845 0.647378504 0.224441111
0.899691880 0.673739254 0.392451316
0.417620927 0.564217031 0.062151790
0.417646319 0.564220428 0.062151790
0.427947551 0.565935016 0.057702851
0.467924327 0.574949861 0.057543170
0.519182086 0.587960184 0.070547916
0.573108375 0.601649344 0.085569978
0.622093320 0.613732278 0.100384101
0.663316011 0.624307156 0.114882171
0.699088275 0.633935809 0.129644036
0.730069458 0.642652929 0.144857422
0.760667324 0.651326180 0.159369782
0.791121304 0.660089552 0.173795342
0.820726216 0.668252647 0.187095657
0.849213421 0.677827120 0.209568501
0.873429894 0.680745304 0.233180150
0.894299328 0.678956151 0.257136911
0.914395690 0.723866761 0.453986079
0.590710998 0.672923386 0.338211954
0.590710998 0.672923386 0.338211954
0.592457652 0.673469961 0.338612318
0.599233389 0.675589025 0.340744495
0.608818293 0.678425610 0.345910847
0.619681537 0.681246877 0.354551822
0.634164274 0.685301363 0.363984555
0.651165485 0.690105975 0.375555068
0.669244945 0.694792330 0.388736606
0.690581143 0.701335490 0.403660178
0.716144323 0.709842741 0.419471562
0.746000171 0.720333159 0.435450166
0.778790653 0.731095433 0.447375715
0.814922452 0.745242238 0.471102595
0.854948103 0.762473702 0.505129457
0.896021366 0.779335678 0.541224420
0.921743631 0.792053401 0.581900597
0.020502999 0.046713375 0.080976002
0.021242687 0.046803124 0.084013507
0.027304251 0.049409878 0.087465256
0.056690387 0.054011624 0.094661251
0.095927626 0.057206251 0.101086251
0.147530124 0.056038249 0.103722692
0.196659148 0.055012625 0.105231002
0.243963331 0.052633561 0.105698876
0.288005888 0.049327001 0.105086751
0.328008682 0.047375251 0.104086749
0.364195496 0.046000626 0.103706881
0.401175439 0.045326184 0.104034126
0.438164741 0.044004999 0.104034126
0.477582455 0.044142440 0.107555576
0.517046213 0.044737998 0.110173374
0.553543508 0.042468686 0.107412934
0.585112154 0.039330378 0.101769753
0.020502999 0.051432375 0.085349247
0.021193374 0.051388752 0.085286371
0.027255001 0.049409878 0.087967008
0.057227943 0.053529315 0.095043808
0.096307315 0.057206251 0.100824624
0.148635507 0.056311812 0.103800565
0.199529648 0.056502126 0.105086505
0.251650095 0.057313502 0.106227875
0.298448205 0.056176189 0.105544254
0.339325756 0.054914251 0.104387693
0.376777530 0.054190751 0.103820756
0.414679617 0.055255812 0.104855254
0.452652633 0.054884560 0.105413377
0.491454124 0.054923560 0.107872635
0.529685378 0.055479057 0.110622063
0.563137054 0.050441988 0.108125180
0.585770071 0.039756812 0.101407439
0.022770375 0.082340620 0.102782130
0.022770375 0.082741380 0.103441000
0.048093252 0.098530374 0.113877878
0.094280012 0.110460691 0.121892683
0.156204626 0.111769378 0.120662630
0.213285685 0.114624761 0.118343815
0.265426606 0.115824126 0.114892505
0.314184904 0.116782196 0.113569371
0.360308886 0.118697122 0.113203377
0.402889341 0.120392933 0.112672128
0.439827144 0.122632377 0.111608624
0.476162672 0.125062108 0.112987190
0.512800813 0.128504992 0.115776002
0.549489677 0.131426126 0.117915630
0.586104512 0.131562620 0.119337752
0.622391045 0.126624614 0.119145438
0.653719723 0.111762248 0.112504497
0.043688819 0.136599079 0.121463627
0.043834694 0.136891514 0.121722996
0.076991439 0.152518615 0.127906069
0.141719326 0.171659261 0.133065999
0.210585207 0.183891952 0.134258881
0.274615556 0.188219950 0.128708124
0.332247913 0.193039522 0.124349251
0.384365320 0.196297184 0.120458066
0.431831926 0.199087322 0.117776379
0.473814100 0.202713877 0.115813881
0.510572851 0.207928076 0.115918756
0.545879424 0.212019950 0.118213318
0.581101120 0.216766015 0.121508688
0.613872945 0.219548449 0.124663502
0.647718012 0.219348446 0.127886876
0.681762636 0.210713387 0.127152994
0.712408245 0.193070814 0.119073123
0.086491883 0.198371246 0.133278504
0.087237440 0.198595628 0.133095637
0.123388626 0.212638006 0.138034374
0.190515503 0.234626994 0.137861133
0.264826626 0.254058987 0.132588878
0.334717035 0.266932309 0.134755328
0.396336913 0.271019906 0.130298629
0.450841844 0.275664002 0.123393565
0.496807277 0.280089259 0.118073381
0.538963854 0.283371121 0.114904195
0.575679243 0.287678033 0.114228629
0.608649671 0.292534441 0.115155384
0.639372468 0.295603365 0.118274502
0.668440223 0.295475125 0.122822195
0.699992061 0.293551147 0.125810876
0.731478751 0.281880140 0.123892933
