public/lut/09.cube
TITLE "17x17x17 Adobe/IRIDAS cube 3D LUT exported with GrossGrade v0.2.2 (beta) 64 bit"
DOMAIN_MIN 0 0 0
DOMAIN_MAX 1 1 1
LUT_3D_SIZE 5
0.043264002 0.047596000 0.048985001
0.236061260 0.083339751 0.052181751
0.427332014 0.108255506 0.086276002
0.579060197 0.134869993 0.143819511
0.672433019 0.182217002 0.203610003
0.048812252 0.143645510 0.066063002
0.226954013 0.204821751 0.057438999
0.418853998 0.257506490 0.051519498
0.573606014 0.311529279 0.059857748
0.704615772 0.356995225 0.116444498
0.088060006 0.259948999 0.080295995
0.273158759 0.324060261 0.068528503
0.459450036 0.379676998 0.070531502
0.574469805 0.402266741 0.073003747
0.682736993 0.433917522 0.095087998
0.146491513 0.362893522 0.098927252
0.342706501 0.423621476 0.083457001
0.498454005 0.461077541 0.093005747
0.592566252 0.479437530 0.099706002
0.686201036 0.505734742 0.119334251
0.242941007 0.467496991 0.126551002
0.413335234 0.507634282 0.109168254
0.542650461 0.537369013 0.131041497
0.631208777 0.568004251 0.150798008
0.704786003 0.576449990 0.171011001
0.055880502 0.070928253 0.179991260
0.169163004 0.066202000 0.155272245
0.357875228 0.076038003 0.202535242
0.508796036 0.088606253 0.239114508
0.579536498 0.113170996 0.264378250
0.038640000 0.142819747 0.172116756
0.265558988 0.282911509 0.254391253
0.516918302 0.348816752 0.306654751
0.646102548 0.378255248 0.326704979
0.747535467 0.417541265 0.353424728
0.043076999 0.260713011 0.171081752
0.308824003 0.402794719 0.219590753
0.499524772 0.421723247 0.186040506
0.627016306 0.463266730 0.243131250
0.766035438 0.507133245 0.314684510
0.060003750 0.348731011 0.141406491
0.365859747 0.477492750 0.146970496
0.523189783 0.498172760 0.138805747
0.632450700 0.522950768 0.175825506
0.769585252 0.572959960 0.314256012
0.119473495 0.438029259 0.128506497
0.508399546 0.625712514 0.334913015
0.597648799 0.638230741 0.328463763
0.688342512 0.667792797 0.390517533
0.801775694 0.700825512 0.472603768
0.055565000 0.070533000 0.265657485
0.153432250 0.058051750 0.229425251
0.294485003 0.063382000 0.232924014
0.443495005 0.062950000 0.279884994
0.495329022 0.076661006 0.306633502
0.042326752 0.167531997 0.294288248
0.310543001 0.333361506 0.408412009
0.506438255 0.278957486 0.408662260
0.640055478 0.319156766 0.426855266
0.751855254 0.403473020 0.448917270
0.043634500 0.260539532 0.309834003
0.214400500 0.401345253 0.397524476
0.501363516 0.494195491 0.453496486
0.666948020 0.543635726 0.496905506
0.787535429 0.571928024 0.505167961
0.050006751 0.356720746 0.340306520
0.262026250 0.500454009 0.399913996
0.541567028 0.588783979 0.483386219
0.659361243 0.595402777 0.451074004
0.808709979 0.642720997 0.496557772
0.071060002 0.444969505 0.319623530
0.510727465 0.654284775 0.500139713
0.670170486 0.730039477 0.608303428
0.741978526 0.744956970 0.610226989
0.849120975 0.777021527 0.661656022
0.049838752 0.068258494 0.310776234
0.098744996 0.050178248 0.277503252
0.318250775 0.060166001 0.316063017
0.434689522 0.066893250 0.332116753
0.458545983 0.071584001 0.349557757
0.045462999 0.174820498 0.368942261
0.310353518 0.344199777 0.496293753
0.460808992 0.216370478 0.459186733
0.572507501 0.210319996 0.448553264
0.684436262 0.327100754 0.495944738
0.047243997 0.270076752 0.392530769
0.214556739 0.432783246 0.501997709
0.533828735 0.535013556 0.549976230
0.660506785 0.529118717 0.564566255
0.786136031 0.566627741 0.584153235
0.053812001 0.358195752 0.419502258
0.158301249 0.470448285 0.483440757
0.517701030 0.591402531 0.557802677
0.660304427 0.656572223 0.608615518
0.829894483 0.716204524 0.671200037
0.073776245 0.465283513 0.454547256
0.493617058 0.667879224 0.585178018
0.676447988 0.741319239 0.670785248
0.808835506 0.813369274 0.760080278
0.873293519 0.816683531 0.752860785
0.048985001 0.070533000 0.332859993
0.076518752 0.049497999 0.281690985
0.281047523 0.060759999 0.333669990
0.439914256 0.068528995 0.361822754
0.455018997 0.070533000 0.367383003
0.046891998 0.188752264 0.418438017
0.289842784 0.356589764 0.554684758
0.428898752 0.216724247 0.492861003
0.555400789 0.195874751 0.477986515
0.628076494 0.273017526 0.514848471
0.052674502 0.304084480 0.473156512
0.214648753 0.467206746 0.582398534
0.582970023 0.591165543 0.657281041
0.662749767 0.550600767 0.644885778
0.759379506 0.571079493 0.652865529
0.060612001 0.373879015 0.497595251
0.220498532 0.525684237 0.593812704
0.585516274 0.648301005 0.672685742
0.769935787 0.747061729 0.752959251
0.833109498 0.743769526 0.751692533
0.083342999 0.470355988 0.521763980
0.494691759 0.676431477 0.656962514
0.681339979 0.753783464 0.733217001
0.824985027 0.826711774 0.807554007
0.905806005 0.870464027 0.854840994
