public/lut/09.cube
TITLE "17x17x17 Adobe/IRIDAS cube 3D LUT exported with GrossGrade v0.2.2 (beta) 64 bit"
DOMAIN_MIN 0 0 0
DOMAIN_MAX 1 1 1
LUT_3D_SIZE 17
0.043264002 0.047596000 0.048985001
0.070507944 0.052878127 0.047682814
0.119578496 0.064087875 0.050263125
0.172613323 0.075097688 0.052347001
0.236061260 0.083339751 0.052181751
0.289106995 0.091635190 0.059518687
0.337615907 0.097226001 0.066682875
0.385284573 0.101914376 0.073259383
0.427332014 0.108255506 0.086276002
0.469263136 0.115116812 0.102160938
0.511075616 0.119377375 0.117434375
0.548355877 0.126072124 0.132019117
0.579060197 0.134869993 0.143819511
0.605848372 0.143471569 0.156595826
0.632229865 0.157421008 0.173019886
0.655302525 0.170035079 0.191136703
0.672433019 0.182217002 0.203610003
0.043310314 0.060274936 0.050389998
0.064154811 0.067463934 0.050347999
0.112966567 0.083307125 0.052222751
0.166443139 0.098770253 0.053610440
0.225833699 0.110962249 0.049156003
0.277113497 0.121705122 0.051847253
0.324975848 0.130137071 0.054852188
0.373804718 0.137681559 0.057507318
0.423756629 0.148091614 0.066255629
0.468840241 0.160993680 0.078803182
0.505015969 0.172385186 0.092670374
0.539192140 0.183689311 0.108185880
0.572808444 0.192512184 0.119480938
0.604423642 0.199437127 0.132047504
0.631365836 0.209943950 0.149870634
0.651792645 0.221986130 0.169368774
0.670098722 0.233913377 0.184913948
0.041758999 0.085079752 0.054692499
0.065136373 0.093959875 0.055958375
0.104294881 0.105800875 0.052347001
0.158924699 0.123650245 0.054295000
0.224566251 0.139797002 0.050006751
0.273762524 0.152623937 0.047111999
0.321951151 0.163824618 0.047067247
0.369677544 0.173271179 0.048380375
0.416073382 0.185763374 0.051931255
0.462795496 0.201889694 0.059556562
0.510533988 0.221728995 0.070247121
0.554333985 0.240104377 0.081222624
0.588833392 0.249836385 0.090495259
0.620116949 0.256327152 0.100648955
0.647861600 0.265894741 0.117247269
0.673686504 0.272772491 0.137915209
0.695779383 0.283881873 0.161341876
0.045327060 0.114929631 0.063055940
0.067793369 0.122750446 0.063629374
0.109672628 0.139063582 0.059679437
0.156819582 0.152332515 0.057322938
0.226636142 0.170113951 0.053731192
0.283454388 0.187995642 0.052098189
0.332613409 0.201069206 0.050346687
0.374256074 0.209555954 0.049540751
0.415188581 0.222182214 0.051683504
0.458369583 0.238958552 0.056739811
0.504467785 0.256875962 0.061236687
0.549137890 0.273995578 0.066054501
0.586137414 0.288471282 0.072644241
0.619027972 0.299738884 0.080042697
0.646834493 0.306061864 0.093742326
0.673353672 0.309731513 0.111920260
0.706564605 0.327675015 0.140559822
0.048812252 0.143645510 0.066063002
0.077486321 0.154677063 0.067167751
0.120112501 0.172839761 0.064023122
0.172222316 0.191180497 0.058775440
0.226954013 0.204821751 0.057438999
0.285451233 0.218485564 0.055607252
0.334356368 0.233686253 0.053569250
0.378184795 0.246384308 0.052181751
0.418853998 0.257506490 0.051519498
0.456735730 0.267946243 0.051186502
0.495712876 0.283375740 0.053079624
0.537418127 0.299378455 0.055799872
0.573606014 0.311529279 0.059857748
0.607748687 0.321318358 0.065075442
0.639399111 0.332342893 0.074458010
0.669375658 0.339811504 0.089358270
0.704615772 0.356995225 0.116444498
0.056030937 0.175258756 0.069668941
0.086146623 0.186571062 0.071744815
0.131241679 0.202914625 0.068628564
0.182813883 0.221611887 0.062080622
0.240166366 0.237039626 0.060240183
0.290412277 0.250746191 0.059077937
0.342185467 0.264772505 0.057899188
0.387219757 0.279611439 0.055801626
0.424731016 0.287708700 0.053568937
0.462172568 0.296917289 0.051851250
0.499830991 0.310970694 0.052140437
0.533853650 0.323053062 0.053651001
0.565041780 0.331984490 0.055092499
0.596917510 0.339617133 0.058050506
0.628894627 0.350661367 0.064587884
0.661937833 0.362940401 0.074530073
0.698312581 0.376386821 0.097283311
0.066814378 0.207116008 0.073775128
0.097679198 0.219068319 0.077060252
0.144592375 0.234019130 0.073519126
0.197419077 0.252808690 0.065748937
0.250783741 0.267952263 0.062733628
0.304642946 0.283572763 0.061422877
0.353400528 0.299036533 0.061787877
0.403026819 0.314031601 0.061824065
0.438379407 0.319550037 0.058584377
0.470951438 0.324766815 0.056350503
0.505635917 0.335606486 0.056350503
0.539229810 0.347275496 0.057780944
0.568475246 0.355334133 0.059936255
0.596095264 0.362817436 0.062257752
0.625136256 0.372374862 0.066334136
0.657423317 0.384301752 0.074469760
0.690504372 0.394464850 0.091319002
0.076065198 0.232904211 0.076445438
0.112070069 0.247631997 0.079790689
0.160305679 0.265367866 0.077123314
0.211819261 0.283346623 0.069400318
0.264000386 0.298648715 0.065294817
0.316583693 0.315794557 0.064589746
0.367137790 0.332688868 0.065189064
0.414571971 0.347996056 0.066513628
0.453243434 0.352495313 0.065188564
0.481512308 0.353464365 0.062621191
0.512891352 0.360333681 0.062513188
0.544802308 0.370862037 0.063946940
0.572539091 0.378740430 0.066162184
0.597771406 0.387214005 0.068862066
0.623333097 0.394762248 0.071545824
0.654067993 0.405190051 0.077885449
0.686569095 0.414708197 0.093246125
0.088060006 0.259948999 0.080295995
0.127934635 0.275045514 0.082850374
0.174998760 0.292276859 0.079521254
0.220984831 0.307836175 0.073933810
0.273158759 0.324060261 0.068528503
0.323163629 0.338290393 0.067030504
0.373097777 0.355375111 0.067917876
0.418206781 0.369007230 0.068965748
0.459450036 0.379676998 0.070531502
0.492020607 0.381451428 0.069501624
0.521404862 0.386671901 0.069463506
0.549526811 0.393362314 0.071053505
0.574469805 0.402266741 0.073003747
0.598896861 0.411430478 0.075600758
0.623323500 0.418285370 0.078248248
0.651620567 0.425918639 0.082788944
0.682736993 0.433917522 0.095087998
0.101052813 0.289085120 0.085309811
0.143278867 0.302813143 0.086656936
0.186395496 0.316626072 0.082937434
0.229185641 0.329905450 0.078344688
0.280001044 0.346400619 0.071777754
0.331221193 0.361227632 0.070465438
0.377788126 0.373818636 0.070465438
0.421646267 0.386589020 0.071516752
0.461044937 0.396680295 0.073326185
0.496981829 0.404902399 0.075821623
0.527738929 0.409138322 0.076319128
0.554548144 0.414285868 0.076966561
0.577492833 0.422395766 0.079095624
0.601228714 0.432709247 0.082467750
0.625085652 0.440066755 0.085109308
0.649872065 0.445287198 0.089133129
0.678709984 0.452114820 0.095267810
0.115728498 0.315954506 0.090514623
0.158144116 0.329558134 0.090810813
0.202487111 0.343384773 0.086351626
0.246109441 0.356246382 0.081155509
0.297276258 0.371704996 0.075792372
0.350817949 0.387604952 0.075040869
0.393727273 0.398192108 0.075724125
0.432917386 0.407958388 0.077669442
0.472353518 0.418424875 0.079817504
0.503080308 0.424411654 0.080592871
0.529716253 0.428757638 0.081066251
0.559789360 0.434451938 0.083250374
0.582576036 0.442083240 0.085504375
0.605785370 0.451337337 0.089185186
0.627987921 0.459023774 0.092792124
0.651955128 0.464074492 0.096741006
0.680269241 0.470856875 0.101570375
0.130897880 0.339783877 0.094520122
0.172386438 0.354591310 0.094208688
0.222616673 0.371987820 0.088781744
0.270001113 0.384974778 0.083284125
0.321000516 0.399361074 0.079190068
0.372914433 0.413496763 0.080829129
0.412593007 0.423097610 0.082674690
0.449235409 0.431519836 0.084740564
0.484053940 0.440201432 0.087293759
0.512963712 0.445630610 0.087516248
0.538020790 0.449254572 0.087210312
0.561332405 0.452539891 0.088093683
0.589670002 0.461993933 0.093131624
0.613964200 0.471286774 0.098218009
0.634707034 0.478183001 0.102412254
0.655347645 0.482424051 0.105664067
0.683464527 0.489102244 0.109773569
0.146491513 0.362893522 0.098927252
0.189273626 0.378137648 0.097023562
0.243615746 0.397226393 0.091264755
0.292365730 0.410306334 0.086209565
0.342706501 0.423621476 0.083457001
0.389157683 0.433993578 0.085253939
0.427359641 0.442272127 0.087129623
0.462407947 0.449968457 0.089434691
0.498454005 0.461077541 0.093005747
0.530030310 0.469785750 0.095187254
0.555156112 0.473798990 0.095288500
0.575283945 0.476650536 0.096737944
0.592566252 0.479437530 0.099706002
0.622680545 0.491361886 0.108473569
0.643891275 0.498754978 0.113042012
0.662511885 0.502771497 0.116078503
0.686201036 0.505734742 0.119334251
0.166038021 0.386317402 0.103687257
0.209642708 0.401585340 0.100552820
0.265180886 0.419159174 0.094984323
0.312002957 0.431357086 0.090084501
0.359377563 0.443247169 0.087656505
0.401122570 0.451488644 0.089191318
0.440060377 0.459754735 0.091583565
0.475457907 0.468946517 0.094543882
0.511404216 0.481499702 0.099292949
0.545338511 0.492804229 0.103778392
0.572214842 0.499266893 0.105989136
0.590600848 0.502256811 0.108362012
0.606887579 0.504825890 0.111561760
0.623772264 0.507497549 0.115367889
0.651418507 0.517795205 0.123635329
0.670830190 0.522227764 0.128111079
0.690046370 0.521841943 0.129928887
0.184920162 0.410540134 0.109574758
0.230678275 0.424776137 0.104492009
0.288353771 0.441417038 0.098976508
0.333289832 0.452572852 0.094648570
0.372637033 0.461085916 0.091903254
0.412724823 0.468781024 0.093505755
0.452544391 0.477605283 0.096463889
0.487287223 0.487019151 0.101425007
0.522281885 0.499193132 0.107240006
0.556172669 0.511331737 0.113022506
0.582040906 0.520044625 0.117018014
0.601559043 0.525351644 0.120432198
0.618412495 0.528230071 0.123675138
0.635350883 0.530644894 0.127171949
0.652708113 0.532027960 0.131720155
0.677696943 0.539633512 0.139629707
0.697245359 0.539931655 0.143020272
0.211937591 0.437578410 0.117192388
0.249506280 0.447566211 0.111456946
0.307733089 0.463274896 0.104706571
0.354237586 0.474763602 0.100991130
0.392949849 0.482747167 0.099864572
0.432000965 0.490401953 0.102322511
0.468351960 0.498275191 0.106178455
0.499259293 0.505884349 0.111431643
0.530361176 0.515121281 0.117590837
0.561612487 0.526184022 0.123456508
0.585825980 0.535213411 0.127705082
0.606796563 0.543273509 0.131457135
0.626117051 0.548832417 0.135237217
0.642948866 0.551792979 0.140803441
0.660326242 0.553071678 0.145457521
0.678635418 0.554309845 0.150231585
0.704342425 0.558940470 0.157170504
0.242941007 0.467496991 0.126551002
0.278353870 0.476775140 0.121588498
0.338762760 0.491241008 0.112698622
0.376877069 0.500256538 0.110004500
0.413335234 0.507634282 0.109168254
0.451080203 0.515339673 0.113180622
0.482900888 0.522457242 0.118919127
0.514090538 0.530270219 0.125222057
0.542650461 0.537369013 0.131041497
0.566619039 0.543942690 0.136195749
0.589450240 0.552048147 0.140737250
0.611180723 0.561028957 0.145770192
0.631208777 0.568004251 0.150798008
0.649308622 0.571629226 0.155612633
0.666926920 0.572996736 0.160089999
0.685261488 0.573935211 0.164698124
0.704786003 0.576449990 0.171011001
0.045417689 0.052264065 0.068514816
0.063048936 0.052305687 0.066951126
0.111292191 0.060756750 0.071597561
0.168292195 0.071187064 0.076488942
0.235442176 0.078344502 0.080339812
0.294378579 0.085337877 0.087463059
0.346738040 0.089571498 0.095472187
0.393496871 0.092088185 0.103608690
0.434577942 0.096819811 0.117486008
0.472408563 0.103257872 0.135901064
0.508832633 0.106133379 0.149899691
0.541392207 0.108071625 0.159549743
0.567005038 0.114637442 0.167661503
0.591294110 0.123071328 0.177828208
0.613874316 0.133430690 0.191155702
0.635001600 0.143627152 0.208696514
0.648275554 0.155207634 0.216918752
0.039526813 0.058507875 0.064267434
0.064154811 0.074204065 0.074238248
0.130321741 0.093447819 0.085121743
0.203869447 0.112696931 0.092691883
0.274622142 0.125944242 0.097925998
0.341395199 0.135836631 0.105044000
0.389117867 0.144074753 0.114277259
0.431537002 0.153058931 0.125807747
0.476602316 0.164687365 0.139816746
0.516129732 0.175814256 0.150989681
0.549374461 0.186216176 0.162469685
0.579517365 0.195120066 0.173626259
0.608507812 0.203356877 0.183767259
0.634321332 0.214159712 0.195383519
0.660354674 0.227025196 0.208866760
0.682892621 0.241167963 0.224194393
0.698790908 0.252000868 0.238552064
0.037210871 0.080248252 0.068012685
0.068898752 0.103909440 0.080833003
0.116563998 0.118109189 0.079141751
0.191837996 0.141179875 0.084179059
0.261218965 0.157886699 0.081718937
0.324134946 0.171113566 0.080535248
0.370465189 0.181674734 0.087500878
0.413820654 0.192600071 0.096723385
0.457470328 0.205132052 0.107329570
0.499310702 0.219046190 0.117460743
0.541185737 0.234772056 0.131431311
0.578776479 0.248675063 0.143993437
0.608682096 0.258132011 0.153220877
0.634010971 0.268185437 0.165069714
0.660878003 0.280541867 0.180563569
0.685822248 0.287708640 0.201836228
0.703685880 0.296972215 0.223613173
0.040217001 0.111395389 0.074115001
0.067785747 0.139761209 0.081841625
0.110817634 0.155535266 0.079178624
0.181351766 0.169516951 0.069689378
0.252400190 0.186905935 0.067732185
0.314493865 0.202150807 0.063221939
0.369356781 0.218943998 0.068475127
0.414235204 0.232034773 0.075231813
0.454633445 0.245534435 0.082869813
0.496546805 0.261931300 0.095036879
0.542354763 0.281383991 0.111507364
0.583989978 0.297842741 0.123652995
0.618534207 0.309293240 0.129259944
0.645941794 0.315213978 0.135788515
0.667889297 0.317461312 0.149379954
0.691908360 0.322342902 0.169427916
0.724982560 0.343426496 0.202589065
0.040117811 0.143014759 0.080971688
0.075097688 0.174641117 0.085551992
0.119770497 0.188494459 0.083879620
0.187906951 0.204176009 0.070592374
0.250227660 0.217724949 0.067745432
0.311911494 0.230032876 0.064339690
0.368550897 0.250998437 0.068651631
0.416483343 0.267236263 0.071700372
0.456084102 0.275932193 0.072249070
0.495463490 0.290637761 0.081647001
0.535633922 0.310025126 0.095450625
0.574336290 0.324860007 0.105760932
0.609722793 0.332964420 0.107752874
0.640455127 0.339290202 0.112301700
0.665181458 0.344389617 0.124082454
0.691611946 0.352671176 0.144575715
0.726898491 0.372410744 0.178550005
0.045864686 0.174520388 0.079607062
0.086356565 0.206355989 0.084622309
0.131792694 0.218104437 0.082556501
0.192135766 0.233804628 0.070458196
0.252911687 0.248896360 0.066338375
0.311128199 0.260795355 0.064695060
0.366281420 0.276015610 0.065607503
0.412792027 0.291201681 0.065847062
0.453829348 0.302219450 0.065250941
0.494829625 0.316464186 0.071792506
0.532535195 0.331563473 0.078621373
0.566401184 0.343390882 0.085046187
0.597120702 0.349904239 0.089234434
0.627976120 0.356149018 0.094454445
0.656158745 0.363227010 0.104566202
0.688184798 0.374548823 0.122258268
0.723579645 0.390710831 0.154072374
0.053765815 0.205771580 0.077674940
0.099987634 0.233856753 0.080650695
0.146530077 0.246215194 0.076193877
0.205528900 0.263109326 0.066366121
0.263401806 0.277532339 0.063093066
0.319786668 0.291797072 0.061788812
0.368839830 0.303934246 0.062733315
0.413804203 0.315403491 0.062370937
0.452030033 0.323737204 0.059940811
0.490623593 0.335739076 0.060087439
0.528507650 0.350479841 0.064121254
0.562152863 0.361286551 0.068784244
0.591114163 0.367143303 0.073147811
0.619773209 0.374227881 0.080749944
0.651272655 0.384158432 0.090109758
0.684571207 0.396196485 0.105560087
0.717387140 0.406545103 0.133363128
0.060494505 0.230934590 0.078829877
0.113849752 0.259033471 0.081449501
0.161136195 0.274811983 0.077918880
0.221078515 0.292365313 0.068423443
0.277553201 0.307198167 0.064625248
0.328135759 0.320996642 0.064272501
0.378124207 0.333989501 0.065153815
0.422896951 0.346224517 0.066270374
0.461040497 0.352022469 0.064093001
0.496893317 0.360879749 0.063161373
0.532218456 0.373159319 0.065213680
0.562974453 0.382864177 0.068455197
0.588825166 0.388784051 0.072029509
0.616219819 0.394742072 0.078485951
0.649073780 0.405889690 0.085973635
0.682366729 0.417565435 0.098262146
0.713345885 0.425369829 0.120952994
0.069721751 0.258080393 0.081889443
0.132664144 0.287724435 0.084658124
0.175122797 0.299988002 0.081568196
0.227450639 0.314909309 0.074281313
0.285416216 0.331483781 0.068528503
0.336384416 0.346162558 0.067338310
0.384432882 0.359547287 0.067917876
0.428937763 0.371367633 0.068965748
0.469403923 0.381354868 0.070001498
0.506898284 0.389295816 0.070527002
0.538879693 0.397916079 0.072257563
0.565955520 0.405918419 0.074718073
0.589625895 0.412802935 0.078243814
0.615699351 0.418348163 0.083876766
0.649328232 0.428832173 0.090851508
0.679137409 0.437104255 0.098593004
0.708628237 0.443466932 0.114565752
0.087158501 0.288817257 0.085536309
0.151111007 0.316504627 0.088645875
0.194330379 0.328011930 0.085000053
0.239127755 0.339214236 0.078888744
0.293557942 0.353865266 0.072168127
0.345990181 0.369074255 0.071124561
0.392363310 0.382379889 0.071808688
0.437633336 0.395560622 0.073547378
0.478292942 0.406041801 0.075753681
0.511037588 0.413574308 0.077729501
0.544654727 0.421535581 0.080762744
0.570563376 0.427865475 0.082551189
0.592474937 0.434848636 0.086062633
0.616255045 0.441531062 0.091707818
0.646354973 0.448889315 0.096763320
0.674056649 0.454564750 0.102220885
0.704199553 0.461270869 0.112028062
0.102788687 0.315888673 0.090057313
0.167547807 0.340412438 0.092140995
0.213925198 0.353234142 0.087297253
0.260165870 0.364122957 0.080592871
0.311252922 0.377534717 0.074979000
0.363318324 0.392957509 0.075040869
0.406962097 0.406025738 0.077669315
0.447353214 0.417053103 0.080113254
0.487517387 0.428741157 0.082987122
0.519497633 0.436422884 0.085079245
0.546655774 0.441922873 0.087264001
0.575684190 0.449335814 0.090856060
0.596923769 0.455010056 0.092923254
0.617060304 0.459384948 0.096435577
0.642333746 0.466379195 0.101568379
0.669031024 0.471477777 0.106339194
0.699321449 0.478834927 0.112561315
0.116990753 0.339406103 0.094494119
0.181066945 0.362911552 0.096187502
0.232850119 0.379385263 0.089490004
0.283073992 0.391400874 0.081683442
0.332834691 0.402868986 0.077980570
0.381003052 0.416365117 0.080682561
0.423526138 0.428522378 0.083570063
0.461551905 0.438533783 0.086514808
0.496115208 0.448357880 0.089646816
0.530111611 0.457871944 0.092374310
0.557709277 0.463976204 0.094538689
0.578867495 0.467761934 0.097065121
0.604490817 0.475169510 0.101880059
0.623258412 0.478426069 0.104130752
0.643690646 0.483770013 0.107837074
0.666428745 0.488524079 0.111941256
0.695956290 0.494798869 0.116636872
0.131469011 0.362483144 0.099025756
0.196269512 0.384894431 0.098853059
0.250379443 0.401909351 0.093350120
0.302900702 0.415148139 0.086181559
0.351081192 0.425405741 0.083109751
0.395090252 0.434625626 0.084486753
0.435811043 0.445590168 0.087738253
0.473348945 0.456087112 0.091102816
0.509008467 0.467724830 0.095031179
0.541684985 0.477754474 0.098671377
0.570712090 0.485630363 0.102099694
0.590466738 0.489693850 0.105681375
0.607826412 0.492809296 0.109544262
0.631871581 0.498514444 0.114307448
0.652090251 0.503926337 0.117859699
0.671106219 0.506949008 0.121439070
0.696542144 0.509470761 0.124540374
0.149870768 0.385031104 0.103711069
0.209251747 0.405537933 0.102059498
0.267904073 0.423157394 0.095728442
0.320842206 0.437008768 0.090164565
0.367260873 0.447441399 0.088479817
0.409925252 0.456097662 0.090541698
0.448655605 0.464122713 0.092718817
0.483750343 0.472560346 0.095493697
0.519064665 0.484906673 0.100323386
0.552813292 0.496904582 0.105755135
0.579840004 0.504854858 0.109614506
0.600675046 0.509700119 0.113525137
0.618031323 0.513013244 0.117629446
0.635024190 0.516077816 0.122415766
0.660124898 0.523593426 0.130290031
0.679361701 0.526812255 0.134232834
0.699440658 0.525089025 0.135416821
0.168213651 0.407650590 0.109597385
0.227659911 0.427971959 0.106343701
0.291074455 0.445923477 0.099421754
0.340974778 0.459149837 0.095395133
0.383201092 0.468603015 0.094155945
0.423711240 0.476374447 0.095905505
0.460581183 0.483925641 0.099417567
0.492760777 0.491364300 0.104131207
0.526832283 0.503002346 0.109972820
0.559482753 0.514547408 0.115327440
0.585761905 0.522679508 0.118601203
0.608408809 0.529277802 0.122725382
0.627439976 0.533441484 0.127133071
0.644627273 0.536762655 0.133017078
0.661784351 0.540079474 0.140316278
0.686926305 0.547025502 0.149245888
0.707031727 0.545813024 0.151170388
0.199809521 0.435550630 0.117827326
0.256006956 0.454330593 0.112520002
0.315359652 0.469322264 0.105620630
0.362634987 0.481550485 0.102130882
0.401056975 0.490091652 0.101766571
0.439975917 0.497563958 0.104395829
0.474128127 0.505105853 0.109546572
0.503835022 0.511768758 0.115001142
0.533590078 0.520181656 0.121111952
0.562801719 0.529516399 0.125795126
0.588257015 0.537686169 0.129102319
0.610212147 0.545175493 0.132627577
0.632762611 0.552587748 0.138281018
0.651269138 0.556847870 0.146139354
0.668769479 0.560496390 0.154721826
0.687798560 0.563268840 0.161614165
0.714457035 0.567809820 0.168330893
0.235504687 0.466859996 0.125918999
0.278739452 0.480750054 0.122912437
0.337041110 0.494352072 0.116191186
0.384839863 0.505664468 0.111814186
0.420732439 0.513687134 0.111879185
0.456745207 0.520829856 0.115588814
0.488986611 0.528155088 0.121647686
0.518866122 0.535345554 0.127918497
0.545631468 0.541717350 0.133772507
0.568506718 0.547982752 0.139238432
0.591803133 0.555393696 0.143040374
0.614478409 0.563259661 0.147318304
0.634761691 0.570003986 0.152977943
0.656325400 0.575675189 0.159730121
0.675348163 0.579620421 0.168554142
0.693938375 0.582949638 0.176398382
0.714514315 0.586203754 0.183738947
0.048118751 0.059564374 0.106240004
0.067904003 0.059038498 0.103028253
0.096076377 0.059115250 0.096942753
0.148523882 0.068052255 0.108912751
0.218865499 0.077275880 0.121050373
0.275426149 0.082182437 0.129729196
0.328258395 0.086853750 0.139100000
0.376847595 0.090328313 0.149313062
0.417684525 0.094570749 0.162547380
0.454850823 0.098653555 0.174022928
0.491831630 0.098677874 0.179155380
0.524882495 0.099741183 0.186752304
0.551766276 0.106226631 0.195236370
0.576536894 0.115329504 0.205747068
0.593893766 0.121198125 0.213437259
0.612443924 0.128441378 0.226487324
0.628132880 0.140165374 0.233325750
0.041709937 0.068451941 0.098707251
0.074877813 0.087247431 0.113341190
0.112357818 0.086237125 0.112574063
0.192196697 0.102541000 0.124620497
0.270088762 0.116084129 0.135223314
0.340711653 0.123063438 0.144098565
0.392872959 0.131972432 0.153463617
0.439182639 0.140305072 0.164081365
0.485006779 0.146678939 0.175664559
0.524761796 0.154632315 0.184554562
0.556223512 0.161835372 0.190436006
0.585263848 0.169982001 0.199574515
0.615081549 0.179497257 0.212762803
0.641536653 0.190904841 0.224717706
0.660962224 0.200794637 0.231733888
0.678666472 0.211833715 0.241631895
0.695037127 0.220905483 0.251971185
0.034795627 0.080342367 0.092930250
0.061358627 0.105446316 0.112172440
0.112456255 0.129034877 0.121833503
0.213836029 0.158468187 0.144027129
0.288374901 0.175245002 0.152125612
0.351403713 0.188070387 0.161159426
0.408631921 0.199533135 0.169567630
0.457415432 0.213219509 0.178581566
0.500032127 0.228019267 0.190818623
0.538853884 0.241291687 0.201890826
0.572673261 0.253204286 0.213973746
0.601860940 0.262559921 0.222449318
0.628548265 0.272148520 0.230868503
0.653569281 0.284733415 0.240326256
0.677063286 0.291746885 0.249354750
0.702091813 0.305138022 0.262638956
0.722381353 0.314311385 0.278924882
0.037802689 0.113047570 0.102525689
0.058259752 0.138651520 0.112221435
0.125447050 0.173296645 0.131034806
0.200422138 0.186139762 0.124610439
0.279561162 0.208637312 0.129489750
0.345459014 0.226764679 0.133082181
0.401931524 0.242506385 0.139854133
0.450899959 0.257824510 0.147504568
0.488250881 0.268523723 0.159862071
0.531862915 0.286797285 0.176471367
0.568859577 0.301188201 0.190012395
0.600247502 0.310588837 0.198707804
0.630454063 0.317821741 0.204088002
0.655234098 0.320989668 0.209158063
0.677253962 0.323867261 0.216628641
0.703445494 0.336975187 0.231801942
0.734500289 0.357272863 0.260377556
0.037260249 0.145911261 0.103564374
0.058416937 0.173275933 0.112789869
0.125284255 0.209233508 0.127992123
0.189449146 0.223181188 0.115326621
0.268030256 0.235333502 0.102192990
0.335339010 0.254259259 0.107082307
0.394779146 0.274258852 0.113474376
0.444526136 0.289406747 0.125117242
0.480834991 0.299079657 0.137163758
0.523183882 0.317357540 0.152637452
0.563964844 0.336249232 0.167645738
0.599594951 0.346433043 0.177025884
0.633116484 0.354158491 0.182459757
0.660095572 0.357662380 0.186643392
0.681982756 0.357986897 0.190766007
0.709453404 0.367635846 0.206537157
