public/lut/10.cube
TITLE "17x17x17 Adobe/IRIDAS cube 3D LUT exported with GrossGrade v0.2.2 (beta) 64 bit"
DOMAIN_MIN 0 0 0
DOMAIN_MAX 1 1 1
LUT_3D_SIZE 17
0.034697000 0.040994000 0.041758999
0.053787876 0.043217253 0.038738564
0.098185502 0.049409878 0.034795627
0.159439147 0.058808189 0.031690940
0.224036515 0.067984499 0.029374251
0.283364475 0.076534063 0.026812000
0.327763766 0.083569124 0.027600000
0.371590108 0.090566941 0.027600000
0.412532508 0.096110001 0.027206000
0.445059419 0.100599818 0.027600000
0.475687623 0.105575502 0.029472876
0.504238605 0.109575629 0.032578249
0.534488499 0.112742752 0.036471251
0.562927306 0.115419500 0.041137442
0.589487135 0.117786124 0.045729630
0.615884185 0.118459873 0.049795069
0.637879014 0.114317000 0.051020000
0.034697000 0.048206374 0.044004999
0.049360815 0.054005876 0.041089125
0.093327627 0.063364811 0.036323313
0.159229070 0.075802371 0.032479748
0.227645934 0.089567505 0.028586000
0.293141991 0.103896566 0.025480563
0.346955270 0.114589944 0.025233999
0.397605658 0.123733819 0.023263060
0.442878187 0.130468756 0.021390561
0.477574080 0.134333313 0.020946749
0.512533724 0.138197258 0.022178562
0.547045112 0.142009556 0.024051437
0.580067158 0.145499125 0.027156813
0.610834956 0.147406295 0.030261628
0.642288327 0.149706438 0.034155317
0.668949842 0.150187746 0.038049065
0.688001812 0.143706128 0.037999813
0.034598500 0.063291624 0.047940124
0.053836063 0.073230684 0.046712939
0.095229000 0.085677132 0.039527498
0.155292079 0.100198820 0.034746312
0.226272002 0.117043510 0.030064501
0.296356320 0.134712055 0.026170937
0.360822767 0.150605634 0.023164500
0.417100936 0.161832318 0.020157810
0.467096388 0.169397622 0.017052999
0.508033574 0.173133492 0.015869625
0.547813594 0.176753625 0.015180125
0.584624290 0.179762498 0.017003687
0.621997893 0.183824882 0.019320127
0.658895969 0.188716263 0.021489125
0.691931903 0.191946134 0.024149880
0.718061447 0.191115007 0.030212378
0.738033652 0.185559496 0.031049751
0.040700566 0.093062758 0.058808189
0.057791691 0.103099257 0.058160380
0.101949371 0.122222006 0.048809756
0.159971714 0.135624588 0.040217001
0.221787244 0.149281576 0.034007564
0.296739548 0.169674695 0.029275626
0.366510391 0.188404381 0.025529873
0.427856952 0.201277822 0.020404371
0.483519077 0.208931640 0.015376999
0.531479597 0.212540314 0.012764938
0.575255811 0.217140585 0.012321499
0.616887629 0.221669197 0.012764937
0.656157613 0.226106569 0.013553750
0.694499910 0.231555700 0.016214816
0.728612125 0.234940559 0.019172255
0.755260825 0.235114515 0.023263255
0.776106656 0.227159202 0.024889624
0.052484501 0.130208999 0.069862753
0.077633314 0.142500579 0.067880623
0.116747253 0.163531244 0.056422122
0.171185076 0.182335883 0.044781812
0.233635008 0.196035758 0.038049001
0.292799234 0.206990808 0.031838812
0.367854387 0.225601256 0.025628498
0.436703712 0.240241885 0.020207122
0.496793509 0.249671251 0.014588499
0.547342956 0.254324675 0.011483813
0.597715378 0.258518010 0.009463000
0.644456565 0.263685286 0.010004750
0.686244726 0.268435717 0.010645501
0.724808037 0.274072915 0.012962190
0.759406984 0.277580619 0.015278503
0.787830710 0.278263181 0.019221567
0.807841003 0.270466000 0.021489000
0.077900998 0.173007429 0.080909066
0.106681064 0.185735941 0.076627441
0.147228748 0.207038939 0.060859375
0.191488698 0.225220695 0.048464566
0.242487192 0.239759311 0.041851874
0.305012554 0.252892435 0.034943562
0.359018207 0.260499835 0.029522125
0.431216300 0.275941014 0.022769934
0.499890268 0.286851704 0.015376999
0.559910178 0.294199884 0.011483813
0.611850262 0.298561126 0.009167125
0.661380649 0.303276926 0.009463000
0.709637940 0.308618516 0.010448251
0.750821173 0.315481365 0.012764941
0.786024213 0.319624215 0.015623379
0.815446556 0.319586307 0.018975254
0.837674975 0.313117057 0.021291999
0.117020763 0.220756397 0.091792375
0.147312254 0.234915391 0.081711568
0.188172773 0.253479511 0.063504502
0.229160517 0.269815266 0.050174497
0.270288408 0.283716500 0.042598374
0.322491050 0.296892881 0.034697313
0.382389128 0.307859898 0.029768374
0.429220468 0.311541021 0.023115123
0.499368042 0.322206140 0.016165499
0.562434673 0.329797328 0.013060813
0.623452783 0.336470872 0.009955499
0.675987959 0.340630323 0.009463000
0.724817157 0.346069157 0.010448252
0.771291435 0.353942126 0.013997192
0.809406400 0.359055370 0.017546130
0.838725269 0.358494967 0.020601569
0.863380849 0.352232516 0.022080002
0.165803716 0.272140801 0.095267810
0.196920842 0.285200715 0.079059936
0.238569021 0.300394922 0.059700251
0.278263152 0.313599527 0.048286498
0.316269159 0.326954514 0.039567687
0.356528223 0.339149892 0.031592000
0.408211619 0.350425661 0.026663687
0.458955735 0.357138097 0.023213750
0.500191033 0.357801795 0.017792312
0.565042853 0.364576399 0.013406000
0.629024148 0.370768964 0.010398938
0.688335717 0.376446694 0.010251001
0.739502668 0.381844401 0.012026002
0.786128283 0.388182014 0.014785565
0.827892721 0.392971963 0.018235631
0.859455347 0.395021141 0.022918256
0.884104967 0.389445215 0.024889251
0.220897526 0.322582006 0.091315500
0.252715528 0.333368003 0.074016377
0.295081735 0.345325768 0.058428377
0.330403745 0.355610907 0.047984686
0.365186512 0.367111266 0.039034251
0.400487065 0.378176391 0.031099375
0.438066542 0.387710273 0.026318874
0.487498224 0.396159589 0.023607749
0.530973554 0.399186015 0.020897498
0.566344738 0.397060394 0.015032251
0.630856276 0.402882874 0.012814127
0.694491744 0.408591628 0.011829000
0.750467300 0.413794249 0.013208502
0.799507499 0.419490129 0.016165502
0.840713203 0.423641771 0.019911256
0.876700640 0.427735746 0.024100754
0.903182507 0.425123513 0.027600501
0.279285789 0.370031118 0.085279688
0.311568886 0.378030688 0.070430756
0.350666344 0.386612743 0.059826937
0.382387936 0.394710004 0.049665809
0.412775308 0.404148757 0.040356249
0.447972119 0.414471924 0.032380998
0.481519073 0.423331439 0.027895873
0.516481817 0.430651873 0.025135498
0.561513245 0.436085433 0.023657000
0.598440886 0.435593128 0.019714000
0.632483184 0.432373881 0.015032250
0.696220040 0.436575681 0.013750750
0.756618321 0.441773057 0.014588251
0.807967126 0.447850257 0.018629942
0.853691280 0.453097373 0.021735379
0.889204860 0.456866622 0.026417442
0.919921637 0.458677262 0.030310750
0.334063232 0.411912262 0.082590371
0.364697248 0.417077452 0.072942756
0.400731504 0.423504621 0.063591123
0.431655437 0.430190712 0.053077683
0.459758729 0.437754363 0.042604372
0.490514547 0.446376443 0.035485685
0.524555981 0.455113381 0.030556999
0.557693005 0.462427378 0.027895873
0.594694018 0.469082117 0.026318876
0.637431860 0.472522765 0.024692187
0.668473482 0.467872739 0.020207124
0.699715018 0.463113695 0.016855875
0.760204375 0.468339771 0.017743250
0.814745545 0.474288106 0.020946629
0.863003373 0.480060369 0.026121628
0.901582181 0.484142244 0.028783066
0.932987988 0.487093002 0.033415876
0.382571876 0.448703170 0.085902624
0.411876380 0.452823490 0.076102868
0.446616799 0.457471162 0.067915939
0.476947933 0.462646484 0.057967123
0.504593074 0.469355345 0.047853373
0.532313287 0.476852685 0.039625622
0.563830376 0.484998614 0.034697313
0.596977115 0.492274195 0.032380998
0.631380558 0.499276251 0.031247124
0.669391215 0.505214930 0.031247124
0.704236627 0.503248930 0.026959626
0.732983589 0.497700721 0.023115251
0.763965130 0.492965251 0.020404125
0.821677506 0.499542564 0.023952691
0.872432113 0.504936337 0.027945066
0.911462486 0.510358810 0.031690881
0.942556024 0.514084518 0.035978813
0.421904266 0.481428742 0.090353750
0.451003224 0.485111058 0.079609193
0.485962391 0.489403009 0.072037630
0.514961362 0.493065715 0.063767254
0.541291237 0.498476267 0.054451000
0.567864478 0.505496144 0.046662815
0.597350240 0.512731075 0.040893875
0.629729927 0.519360125 0.038246252
0.663547039 0.526116014 0.037457250
0.700568855 0.533219576 0.037457250
0.737759590 0.536951482 0.035485879
0.766592085 0.531678438 0.030360252
0.792884469 0.525579274 0.028388999
0.826259613 0.521901965 0.026368005
0.878691435 0.529292703 0.031049881
0.919104159 0.535343289 0.034795567
0.949134231 0.540448785 0.040217001
0.458219528 0.510974526 0.095728137
0.486648113 0.514218450 0.084713757
0.521365643 0.518176675 0.077763446
0.549417078 0.521050692 0.070262760
0.574609876 0.525365889 0.061488632
0.601763785 0.532124102 0.054411385
0.631192267 0.539113104 0.048938256
0.661182284 0.545110106 0.046045065
0.695517778 0.551533401 0.044278383
0.731588125 0.558608592 0.043540385
0.765125513 0.564468861 0.041900944
0.794093668 0.562880933 0.038590822
0.819097698 0.556516171 0.035732381
0.845190465 0.549724340 0.033267941
0.882556379 0.549720109 0.033465073
0.923025370 0.558530807 0.038049068
0.955756545 0.566168189 0.042795196
0.495906889 0.539607108 0.101283379
0.523170650 0.542148352 0.090676755
0.556449890 0.545737624 0.085618757
0.584771872 0.548638046 0.078400381
0.609393775 0.551963389 0.070262760
0.636062145 0.557820678 0.062475197
0.664951921 0.564500034 0.057588257
0.693304360 0.570173025 0.054172382
0.725821257 0.576291680 0.051600758
0.760678947 0.583308876 0.050597880
0.794856787 0.589973271 0.048982631
0.822856665 0.592644453 0.046310514
0.848105848 0.588099897 0.042702131
0.873242795 0.581412375 0.039720260
0.898042500 0.575453103 0.037358757
0.928027034 0.579892933 0.041231006
0.958092511 0.589421034 0.046980001
0.528371632 0.566762388 0.107270449
0.556048691 0.568848610 0.096009567
0.589013577 0.572407484 0.092430510
0.617801070 0.575185657 0.086123876
0.641795218 0.577735007 0.078884631
0.665557504 0.581869900 0.071154505
0.693709373 0.588222742 0.065642633
0.723162293 0.594670832 0.062007196
0.754063785 0.600802600 0.059114132
0.786092877 0.607527316 0.057936195
0.819392502 0.614275575 0.056702070
0.849668920 0.619394720 0.054252822
0.874531031 0.619549155 0.052013133
0.895930231 0.614380419 0.048422381
0.917675614 0.609043360 0.046269443
0.937311590 0.603675485 0.045507878
0.959674597 0.611727178 0.050431628
0.563494980 0.596584976 0.114664003
0.592463315 0.598417938 0.100724377
0.624074996 0.601835728 0.099571250
0.652812243 0.604565859 0.096136376
0.677817762 0.607067287 0.089703500
0.698009789 0.609747767 0.081123501
0.722825408 0.614870727 0.075542629
0.752273202 0.620957315 0.071516752
0.781818032 0.626560450 0.068122998
0.810654283 0.632386804 0.066202000
0.840790153 0.638718009 0.064873502
0.870405555 0.644227803 0.063202001
0.895921230 0.648081243 0.061496250
0.916905046 0.646827638 0.057937872
0.934529901 0.642294168 0.056038246
0.951491654 0.635981679 0.054254748
0.964080989 0.631457984 0.053651001
0.030015251 0.041711185 0.055283748
0.043718997 0.045325562 0.057655066
0.082739748 0.050090808 0.059397936
0.140694514 0.057008937 0.058675937
0.200268999 0.063702248 0.057643190
0.250124693 0.068121746 0.057708248
0.291504383 0.072683685 0.061020687
0.331389278 0.077337816 0.061609499
0.367754579 0.081858814 0.061609499
0.403706551 0.087460123 0.063023627
0.436617374 0.092193186 0.064529441
0.467676371 0.095753692 0.066212066
0.498137832 0.098701507 0.066486061
0.525056005 0.101307504 0.071301691
0.553428531 0.103186503 0.074363880
0.580358744 0.102826498 0.074240491
0.602611721 0.098103121 0.070686564
0.028487561 0.050131999 0.060078435
0.040797625 0.059438873 0.065654315
0.084058493 0.071394250 0.069439940
0.148089066 0.083250247 0.068718068
0.210952878 0.095077313 0.069653630
0.267054737 0.106544562 0.069846377
0.319484949 0.116373628 0.070612624
0.367578030 0.125172496 0.071144253
0.411834449 0.133131683 0.072381936
0.451321363 0.139362499 0.073741555
0.491738766 0.144514635 0.075695060
0.529729486 0.148734570 0.077186376
0.563619018 0.152033865 0.080772378
0.597224355 0.155786306 0.085620373
0.629437923 0.158151627 0.090032443
0.657213032 0.157328427 0.092348814
0.677743614 0.150594503 0.088943876
0.029127751 0.068167813 0.070833564
0.044409622 0.081753500 0.077693187
0.085137568 0.096796624 0.077816747
0.148564816 0.111736819 0.072317377
0.219654620 0.128036499 0.072216004
0.285930306 0.143363819 0.070279814
0.345432401 0.157043815 0.068673685
0.397107899 0.166632816 0.067354754
0.447962016 0.173636064 0.066398747
0.492900759 0.180055752 0.066153258
0.534474671 0.185018063 0.066779315
0.575097322 0.188825861 0.068381190
0.614490986 0.193136573 0.071959749
0.650672615 0.197979629 0.077384382
0.681261241 0.200304314 0.082080007
0.707822621 0.198933437 0.085498184
0.726654649 0.190631375 0.083250061
0.033662561 0.097823136 0.084052257
0.053897694 0.114180379 0.091318868
0.102024503 0.132437333 0.089039192
0.164590523 0.149855450 0.076435700
0.226142257 0.164473638 0.071963504
0.297648340 0.183045581 0.069884747
0.364927828 0.198685005 0.065699562
0.423928380 0.209712014 0.061154436
0.478176206 0.218103096 0.057965126
0.528092623 0.225029141 0.056143060
0.576425076 0.231574640 0.055909060
0.620144844 0.236976817 0.056684621
0.660324454 0.242267698 0.060885064
0.698720455 0.247718811 0.067656510
0.731680155 0.251661628 0.074732691
0.757349253 0.249830440 0.078628749
0.775722861 0.239063382 0.079415753
0.038936067 0.132699937 0.097845443
0.075606689 0.154830933 0.105290748
0.124497250 0.174348816 0.103568062
0.179695636 0.194054127 0.086279191
0.243321449 0.209206626 0.076435685
0.299430400 0.219378322 0.069327317
0.369602978 0.235582620 0.064407185
0.436293483 0.249643683 0.058843929
0.495867789 0.259536117 0.053728312
0.548218906 0.266882300 0.050299630
0.601296127 0.274792939 0.048544750
0.651045203 0.282323897 0.049445186
0.693716288 0.288853616 0.053469062
0.731955230 0.294585317 0.058713134
0.766173303 0.299282610 0.066798262
0.793575108 0.297966242 0.073210195
0.812997878 0.286150783 0.073565185
0.054823127 0.172725260 0.109435558
0.107574321 0.198428869 0.117779814
0.161741629 0.221109048 0.111090496
0.208436757 0.239569366 0.092680067
0.265110672 0.255970299 0.080170557
0.322365105 0.268017054 0.070990689
0.372500181 0.274432272 0.062011376
0.440963805 0.287392884 0.055880867
0.506274045 0.298731446 0.050513998
0.563594878 0.306886494 0.046443816
0.617470026 0.314790666 0.044291690
0.668124557 0.321757108 0.044468999
0.715621471 0.330260009 0.048800942
0.757834613 0.337509274 0.054670010
0.791794896 0.342723995 0.062641010
0.821458697 0.341546535 0.067895129
0.841978133 0.331036299 0.069884747
0.086248882 0.217749387 0.120312132
0.149181828 0.245171517 0.127887249
0.206651568 0.269693166 0.113938123
0.250078142 0.285109222 0.094503067
0.295492351 0.299203098 0.081794813
0.346684843 0.311971515 0.070624627
0.401135147 0.322169811 0.062769748
0.444761038 0.325298309 0.052556120
0.511036336 0.335720330 0.047557563
0.570727348 0.343747079 0.044386312
0.629545093 0.351742446 0.041595627
0.681015015 0.358923793 0.042580754
0.729427040 0.366640896 0.045371749
0.775731683 0.375686884 0.052207384
0.813470721 0.382313043 0.060885821
0.842458308 0.381633878 0.066491872
0.867578924 0.373616576 0.068511873
0.135085464 0.266193628 0.130773187
0.198896095 0.294311255 0.132987693
0.255340338 0.316069037 0.111800127
0.296071053 0.328247547 0.095631808
0.335771084 0.341117471 0.083443373
0.376746833 0.353284717 0.072025187
0.427240342 0.364329457 0.061233934
0.476770997 0.371682703 0.054138497
0.514384806 0.371457458 0.044934064
0.574824810 0.378073335 0.041168250
0.633383274 0.384745151 0.040833626
0.690608978 0.392836839 0.041690253
0.741712153 0.400470078 0.044871561
0.787177324 0.408185422 0.050966192
0.829640567 0.416511089 0.058834568
0.861937940 0.419490963 0.066771120
0.887165010 0.412577301 0.069256127
0.190396070 0.316345781 0.136563182
0.247343466 0.341504455 0.128913820
0.305253774 0.359975457 0.108398750
0.342112899 0.368714571 0.095670506
0.380474448 0.380101264 0.083599433
0.418676496 0.392155379 0.072275497
0.458316773 0.402859390 0.061039623
0.509097099 0.412747443 0.053329870
0.548834503 0.414789319 0.048390754
0.581865430 0.412356257 0.039378688
0.638936937 0.418171018 0.040014811
0.696398497 0.423769623 0.041406374
0.750910699 0.430829614 0.044291686
0.799389899 0.438670278 0.050040383
0.842007518 0.446751267 0.057352073
0.879231691 0.452953637 0.064997822
0.905480802 0.449087322 0.070021629
0.246030807 0.365639269 0.131776690
0.295159936 0.384682685 0.124294877
0.350906938 0.400237024 0.108938687
0.386082053 0.407433569 0.096432567
0.421312779 0.416160643 0.084856071
0.458541363 0.427172005 0.074346438
0.495423496 0.437623382 0.063815184
0.535288692 0.447179258 0.055047370
0.582230806 0.454564184 0.052636374
0.616531491 0.453390926 0.046376251
0.647035301 0.449454010 0.037851688
0.703324080 0.454241335 0.039523687
0.757961392 0.459823996 0.043787751
0.809302807 0.467488170 0.050138194
0.855004549 0.476050615 0.056963880
0.891904593 0.482368737 0.064833879
0.922470987 0.483304918 0.070851751
0.298636734 0.408244133 0.128109932
0.339588761 0.423052847 0.121271931
0.391113311 0.435455561 0.111266181
0.426601827 0.442258954 0.099289753
0.459545940 0.449237019 0.088254750
0.494449437 0.458368301 0.077794060
0.531480014 0.468642950 0.067783311
0.569400728 0.478608578 0.059700932
0.608500302 0.485821873 0.053997498
0.651087224 0.490586251 0.052920312
0.681062102 0.487155378 0.045927066
0.709982812 0.482589304 0.040253125
0.765556097 0.488400757 0.043787751
0.818228841 0.495377690 0.050264195
0.865097046 0.503778756 0.058507696
0.903244019 0.510892570 0.065640509
0.935410678 0.513642371 0.070889004
0.344817191 0.445639431 0.127036929
0.381300509 0.457457453 0.122045748
0.431241840 0.468446195 0.114813432
0.466084719 0.473856062 0.103953496
0.498557925 0.480104536 0.093091629
0.530408919 0.487989575 0.082740679
0.566075146 0.497868747 0.072781123
0.603532970 0.507521570 0.065097749
0.639937341 0.515364289 0.059733003
0.679376185 0.520951509 0.055629063
0.714646578 0.522340357 0.053816561
0.743053198 0.518536806 0.048169628
0.771615565 0.513744056 0.043693811
0.825629175 0.521037102 0.050860129
0.872172236 0.529168427 0.058399193
0.911904573 0.537443459 0.066408381
0.942759037 0.541553855 0.073130369
0.383318603 0.479025930 0.127979249
0.416133642 0.488328993 0.124225616
0.466304898 0.498680383 0.116555065
0.500283122 0.502712607 0.107462183
0.532590926 0.508462429 0.098033503
0.563513458 0.515596628 0.087848321
0.596189201 0.524559081 0.078697190
0.633217454 0.533947587 0.072037496
0.670422971 0.542150915 0.066592187
0.707368135 0.548681498 0.061995316
0.745465457 0.553653240 0.058121629
0.775079906 0.552878618 0.056276001
0.800848544 0.547749102 0.051989377
0.832103133 0.544367552 0.049470384
0.879216850 0.553333521 0.057787634
0.917668164 0.561969876 0.066348195
0.949263811 0.567850530 0.073868066
0.419781148 0.509008765 0.130453125
0.448583275 0.516410768 0.126155689
0.498448342 0.527033091 0.119001433
0.531806409 0.530622900 0.111148752
0.563147366 0.535229802 0.102827504
0.594629228 0.541947365 0.093475133
0.626098990 0.550330877 0.084698871
0.659659207 0.558704972 0.078637704
0.697398186 0.567218542 0.073647752
0.733483374 0.574000657 0.069282696
0.769404948 0.579981863 0.063690446
0.802370727 0.583708048 0.062146630
0.829452515 0.581191421 0.060136445
0.853919804 0.575721681 0.058326066
0.886378944 0.575900614 0.057257008
0.922456801 0.585366607 0.066245198
0.954461277 0.594370425 0.074478373
0.457738608 0.537660122 0.135039568
0.482191026 0.543740332 0.128852874
0.529010355 0.553944826 0.121541500
0.563712478 0.557760894 0.114335947
0.594774485 0.561817825 0.108256258
0.625660300 0.567931712 0.099833071
0.656370103 0.575641394 0.091698311
0.687524676 0.583155692 0.085185632
0.722075939 0.590919077 0.080264948
0.757599533 0.597733796 0.075891197
0.792940497 0.604228020 0.071105450
0.826892614 0.608942270 0.065422818
0.856292844 0.611615121 0.066745698
0.880021214 0.608201802 0.065722376
0.900446236 0.603636146 0.063499935
0.929476857 0.608183384 0.066351637
0.956104219 0.618584573 0.074071877
0.490353644 0.565230608 0.141025126
0.512623787 0.569861293 0.131913006
0.559485614 0.579970479 0.123718381
0.596239328 0.584311604 0.117360637
0.627912045 0.588337660 0.112406820
0.655742228 0.592908800 0.104997821
0.685068429 0.600155234 0.097676009
0.716885328 0.607867360 0.091833450
0.748839259 0.615133107 0.087429635
0.781687677 0.621591032 0.082623377
0.816069007 0.628089905 0.078504443
0.849913836 0.633562386 0.072862320
0.879531682 0.637273252 0.069689445
0.902853012 0.640656769 0.073002249
0.921352565 0.637998581 0.071943060
0.938464344 0.632894516 0.068069071
0.960659564 0.640051603 0.074204057
0.527437329 0.595698893 0.146510690
0.548541188 0.598598659 0.135033056
0.597051084 0.608056128 0.126104742
0.632851422 0.612678111 0.124292873
0.665716529 0.616629064 0.119243681
0.690166950 0.620003223 0.111842625
0.714778602 0.625185311 0.104466006
0.745086610 0.632367551 0.099744752
0.775551319 0.639257014 0.095098436
0.805563629 0.645429492 0.090429127
0.836308300 0.651628137 0.086743563
0.868926704 0.657218277 0.081818312
0.897343159 0.660843849 0.075438932
0.919743121 0.666199088 0.077659756
0.938481212 0.668737292 0.079818189
0.953132451 0.665134251 0.077628434
0.964924991 0.660538197 0.074238248
0.029966000 0.046000626 0.080912374
0.037013683 0.047552001 0.083403438
0.068958007 0.053405374 0.088526249
0.119032390 0.058846876 0.094605625
0.181730255 0.062588252 0.099717624
0.232601240 0.065364935 0.103340998
0.273205400 0.067782998 0.106632374
0.313047737 0.071090564 0.108022377
0.349428236 0.075788252 0.108883753
0.384986758 0.080767065 0.109068252
0.419297129 0.085843377 0.108703755
0.452089727 0.089516811 0.107859068
0.482914120 0.092588499 0.107468128
0.511052549 0.095241375 0.112119943
0.539493263 0.096922755 0.113795623
0.567196965 0.096466750 0.111948431
0.590600133 0.092694871 0.106374748
0.029966000 0.057084002 0.091858752
0.036915191 0.064988561 0.095302880
0.069735251 0.074348867 0.101635754
0.127172634 0.081511676 0.105255000
0.194283813 0.090268381 0.109771691
0.248981178 0.096948430 0.110316001
0.297265828 0.104656875 0.109891944
0.341936916 0.111918315 0.112016685
0.384399951 0.119120441 0.112353496
0.423515439 0.125077993 0.110234812
0.462695867 0.129677251 0.110572323
0.500367463 0.133953378 0.112708502
0.533942401 0.137032315 0.114326373
0.565880895 0.139858678 0.115044311
0.598539054 0.141809881 0.117294878
0.626366258 0.140341371 0.117826380
0.648244619 0.133192495 0.111061931
0.029966000 0.073232748 0.101222247
0.035387378 0.085736252 0.106713809
0.070722997 0.102557495 0.113717243
0.141268581 0.119977698 0.122348435
0.213683516 0.135018498 0.125675991
0.273085177 0.145649999 0.125876054
0.327605277 0.156447366 0.125837117
0.380268276 0.166170508 0.125210255
0.431078762 0.174994141 0.125528619
0.478387356 0.182966560 0.125210255
0.520448983 0.189123377 0.126483247
0.562994540 0.195387080 0.128593564
0.602169394 0.200364247 0.132640257
0.638762414 0.205070555 0.137476504
0.669144630 0.207087606 0.141139239
0.695428848 0.204908505 0.142481625
0.715650856 0.195572883 0.137050003
0.032184061 0.103838503 0.116683006
0.041984189 0.119274504 0.123748817
0.090178691 0.141218752 0.132756323
0.156082213 0.160510644 0.132406071
0.223538056 0.173392072 0.127602249
0.292765230 0.188594446 0.125958487
0.357123345 0.201724827 0.123914011
0.415123194 0.213498682 0.122071937
0.467541099 0.223442942 0.120964870
0.519188941 0.231970906 0.119843811
0.569252849 0.239246145 0.120481692
0.613376439 0.246296763 0.122541368
0.652645767 0.251894563 0.127190694
0.689846456 0.257720828 0.133353755
0.722743690 0.261434257 0.139504507
0.747297883 0.257151186 0.141021684
0.766118467 0.244380936 0.137138367
0.035288751 0.138671637 0.130223364
0.056683689 0.156709746 0.135510251
0.119736761 0.184368744 0.147067875
0.185793892 0.205596447 0.142631829
0.246103764 0.218518749 0.132996008
0.302252352 0.228997082 0.124521866
0.369855523 0.244822890 0.122952998
0.434635997 0.259631693 0.119238123
0.493147671 0.270552486 0.115207002
0.546659887 0.279714644 0.112533316
0.600278378 0.287743390 0.111512624
0.650692463 0.296803713 0.114053443
0.693049133 0.304246962 0.119996876
0.730376959 0.309862971 0.127037942
0.764860272 0.313774258 0.135163128
0.792357206 0.310725510 0.139094502
