public/lut/10.cube
TITLE "17x17x17 Adobe/IRIDAS cube 3D LUT exported with GrossGrade v0.2.2 (beta) 64 bit"
DOMAIN_MIN 0 0 0
DOMAIN_MAX 1 1 1
LUT_3D_SIZE 5
0.034697000 0.040994000 0.041758999
0.224036515 0.067984499 0.029374251
0.412532508 0.096110001 0.027206000
0.534488499 0.112742752 0.036471251
0.637879014 0.114317000 0.051020000
0.052484501 0.130208999 0.069862753
0.233635008 0.196035758 0.038049001
0.496793509 0.249671251 0.014588499
0.686244726 0.268435717 0.010645501
0.807841003 0.270466000 0.021489000
0.220897526 0.322582006 0.091315500
0.365186512 0.367111266 0.039034251
0.530973554 0.399186015 0.020897498
0.750467300 0.413794249 0.013208502
0.903182507 0.425123513 0.027600501
0.421904266 0.481428742 0.090353750
0.541291237 0.498476267 0.054451000
0.663547039 0.526116014 0.037457250
0.792884469 0.525579274 0.028388999
0.949134231 0.540448785 0.040217001
0.563494980 0.596584976 0.114664003
0.677817762 0.607067287 0.089703500
0.781818032 0.626560450 0.068122998
0.895921230 0.648081243 0.061496250
0.964080989 0.631457984 0.053651001
0.033711750 0.054774247 0.133591756
0.142321512 0.064378999 0.153850004
0.293765247 0.062806003 0.174146250
0.449411511 0.074537002 0.178790748
0.565230489 0.080056749 0.178011000
0.036865748 0.152417749 0.197082996
0.220146000 0.234196246 0.230799749
0.477111727 0.287073761 0.249774486
0.668363750 0.323713481 0.262672514
0.786036789 0.320443273 0.268558025
0.100234017 0.318727523 0.238427758
0.350111246 0.408755243 0.281435490
0.527194262 0.455407292 0.257404000
0.735544503 0.488284528 0.262548506
0.899366975 0.523292243 0.320911258
0.276609778 0.462279260 0.271858990
0.454282254 0.536068976 0.301676005
0.613008022 0.575642467 0.283809483
0.768390000 0.608201265 0.254515260
0.934172034 0.666076720 0.376968265
0.421907991 0.582437277 0.282696724
0.604755998 0.680487812 0.380610019
0.714963794 0.719669223 0.439211011
0.832123280 0.757963240 0.476045728
0.944143772 0.790684283 0.511257052
0.042137500 0.084019005 0.220560014
0.123388253 0.074283749 0.221012264
0.247291505 0.067304999 0.233012006
0.363065481 0.064519003 0.254395723
0.478937984 0.068393998 0.277087986
0.053162754 0.212962002 0.320730984
0.191351011 0.285897255 0.363348246
0.381702006 0.302477479 0.377274275
0.557591259 0.310820520 0.390286773
0.724331975 0.316215754 0.393214256
0.068644509 0.343276978 0.389378011
0.243398249 0.427625239 0.429827511
0.454258978 0.487963974 0.466896951
0.688468695 0.534184694 0.501990795
0.856847525 0.539729476 0.496380508
0.160319000 0.483684003 0.427207291
0.327538013 0.541676283 0.454389513
0.535666704 0.607505202 0.509541273
0.717621565 0.664865255 0.526634693
0.923871756 0.717443287 0.562743306
0.281561017 0.575402975 0.423186511
0.492396265 0.655482292 0.489651263
0.667734027 0.738321543 0.556121469
0.811941028 0.786134243 0.601025522
0.932518482 0.824735522 0.657880008
0.045462999 0.128963247 0.319254518
0.116861500 0.084943496 0.286968738
0.235173255 0.083916500 0.303273022
0.315404773 0.062661253 0.301506013
0.416066498 0.075917251 0.340798497
0.053488750 0.252647251 0.419983268
0.155121014 0.327978253 0.464527011
0.315461278 0.326200724 0.465161264
0.459293514 0.324817777 0.466620266
0.626542211 0.340452015 0.502783298
0.071841002 0.373241007 0.493327737
0.189702749 0.451860756 0.532355189
0.399329275 0.520637989 0.568165481
0.568349004 0.539559245 0.586965561
0.777506471 0.541777730 0.608171463
0.115088999 0.493814260 0.541074038
0.255757779 0.566780508 0.574838519
0.458962232 0.627478004 0.613203287
0.666106045 0.691372037 0.656440020
0.897211492 0.739998579 0.713814974
0.203940496 0.599512219 0.556919754
0.419888765 0.679671764 0.602835476
0.593936265 0.738050461 0.657960773
0.762363315 0.801745474 0.715653419
0.916412771 0.849237800 0.773001254
0.046181001 0.174906999 0.411893994
0.080826752 0.106785998 0.349559754
0.203678995 0.104161002 0.374640495
0.301284015 0.107889757 0.400093496
0.331658989 0.057438999 0.368636996
0.054134000 0.285617501 0.497355998
0.123772502 0.357057750 0.539458752
0.237598762 0.355736524 0.539515257
0.383921772 0.355740488 0.541625738
0.499520272 0.327436268 0.536010981
0.069736503 0.400815487 0.560849488
0.145548001 0.470056236 0.595986009
0.336756051 0.546644568 0.646161020
0.500230551 0.556121230 0.650737762
0.636675477 0.539598525 0.647512496
0.099117249 0.503054738 0.604379773
0.203630775 0.571245730 0.639923513
0.413963526 0.649468303 0.690847754
0.667701781 0.725196242 0.751623988
0.791126549 0.737793028 0.766807020
0.166543007 0.604627013 0.639472008
0.390180260 0.698436260 0.694084764
0.578122020 0.756852508 0.742048502
0.752006292 0.814627767 0.799354732
0.908308983 0.865415990 0.848204970
