public/lut/100.cube
TITLE "17x17x17 Adobe/IRIDAS cube 3D LUT exported with GrossGrade v0.2.2 (beta) 64 bit"
DOMAIN_MIN 0 0 0
DOMAIN_MAX 1 1 1
LUT_3D_SIZE 17
0.000000000 0.000000000 0.000000000
0.020172000 0.001526000 0.001526000
0.046478000 0.003052000 0.003052000
0.091949001 0.006958000 0.006805000
0.138091996 0.013611000 0.012817000
0.184508994 0.022125000 0.021331999
0.232146993 0.034790002 0.033507999
0.279509991 0.049224999 0.046753000
0.327392995 0.064514004 0.061615001
0.375548989 0.079314999 0.076384999
0.424407989 0.094543003 0.091309004
0.473389000 0.110106997 0.106078997
0.522430003 0.125275001 0.121063001
0.571686029 0.140778005 0.136107996
0.621245980 0.156158000 0.151215002
0.670562983 0.171508998 0.166320994
0.719666004 0.186920002 0.181365997
0.010071000 0.029387999 0.010071000
0.027892999 0.025574001 0.006195000
0.054443002 0.024780000 0.003143000
0.092651002 0.027008001 0.006104000
0.137115002 0.032349002 0.012238000
0.183471993 0.040679999 0.020538000
0.230072007 0.051453002 0.031952001
0.277862996 0.063568003 0.046021000
0.326050013 0.076201998 0.061035000
0.375030994 0.089813001 0.075928003
0.424194008 0.103882000 0.091034003
0.473785013 0.118073002 0.106078997
0.523742974 0.132935002 0.121399000
0.573853016 0.147826999 0.136657998
0.623778999 0.162781000 0.152007997
0.674315989 0.177979007 0.167297006
0.724457026 0.193206996 0.182616994
0.025513001 0.071686000 0.025513001
0.035767000 0.068542004 0.023102000
0.059967000 0.065430000 0.019317999
0.092864998 0.062194999 0.008087000
0.136932001 0.061066002 0.011230000
0.182982996 0.063842997 0.019774999
0.229828000 0.069701999 0.031158000
0.277283013 0.077941999 0.045288000
0.325805992 0.088196002 0.060454998
0.375061005 0.100432999 0.075622998
0.424683005 0.113159001 0.091034003
0.475098014 0.126617000 0.106201001
0.525604010 0.140563995 0.121674001
0.576447010 0.155059993 0.137328997
0.627686024 0.169829994 0.153015003
0.679168999 0.184783995 0.168700993
0.730103016 0.199890003 0.184295997
0.041046001 0.117187999 0.041046001
0.047577001 0.114563003 0.040252998
0.067749001 0.111450002 0.037842002
0.094299003 0.108612001 0.032226998
0.138671994 0.104675002 0.018250000
0.186737001 0.103455000 0.019623000
0.233765006 0.104675002 0.031158000
0.281769007 0.109039001 0.045685001
0.330321997 0.115814000 0.060729999
0.379516989 0.124084003 0.075897001
0.429565012 0.133941993 0.091461003
0.480163991 0.144896999 0.107116997
0.531189024 0.156951994 0.122893997
0.582611024 0.169556007 0.138702005
0.634521008 0.182891995 0.154541001
0.686339974 0.196715996 0.170532003
0.738372982 0.210846007 0.186583996
0.055877998 0.165069997 0.055877998
0.060637999 0.162933007 0.055236999
0.077301003 0.160521999 0.053406000
0.100097999 0.158142000 0.051453002
0.140778005 0.154877007 0.043060001
0.190338001 0.151611000 0.033844002
0.239898995 0.149780005 0.033202998
0.288848996 0.150726005 0.045502000
0.337981999 0.154113993 0.061919998
0.387755990 0.159301996 0.077239998
0.438262999 0.166626006 0.093200997
0.489594012 0.175262004 0.109039001
0.541411996 0.185058996 0.125121996
0.593810976 0.196135998 0.141234994
0.646484017 0.207885996 0.157532007
0.699706972 0.220489994 0.173980996
0.752318978 0.233490005 0.190154999
0.069518998 0.215575993 0.069518998
0.073425002 0.213958994 0.069031000
0.088073999 0.212249994 0.067901999
0.108856000 0.210418999 0.066253997
0.143767998 0.207916006 0.062958002
0.192901999 0.204620004 0.054779001
0.245391995 0.201629996 0.049988002
0.296721995 0.200042993 0.050995000
0.347626001 0.200806007 0.062194999
0.398743004 0.203644007 0.079498000
0.450500011 0.208434999 0.095519997
0.502746999 0.215027004 0.111542001
0.555634022 0.222960994 0.128204003
0.608856022 0.232178003 0.144805998
0.662781000 0.242461994 0.161438003
0.717346013 0.253814995 0.178375006
0.771210015 0.265807986 0.194977000
0.083038002 0.269347996 0.083038002
0.086121000 0.268188000 0.082428001
0.099151999 0.267120004 0.081634998
0.119231999 0.265686005 0.080688000
0.148071006 0.264068991 0.078735001
0.196135998 0.261474997 0.073578000
0.250427008 0.258392006 0.067566000
0.304717988 0.256011993 0.065917999
0.358368009 0.254790992 0.069122002
0.411529988 0.255614996 0.080688000
0.464965999 0.258453012 0.098449998
0.518616021 0.263092011 0.115111999
0.572844982 0.269318014 0.132080004
0.627838016 0.277222008 0.149260998
0.682799995 0.285979986 0.166137993
0.736205995 0.294250011 0.182739004
0.786652029 0.302062988 0.198516995
0.096100003 0.325897008 0.096100003
0.099059999 0.325684011 0.095917001
0.111175999 0.325347990 0.095519997
0.130309999 0.324615002 0.094756998
0.154907003 0.323700011 0.093566999
0.200836003 0.322021008 0.090332001
0.255706996 0.319519013 0.085022002
0.312195003 0.317108005 0.081450999
0.368957996 0.315154999 0.083068997
0.425110012 0.314606011 0.088440001
0.480865002 0.316071004 0.101074003
0.536987007 0.319489002 0.119080000
0.592804015 0.323944002 0.136536002
0.647247016 0.328278005 0.153473005
0.700073004 0.332549989 0.170074001
0.751312017 0.336975008 0.186066002
0.799926996 0.341583014 0.201324001
0.110077001 0.386016995 0.110077001
0.112823002 0.386597008 0.110077001
0.124146000 0.386931986 0.110077001
0.142425999 0.387023985 0.109589003
0.164825007 0.387023985 0.108887002
0.207610995 0.386229992 0.106995001
0.262299001 0.384674013 0.103667997
0.320434988 0.382782012 0.098999001
0.379608005 0.381195009 0.097107001
0.439087003 0.380737007 0.101898000
0.497649997 0.380768001 0.110625997
0.554565012 0.380553991 0.123901002
0.609862983 0.380492985 0.140228003
0.663115978 0.380492985 0.156982005
0.714354992 0.380829006 0.172913000
0.765044987 0.382598996 0.188872993
0.814361989 0.385437012 0.204375997
0.125153005 0.449707001 0.125153005
0.127930000 0.451050013 0.125487998
0.138488993 0.452300996 0.125487998
0.155791998 0.453278005 0.125487998
0.176848993 0.454163015 0.125304997
0.216461003 0.454436988 0.124358997
0.270599008 0.454284996 0.122466996
0.330047995 0.453918010 0.119965002
0.390899986 0.452239990 0.115966998
0.451842993 0.449310005 0.115509003
0.511505008 0.445464998 0.123076998
0.568481028 0.440856993 0.132355005
0.623138011 0.436583996 0.144072995
0.676697016 0.433867991 0.159575999
0.728851020 0.432648003 0.176238999
0.780121028 0.432556003 0.192017004
0.829802990 0.433472008 0.207550004
0.142089993 0.517455995 0.142089993
0.144958004 0.519774973 0.142670006
0.154845998 0.521880984 0.143035993
0.171204001 0.523864985 0.143433005
0.190947995 0.525847971 0.143584996
0.227385998 0.528046012 0.143707007
0.280517995 0.528289974 0.142700002
0.340301991 0.526367009 0.140655994
0.401244998 0.521973014 0.137665004
0.461791992 0.514984012 0.133361995
0.521484017 0.507263005 0.133606002
0.579742014 0.500518978 0.143250003
0.635895014 0.495178014 0.152649000
0.690674007 0.490875006 0.164276004
0.743622005 0.488036990 0.179138005
0.795531988 0.486236989 0.195403993
0.845825016 0.485442996 0.211120993
0.161559999 0.589874029 0.161559999
0.164336994 0.593047976 0.162354007
0.173705995 0.596436024 0.163390994
0.189239994 0.600067019 0.164276004
0.208191007 0.602020025 0.164702997
0.240112007 0.603209972 0.164825007
0.290924013 0.600646973 0.163482994
0.350006014 0.594025016 0.160827994
0.409882009 0.585875988 0.157592997
0.470337003 0.577942014 0.154053003
0.530945003 0.570250988 0.150848001
0.590637028 0.562927008 0.153716996
0.648406982 0.556457996 0.164885998
0.704406977 0.550994992 0.174163997
0.758606017 0.546721995 0.184478998
0.811339974 0.543304026 0.198822007
0.861938000 0.540709972 0.214721993
0.184508994 0.667357981 0.184508994
0.187653005 0.672119021 0.186035007
0.196135998 0.675598025 0.187073007
0.210051998 0.678252995 0.187926993
0.227081001 0.676757991 0.187469006
0.253876001 0.671599984 0.185729995
0.301575005 0.665252984 0.183715999
0.359528005 0.658263981 0.181365997
0.419342011 0.650542974 0.178924993
0.480102986 0.642578006 0.176269993
0.540741026 0.634734988 0.173125997
0.601166010 0.626953006 0.171325997
0.660767019 0.619567990 0.176697001
0.717621028 0.613036990 0.187958002
0.773070991 0.607086003 0.196686000
0.826507986 0.602141976 0.204529002
0.876403987 0.597168028 0.217896000
0.211823002 0.749176025 0.211823002
0.214690998 0.753418028 0.213286996
0.220795006 0.752929986 0.213226005
0.231018007 0.748046994 0.211456001
0.245482996 0.741973996 0.209411994
0.268889993 0.736205995 0.207519993
0.314177990 0.730255008 0.205718994
0.370941013 0.723479986 0.203949004
0.430144995 0.715820014 0.202057004
0.490570009 0.707672000 0.200042993
0.551177979 0.699585021 0.197998002
0.611724973 0.691497982 0.195221007
0.671265006 0.683411002 0.193817005
0.729004025 0.675171018 0.201049998
0.784179986 0.667357981 0.211334005
0.837341011 0.660309017 0.218140006
0.887908995 0.653716981 0.222717002
0.241089001 0.826233029 0.241272002
0.240569994 0.821838021 0.239348993
0.243988007 0.816802979 0.237549007
0.252532989 0.811554015 0.235625997
0.265839010 0.806091011 0.233521000
0.285889000 0.800384998 0.231536999
0.328186005 0.794281006 0.229919001
0.382874012 0.787476003 0.228363007
0.440521002 0.779754996 0.226776004
0.500182986 0.771117985 0.225097999
0.560028017 0.762054026 0.223297000
0.619597971 0.752929986 0.221343994
0.678771973 0.743773997 0.218750000
0.736359000 0.735015988 0.217285007
0.792388976 0.726409972 0.225951999
0.845825016 0.718169987 0.234558001
0.896515012 0.710358024 0.239197001
0.267273009 0.886078000 0.267426014
0.266144007 0.881622016 0.265320003
0.268523991 0.876555979 0.263062000
0.275664985 0.871460021 0.261016995
0.287140012 0.865845025 0.258758992
0.303588986 0.859924018 0.256439000
0.342193991 0.854156017 0.255005002
0.394042999 0.847625971 0.253814995
0.450011998 0.839843988 0.252501994
0.508301020 0.831146002 0.251098990
0.567291021 0.821991026 0.249816999
0.626372993 0.812469006 0.248291001
0.684630990 0.802643001 0.246552005
0.741943002 0.792846978 0.244019002
0.797333002 0.783173025 0.243073002
0.850281000 0.773528993 0.251098990
0.899779975 0.764557004 0.257263005
0.293884009 0.940063000 0.293884009
0.292389005 0.935944021 0.291900992
0.294066995 0.931304991 0.289519995
0.299652010 0.926208019 0.287200987
0.309540004 0.920958996 0.284882009
0.323668987 0.915374994 0.282561988
0.357879996 0.909729004 0.281035990
0.406250000 0.903106987 0.279846013
0.459594995 0.895232975 0.278656006
0.515929997 0.886322021 0.277465999
0.573669016 0.876555979 0.276336998
0.631103992 0.866424978 0.275054991
0.687835991 0.855926991 0.273499012
0.743773997 0.845184028 0.271270990
0.796844006 0.834869027 0.268554986
0.849395990 0.824036002 0.268279999
0.898864985 0.813109994 0.274170011
0.000732000 0.000732000 0.012238000
0.023193000 0.001526000 0.024689000
0.048675999 0.002319000 0.024048001
0.090178996 0.006165000 0.024840999
0.136261001 0.012085000 0.029998999
0.183471993 0.020599000 0.038330000
0.230957001 0.032715000 0.049011000
0.278533995 0.046478000 0.060059000
0.326691002 0.061066002 0.071898997
0.375304997 0.076201998 0.084747002
0.424315989 0.091095001 0.097930998
0.473266989 0.106140003 0.111083999
0.522796988 0.121367998 0.125121996
0.572387993 0.136444002 0.138946995
0.622192025 0.151764005 0.153228998
0.672302008 0.167114004 0.167480007
0.721557975 0.182068005 0.181762993
0.006958000 0.026306000 0.027008001
0.027892999 0.024780000 0.024840999
0.053833000 0.024780000 0.023987001
0.087523997 0.016022000 0.015167000
0.131377995 0.015594000 0.014740000
0.177764997 0.022949001 0.021392999
0.225525007 0.035126001 0.032776002
0.273833990 0.049254999 0.046783000
0.322448999 0.063721001 0.061370999
0.371582001 0.078856997 0.075957999
0.421112001 0.094177000 0.091063999
0.470885992 0.109527998 0.106078997
0.521270990 0.125061005 0.121063001
0.571564019 0.140563995 0.136169001
0.621948004 0.156188995 0.151489004
0.672942996 0.171967000 0.166808993
0.722869992 0.187744007 0.182190001
0.023894999 0.068664998 0.033447001
0.035034001 0.065948002 0.032593001
0.059386998 0.062714003 0.030243000
0.089263998 0.058655001 0.026276000
0.133667007 0.055511001 0.014496000
0.180450007 0.057677999 0.017975001
0.227019995 0.063812003 0.030029001
0.274719000 0.073517002 0.044188999
0.323211998 0.084839001 0.059509002
0.372588992 0.097107001 0.074859999
0.422515988 0.110504001 0.090117998
0.472930998 0.124297999 0.105407998
0.523681998 0.138519004 0.121032998
0.574799001 0.153167993 0.136687994
0.626067996 0.168090999 0.152465999
0.677582026 0.183228001 0.168182001
0.728820980 0.198424995 0.183868006
0.039519999 0.113891996 0.045348998
0.046783000 0.111450002 0.044617001
0.067199998 0.108643003 0.042603001
0.093018003 0.105774000 0.039581001
0.135741994 0.102112003 0.033813000
0.183837995 0.100220002 0.022918999
0.231323004 0.101195998 0.029083000
0.279083014 0.105682001 0.044188999
0.327758998 0.112517998 0.059509002
0.377074987 0.121123999 0.075317003
0.427184999 0.131409004 0.090942003
0.477966011 0.142487004 0.106505997
0.529114008 0.154541001 0.122313999
0.580688000 0.167419001 0.138123006
0.632416010 0.180907995 0.154053003
0.684875011 0.194977000 0.170044005
0.736724973 0.209259003 0.185974002
0.054657001 0.161804006 0.058867998
0.059601001 0.159851000 0.058258001
0.076843001 0.157622993 0.056580000
0.099395998 0.155150995 0.054657001
0.137878001 0.152129993 0.049651999
0.187041998 0.148864999 0.044739000
0.237121999 0.146729007 0.036773998
0.286377013 0.147522002 0.044006001
0.335631996 0.150909007 0.060547002
0.385497987 0.156371996 0.076537997
0.436156988 0.163696006 0.092345998
0.487518013 0.172607005 0.108306997
0.539276004 0.182556003 0.124481000
0.591736019 0.193604007 0.140686005
0.644713998 0.205596998 0.157042995
0.697906017 0.218413994 0.173400998
0.750976980 0.231536999 0.189605996
0.068847999 0.212645993 0.071929999
0.072571002 0.210906997 0.071410999
0.087341003 0.209534004 0.070404001
0.108459003 0.207519993 0.068999998
0.140991002 0.205200002 0.065704003
0.189667001 0.201903999 0.060332999
0.242523000 0.199004993 0.056915000
0.294250011 0.197418004 0.055663999
0.345306009 0.197998002 0.062592000
0.396515012 0.200866997 0.077514999
0.448211998 0.205841005 0.094696000
0.500397027 0.212463006 0.110808998
0.553435981 0.220550999 0.127441004
0.606994987 0.229797006 0.144256994
0.661010981 0.240264997 0.160950005
0.715758979 0.251892000 0.177979007
0.769469976 0.263610989 0.194518998
0.082122996 0.266449004 0.084778003
0.085662998 0.265471995 0.084351003
0.098724000 0.264342993 0.083922997
0.118927002 0.263000011 0.082580999
0.145751998 0.261413991 0.080719002
0.192963004 0.258881003 0.076355003
0.247558996 0.255919993 0.071686000
0.301941007 0.253325999 0.071381003
0.355742991 0.252258003 0.075378001
0.409209996 0.253113002 0.083191000
0.462554991 0.255829006 0.096557997
0.516387999 0.260619998 0.114349000
0.570984006 0.266997993 0.131347999
0.626160026 0.274993986 0.148773000
0.680694997 0.283356011 0.165680006
0.733214974 0.291260004 0.181976005
0.783690989 0.299071997 0.197753996
0.095275998 0.323242009 0.097655997
0.098449998 0.322968006 0.097655997
0.110687003 0.322600991 0.097259998
0.129851997 0.321898997 0.096344002
0.153564006 0.321074992 0.095519997
0.198364004 0.319335997 0.092620999
0.253203988 0.316985995 0.087615997
0.309691995 0.314422995 0.084351003
0.366333008 0.312743992 0.088013001
0.422545999 0.312346995 0.095398001
0.478698999 0.313843012 0.104156002
0.535004020 0.317108005 0.117614999
0.590453982 0.321013987 0.135651007
0.644531012 0.324950993 0.152740002
0.697052002 0.329163015 0.169128001
0.747650027 0.333526999 0.185028002
0.796477973 0.338348001 0.200256005
0.109375000 0.383423001 0.111450002
0.112305000 0.383881003 0.111450002
0.123535000 0.384276986 0.111450002
0.141875997 0.384368986 0.111083999
0.163971007 0.384398997 0.110381998
0.205353007 0.383758992 0.108581997
0.259521008 0.382201999 0.105621003
0.317719012 0.380432010 0.101104997
0.377106011 0.379088998 0.099426001
0.436646014 0.378448009 0.106293000
0.494964987 0.377837986 0.116485998
0.551880002 0.377196997 0.125396997
0.607025027 0.376740009 0.138611004
0.659484982 0.376556009 0.155945003
0.710968018 0.377319008 0.172119007
0.761749029 0.379424989 0.187958002
0.811371028 0.382445991 0.203429997
0.124541998 0.447356999 0.126404002
0.127318993 0.448639005 0.126708999
0.137908995 0.449889988 0.126984000
0.155273005 0.450866997 0.126862004
0.176177993 0.451813012 0.126587003
0.214141995 0.452300996 0.125670999
0.267699987 0.452271014 0.124022998
0.327300996 0.451691002 0.121428996
0.388123006 0.449492991 0.117523000
0.449097008 0.446045011 0.117004000
0.508453012 0.441650003 0.125670999
0.565124989 0.436706990 0.136504993
0.620025992 0.432770014 0.144745007
0.673461974 0.430449992 0.158203006
0.725890994 0.429473996 0.175354004
0.777283013 0.429717988 0.191222996
0.827484012 0.430786014 0.206909001
0.141541004 0.515320003 0.143188000
0.144256994 0.517455995 0.143738002
0.154174998 0.519684017 0.144256994
0.170745999 0.521728992 0.144530997
0.190734997 0.523895025 0.144775003
0.225310996 0.525879025 0.144775003
0.277770996 0.525574028 0.143616006
0.337738007 0.523041010 0.141479000
0.398346007 0.517791986 0.138336003
0.458739996 0.510468006 0.134032995
0.518554986 0.503021002 0.134673998
0.576781988 0.496704012 0.144988999
0.632996023 0.491791010 0.156005993
0.688049018 0.487762004 0.164153993
0.741364002 0.485015988 0.178284004
0.793549001 0.483489990 0.195038006
0.843963981 0.483002007 0.210571006
0.160918996 0.587677002 0.162354007
0.163756996 0.590911984 0.163299993
0.173187003 0.594542980 0.164185002
0.188750997 0.597899973 0.165131003
0.207947001 0.599487007 0.165405005
0.238129005 0.599883974 0.165191993
0.288208008 0.596283019 0.163696006
0.347198009 0.589172006 0.161041006
0.407043010 0.581421018 0.157837003
0.467682004 0.573853016 0.154387996
0.528320014 0.566375971 0.151549995
0.588042974 0.559418023 0.154633000
0.646148980 0.553192019 0.166077003
0.702239990 0.547942996 0.176575005
0.756896973 0.543914974 0.184235007
0.810119987 0.540802002 0.198424995
0.860473990 0.538513005 0.214355007
0.183899000 0.665619016 0.185181007
0.187103003 0.670409977 0.186829001
0.195343003 0.673218012 0.187592000
0.209380999 0.675354004 0.188201994
0.226105005 0.672424018 0.187255993
0.251677990 0.666565001 0.185454994
0.298797995 0.660614014 0.183471993
0.356963992 0.654052973 0.181427002
0.416779011 0.646758974 0.178893998
0.477569997 0.639129996 0.176483005
0.538543999 0.631377995 0.173462003
0.599182010 0.624023020 0.171691999
0.658752024 0.616913021 0.177093998
0.715973020 0.610535026 0.188629001
0.771332026 0.605163991 0.197998002
0.825103998 0.600372016 0.204254001
0.875427008 0.595673025 0.217528999
0.211181998 0.747223020 0.212280005
0.213927999 0.751434028 0.213561997
0.219269007 0.748382986 0.212523997
0.229523003 0.743134022 0.210723996
0.244385004 0.737366021 0.208984002
0.266663015 0.731903017 0.207122996
0.311432004 0.726409972 0.205535993
0.368378013 0.719940007 0.203826994
0.427612007 0.712616026 0.201995999
0.488220006 0.704802990 0.200042993
0.549286008 0.696869016 0.197968006
0.609984994 0.688995004 0.195373997
0.669983029 0.681213021 0.194243997
0.728088021 0.673400998 0.201599002
0.782775998 0.666077018 0.211884007
0.836181998 0.659148991 0.219176993
0.887603998 0.652710021 0.222626001
0.239501998 0.821959972 0.240417004
0.238677993 0.817077994 0.238495007
0.242401004 0.812500000 0.236603007
0.251190007 0.807525992 0.234801993
0.264771014 0.802277029 0.232970998
0.283966005 0.796905994 0.231170997
0.325989008 0.791229010 0.229644999
0.381072998 0.784575999 0.228148997
0.438872993 0.777007997 0.226593003
0.498474002 0.768799007 0.225097999
0.558655024 0.760101020 0.223389000
0.618529975 0.751160026 0.221558005
0.677643001 0.742431998 0.219086006
0.735413015 0.733947992 0.217773005
0.791656017 0.725463986 0.226471007
0.845398009 0.717346013 0.235199004
0.896667004 0.709778011 0.239989996
0.265197992 0.881348014 0.265868992
0.264160007 0.877288997 0.264037997
0.266846001 0.872559011 0.262053996
0.274170011 0.867706001 0.260010004
0.285950005 0.862487972 0.258026004
0.302215993 0.856841981 0.255829006
0.340667993 0.851348996 0.254516989
0.392975003 0.845031977 0.253387004
0.449097008 0.837494016 0.252196997
0.507416010 0.829223990 0.250977010
0.566711009 0.820343018 0.249786004
0.625916004 0.810944021 0.248412997
0.683960021 0.801635981 0.246674001
0.741577029 0.791900992 0.244202003
0.797150016 0.782653987 0.243652001
0.850830019 0.773132026 0.251830995
0.900726020 0.764190972 0.257995993
0.292266995 0.936890006 0.292998999
0.291016012 0.933044016 0.290894002
0.292694002 0.928466976 0.288605005
0.298552990 0.923676014 0.286437988
0.308593988 0.918853998 0.284363002
0.322723001 0.913177013 0.282074004
0.356902987 0.907684028 0.280640006
0.405120999 0.901427984 0.279662997
0.458649009 0.893828988 0.278564006
0.515106022 0.885254025 0.277588010
0.572570980 0.875885010 0.276520014
0.630402029 0.865906000 0.275359988
0.687255979 0.855682015 0.273925990
0.743317008 0.845093012 0.271789998
0.797179997 0.834807992 0.269104004
0.849883974 0.824036002 0.268981993
0.898986995 0.813598990 0.274962991
0.002258000 0.002258000 0.045258000
0.021790000 0.003052000 0.053893998
0.047974002 0.003052000 0.057983000
0.088408999 0.005371000 0.058685001
0.134338006 0.011322000 0.060486000
0.181580007 0.019774999 0.064911000
0.228698999 0.031158000 0.070220999
0.276549995 0.045288000 0.077545002
0.324768007 0.060150001 0.086364999
0.373351991 0.074951001 0.096283004
0.422118992 0.090178996 0.107268997
0.471558005 0.105103001 0.119537003
0.521117985 0.120330997 0.132506996
0.570801020 0.135498002 0.145447001
0.620728016 0.150726005 0.158904999
0.670898020 0.166077003 0.172851995
0.720580995 0.181365997 0.186707005
0.003143000 0.023987001 0.060821999
0.025665000 0.021819999 0.061005000
0.053314000 0.020416001 0.059937000
0.087006003 0.012085000 0.055663999
0.129791006 0.010010000 0.053497002
0.176941007 0.017944001 0.057037000
0.224151999 0.029572001 0.062896997
0.272796988 0.043853998 0.070891999
0.321624994 0.059021000 0.080840997
0.371001989 0.074432001 0.092468001
0.420684993 0.089782998 0.104584001
0.470885992 0.105103001 0.117675997
0.521300972 0.120788999 0.130829006
0.571991026 0.136169001 0.144592002
0.622771978 0.151611000 0.158600003
0.674041986 0.167357996 0.172821000
0.724395990 0.182708994 0.186950997
0.017761000 0.065369003 0.065033004
0.033325002 0.062164001 0.062286001
0.058745999 0.058745999 0.059448000
0.086700000 0.055450000 0.056334998
0.128845006 0.053284001 0.052338000
0.175537005 0.053344999 0.051697001
0.223418996 0.057617001 0.055817001
0.271605998 0.064727999 0.062835999
0.320282012 0.072723001 0.070189998
0.369843006 0.082824998 0.079742000
0.419952005 0.096465997 0.093170002
0.470427990 0.111175999 0.107574001
0.521544993 0.126038000 0.121886998
0.572937012 0.141937003 0.137360007
0.624512017 0.157532007 0.152832001
0.676392019 0.173583999 0.168487996
0.727997005 0.189392000 0.183960006
0.037078999 0.110504001 0.067841001
0.044799998 0.108306997 0.065154999
0.066161998 0.105713002 0.062408000
0.091766000 0.102477998 0.058990002
0.132018998 0.099822998 0.056853998
0.179321006 0.097838998 0.056366000
0.227356002 0.098113999 0.059052002
0.275817990 0.101379000 0.065369003
0.324707001 0.106934004 0.073944002
0.374511987 0.114318997 0.082457997
0.424896002 0.124206997 0.093474999
0.475708008 0.135436997 0.107483000
0.527190983 0.147643998 0.121184997
0.578917980 0.161193997 0.137145996
0.630981028 0.175262004 0.153198004
0.683318973 0.190001994 0.169495001
0.735107005 0.204650998 0.185486004
0.053406000 0.158875003 0.073486000
0.058288999 0.156737998 0.071563996
0.075866997 0.154724002 0.070281997
0.098938003 0.152161002 0.068268001
0.134978995 0.149169996 0.065552004
0.183166996 0.146271005 0.064269997
0.233367994 0.144562006 0.065582000
0.282990009 0.145172000 0.070952997
0.332610995 0.148040995 0.079590000
0.382934988 0.153075993 0.089722000
0.434020996 0.159851000 0.099395998
0.485718012 0.168243006 0.110168003
0.537872016 0.178222999 0.124756001
0.590363026 0.189392000 0.139434993
0.643065989 0.201691002 0.156005993
0.696471989 0.214844003 0.172882006
