public/lut/100.cube
TITLE "17x17x17 Adobe/IRIDAS cube 3D LUT exported with GrossGrade v0.2.2 (beta) 64 bit"
DOMAIN_MIN 0 0 0
DOMAIN_MAX 1 1 1
LUT_3D_SIZE 5
0.000000000 0.000000000 0.000000000
0.138091996 0.013611000 0.012817000
0.327392995 0.064514004 0.061615001
0.522430003 0.125275001 0.121063001
0.719666004 0.186920002 0.181365997
0.055877998 0.165069997 0.055877998
0.140778005 0.154877007 0.043060001
0.337981999 0.154113993 0.061919998
0.541411996 0.185058996 0.125121996
0.752318978 0.233490005 0.190154999
0.110077001 0.386016995 0.110077001
0.164825007 0.387023985 0.108887002
0.379608005 0.381195009 0.097107001
0.609862983 0.380492985 0.140228003
0.814361989 0.385437012 0.204375997
0.184508994 0.667357981 0.184508994
0.227081001 0.676757991 0.187469006
0.419342011 0.650542974 0.178924993
0.660767019 0.619567990 0.176697001
0.876403987 0.597168028 0.217896000
0.293884009 0.940063000 0.293884009
0.309540004 0.920958996 0.284882009
0.459594995 0.895232975 0.278656006
0.687835991 0.855926991 0.273499012
0.898864985 0.813109994 0.274170011
0.007690000 0.007690000 0.110290997
0.131409004 0.010864000 0.135681003
0.322234988 0.057434000 0.146026999
0.519043028 0.118500002 0.174591005
0.719268978 0.180267006 0.215850994
0.039825000 0.150726005 0.148376003
0.127991006 0.142700002 0.141357005
0.323058993 0.146942005 0.142547995
0.531647027 0.177093998 0.171996996
0.748351991 0.215575993 0.209197998
0.105469003 0.374817014 0.171630993
0.161101997 0.376343012 0.167572007
0.369812012 0.372925013 0.159546003
0.596588016 0.367583990 0.187041998
0.806244016 0.372130990 0.217194006
0.182251006 0.660461009 0.224304006
0.222930998 0.658385992 0.220367000
0.410095006 0.636870980 0.211120993
0.653991997 0.610473990 0.208496004
0.874755979 0.592437983 0.240326002
0.288208008 0.928040028 0.307861000
0.306427002 0.912476003 0.300568014
0.456512004 0.890502989 0.295958996
0.687012017 0.855286002 0.292602986
0.899994016 0.815825999 0.294555992
0.031952001 0.031952001 0.242644995
0.119415000 0.038849000 0.266602010
0.320037991 0.054290999 0.300384998
0.518737972 0.114380002 0.314301014
0.721038997 0.176818997 0.340301991
0.046875000 0.139099002 0.296508998
0.121582001 0.132140994 0.300262004
0.322784007 0.133972004 0.313598990
0.534453988 0.165588006 0.324218988
0.752075016 0.200286999 0.346435994
0.090453997 0.356812000 0.349822998
0.153228998 0.359375000 0.353729010
0.356689006 0.360870004 0.355316013
0.579620004 0.362854004 0.350066990
0.791625977 0.374054015 0.360076994
0.177031994 0.645781994 0.406096995
0.216796994 0.637969971 0.394470006
0.400391012 0.624054015 0.382476985
0.648651004 0.605956972 0.373688012
0.869231999 0.595031977 0.385834008
0.287506014 0.914794981 0.444121987
0.306549013 0.902617991 0.435882986
0.453826994 0.885254025 0.429717988
0.685638011 0.855408013 0.422057986
0.901062012 0.819182992 0.416106999
0.069610998 0.069610998 0.375030994
0.128479004 0.076049998 0.396239996
0.305786014 0.090240002 0.444640994
0.520965993 0.111754999 0.480529994
0.725739002 0.174468994 0.502013981
0.085845999 0.146454006 0.431061000
0.134765998 0.139892995 0.440459996
0.307738990 0.146636993 0.473632991
0.537567019 0.152435005 0.508361995
0.752106011 0.179198995 0.516417980
0.111938000 0.342711985 0.522888005
0.171325997 0.346404999 0.536530018
0.346008003 0.350769013 0.544098020
0.584106028 0.350281000 0.535552979
0.800323009 0.360381991 0.527617991
0.169769004 0.625092030 0.607544005
0.210174993 0.618499994 0.589843988
0.389892995 0.611968994 0.577697992
0.641692996 0.603271008 0.567627013
0.873992980 0.593872011 0.554961979
0.291106999 0.897736013 0.628051996
0.309601009 0.889007986 0.617828012
0.450562000 0.876891971 0.609557986
0.683502018 0.853179991 0.601409972
0.894774973 0.822143972 0.593078971
0.108276002 0.108276002 0.507721007
0.151001006 0.114837997 0.529906988
0.301055998 0.129668996 0.581085026
0.510315001 0.146148995 0.638122976
0.732819021 0.173553005 0.681029975
0.125426993 0.167297006 0.566649973
0.157042995 0.158355996 0.578857005
0.301086009 0.163665995 0.620788991
0.522400022 0.160034001 0.678619027
0.753844976 0.179535002 0.694182992
0.159454003 0.341919005 0.684143007
0.194732994 0.344085991 0.705932975
0.341948986 0.347869992 0.708710015
0.573090017 0.348877013 0.712616026
0.808471978 0.338317990 0.709869027
0.194275007 0.608153999 0.792572021
0.232787997 0.605315983 0.774749994
0.390076011 0.604614019 0.764801025
0.636475027 0.602416992 0.759949028
0.882476985 0.585784972 0.751343012
0.297394007 0.883361995 0.813538015
0.314819008 0.877593994 0.801208019
0.447113007 0.869750977 0.790984988
0.678893983 0.851166010 0.777252018
0.889190972 0.823242009 0.752686024
