public/lut/101.cube
TITLE "17x17x17 Adobe/IRIDAS cube 3D LUT exported with GrossGrade v0.2.2 (beta) 64 bit"
DOMAIN_MIN 0 0 0
DOMAIN_MAX 1 1 1
LUT_3D_SIZE 17
0.000000000 0.000000000 0.000000000
0.003693000 0.000000000 0.000000000
0.007111000 0.000000000 0.000000000
0.033507999 0.000793000 0.000641000
0.069641002 0.001373000 0.001587000
0.111969002 0.002380000 0.002899000
0.157226995 0.003632000 0.004425000
0.203979000 0.005951000 0.006744000
0.253295988 0.008270000 0.009064000
0.302276999 0.011047000 0.011841000
0.350800008 0.012909000 0.014496000
0.402038991 0.015228000 0.017364999
0.456481993 0.018340999 0.019928001
0.514343023 0.021576000 0.023804000
0.575408995 0.025330000 0.027710000
0.639801025 0.029236000 0.030853000
0.707396984 0.032349002 0.034697998
0.000000000 0.003021000 0.000000000
0.003845000 0.003784000 0.000000000
0.011322000 0.005280000 0.000000000
0.036285002 0.006805000 0.000641000
0.074036002 0.009857000 0.001587000
0.116699003 0.012909000 0.002899000
0.161956996 0.015961001 0.004425000
0.210022002 0.020293999 0.006744000
0.259216011 0.024506001 0.009399000
0.307861000 0.028717000 0.012177000
0.356597990 0.033020001 0.014496000
0.408446997 0.037659001 0.017609000
0.463593006 0.042450000 0.020904999
0.521758974 0.048035000 0.025330000
0.583343983 0.053893998 0.028595001
0.648804009 0.059418000 0.033112001
0.717224002 0.065063000 0.036285002
0.000793000 0.027404999 0.000793000
0.007599000 0.028839000 0.000793000
0.017456001 0.029755000 0.000793000
0.046172999 0.032623000 0.000793000
0.083678998 0.035004001 0.002167000
0.126862004 0.038879000 0.003693000
0.172516003 0.043853998 0.005219000
0.220642000 0.049132999 0.007538000
0.268462986 0.054168999 0.009857000
0.316284001 0.059264999 0.012177000
0.365783989 0.064025998 0.015198000
0.418579012 0.069366001 0.018279999
0.474487007 0.075562000 0.021484001
0.533416986 0.082061999 0.025390999
0.596283019 0.088623002 0.029266000
0.662445009 0.095215000 0.033172999
0.731841981 0.101775996 0.037078999
0.002228000 0.070862003 0.002228000
0.012177000 0.071898997 0.002228000
0.025085000 0.073821999 0.002228000
0.056458000 0.076172002 0.002228000
0.097228996 0.078491002 0.002380000
0.141021997 0.081665002 0.004486000
0.185944006 0.086029001 0.006653000
0.232056007 0.090026997 0.008514000
0.278503001 0.094420999 0.010895000
0.326599002 0.099120997 0.013611000
0.377624989 0.104340002 0.016418001
0.431335002 0.110198997 0.019165000
0.488251001 0.116455004 0.022918999
0.548156977 0.123138003 0.026946999
0.611938000 0.130218998 0.030944999
0.679015994 0.137756005 0.034637000
0.749664009 0.145355001 0.039276000
0.004547000 0.121276997 0.004547000
0.017487001 0.122893997 0.004547000
0.033507999 0.125030994 0.004547000
0.066924997 0.127471998 0.004547000
0.108733997 0.129210994 0.004547000
0.152710006 0.130829006 0.004730000
0.197448999 0.133178994 0.006805000
0.243164003 0.136291996 0.009125000
0.290558010 0.140411004 0.012024000
0.340056986 0.145293996 0.014526000
0.392058998 0.150635004 0.017944001
0.446960002 0.156799003 0.021331999
0.505034983 0.163422003 0.025420999
0.566344976 0.170532003 0.029479999
0.630981028 0.178375006 0.033813000
0.699280024 0.186340004 0.037719999
0.765625000 0.194122002 0.040222000
0.006836000 0.171021000 0.006836000
0.022857999 0.172759995 0.006836000
0.041870002 0.175322995 0.006989000
0.076476999 0.177672997 0.007111000
0.118225001 0.179656997 0.006836000
0.162659004 0.181670994 0.006836000
0.208710000 0.184357002 0.007111000
0.256072998 0.187469006 0.009918000
0.305023015 0.191588998 0.012756000
0.356110007 0.196624994 0.016113000
0.409606993 0.202300996 0.019774999
0.465851009 0.208801001 0.023651000
0.525268972 0.215941995 0.028351000
0.587921023 0.223693997 0.032226998
0.654143989 0.232024997 0.036224000
0.723174989 0.240784004 0.040008999
0.781372011 0.247589007 0.041016001
0.009949000 0.223358005 0.009949000
0.029022001 0.225310996 0.009674000
0.051208001 0.227936000 0.009949000
0.086669996 0.230835006 0.009949000
0.129059002 0.233582005 0.009949000
0.174254999 0.236633003 0.009949000
0.221618995 0.239898995 0.009949000
0.270812988 0.243622005 0.010712000
0.321868986 0.248016000 0.013397000
0.374877989 0.253235012 0.017395001
0.430054009 0.259398997 0.021880999
0.487915009 0.266357005 0.026215000
0.548828006 0.274048001 0.030853000
0.613067985 0.282501012 0.035339002
0.680786014 0.291595012 0.039337002
0.749237001 0.300933987 0.042969000
0.800659001 0.307251006 0.041779000
0.013062000 0.281035990 0.013062000
0.035918999 0.283324987 0.013062000
0.061248999 0.286345989 0.013763000
0.098540999 0.289763987 0.013855000
0.141326994 0.293334991 0.014282000
0.187744007 0.296936005 0.014282000
0.236571997 0.300933987 0.014282000
0.287476003 0.305236995 0.013855000
0.340514988 0.310272008 0.015045000
0.395630002 0.315948009 0.018828999
0.453063995 0.322510004 0.023621000
0.513000011 0.329986989 0.028870000
0.575591981 0.338286996 0.033752002
0.640075982 0.347045988 0.037659001
0.706543028 0.356261998 0.041870002
0.773406982 0.365478992 0.044739000
0.823455989 0.371520996 0.042938001
0.017364999 0.344727010 0.017364999
0.043884002 0.347321004 0.018127000
0.072692998 0.350800008 0.018921001
0.111298002 0.354613990 0.018921001
0.155212000 0.358734012 0.019714000
0.202849999 0.363128990 0.019714000
0.253203988 0.367767006 0.019714000
0.306122005 0.372833014 0.019714000
0.361176014 0.378601015 0.019714000
0.418487996 0.385071009 0.021240000
0.478087991 0.392120004 0.025818000
0.539246023 0.399628013 0.031250000
0.602020025 0.407683998 0.035278000
0.665924013 0.416045994 0.039581001
0.731018007 0.424712986 0.042693999
0.796967030 0.433349997 0.045471001
0.848601997 0.439087003 0.043274000
0.023560001 0.414306998 0.023560001
0.053284001 0.417602986 0.024352999
0.085205004 0.421508998 0.025024001
0.125061005 0.425873011 0.025787000
0.170166001 0.430602998 0.026276000
0.219512999 0.435577005 0.026703000
0.271759003 0.441101015 0.027039001
0.326721013 0.447174013 0.027161000
0.383819997 0.453491002 0.027496001
0.442809999 0.460022002 0.027496001
0.503296018 0.466643989 0.028290000
0.564788997 0.473511010 0.032593001
0.627228022 0.480652004 0.036681999
0.691009998 0.488312006 0.039917000
0.756012022 0.496154994 0.043120999
0.821624994 0.504059017 0.045410000
0.875030994 0.509369016 0.043274000
0.029755000 0.490539998 0.029755000
0.063293003 0.494536996 0.031280998
0.097961001 0.498961985 0.032042999
0.139557004 0.503997982 0.032776002
0.186340004 0.509582996 0.033507999
0.237488002 0.515594006 0.034026999
0.291747987 0.521575987 0.034515001
0.348571986 0.527495980 0.034515001
0.407256991 0.533051014 0.034515001
0.466827005 0.538390994 0.034148999
0.527465999 0.544005990 0.033417001
0.589294016 0.550018013 0.033721998
0.652130008 0.556487978 0.037170000
0.716033995 0.563262999 0.040375002
0.780762017 0.570190012 0.042511001
0.845947027 0.576964974 0.044006001
0.901580989 0.581695974 0.042511001
0.036773998 0.573729992 0.037018001
0.073273003 0.578522027 0.038605001
0.110687003 0.583953977 0.039825000
0.154816002 0.590148985 0.040160999
0.203521997 0.595978022 0.040924001
0.256377995 0.601806998 0.041473001
0.312561005 0.606567025 0.041473001
0.370514005 0.610442996 0.041046001
0.429688007 0.614380002 0.040465999
0.489928991 0.618804991 0.039673001
0.551146984 0.623749018 0.038879000
0.613189995 0.628966987 0.037323002
0.676056027 0.634459972 0.037323002
0.739593983 0.639984012 0.039337002
0.803740978 0.645447016 0.041016001
0.868317008 0.650786996 0.042236000
0.926299989 0.654724002 0.040771000
0.043639999 0.664398015 0.044555999
0.083893001 0.670502007 0.046661001
0.124512002 0.676514030 0.048126001
0.170624003 0.682434022 0.047943000
0.221038997 0.686614990 0.047943000
0.275391012 0.689086974 0.047240999
0.332549989 0.691406012 0.046356000
0.391295999 0.694122016 0.045623999
0.451141000 0.697296023 0.044739000
0.511840999 0.700713992 0.043457001
0.573150992 0.704528987 0.042419001
0.635222971 0.708434999 0.040955000
0.697906017 0.712463021 0.039246000
0.760680974 0.716491997 0.037872002
0.823853016 0.720000982 0.038451999
0.887299001 0.723541021 0.038391002
0.947205007 0.726440012 0.036865000
0.050597999 0.762054026 0.052062999
0.094269000 0.768311024 0.053863999
0.137390003 0.772156000 0.055176001
0.184783995 0.773315012 0.052581999
0.236938000 0.774078012 0.051819000
0.292571992 0.775177002 0.050811999
0.350647002 0.776520014 0.049805000
0.409972996 0.778228998 0.048737001
0.470153987 0.779877007 0.047028001
0.530914009 0.781708002 0.045471001
0.592010021 0.783813000 0.043731999
0.653563976 0.786072016 0.041533999
0.715363026 0.788239002 0.039246000
0.777465999 0.790497005 0.036773998
0.839965999 0.792603016 0.034393001
0.902740002 0.794586003 0.032837000
0.964142025 0.796387017 0.031891000
0.053406000 0.853729010 0.055328000
0.098632999 0.853789985 0.055969000
0.144072995 0.853911996 0.055420000
0.194365993 0.854674995 0.052948002
0.248627007 0.855103016 0.052094001
0.305602998 0.855346978 0.051514000
0.364318997 0.855530024 0.050446000
0.424041986 0.856049001 0.049102999
0.484252989 0.856719971 0.047150001
0.545073986 0.857483029 0.045044001
0.606018007 0.858336985 0.042877000
0.667114019 0.859192014 0.039886001
0.728515983 0.860046029 0.036773998
0.790009022 0.860930979 0.033661000
0.851715028 0.861786008 0.030548001
0.914062977 0.862700999 0.027344000
0.976166010 0.863646984 0.024261000
0.043120999 0.906708002 0.045990001
0.091643997 0.906859994 0.045990001
0.140380993 0.907378972 0.045410000
0.194122002 0.908325016 0.044555999
0.250793010 0.909301996 0.044555999
0.309143007 0.910431027 0.043853998
0.368865997 0.911773980 0.043396000
0.429107994 0.913330019 0.042328000
0.489899009 0.915069997 0.041228998
0.550934017 0.916900992 0.039733998
0.612151980 0.918731987 0.037415002
0.673676014 0.920562983 0.035094999
0.735291004 0.922362983 0.032776002
0.797119021 0.924103022 0.029633000
0.859192014 0.925812006 0.025757000
0.921905994 0.927429020 0.021819999
0.984710991 0.929138005 0.017212000
0.033142000 0.965637028 0.035491999
0.084716998 0.965789974 0.036285002
0.137482002 0.966614008 0.035491999
0.193847999 0.967406988 0.035491999
0.252227992 0.968474984 0.034697998
0.311522990 0.969788015 0.034148999
0.371704012 0.971313000 0.033417001
0.432433993 0.973083019 0.032349002
0.493407995 0.975036979 0.031158000
0.554749012 0.977111995 0.029175000
0.616271973 0.979340017 0.027313000
0.677978992 0.981628001 0.024994001
0.739989996 0.983916998 0.021880999
0.802398980 0.986298025 0.018767999
0.865143001 0.988770008 0.015686000
0.928893983 0.991271973 0.011780000
0.992736995 0.993896008 0.007904000
0.000000000 0.000000000 0.000000000
0.002228000 0.000000000 0.002960000
0.009125000 0.000000000 0.003693000
0.035645001 0.000641000 0.006104000
0.071777001 0.001587000 0.009064000
0.115082003 0.002899000 0.012726000
0.160034001 0.004425000 0.015961001
0.207396999 0.006744000 0.020293999
0.256743997 0.009064000 0.025665000
0.305175990 0.011383000 0.031036001
0.353637993 0.013702000 0.035675000
0.404998988 0.016022000 0.041016001
0.459717005 0.019866999 0.046721999
0.517669976 0.022980001 0.052673001
0.578979015 0.026854999 0.058258001
0.644043028 0.030060001 0.063506998
0.711822987 0.033844002 0.069366001
0.000000000 0.003693000 0.003693000
0.003784000 0.003754000 0.003754000
0.012726000 0.005188000 0.005219000
0.038451999 0.006744000 0.006836000
0.076720998 0.009796000 0.009796000
0.119323999 0.012909000 0.013641000
0.165069997 0.015961001 0.017548000
0.213043004 0.020293999 0.022918999
0.262237996 0.024871999 0.028717000
0.310516000 0.029114000 0.033752002
0.359467000 0.033325002 0.038727000
0.411469012 0.038391002 0.043976001
0.466735989 0.043701001 0.049621999
0.525452018 0.048859000 0.055328000
0.587432981 0.055144999 0.061156999
0.653258979 0.060577001 0.066742003
0.721831977 0.066680998 0.072448999
0.000702000 0.029572001 0.007507000
0.007538000 0.031097000 0.007538000
0.018921001 0.032715000 0.008240000
0.048248000 0.034271002 0.009064000
0.086914003 0.037292000 0.011993000
0.130401999 0.041717999 0.015198000
0.176269993 0.046599999 0.018828999
0.223968998 0.051270001 0.022614000
0.271544993 0.055969000 0.026854999
0.319366008 0.060486000 0.031158000
0.369354010 0.065490998 0.035735998
0.422302008 0.070891999 0.040405001
0.478484988 0.076843001 0.046112001
0.538025022 0.082549997 0.052124001
0.600799978 0.088988997 0.057799999
0.667632997 0.095275998 0.063629001
0.737304986 0.102173001 0.069977000
0.002228000 0.074157998 0.012817000
0.012238000 0.075562000 0.014252000
0.025116000 0.077606000 0.013611000
0.059113000 0.079773001 0.012909000
0.100372002 0.082092002 0.014496000
0.144470006 0.085266002 0.018097000
0.189330995 0.089203000 0.021850999
0.234984994 0.092926003 0.025665000
0.281464010 0.096648999 0.029724000
0.330321997 0.101410002 0.033721998
0.381408989 0.106353998 0.038238999
0.435425013 0.111908004 0.043517999
0.492583990 0.118164003 0.048859000
0.553130984 0.124785997 0.055054002
0.616943002 0.131714001 0.060547002
0.684570014 0.139069006 0.066620000
0.754028022 0.146362007 0.071898997
0.004547000 0.124420002 0.020354999
0.018279999 0.126221001 0.021880999
0.032715000 0.128631994 0.021179000
0.068480998 0.130768001 0.018982001
0.111236997 0.132538006 0.018982001
0.155517995 0.134064004 0.020752000
0.200470001 0.136382997 0.024383999
0.246552005 0.139525995 0.028290000
0.294097990 0.143250003 0.032561999
0.344054997 0.147888005 0.037170000
0.396454006 0.153228998 0.041747998
0.451691002 0.159180000 0.047240999
0.510010004 0.165740997 0.053162001
0.571747005 0.172913000 0.058807001
0.636870980 0.180510998 0.064940996
0.705413997 0.188507006 0.070679002
0.767364979 0.195129007 0.073944002
0.007050000 0.174225003 0.027984999
0.023651000 0.176055998 0.028991999
0.040405001 0.178710997 0.029022001
0.077422999 0.181273997 0.024658000
0.120513998 0.183654994 0.024871999
0.165436000 0.185637996 0.025665000
0.211792007 0.187866002 0.027434999
0.259613007 0.191009998 0.031005999
0.309112996 0.194977000 0.035583001
0.360657007 0.199920997 0.040192001
0.414458990 0.205504999 0.046021000
0.471069008 0.211884007 0.051849000
0.530852973 0.218994007 0.057587001
0.594025016 0.226531997 0.063385002
0.660767019 0.234862998 0.069366001
0.730468988 0.243744001 0.075134002
0.783080995 0.249420002 0.075897001
0.009949000 0.226653993 0.035186999
0.029816000 0.228851005 0.036469001
0.049286000 0.231628001 0.037262000
0.087311000 0.234984994 0.031555001
0.130889997 0.238159001 0.031097000
0.177001998 0.241118997 0.031830002
0.225036994 0.244353995 0.032561999
0.274688989 0.247986004 0.034363002
0.326294005 0.252350003 0.038635001
0.379700005 0.257445991 0.044312000
0.435393989 0.263550013 0.050292999
0.493712991 0.270294011 0.056396000
0.555236995 0.277893007 0.062804997
0.620148003 0.286377013 0.068604000
0.687897027 0.295379996 0.074584998
0.754974008 0.304259986 0.079498000
0.803192019 0.309722990 0.079040997
0.013794000 0.284851015 0.043212999
0.036713000 0.287353992 0.044585999
0.060120001 0.290587991 0.046021000
0.098572001 0.294678003 0.039092999
0.143126994 0.298400998 0.038483001
0.190582007 0.302246004 0.039429002
0.240172997 0.306151986 0.040192001
0.291839987 0.310638011 0.040955000
0.345427990 0.315582007 0.043120999
0.401001006 0.321135998 0.048278999
0.458983988 0.327605993 0.054871000
0.519653022 0.334991008 0.061218001
0.582489014 0.343079001 0.067718998
0.647095025 0.351653993 0.073394999
0.713286996 0.360442996 0.078704998
0.778473020 0.369049013 0.082732998
0.826690972 0.374480993 0.081969999
0.018890001 0.349090993 0.052368000
0.045348998 0.351990014 0.053619001
0.071960002 0.355713010 0.055511001
0.110717997 0.360381991 0.048064999
0.156433001 0.364838004 0.047516000
0.205443993 0.369385004 0.048401002
0.256989002 0.374206990 0.049683001
0.310546994 0.379303008 0.050384998
0.366302013 0.385100991 0.051056001
0.424376994 0.391541004 0.053863999
0.484528005 0.398375988 0.059264999
0.546172976 0.405579001 0.066040002
0.608977973 0.413116008 0.071837999
0.672546029 0.421112001 0.077179000
0.737518013 0.429199010 0.081909001
0.802947998 0.437317014 0.085570998
0.852234006 0.442290992 0.084656000
0.025085000 0.419555992 0.061951000
0.054839998 0.423065007 0.063323997
0.085266002 0.427215993 0.065002002
0.123870999 0.432617009 0.058196999
0.170929000 0.437958002 0.057709001
0.221801996 0.443268001 0.058867998
0.275269002 0.449066013 0.060028002
0.331328988 0.455170006 0.061066002
0.389221013 0.461333990 0.062194999
0.448852986 0.467406988 0.062775001
0.509796023 0.473663002 0.064940996
0.571411014 0.479918987 0.070006996
0.633911014 0.486571997 0.075622998
0.697449028 0.493651986 0.079956003
0.762421012 0.500916004 0.084351003
0.827759027 0.508179009 0.087738000
0.878875971 0.512726009 0.086823002
0.031342000 0.496674001 0.071289003
0.065277003 0.500885010 0.072815001
0.098938003 0.505737007 0.074828997
0.137573004 0.512054026 0.069733001
0.186492994 0.518401980 0.069122002
0.239776999 0.524841011 0.070312999
0.295318991 0.530791998 0.071319997
0.353240997 0.536377013 0.072113000
0.412598014 0.541534007 0.072815001
0.472716987 0.546325982 0.072815001
0.533721983 0.551361024 0.072632000
0.595703006 0.556885004 0.073821999
0.658538997 0.562682986 0.078277998
0.722289979 0.568695009 0.082641996
0.786864996 0.574950993 0.086425997
0.851715028 0.581023991 0.088988997
0.905182004 0.584960997 0.088104002
0.038300000 0.580932975 0.081084996
0.075745001 0.586181998 0.083343998
0.113219999 0.592072010 0.085326999
0.152404994 0.599700987 0.081940003
0.203429997 0.606018007 0.080658004
0.258727998 0.611786008 0.081757002
0.316071004 0.616119027 0.082794003
0.374846995 0.619414985 0.083068997
0.434691995 0.622986019 0.082947001
0.495453000 0.627044976 0.082122996
0.557007015 0.631348014 0.081238002
0.619109988 0.635955989 0.080627002
0.682007015 0.640594006 0.080750003
0.745270014 0.645202994 0.084076002
0.809203982 0.649901986 0.087127998
0.873413026 0.654510021 0.089203000
0.929413021 0.657653987 0.088317998
0.045959000 0.673614979 0.091643997
0.086944997 0.680236995 0.094177000
0.127379999 0.685913026 0.096252002
0.168610007 0.692963004 0.093750000
0.221100003 0.696624994 0.092041001
0.277527004 0.698485970 0.092162997
0.335631996 0.700591981 0.093535997
0.395110995 0.702942014 0.093993999
0.455444008 0.705658019 0.093139999
0.516479015 0.708739996 0.091430999
0.578155994 0.711760998 0.089599997
0.640320003 0.715057015 0.088225998
0.702759027 0.718262017 0.086273000
0.765289009 0.721190989 0.084960997
0.828002989 0.724030018 0.086333998
0.890869021 0.726776004 0.087615997
0.949706972 0.728911996 0.087158002
0.053192001 0.771484017 0.101775996
0.097015001 0.778106987 0.104248002
0.139587000 0.779784977 0.105407998
0.184174001 0.781250000 0.103058003
0.237976000 0.782073975 0.102813996
0.295044005 0.782927990 0.103271000
0.353668004 0.783966005 0.103148997
0.413390994 0.785094976 0.102783002
0.473755002 0.786346018 0.102020003
0.534575999 0.787720025 0.100676998
0.595763981 0.789306998 0.098968998
0.657257020 0.790984988 0.096588001
0.718932986 0.792725027 0.092956997
0.780884027 0.794250011 0.088867001
0.842895985 0.795836985 0.085814998
0.905211985 0.797057986 0.085205004
0.965942025 0.798218012 0.084472999
0.054047000 0.855530024 0.106109999
0.098968998 0.855286002 0.107116997
0.144379005 0.855590999 0.107483000
0.196014002 0.856383979 0.107513003
0.250701994 0.857116997 0.107483000
0.308104992 0.857909977 0.107818998
0.367188007 0.858856022 0.107483000
0.427154988 0.859893978 0.107086003
0.487396002 0.860413015 0.106170997
0.547820985 0.860656977 0.104675002
0.608458996 0.861052990 0.102692001
0.669341981 0.861450016 0.100464001
0.730346978 0.861968994 0.097717002
0.791472971 0.862578988 0.094604000
0.853026986 0.863250971 0.090851001
0.915221989 0.863830984 0.086243004
0.977356017 0.864655018 0.081786998
0.043761998 0.907622993 0.099243000
0.092009999 0.907867014 0.100005999
0.141449004 0.908599973 0.100372002
0.196014002 0.909331977 0.100739002
0.252593994 0.910309017 0.100739002
0.310974002 0.911437988 0.100708000
0.370696992 0.912750006 0.100464001
0.430969000 0.914276004 0.099914998
0.491668999 0.915862978 0.098938003
0.552429020 0.917603016 0.097747996
0.613556027 0.919312000 0.096190996
0.674835026 0.921082020 0.094481997
0.736114979 0.922760010 0.092101999
0.797760010 0.924438000 0.089507997
0.859679997 0.926024973 0.086487003
0.922302008 0.927672982 0.082976997
0.985046029 0.929229975 0.078856997
0.033142000 0.966583014 0.092009999
0.085143998 0.966826975 0.092804000
0.138854995 0.967528999 0.092834003
0.195373997 0.968322992 0.093231000
0.253509998 0.969390988 0.093231000
0.312958002 0.970703006 0.092804000
0.373169005 0.972198009 0.092101999
0.433715999 0.973877013 0.091522001
0.494628996 0.975739002 0.090484999
0.555786014 0.977721989 0.088776000
0.617065012 0.979888976 0.087067001
0.678650022 0.982025027 0.085175000
0.740570009 0.984252989 0.082611002
0.802794993 0.986572027 0.079865001
0.865478992 0.988952994 0.076903999
0.929046988 0.991455019 0.073517002
0.992797971 0.993957996 0.069977000
0.012817000 0.012817000 0.026427999
0.015930001 0.012817000 0.028778000
0.022766000 0.013702000 0.032715000
0.046691999 0.003448000 0.032349002
0.081390001 0.002075000 0.033813000
0.122559004 0.003693000 0.038635001
0.166411996 0.005920000 0.044585999
0.213501006 0.007782000 0.051056001
0.261718988 0.010559000 0.057831001
0.309174001 0.012878000 0.063568003
0.357697010 0.015198000 0.068939000
0.409179986 0.017609000 0.075165004
0.464203000 0.021392999 0.081542999
0.522247016 0.024506001 0.087921001
0.584015012 0.028380999 0.094481997
0.649231017 0.031647000 0.101166002
0.717406988 0.035399999 0.107758000
0.014343000 0.018097000 0.033264000
0.018982001 0.018219000 0.035583001
0.026581001 0.021179000 0.040130999
0.052154999 0.013214000 0.038940001
0.087707996 0.010651000 0.038879000
0.128082007 0.014191000 0.042541999
0.172362998 0.018279999 0.048431002
0.220092997 0.022186000 0.055388998
0.267883003 0.026458999 0.061889999
0.315185994 0.031097000 0.067139000
0.364075005 0.035339002 0.072783999
0.416137993 0.040222000 0.078795999
0.471648991 0.045288000 0.084839001
0.530457020 0.051360998 0.091247998
0.592864990 0.056976002 0.098053001
0.658936024 0.062835999 0.104858004
0.727936029 0.068297997 0.111571997
0.013702000 0.040282998 0.041595001
0.021331999 0.042389002 0.044403002
0.031250000 0.045258000 0.047791000
0.063019000 0.043945000 0.048583999
0.105071999 0.033599999 0.043030001
0.143401995 0.028046001 0.041351002
0.185974002 0.032134999 0.047180001
0.232299998 0.039032001 0.054474000
0.278991997 0.044891000 0.060851999
0.325866997 0.050995000 0.066863999
0.375092000 0.057495002 0.072998002
0.427704006 0.064300999 0.079254001
0.483489990 0.071289003 0.085662998
0.542999029 0.079010002 0.092437997
0.606049001 0.087035999 0.099486999
0.672913015 0.094604000 0.106628001
0.743164003 0.102600001 0.113922000
0.004089000 0.086243004 0.048675999
0.014130000 0.088348001 0.051270001
0.025513001 0.091614000 0.054320998
0.066223003 0.093993999 0.054962002
0.113922000 0.091582999 0.051453002
0.159363002 0.087494001 0.042755000
0.202941999 0.086548001 0.041443001
0.246460006 0.088469997 0.044617001
0.291595012 0.091826998 0.049224999
0.339477986 0.095794998 0.055633999
0.389984012 0.100830004 0.062042002
0.443634003 0.106597997 0.069061004
0.500518978 0.112732001 0.076537997
0.561004996 0.119507000 0.083984002
0.624907970 0.126708999 0.091674998
0.692444026 0.133910999 0.099914998
0.757385015 0.140686005 0.106293000
0.005035000 0.133452997 0.056152001
0.018036000 0.135558993 0.058502000
0.031738002 0.138641000 0.060851999
0.068085000 0.143096998 0.058288999
0.116576999 0.143799007 0.055939000
0.165069997 0.142943993 0.050354000
0.211609006 0.141846001 0.047943000
0.257598996 0.142242000 0.050292999
0.304657012 0.144501001 0.055084001
0.353821009 0.147826999 0.060791001
0.406035990 0.152465999 0.066803001
0.460875988 0.157837003 0.073028997
0.518859982 0.164093003 0.079925999
0.580596983 0.170990005 0.087890998
0.645874023 0.178589001 0.095734000
0.714325011 0.186462000 0.103759997
