public/lut/101.cube
TITLE "17x17x17 Adobe/IRIDAS cube 3D LUT exported with GrossGrade v0.2.2 (beta) 64 bit"
DOMAIN_MIN 0 0 0
DOMAIN_MAX 1 1 1
LUT_3D_SIZE 5
0.000000000 0.000000000 0.000000000
0.069641002 0.001373000 0.001587000
0.253295988 0.008270000 0.009064000
0.456481993 0.018340999 0.019928001
0.707396984 0.032349002 0.034697998
0.004547000 0.121276997 0.004547000
0.108733997 0.129210994 0.004547000
0.290558010 0.140411004 0.012024000
0.505034983 0.163422003 0.025420999
0.765625000 0.194122002 0.040222000
0.017364999 0.344727010 0.017364999
0.155212000 0.358734012 0.019714000
0.361176014 0.378601015 0.019714000
0.602020025 0.407683998 0.035278000
0.848601997 0.439087003 0.043274000
0.043639999 0.664398015 0.044555999
0.221038997 0.686614990 0.047943000
0.451141000 0.697296023 0.044739000
0.697906017 0.712463021 0.039246000
0.947205007 0.726440012 0.036865000
0.033142000 0.965637028 0.035491999
0.252227992 0.968474984 0.034697998
0.493407995 0.975036979 0.031158000
0.739989996 0.983916998 0.021880999
0.992736995 0.993896008 0.007904000
0.049132999 0.048431002 0.123566002
0.119658999 0.039246000 0.140808001
0.284119010 0.015961001 0.140411004
0.480498999 0.026825000 0.162109002
0.732544005 0.040222000 0.194640994
0.033507999 0.157379001 0.158843994
0.137939006 0.164611995 0.171508998
0.335480005 0.156219006 0.167632997
0.545135021 0.167572007 0.182831004
0.781921029 0.178375006 0.200562000
0.027008001 0.381103992 0.193969995
0.173370004 0.400269002 0.208038002
0.393920988 0.417755008 0.220367000
0.641052008 0.434143007 0.230895996
0.874114990 0.450866997 0.234833002
0.057556000 0.712799013 0.260071009
0.239501998 0.728271008 0.272522002
0.473845989 0.729705989 0.277496010
0.716216981 0.732451975 0.274901986
0.956969976 0.735565007 0.268005013
0.040038999 0.972687006 0.273346007
0.259094000 0.974976003 0.274780005
0.492859006 0.980620980 0.263823986
0.741729975 0.986236989 0.262787014
0.993377984 0.994536996 0.256134003
0.078856997 0.078612998 0.310272008
0.151641995 0.074676998 0.334594995
0.333130002 0.053009000 0.349303991
0.533234000 0.044188999 0.362731993
0.774231017 0.054290999 0.398193002
0.073394999 0.192322001 0.371277004
0.176635996 0.202362001 0.394196004
0.376067996 0.204132006 0.405151010
0.597289979 0.203186005 0.414734006
0.812041998 0.196686000 0.438048989
0.063354000 0.438995004 0.438933998
0.212769002 0.459807992 0.464722008
0.442443997 0.471343994 0.483215004
0.691344976 0.463286996 0.477234006
0.918853998 0.454223990 0.480681986
0.098816000 0.769684017 0.528931022
0.274536014 0.768341005 0.536559999
0.490355998 0.758513987 0.530731022
0.728088021 0.748504996 0.516815007
0.975250006 0.738219976 0.488860995
0.041779000 0.982146978 0.523041010
0.255706996 0.983520985 0.521270990
0.483886987 0.987244010 0.510070980
0.735718012 0.990997016 0.496796012
0.994536996 0.996093988 0.499664009
0.100005999 0.099609002 0.487976015
0.184143007 0.103667997 0.521422982
0.365691990 0.098724000 0.560302973
0.580963016 0.070525996 0.591826975
0.804503977 0.061646000 0.626221001
0.113861002 0.227448002 0.577057004
0.223663002 0.243622005 0.607879996
0.413329989 0.253203988 0.634674013
0.633056998 0.220000997 0.656432986
0.829833984 0.202148005 0.677703977
0.130463004 0.481353998 0.690825999
0.266570985 0.503112972 0.729705989
0.447266012 0.501038015 0.794891000
0.710937977 0.467101991 0.759307981
0.908936024 0.454497993 0.736298025
0.123595998 0.793549001 0.793578982
0.282745004 0.784331977 0.792755008
0.472472996 0.772307992 0.790374994
0.720734000 0.752898991 0.784271002
0.979735970 0.731171012 0.764403999
0.048797999 0.984833002 0.771393001
0.263794005 0.985718012 0.769104004
0.490601003 0.988463998 0.763549984
0.735656977 0.992218018 0.754974008
0.996185005 0.997619987 0.749481022
0.145355001 0.145080999 0.682982981
0.224822998 0.128113002 0.804503977
0.423615009 0.121094003 0.855590999
0.599578977 0.079802997 0.785645008
0.818695009 0.059875000 0.818695009
0.150330007 0.287506014 0.935486019
0.243713006 0.282653987 0.971068978
0.454497993 0.231841996 0.907989979
0.649322987 0.208922997 0.807677984
0.840820014 0.205230996 0.840851009
0.101868004 0.511596978 0.907653987
0.230224997 0.528168023 0.915984988
0.438933998 0.510315001 0.966278017
0.728241026 0.464783013 0.937286019
0.916594982 0.458557010 0.916718006
0.107787997 0.797913015 0.966888011
0.276122987 0.787781000 0.966400027
0.470306009 0.773895025 0.971588016
0.723419011 0.752106011 0.978911996
0.980835021 0.728606999 0.980895996
0.043274000 0.986572027 0.986633003
0.262908995 0.987396002 0.987518013
0.492888987 0.989960015 0.990082026
0.738739014 0.993773997 0.993834972
0.999817014 0.999817014 0.999817014
