public/lut/102.cube
TITLE "17x17x17 Adobe/IRIDAS cube 3D LUT exported with GrossGrade v0.2.2 (beta) 64 bit"
DOMAIN_MIN 0 0 0
DOMAIN_MAX 1 1 1
LUT_3D_SIZE 17
0.031555001 0.030762000 0.047607001
0.030029001 0.026916999 0.037323002
0.032134999 0.025330000 0.030273000
0.054076999 0.019226000 0.019501001
0.095977999 0.005524000 0.005524000
0.145110995 0.003693000 0.004486000
0.197906002 0.007599000 0.008362000
0.247803003 0.011475000 0.012268000
0.295226991 0.014587000 0.015381000
0.343964010 0.017700000 0.019257000
0.395476997 0.021576000 0.023468001
0.450165004 0.025726000 0.028107001
0.507690012 0.030944999 0.033325002
0.568512022 0.035645001 0.037994001
0.632903993 0.040314000 0.042693999
0.700378001 0.044066999 0.046967000
0.765655994 0.046905998 0.049683001
0.021484001 0.049224999 0.024780000
0.026854999 0.033844002 0.023956001
0.033661000 0.028229000 0.024597000
0.041931000 0.028930999 0.024597000
0.078674003 0.014893000 0.008240000
0.127746999 0.012726000 0.002899000
0.181823999 0.017639000 0.006073000
0.235747993 0.022766000 0.009949000
0.286590993 0.028137000 0.013794000
0.336059988 0.033507999 0.017302999
0.388489008 0.038940001 0.021576000
0.443816990 0.045531999 0.026550001
0.501923025 0.051787999 0.031189000
0.563140988 0.058563001 0.035828002
0.627776980 0.064850003 0.040465999
0.696135998 0.071686000 0.045531999
0.763062000 0.076629996 0.048340000
0.006683000 0.091155998 0.006683000
0.012878000 0.080963001 0.006012000
0.024352999 0.072754003 0.008972000
0.041503999 0.062987998 0.015869001
0.062622003 0.051819000 0.018036000
0.112121999 0.034302000 0.008667000
0.169556007 0.031738002 0.006012000
0.226013005 0.036559999 0.009552000
0.279967993 0.043334998 0.013031000
0.331512004 0.050629001 0.015778000
0.384460002 0.058104999 0.019226000
0.440124989 0.065704003 0.023894999
0.498840004 0.074065998 0.028870000
0.560638011 0.083007999 0.033507999
0.626098990 0.091187000 0.038727000
0.694671988 0.099547997 0.043396000
0.763122976 0.106903002 0.046967000
0.006958000 0.129425004 0.006805000
0.015961001 0.123199001 0.006165000
0.026916999 0.117156997 0.006195000
0.040252998 0.110625997 0.006439000
0.053925000 0.104309000 0.011108000
0.101958998 0.094054997 0.005768000
0.162872002 0.083405003 0.004425000
0.221100003 0.077910997 0.007538000
0.276183993 0.075714000 0.010010000
0.329681009 0.076324001 0.013458000
0.383789003 0.080902003 0.017639000
0.440216005 0.088561997 0.021790000
0.498901010 0.098419003 0.027802000
0.561218023 0.108916998 0.031830002
0.627044976 0.119110003 0.035828002
0.695831001 0.129271999 0.040465999
0.766357005 0.138762996 0.044861000
0.010071000 0.170196995 0.010071000
0.022278000 0.164856002 0.009308000
0.035278000 0.160095006 0.008484000
0.050170999 0.155396000 0.007507000
0.065948002 0.151581004 0.007690000
0.095245004 0.147522002 0.005768000
0.153075993 0.140503004 0.004547000
0.215850994 0.132995993 0.005951000
0.272796988 0.127746999 0.009064000
0.328368992 0.125670999 0.012177000
0.384705007 0.126495004 0.015472000
0.442627013 0.129517004 0.018585000
0.502655029 0.134552002 0.022857999
0.565491021 0.141509995 0.027496001
0.631165028 0.150635004 0.032623000
0.700469971 0.161193997 0.037354000
0.771362007 0.172851995 0.043274000
0.013947000 0.215973005 0.013947000
0.029175000 0.211151004 0.012421000
0.044922002 0.206664994 0.011597000
0.062652998 0.203063995 0.010803000
0.081757002 0.199860007 0.009399000
0.101989999 0.197113007 0.011078000
0.147948995 0.194092005 0.008759000
0.210265994 0.189392000 0.006409000
0.271362007 0.184691995 0.007751000
0.329773009 0.181762993 0.010590000
0.388184011 0.181244001 0.014496000
0.447539985 0.182433993 0.017609000
0.508849978 0.185394004 0.020904999
0.572387993 0.190001994 0.025390999
0.638518989 0.196564004 0.029633000
0.707854986 0.204955995 0.033477999
0.779632986 0.214416996 0.038361002
0.017852999 0.267273009 0.018340999
0.036132999 0.262726009 0.017059000
0.055298001 0.258850008 0.016052000
0.075378001 0.255524009 0.014679000
0.097290002 0.252777010 0.013123000
0.119965002 0.250640988 0.013428000
0.153595001 0.248840004 0.011841000
0.209076002 0.246490002 0.009674000
0.272522002 0.243285999 0.008759000
0.333801001 0.240692005 0.009796000
0.394531012 0.239806995 0.012909000
0.455444008 0.240630999 0.016814999
0.517822027 0.243194997 0.020691000
0.582153022 0.247345001 0.024597000
0.648926020 0.252716005 0.028472999
0.718322992 0.259429991 0.031952001
0.789885998 0.267242014 0.035491999
0.022949001 0.324066013 0.023743000
0.044829998 0.320160002 0.022217000
0.066863999 0.316498011 0.020935001
0.089813001 0.313538015 0.019805999
0.114105001 0.311096013 0.018433001
0.140380993 0.309264988 0.016663000
0.168395996 0.307953000 0.017120000
0.215424001 0.306885004 0.015442000
0.277251989 0.305236995 0.012268000
0.340485007 0.303557992 0.011139000
0.403198004 0.302765012 0.012115000
0.466095001 0.303344995 0.015807999
0.529784977 0.305572987 0.019928001
0.594940007 0.309296012 0.024292000
0.662169993 0.314240009 0.027710000
0.731750011 0.320648015 0.030792000
0.803101003 0.328063995 0.033904999
0.029175000 0.386748999 0.029967999
0.054138001 0.383118004 0.028380999
0.079467997 0.379943997 0.026916999
0.105163999 0.377227992 0.025390999
0.132323995 0.374908000 0.024261000
0.160950005 0.373259991 0.022338999
0.190125003 0.372130990 0.022491001
0.230041996 0.371520996 0.020416001
0.286345989 0.370911002 0.017364999
0.350127995 0.370209008 0.015778000
0.414398015 0.369933993 0.014191000
0.479126006 0.370453000 0.015228000
0.544494987 0.372345001 0.018921001
0.610718012 0.375640988 0.023010001
0.678497016 0.380432010 0.026916999
0.748444021 0.386566013 0.030029001
0.820068002 0.393676996 0.033142000
0.035399999 0.455475003 0.036194000
0.063842997 0.452026010 0.034607001
0.092285000 0.449036002 0.033112001
0.121063001 0.446442008 0.032226998
0.151183993 0.444397002 0.030670000
0.182494998 0.442719012 0.029083000
0.215302005 0.441772014 0.027161000
0.251159996 0.441253990 0.025939999
0.301025003 0.441009998 0.023956001
0.363555998 0.440764993 0.021637000
0.428741008 0.440795988 0.019317999
0.494812012 0.441466987 0.017792000
0.561645985 0.443145990 0.018340999
0.629211009 0.446258992 0.022034001
0.697906017 0.450866997 0.026123000
0.768280029 0.456818014 0.029236000
0.840057015 0.463744998 0.031982001
0.041565001 0.530211985 0.041565001
0.073028997 0.527161002 0.040801998
0.104828000 0.524231017 0.039337002
0.136840999 0.521758974 0.038451999
0.170044005 0.519806027 0.036865000
0.204254001 0.518218994 0.035034001
0.239929006 0.517090023 0.033234000
0.276214987 0.516174018 0.032134999
0.321594000 0.515532970 0.029877000
0.380676001 0.515259027 0.027069001
0.446381003 0.515380979 0.024750000
0.513306022 0.516174018 0.023163000
0.581023991 0.518158019 0.020904999
0.649779975 0.521210015 0.021423001
0.719482005 0.525664985 0.024536001
0.790619016 0.531280994 0.027649000
0.862640023 0.537932992 0.030456999
0.047545999 0.611388981 0.048035000
0.082520001 0.608398020 0.046875000
0.117339998 0.605742991 0.045898002
0.152710006 0.603424013 0.044464000
0.188659996 0.601166010 0.042663999
0.225739002 0.599242985 0.040955000
0.263947010 0.597289979 0.038879000
0.303344995 0.595489979 0.037108999
0.346771002 0.594359994 0.034545999
0.401520014 0.593963981 0.031799000
0.466704994 0.594268978 0.029906999
0.533996999 0.595275998 0.027832000
0.602539003 0.597320974 0.025543001
0.672057986 0.600372016 0.023894999
0.742523015 0.604523003 0.023743000
0.814606011 0.609679997 0.026062001
0.887115002 0.615845025 0.028930999
0.053467002 0.698578000 0.053986002
0.091614000 0.695922971 0.052703999
0.129791006 0.693175972 0.051453002
0.168029994 0.690460026 0.050140001
0.206879005 0.687377989 0.048126001
0.246490002 0.684081972 0.046050999
0.287384003 0.681273997 0.043915000
0.329650998 0.679198980 0.041533999
0.373993009 0.677887022 0.038849000
0.426331013 0.677245975 0.036469001
0.489257991 0.677367985 0.033996999
0.556824028 0.678345025 0.031738002
0.626098990 0.680114985 0.029967999
0.696106017 0.682982981 0.027649000
0.767455995 0.686523020 0.025420999
0.839905024 0.691223025 0.025238000
0.912476003 0.696716011 0.026611000
0.058288999 0.789398015 0.058867998
0.100037001 0.786925972 0.058288999
0.141234994 0.783630013 0.056519002
0.182190001 0.779419005 0.054657001
0.223784998 0.775452018 0.052460000
0.266326994 0.772156000 0.050018001
0.310059011 0.769348025 0.047974002
0.355224997 0.766997993 0.045196999
0.401398003 0.765227973 0.043396000
0.452942014 0.764221013 0.040801998
0.513854980 0.763976991 0.037719999
0.581176996 0.764496028 0.035399999
0.650635004 0.765838981 0.032349002
0.721190989 0.767913997 0.029967999
0.792846978 0.770752013 0.027649000
0.865143001 0.774627984 0.025238000
0.937407970 0.778778017 0.024292000
0.060180999 0.875732005 0.060669001
0.105742998 0.872344971 0.060669001
0.149780005 0.868896008 0.059021000
0.193542004 0.865661979 0.056090999
0.237946004 0.862518013 0.053649999
0.283751994 0.859679997 0.051727001
0.330565989 0.857086003 0.049164001
0.378661990 0.854950011 0.047118999
0.428009003 0.853241026 0.044922002
0.480102986 0.851867974 0.042084001
0.538940012 0.851166010 0.039032001
0.605560005 0.851073980 0.036162999
0.674987972 0.851440012 0.033599999
0.745544016 0.852630973 0.030609000
0.816588998 0.854278982 0.028290000
0.888275027 0.856323004 0.025177000
0.958953977 0.858825982 0.021973001
0.056061000 0.943970025 0.056090999
0.104217999 0.942627013 0.055450000
0.152129993 0.941161990 0.054717999
0.200348005 0.939758003 0.053497002
0.249054000 0.938354015 0.052032001
0.298186988 0.936919987 0.050200999
0.348266989 0.935608029 0.048156999
0.399291992 0.934448004 0.045990001
0.451629996 0.933350027 0.043060001
0.505218983 0.932555974 0.040375002
0.563323975 0.931914985 0.037659001
0.628234982 0.931273997 0.034515001
0.696380973 0.931244016 0.031280998
0.766448975 0.931702018 0.028229000
0.837096989 0.931914985 0.026550001
0.906982005 0.932190001 0.022614000
0.976013005 0.932739019 0.018738000
0.093842000 0.996918023 0.093842000
0.142272994 0.996887028 0.090149000
0.191710994 0.996887028 0.087860003
0.240143001 0.996887028 0.083526999
0.288940012 0.996887028 0.078979000
0.338409007 0.996948004 0.074463002
0.388579994 0.997008979 0.069335997
0.439209014 0.997101009 0.063568003
0.491149992 0.997223020 0.058044001
0.544341981 0.997344971 0.051757999
0.599304020 0.997528017 0.045348998
0.657898009 0.997681022 0.038695998
0.719817996 0.997893989 0.030944999
0.784301996 0.998108029 0.021790000
0.851776004 0.998169005 0.015686000
0.920714974 0.998138011 0.012512000
0.988770008 0.998291016 0.008667000
0.052643001 0.052002002 0.103210002
0.051330999 0.048705999 0.096221998
0.053741001 0.045258000 0.090484999
0.061248999 0.042419001 0.084807999
0.107910000 0.021149000 0.070006996
0.155273005 0.008972000 0.057983000
0.202240005 0.009613000 0.054047000
0.249512002 0.013031000 0.054168999
0.295745999 0.015381000 0.054565001
0.344054997 0.019226000 0.056426998
0.395386010 0.023102000 0.059661999
0.449921012 0.027008001 0.063660003
0.507507026 0.031677000 0.068024002
0.568633974 0.036377002 0.072815001
0.633148015 0.040405001 0.078156002
0.701080024 0.044769000 0.083710000
0.766479015 0.048248000 0.089752004
0.043823000 0.063354000 0.088806003
0.046631001 0.051330999 0.083984002
0.050689999 0.045166001 0.078521997
0.057280999 0.044312000 0.075562000
0.087158002 0.037903000 0.068572998
0.134460002 0.020111000 0.054047000
0.186035007 0.018585000 0.048920002
0.237183005 0.024658000 0.050048999
0.286621004 0.029663000 0.051697001
0.336243004 0.034697998 0.053925000
0.388184011 0.040465999 0.057280999
0.443542004 0.046234000 0.061432000
0.501953006 0.052887000 0.066405997
0.563445985 0.059174001 0.071258999
0.628418028 0.065948002 0.076720998
0.696991026 0.072205000 0.082367003
0.763823986 0.077606000 0.088898003
0.024689000 0.100708000 0.067932002
0.034545999 0.091461003 0.067290999
0.044983000 0.081603996 0.067199998
0.056609999 0.072113000 0.066192999
0.072815001 0.063231997 0.065552004
0.121765003 0.038849000 0.053955000
0.174376994 0.030944999 0.046386998
0.227202997 0.037811000 0.048064999
0.280243009 0.045288000 0.050384998
0.331512004 0.052002002 0.052611999
0.384429991 0.059264999 0.055450000
0.440369010 0.066771999 0.060150001
0.499298006 0.075378001 0.064911000
0.561339974 0.083770998 0.070220999
0.626586974 0.092009999 0.075622998
0.695556998 0.100311004 0.081390001
0.764099002 0.107970998 0.088013001
0.009766000 0.136474997 0.053314000
0.019165000 0.129973993 0.052094001
0.030121000 0.123962000 0.052124001
0.043671001 0.117919996 0.052184999
0.059967000 0.112029999 0.054016002
0.104065001 0.102966003 0.052643001
0.169952005 0.085968003 0.039825000
0.228455007 0.070708998 0.032439999
0.279114008 0.065246999 0.039917000
0.330626994 0.070800997 0.050476000
0.383881003 0.080231003 0.055755999
0.440216005 0.089538999 0.060150001
0.499572992 0.100066997 0.064758003
0.562072992 0.110045999 0.069214001
0.627807975 0.120269999 0.074584998
0.696959972 0.130188003 0.080383003
0.767548025 0.139862001 0.086731002
0.010590000 0.175079003 0.048248000
0.022826999 0.169586003 0.047028001
0.035828002 0.164885998 0.046294998
0.050567999 0.160767004 0.046294998
0.067657001 0.157074004 0.047028001
0.088684000 0.154479995 0.047851998
0.150848001 0.147551998 0.038543999
0.220000997 0.135558993 0.029663000
0.277099997 0.126129001 0.030609000
0.331847996 0.122924998 0.036224000
0.387634009 0.123076998 0.041351002
0.444976985 0.124450997 0.047028001
0.504242003 0.128722996 0.056304999
0.566039979 0.138579994 0.067809999
0.631713986 0.150603995 0.074248999
0.701263011 0.162627995 0.079986997
0.773284972 0.174193993 0.085418999
0.014496000 0.219451994 0.048797999
0.029967999 0.214752004 0.048126001
0.045715000 0.210602000 0.047424000
0.063170999 0.206939995 0.047363002
0.082153000 0.204071000 0.047332998
0.101318002 0.201812997 0.049194001
0.141021997 0.201569006 0.037903000
0.207245007 0.196960002 0.030701000
0.274170011 0.189484000 0.031250000
0.333312988 0.183899000 0.033813000
0.391663015 0.181152001 0.038451999
0.450684011 0.180602998 0.043639999
0.511627018 0.182219997 0.050446000
0.574828982 0.186980993 0.058563001
0.640990973 0.193604007 0.064117000
0.710358024 0.200683996 0.070435002
0.781280994 0.210326999 0.080352999
0.018585000 0.270386010 0.053162001
0.037415002 0.266205013 0.052490000
0.056274001 0.262603998 0.051849000
0.076355003 0.259368986 0.051787999
0.098357998 0.256866008 0.051787999
0.121734999 0.254729986 0.052490000
0.147888005 0.254547000 0.049286000
0.203461006 0.253693014 0.039917000
0.272918999 0.250030994 0.035828002
0.336151004 0.245849997 0.037262000
0.397644013 0.243347004 0.040924001
0.458893001 0.242798001 0.046234000
0.521422982 0.244140998 0.051146999
0.585937977 0.246857002 0.056182999
0.652495980 0.251159996 0.061310001
0.721252024 0.256866008 0.067107998
0.791472971 0.264984012 0.074005000
0.024048001 0.327331990 0.059021000
0.045959000 0.323578000 0.058410998
0.067870997 0.320282012 0.058380000
0.091063999 0.317474008 0.057769999
0.115234002 0.315216005 0.057709001
0.141326994 0.313506991 0.057953000
0.167664006 0.312469006 0.059478998
0.209625006 0.313324004 0.050751001
0.273559988 0.312866002 0.043090999
0.341675013 0.310272008 0.042755000
0.406067014 0.308288991 0.043945000
0.469971001 0.307586998 0.048462000
0.533874989 0.308441013 0.053679999
0.598510981 0.311035007 0.058318999
0.664978027 0.315459996 0.063202001
0.733672976 0.321716011 0.068115003
0.804443002 0.329102010 0.072265998
0.030701000 0.390502989 0.066315003
0.055084001 0.386902004 0.065765001
0.080413997 0.383942008 0.065490998
0.106445000 0.381377995 0.065490998
0.133789003 0.379364014 0.065154999
0.162354007 0.377929986 0.065398999
0.192596003 0.376953006 0.066192999
0.225951999 0.377440989 0.062164001
0.280640006 0.378356993 0.056945998
0.350250006 0.377898991 0.055388998
0.416473001 0.376556009 0.052368000
0.482116997 0.375609994 0.050629001
0.547515988 0.376006991 0.054198999
0.612884998 0.378295988 0.059478998
0.679961979 0.382568002 0.064575002
0.749419987 0.388397008 0.069122002
0.820831001 0.395294011 0.073425002
0.036926001 0.459778011 0.074340999
0.064971998 0.456481993 0.074036002
0.093506001 0.453644007 0.073792003
0.122466996 0.451323986 0.073486000
0.152740002 0.449463010 0.073242001
0.184203997 0.448150992 0.073242001
0.217345998 0.447418004 0.073425002
0.250762999 0.447052002 0.073944002
0.297728986 0.447845012 0.069854997
0.361876994 0.448150992 0.064240001
0.429657012 0.446868986 0.060150001
0.496215999 0.445984006 0.054779001
0.562835991 0.446532995 0.055542000
0.630034983 0.448944002 0.060242001
0.698638976 0.453063995 0.065704003
0.768859982 0.458739996 0.070404001
0.840698004 0.465454012 0.074401997
0.043030001 0.535247982 0.083007999
0.074524000 0.532288015 0.082549997
0.106261998 0.529632986 0.082488999
0.138611004 0.527465999 0.082092002
0.171691999 0.525726020 0.082001001
0.206055000 0.524322987 0.081969999
0.241698995 0.523070991 0.081115998
0.278472990 0.521790028 0.080475003
0.320587009 0.521300972 0.074951001
0.377898991 0.520812988 0.067016996
0.446471989 0.519774973 0.063293003
0.513794005 0.519653022 0.062073000
0.581390023 0.520905018 0.061035000
0.650207996 0.523528993 0.062560998
0.720000982 0.527557015 0.066680998
0.791229010 0.532927990 0.071410999
0.863189995 0.539398015 0.075378001
0.049377002 0.617309988 0.092009999
0.084289998 0.614440978 0.091705002
0.119292997 0.612121999 0.091674998
0.154724002 0.609955013 0.091247998
0.190674007 0.607666016 0.090576001
0.227599993 0.605468988 0.089263998
0.265625000 0.602844000 0.086700000
0.304993004 0.600127995 0.083649002
0.346282989 0.598541021 0.078704998
0.400023997 0.597747982 0.073394999
0.466919005 0.597442985 0.070739999
0.534331977 0.597961009 0.069701999
0.602936029 0.599547982 0.068634003
0.672484994 0.602325022 0.067657001
0.743224978 0.606262028 0.068542004
0.815307975 0.611145020 0.072356999
0.887573004 0.617187977 0.075836003
0.055420000 0.705749989 0.101166002
0.093750000 0.703217030 0.100922003
0.131897002 0.700226009 0.100281000
0.170044005 0.697479010 0.099395998
0.208801001 0.693542004 0.096740998
0.248077005 0.689391971 0.093535997
0.288787991 0.686065972 0.090240002
0.331023991 0.683380008 0.087158002
0.374664009 0.681609988 0.083770998
0.426422000 0.680603027 0.080321997
0.489562988 0.680297971 0.078093998
0.557067990 0.680908024 0.076691002
0.626372993 0.682372987 0.075591996
0.696471989 0.684937000 0.074219003
0.767791986 0.688416004 0.073181003
0.840057015 0.692902029 0.073546998
0.912841976 0.697937012 0.076263003
0.060637999 0.796752989 0.108733997
0.102141999 0.794525027 0.108489998
0.143188000 0.790039003 0.106505997
0.184112996 0.785278022 0.103546001
0.225525007 0.780791998 0.100524999
0.267883003 0.777130008 0.097442999
0.311461985 0.773804009 0.094360001
0.356566995 0.771057010 0.091491997
0.402801991 0.768921018 0.089233004
0.453795999 0.767486989 0.086975001
0.514221013 0.766815007 0.084412001
0.581421018 0.766968012 0.082672000
0.650909007 0.768065989 0.081207000
0.721526980 0.769927979 0.079742000
0.792877018 0.772643983 0.078308001
0.865234017 0.776122987 0.076812997
0.937530994 0.779906988 0.076201998
0.061859000 0.879607975 0.110229000
0.106078997 0.876465023 0.107818998
0.151978001 0.873444021 0.107787997
0.195861995 0.869994998 0.105377004
0.240112007 0.866791010 0.102508999
0.285187006 0.863830984 0.099518001
0.331786990 0.860930979 0.097107001
0.379761010 0.858398020 0.095154002
0.429015994 0.856323004 0.093108997
0.480834991 0.854735970 0.091063999
0.539306998 0.853667974 0.088927999
0.605682015 0.853209972 0.086823002
0.675049007 0.853362978 0.084960997
0.745422006 0.854369998 0.082855001
0.816588998 0.855742991 0.081084996
0.888306022 0.857361019 0.079163000
0.959351003 0.859467030 0.077147998
0.056641001 0.945831001 0.106415004
0.104613997 0.944489002 0.105347000
0.152924001 0.942992985 0.104217999
0.201141000 0.941649973 0.103058003
0.249695003 0.940155029 0.101531997
0.298828006 0.938750982 0.100341998
0.348877013 0.937377989 0.098357998
0.399933010 0.936065972 0.096709996
0.452271014 0.934937000 0.094665997
0.505890012 0.933990002 0.092560001
0.563538015 0.933104992 0.089996003
0.628143013 0.932494998 0.087798998
0.696380973 0.932159007 0.085845999
0.766022027 0.932097971 0.083159998
0.836791992 0.932648003 0.081329003
0.906890988 0.932799995 0.079375997
0.976073980 0.933013976 0.076049998
0.096680000 0.997070014 0.148438007
0.146331996 0.997008979 0.146576002
0.195189998 0.996948004 0.142821997
0.244293004 0.996918023 0.139771000
0.293152004 0.997008979 0.135651007
0.342377007 0.997008979 0.130829006
0.392028987 0.997070014 0.125732005
0.442840993 0.997161984 0.120696999
0.494659007 0.997283995 0.115295000
0.547760010 0.997437000 0.109435998
0.602936029 0.997588992 0.104796998
0.660645008 0.997771978 0.096954003
0.721862972 0.997924984 0.090697996
0.785767019 0.998169005 0.083861999
0.851898015 0.998382986 0.075530998
0.920593023 0.998260021 0.071533002
0.988646984 0.998413026 0.071442001
0.068053998 0.067505002 0.154479995
0.068451002 0.065277003 0.149292007
0.071442001 0.062438998 0.145202994
0.077881001 0.060150001 0.141875997
0.117493004 0.049743999 0.133086994
0.168578997 0.026672000 0.118073002
0.214965999 0.014984000 0.106017999
0.257355005 0.015228000 0.099274002
0.301514000 0.018433001 0.096557997
0.348693997 0.021545000 0.096802004
0.399199992 0.025420999 0.099274002
0.453094006 0.029327000 0.102721997
0.510375977 0.033507999 0.107024997
0.571044981 0.037903000 0.112244003
0.635222971 0.041962001 0.117950000
0.703002989 0.046204001 0.124084003
0.768554986 0.048981000 0.131926998
0.061310001 0.076476999 0.142058998
0.065186001 0.067870997 0.139525995
0.070343003 0.064452998 0.136779994
0.076995999 0.063262999 0.134094000
0.098572001 0.061066002 0.130371004
0.148773000 0.047180001 0.119781002
0.200988993 0.028534001 0.106780998
0.247466996 0.026276000 0.098816000
0.293121010 0.032379001 0.096008003
0.341156006 0.037354000 0.095946997
0.392760992 0.042693999 0.098297000
0.447356999 0.048950002 0.101929002
0.505034983 0.054962002 0.106140003
0.566161990 0.061370999 0.111511000
0.631165028 0.067534998 0.117279001
0.699463010 0.073729999 0.123474002
0.766387999 0.078979000 0.131652996
0.045380000 0.109650001 0.123901002
0.055176001 0.101195998 0.124695003
0.065490998 0.093323000 0.125701994
0.076964997 0.085876003 0.125946000
0.091003001 0.079650998 0.126739994
0.134307995 0.067688003 0.121734999
0.189667001 0.046721999 0.109924003
0.240294993 0.040955000 0.100708000
0.287993997 0.048004001 0.097136997
0.337219000 0.055114999 0.096619003
0.389281988 0.062134001 0.098419003
0.444305003 0.069366001 0.101623997
0.502716005 0.077789001 0.106170997
0.564544976 0.085631996 0.111481003
0.629607975 0.093964003 0.117218003
0.698424995 0.102141999 0.123412997
0.766846001 0.109406002 0.131347999
0.028441999 0.147217005 0.107207999
0.040741000 0.140441999 0.107941002
0.054290999 0.134094000 0.110016003
0.069397002 0.127991006 0.112305000
0.086029001 0.122405998 0.115203999
0.116791002 0.115906000 0.117248997
0.176269993 0.101470999 0.110900998
0.237639993 0.082764000 0.101654001
0.288177013 0.070739999 0.097351000
0.336456001 0.072723001 0.097717002
0.388702005 0.083282001 0.100128002
0.444579989 0.092864998 0.103302002
0.503539979 0.102721997 0.107451998
0.565643013 0.112396002 0.112090997
0.631012022 0.122222997 0.117798001
0.700317025 0.131957993 0.123931997
0.770080984 0.141479000 0.131011993
0.014587000 0.186432004 0.097442999
0.027588001 0.181580007 0.098174997
0.042114001 0.176818997 0.099335000
0.060059000 0.172729000 0.101531997
0.081878997 0.168853998 0.104156002
0.105803996 0.165374994 0.107422002
0.158751994 0.158904999 0.107574001
0.228911996 0.145110995 0.100891002
0.291626006 0.130340993 0.094727002
0.344788015 0.122528002 0.093383998
0.396454006 0.120667003 0.095000997
0.450805992 0.121978998 0.099030003
0.508270025 0.129608005 0.106017999
0.570007026 0.141784996 0.112823002
0.635161996 0.153564006 0.118865997
0.704468012 0.164794996 0.124847002
