public/lut/102.cube
TITLE "17x17x17 Adobe/IRIDAS cube 3D LUT exported with GrossGrade v0.2.2 (beta) 64 bit"
DOMAIN_MIN 0 0 0
DOMAIN_MAX 1 1 1
LUT_3D_SIZE 5
0.031555001 0.030762000 0.047607001
0.095977999 0.005524000 0.005524000
0.295226991 0.014587000 0.015381000
0.507690012 0.030944999 0.033325002
0.765655994 0.046905998 0.049683001
0.010071000 0.170196995 0.010071000
0.065948002 0.151581004 0.007690000
0.272796988 0.127746999 0.009064000
0.502655029 0.134552002 0.022857999
0.771362007 0.172851995 0.043274000
0.029175000 0.386748999 0.029967999
0.132323995 0.374908000 0.024261000
0.286345989 0.370911002 0.017364999
0.544494987 0.372345001 0.018921001
0.820068002 0.393676996 0.033142000
0.053467002 0.698578000 0.053986002
0.206879005 0.687377989 0.048126001
0.373993009 0.677887022 0.038849000
0.626098990 0.680114985 0.029967999
0.912476003 0.696716011 0.026611000
0.093842000 0.996918023 0.093842000
0.288940012 0.996887028 0.078979000
0.491149992 0.997223020 0.058044001
0.719817996 0.997893989 0.030944999
0.988770008 0.998291016 0.008667000
0.080292001 0.079956003 0.236267000
0.123595998 0.071075000 0.229094997
0.319945991 0.025635000 0.190246999
0.522338986 0.039429002 0.192351997
0.775421023 0.052825999 0.220214993
0.044922002 0.208434999 0.202240005
0.112700999 0.188446000 0.216187000
0.298339993 0.158417001 0.216491997
0.524779975 0.140991002 0.205383003
0.786162972 0.181244001 0.228728995
0.039246000 0.422607005 0.214539006
0.145996004 0.415313989 0.223601997
0.296721995 0.413543999 0.236816004
0.569489002 0.395996004 0.227234006
0.839172006 0.392242014 0.214049995
0.066467002 0.739014030 0.270172000
0.217682004 0.721741021 0.265350014
0.381743997 0.703705013 0.253601015
0.631348014 0.697387993 0.242553994
0.918518007 0.704833984 0.231292993
0.103210002 0.997313976 0.315459996
0.301178008 0.997253001 0.304688007
0.502807975 0.997497976 0.288361013
0.726867974 0.998169005 0.268860012
0.988677979 0.998839974 0.249663994
0.093414001 0.093018003 0.376922995
0.135223001 0.088623002 0.386444002
0.341858000 0.066771999 0.386382997
0.556213021 0.050841998 0.381866008
0.795624018 0.060180999 0.407990009
0.080658004 0.239105001 0.397765994
0.150543004 0.217254996 0.414642006
0.311890006 0.195678994 0.427978992
0.560486019 0.173522994 0.421967000
0.811065972 0.193146005 0.434235007
0.071044996 0.474761993 0.439727992
0.184478998 0.466643989 0.458281994
0.327331990 0.458160013 0.477905005
0.591309011 0.430999994 0.469817996
0.860442996 0.409087986 0.457031012
0.098082997 0.782715023 0.516174018
0.252746999 0.760712028 0.514434993
0.414947987 0.739287972 0.507049978
0.647888005 0.724364996 0.498961985
0.931334972 0.717987001 0.490691990
0.105682001 0.997650027 0.537445009
0.305969000 0.997588992 0.531310976
0.509582996 0.997802973 0.522063971
0.732513011 0.998444021 0.510712028
0.990112007 0.999328971 0.498961985
0.113617003 0.113280997 0.519713998
0.169403002 0.111663997 0.538208008
0.350708008 0.102264002 0.565491021
0.583130002 0.067443997 0.583374023
0.816711009 0.063965000 0.605072021
0.114928998 0.265594006 0.577026010
0.194610998 0.247954994 0.595611989
0.333281994 0.234283000 0.619872987
0.580048025 0.215636998 0.633849978
0.830505013 0.201294005 0.645659983
0.115509003 0.513701975 0.664916992
0.240967005 0.504211009 0.685608029
0.380798012 0.486815989 0.702422976
0.608214974 0.456512004 0.706879020
0.868561029 0.416016012 0.694396973
0.092620999 0.807708979 0.755340993
0.286255002 0.780578971 0.759307981
0.457062006 0.757812977 0.757354975
0.665192008 0.740417004 0.753203988
0.939361989 0.724976003 0.757171988
0.100891002 0.997924984 0.760955989
0.305359006 0.997864008 0.759887993
0.512176991 0.998138011 0.757659972
0.737182975 0.998687983 0.754333019
0.993834972 0.999572992 0.749877989
0.142578006 0.142029002 0.677338004
0.217377007 0.145080999 0.702179015
0.370178014 0.137725994 0.742034972
0.592194021 0.091155998 0.774596989
0.831757009 0.063385002 0.807067990
0.153748006 0.296478003 0.753448009
0.208191007 0.278533995 0.842468023
0.349914998 0.265594006 0.962401986
0.613677979 0.219420999 0.889832020
0.829620004 0.207122996 0.847075999
0.129791006 0.542603016 0.888184011
0.232574001 0.539031982 0.933380008
0.375366002 0.509979010 0.954101980
0.606688976 0.464141995 0.992218018
0.885528982 0.427154988 0.946349978
0.078125000 0.809844971 0.988739014
0.257782012 0.781403005 0.992340028
0.438262999 0.757476985 0.993744016
0.662720025 0.741057992 0.995087028
0.941009998 0.731383979 0.996765018
0.089599997 0.998229980 0.989075005
0.299865991 0.998169005 0.992554009
0.511322021 0.998413026 0.996703982
0.743134022 0.998229980 0.999054015
0.999817014 0.999817014 0.999817014
