public/lut/103.cube
TITLE "17x17x17 Adobe/IRIDAS cube 3D LUT exported with GrossGrade v0.2.2 (beta) 64 bit"
DOMAIN_MIN 0 0 0
DOMAIN_MAX 1 1 1
LUT_3D_SIZE 17
0.038635001 0.045471001 0.042511001
0.081177004 0.046844002 0.043945000
0.124512002 0.048889000 0.046082001
0.167937994 0.051543999 0.048156999
0.215302005 0.054138001 0.050689999
0.270568997 0.057250999 0.053436000
0.333557010 0.061218001 0.057220001
0.402709991 0.065704003 0.061707001
0.472992003 0.070006996 0.066192999
0.539885998 0.074584998 0.070464998
0.601471007 0.078491002 0.074340999
0.658111989 0.082703002 0.077941999
0.710570991 0.086304002 0.081726000
0.759765983 0.089752004 0.085358001
0.805817008 0.093535997 0.088836998
0.849640012 0.096802004 0.092224002
0.890929997 0.100708000 0.095519997
0.044585999 0.091309004 0.045410000
0.085266002 0.091370001 0.046142999
0.126770005 0.092224002 0.048156999
0.169373006 0.094208002 0.048950002
0.216766000 0.096161000 0.051360998
0.271301001 0.098540999 0.054076999
0.334197998 0.101379000 0.057799999
0.403075993 0.105011001 0.061707001
0.473479986 0.108825997 0.066192999
0.540526986 0.112517998 0.070464998
0.601958990 0.115966998 0.074524000
0.658478022 0.119080000 0.078429997
0.710968018 0.122222997 0.082153000
0.760010004 0.125092000 0.085418999
0.806122005 0.127899006 0.088836998
0.849853992 0.130646005 0.092224002
0.891112983 0.133606002 0.095519997
0.051422000 0.135986000 0.048889000
0.090453997 0.136261001 0.049529999
0.130706996 0.136870995 0.050841998
0.171478003 0.137725994 0.051605001
0.217865005 0.139129996 0.052917000
0.272064000 0.140991002 0.055298001
0.334960997 0.143463001 0.058959998
0.403777987 0.146362007 0.062866002
0.474059999 0.149566993 0.067230001
0.541106999 0.152649000 0.071502998
0.602416992 0.155333996 0.075470001
0.658966005 0.157867000 0.079346001
0.711273015 0.160155997 0.082641996
0.760222971 0.162536994 0.086243004
0.806182981 0.164673001 0.089661002
0.849822998 0.166626006 0.093018003
0.890960991 0.168700993 0.096252002
0.061096001 0.181853995 0.053406000
0.098021999 0.182128996 0.054016002
0.136444002 0.182739004 0.055266999
0.175659001 0.182982996 0.055969000
0.220397994 0.184906006 0.055450000
0.273528993 0.186309993 0.057128999
0.335999012 0.188232005 0.060729999
0.404754996 0.190856993 0.064575002
0.474976003 0.193480998 0.068847999
0.541900992 0.196014002 0.072967999
0.603209972 0.198302999 0.076935001
0.659575999 0.200316995 0.080596998
0.711791992 0.202179000 0.083953999
0.760559022 0.203887999 0.087494001
0.806273997 0.205413997 0.090911999
0.849822998 0.206939995 0.093810998
0.890838981 0.208588004 0.097136997
0.074280001 0.231475994 0.058807001
0.109343998 0.231812000 0.059418000
0.145873994 0.232452005 0.060180999
0.183411002 0.232452005 0.061340000
0.225281000 0.233978003 0.060180999
0.276703000 0.236022994 0.060180999
0.338317990 0.238006994 0.062804997
0.406616002 0.240355998 0.066680998
0.476714998 0.242827997 0.070923001
0.543549001 0.245148003 0.074982002
0.604674995 0.247100994 0.078856997
0.660767019 0.248749003 0.082122996
0.712737978 0.250366002 0.085724004
0.761260986 0.251709014 0.089142002
0.806854010 0.253051996 0.092162997
0.850005984 0.254211009 0.095458999
0.890807986 0.255432010 0.098632999
0.092651002 0.286101997 0.065673999
0.125396997 0.286437988 0.066192999
0.159606993 0.286987007 0.067261003
0.195435002 0.287108988 0.068268001
0.234436005 0.287108988 0.068755999
0.283446997 0.291534007 0.064514004
0.342925996 0.293976009 0.065033004
0.410308987 0.295836985 0.069366001
0.480010986 0.298462003 0.073211998
0.546477973 0.300720006 0.077422999
0.607361019 0.302612007 0.080750003
0.663115978 0.304230005 0.084412001
0.714630008 0.305633992 0.087677002
0.762848020 0.306946009 0.090911999
0.807922006 0.308043987 0.093810998
0.850830019 0.309143007 0.097075999
0.891265988 0.310211003 0.100189000
0.115966998 0.345824987 0.073882997
0.146422997 0.346190989 0.074371003
0.178527996 0.346801996 0.075347997
0.212249994 0.347014993 0.076201998
0.249083996 0.346313000 0.077271000
0.294005990 0.349761993 0.074309997
0.351256996 0.355255008 0.069793999
0.416992009 0.358002007 0.071227998
0.485534996 0.360137999 0.075774997
0.551452994 0.362578988 0.079833999
0.611693978 0.364594012 0.083343998
0.666900992 0.366210997 0.086639002
0.718047976 0.367675990 0.090088002
0.765625000 0.368988007 0.093018003
0.810302973 0.370238990 0.096252002
0.852752984 0.371277004 0.099274002
0.892791986 0.372375011 0.102112003
0.144134998 0.410216987 0.083495997
0.172424003 0.410674989 0.083953999
0.202454001 0.411437988 0.085022002
0.233948007 0.411559999 0.085785002
0.268950999 0.411224008 0.086760998
0.310088992 0.411774009 0.086883999
0.363831013 0.419739008 0.079406999
0.427094012 0.425323009 0.075286999
0.493865997 0.427307010 0.078185998
0.558745980 0.429839998 0.082428001
0.618224978 0.432067990 0.086029001
0.672698975 0.433867991 0.089233004
0.723083019 0.435425013 0.092620999
0.770111024 0.436951011 0.095611997
0.814177990 0.438232005 0.098480001
0.856018007 0.439453006 0.101562999
0.895507991 0.440674007 0.104369998
0.176330999 0.477874994 0.094054997
0.202698007 0.478424013 0.094848998
0.230498999 0.479155988 0.096069001
0.259948999 0.479400992 0.096709996
0.292755008 0.479279011 0.097321004
0.331389993 0.478424013 0.098784998
0.380279988 0.484741002 0.093262002
0.441284001 0.494872987 0.083710000
0.506103992 0.499146014 0.081482001
0.568633974 0.500580013 0.085114002
0.627135992 0.503081977 0.088623002
0.680755973 0.505127013 0.092009999
0.730255008 0.506958008 0.095306002
0.776489019 0.508544981 0.098266996
0.819823980 0.510070980 0.101166002
0.860930979 0.511505008 0.104004003
0.899811029 0.512848020 0.106780998
0.211426005 0.546294987 0.105469003
0.235596001 0.546782970 0.106201001
0.261413991 0.547577024 0.107268997
0.288787991 0.547882020 0.108062997
0.319397002 0.547791004 0.108795002
0.356018007 0.547272027 0.109894000
0.400664985 0.549682975 0.108368002
0.458007991 0.561492980 0.097411998
0.521697998 0.571471989 0.088134997
0.582184017 0.573424995 0.088165000
0.638306022 0.574859977 0.091582999
0.690796018 0.577086985 0.094879001
0.739380002 0.579101980 0.098082997
0.784606993 0.580901980 0.101166002
0.827086985 0.582580984 0.103821002
0.867431998 0.584167004 0.106780998
0.905547976 0.585723996 0.109679997
0.247131005 0.612030029 0.117064998
0.269409001 0.612549007 0.117706001
0.293213010 0.613403022 0.118712999
0.318511993 0.613739014 0.119537003
0.347137004 0.613708019 0.120209001
0.381743997 0.613556027 0.120972000
0.423584014 0.613434017 0.121857002
0.476105005 0.623108029 0.113098003
0.538146973 0.637817025 0.099518001
0.598541021 0.644469976 0.093781002
0.651885986 0.644591987 0.095306002
0.702362001 0.646117985 0.098082997
0.749664009 0.648132026 0.101166002
0.793976009 0.650146008 0.103973001
0.835479975 0.651885986 0.106780998
0.874877989 0.653594971 0.109679997
0.912169993 0.655242980 0.112488002
0.281738013 0.671905994 0.127746999
0.302123994 0.672424018 0.128571004
0.324036002 0.673309028 0.129577994
0.347411990 0.673645020 0.130463004
0.373993009 0.673614979 0.130951002
0.406616002 0.673552990 0.131652996
0.446411014 0.672637999 0.133423001
0.495453000 0.679961979 0.126953006
0.554046988 0.695159972 0.112609997
0.614197016 0.706817985 0.102081001
0.667479992 0.709563971 0.100432999
0.715148985 0.709473014 0.102081001
0.760528982 0.710753977 0.104217999
0.803650022 0.712616026 0.107147001
0.844208002 0.714416981 0.109985001
0.882690012 0.716156006 0.112488002
0.919005990 0.717804015 0.115570001
0.314392000 0.724518001 0.137786999
0.332976997 0.725098014 0.138579994
0.353058010 0.725983024 0.139679000
0.374480993 0.726318002 0.140533000
0.399199992 0.726318002 0.140929997
0.429901004 0.726166010 0.141632006
0.467896014 0.725127995 0.143371999
0.514374018 0.730315983 0.138885006
0.569396973 0.744018972 0.126221001
0.628265023 0.758911014 0.112213001
0.682555974 0.766296029 0.105803996
0.728942990 0.766143978 0.107147001
0.772095025 0.766265988 0.108245999
0.813202024 0.767242014 0.110381998
0.852661014 0.768921018 0.112884998
0.890166998 0.770537972 0.115662001
0.925598025 0.772095025 0.118591003
0.345427990 0.770416021 0.147125006
0.362091005 0.771057010 0.147918999
0.380340993 0.771942019 0.149017006
0.399933010 0.772216976 0.149749994
0.422852010 0.772156000 0.150269002
0.451781988 0.772002995 0.150818005
0.488068014 0.771210015 0.152129993
0.532257020 0.774414003 0.149811000
0.584625006 0.786773980 0.138062000
0.641601980 0.803161979 0.122620001
0.695556998 0.813538015 0.113280997
0.742340028 0.815734982 0.111877002
0.784119010 0.815338016 0.113190003
0.823333979 0.815369010 0.114288002
0.860840023 0.816070974 0.116272002
0.897278011 0.817505002 0.118927002
0.931731999 0.818877995 0.121582001
0.375304997 0.810608029 0.155913994
0.390166998 0.811309993 0.156676993
0.406646997 0.812224984 0.157897994
0.424438000 0.812469006 0.158446997
0.445526004 0.812377989 0.158996999
0.472626001 0.812134027 0.159637004
0.507293999 0.811492980 0.160644993
0.549408019 0.812897027 0.159851000
0.599762022 0.824463010 0.148773000
0.654448986 0.841187000 0.132751003
0.707489014 0.853209972 0.121428996
0.755065978 0.858977973 0.116608001
0.795593023 0.858307004 0.117981002
0.833710015 0.858124018 0.119263001
0.869507015 0.857940972 0.120300002
0.904205024 0.858489990 0.122222997
0.937653005 0.859650016 0.125061005
0.404846013 0.846619010 0.164276004
0.417968988 0.847229004 0.165009007
0.432556003 0.848174989 0.166168004
0.448547006 0.848450005 0.166931003
0.467833996 0.848236024 0.167419001
0.493133992 0.847899973 0.168029994
0.526275992 0.847289979 0.168975994
0.566649973 0.847899973 0.168823004
0.614929020 0.858246028 0.158875003
0.667603016 0.874907970 0.142700002
0.719726980 0.888794005 0.129271999
0.767273009 0.896851003 0.121857002
0.807190001 0.896758974 0.122803003
0.844085991 0.896300972 0.123839997
0.878723025 0.895934999 0.125061005
0.911713004 0.895569026 0.126038000
0.943665028 0.895995975 0.128174007
0.434325993 0.878754020 0.172637999
0.445556998 0.879455984 0.173522994
0.458373994 0.880402029 0.174651995
0.472534001 0.880645990 0.175322995
0.490112007 0.880463004 0.175812006
0.513763011 0.880096018 0.176422000
0.545226991 0.879424989 0.177306995
0.583862007 0.879302979 0.177612007
0.630402029 0.889099002 0.168060005
0.681304991 0.905578971 0.152007997
0.731476009 0.919403017 0.138549998
0.778442025 0.929077029 0.129271999
0.818938971 0.931609988 0.126953006
0.854492009 0.930694997 0.128479004
0.888062000 0.930145025 0.129700005
0.919921994 0.929473996 0.130614996
0.949950993 0.928864002 0.131805003
0.038635001 0.046172999 0.085297003
0.081177004 0.047545999 0.086150996
0.123687997 0.048981000 0.087127998
0.167419001 0.051543999 0.088348001
0.214935005 0.054138001 0.089752004
0.270172000 0.057250999 0.092193998
0.333496004 0.061218001 0.094910003
0.402373999 0.065704003 0.098480001
0.472716987 0.070006996 0.101989999
0.539794981 0.074584998 0.105530001
0.601440012 0.078491002 0.108764999
0.657958984 0.082703002 0.111846998
0.710418999 0.086304002 0.114593998
0.759552002 0.090178996 0.117371000
0.805786014 0.093535997 0.119934000
0.849578977 0.097167999 0.122559004
0.890900016 0.100708000 0.125061005
0.043915000 0.091339000 0.086608998
0.084380999 0.091339000 0.087067001
0.126739994 0.092589997 0.088348001
0.168945000 0.094237998 0.088867001
0.216431007 0.096161000 0.090088002
0.270996004 0.098266996 0.092468001
0.334105998 0.101470999 0.095337003
0.403136998 0.105224997 0.098755002
0.473358005 0.108825997 0.102356002
0.540344000 0.112700999 0.105742998
0.601929009 0.116089001 0.109008998
0.658385992 0.119292997 0.111846998
0.710937977 0.122222997 0.114928998
0.759949028 0.125092000 0.117614999
0.806029975 0.128204003 0.120238997
0.849822998 0.130919993 0.122832999
0.891083002 0.133606002 0.125396997
0.050811999 0.135773003 0.088440001
0.089996003 0.136016995 0.089203000
0.130066007 0.136870995 0.090088002
0.171387002 0.137725994 0.090911999
0.217559993 0.139129996 0.091003001
0.271973014 0.141083002 0.092987001
0.334656000 0.143493995 0.096100003
0.403625011 0.146454006 0.099303998
0.473816007 0.149566993 0.102936000
0.540893972 0.152649000 0.106445000
0.602385998 0.155333996 0.109497003
0.658905029 0.157928005 0.112488002
0.711181998 0.160309002 0.115264997
0.760132015 0.162536994 0.118194997
0.806151986 0.164673001 0.120575003
0.849762022 0.166808993 0.123168997
0.891022027 0.168915004 0.125701994
0.060608000 0.182098001 0.091735996
0.097626001 0.182128996 0.092162997
0.136139005 0.182769999 0.092956997
0.175414994 0.183166996 0.093842000
0.220122993 0.184966996 0.092712000
0.273407012 0.186462000 0.094085999
0.335693002 0.188232005 0.096923999
0.404540986 0.190856993 0.100311004
0.474822998 0.193572998 0.103850998
0.541778982 0.196075007 0.107178003
0.603179991 0.198302999 0.110381998
0.659575999 0.200316995 0.113342002
0.711760998 0.202208996 0.116241001
0.760497987 0.203887999 0.118927002
0.806244016 0.205443993 0.121276997
0.849762022 0.207092002 0.123839997
0.890778005 0.208588004 0.126342997
0.074127004 0.231475994 0.095734000
0.108978003 0.231781006 0.096161000
0.145355001 0.232452005 0.097015001
0.183166996 0.232574001 0.098053001
0.224944994 0.233978003 0.096680000
0.276459008 0.236022994 0.095886000
0.338104010 0.238037005 0.098082997
0.406524986 0.240417004 0.101562999
0.476624012 0.242919996 0.104979999
0.543456972 0.245148003 0.108489998
0.604614019 0.247131005 0.111450002
0.660705984 0.248870999 0.114563003
0.712707996 0.250366002 0.117248997
0.761169016 0.251740009 0.119903997
0.806702018 0.253082007 0.122253001
0.849945009 0.254364014 0.124756001
0.890717030 0.255432010 0.127288997
0.092254996 0.285950005 0.101135001
0.124877997 0.286345989 0.101501003
0.159301996 0.287048012 0.102631003
0.195068002 0.287169993 0.103363000
0.234221995 0.287169993 0.103698999
0.283264011 0.291595012 0.099303998
0.342772990 0.293976009 0.099518001
0.410216987 0.295897990 0.102721997
0.479950011 0.298552990 0.106445000
0.546416998 0.300751001 0.109833002
0.607239008 0.302612007 0.112853996
0.663025022 0.304320991 0.115783997
0.714568973 0.305664003 0.118591003
0.762695014 0.306885004 0.121215999
0.807860970 0.308135986 0.123443998
0.850799978 0.309204012 0.125976995
0.891265988 0.310211003 0.128417999
0.115387000 0.345703006 0.108032003
0.145905003 0.346222013 0.108643003
0.178222999 0.346863002 0.109467000
0.212006003 0.347014993 0.110137999
0.248932004 0.346496999 0.111144997
0.293884009 0.349853992 0.107849002
0.351074010 0.355194002 0.103027001
0.416808993 0.358031988 0.104065001
0.485381991 0.360137999 0.108062997
0.551299989 0.362578988 0.111359000
0.611572027 0.364594012 0.114441000
0.666809022 0.366272002 0.117279001
0.717926025 0.367767006 0.119934000
0.765532970 0.369080007 0.122497998
0.810241997 0.370238990 0.125030994
0.852692008 0.371338010 0.127258003
0.892700016 0.372375011 0.129668996
0.143676996 0.410216987 0.116455004
0.172088996 0.410735995 0.116912998
0.202148005 0.411469012 0.117889002
0.233765006 0.411651999 0.118561000
0.268738002 0.411316007 0.119202003
0.309875011 0.411803991 0.119048998
0.363555998 0.419739008 0.111267000
0.426970989 0.425354004 0.107024997
0.493804991 0.427399009 0.109527998
0.558655024 0.429870993 0.113036998
0.618103027 0.432036996 0.116149999
0.672637999 0.433928996 0.118927002
0.723052979 0.435546994 0.121551998
0.770049989 0.437011987 0.124114998
0.814148009 0.438262999 0.126495004
0.855956972 0.439514011 0.128754005
0.895416021 0.440643013 0.131194994
0.175995007 0.477905005 0.125670999
0.202332005 0.478394002 0.126282007
0.230254993 0.479187012 0.127379999
0.259674013 0.479461998 0.128113002
0.292571992 0.479431003 0.128479004
0.331207007 0.478576988 0.129700005
0.380156994 0.484833002 0.123870999
0.441193014 0.494872987 0.114165999
0.506042004 0.499206990 0.111663997
0.568542004 0.500609994 0.114745997
0.627106011 0.503143013 0.117798001
0.680694997 0.505187988 0.120604999
0.730225027 0.507018983 0.123351999
0.776427984 0.508635998 0.125854000
0.819763005 0.510132015 0.128174007
0.860930979 0.511565983 0.130463004
0.899719000 0.512908995 0.132843003
0.211060002 0.546294987 0.135711998
0.235291004 0.546814024 0.136414006
0.261200011 0.547637999 0.137420997
0.288543999 0.548003972 0.138153002
0.319213986 0.548003972 0.138611004
0.355865002 0.547393978 0.139679000
0.400543004 0.549744010 0.137695000
0.457854986 0.561523020 0.126617000
0.521637022 0.571533024 0.117095999
0.582091987 0.573517025 0.116791002
0.638213992 0.574859977 0.119629003
0.690734982 0.577148020 0.122559004
0.739319026 0.579192996 0.125213996
0.784575999 0.580994010 0.127716005
0.827026010 0.582642019 0.130005002
0.867371023 0.584228992 0.132232994
0.905426025 0.585784972 0.134613007
0.246825993 0.612030029 0.145843998
0.269012004 0.612549007 0.146393001
0.292968988 0.613403022 0.147460997
0.318329006 0.613799989 0.148193002
0.346924007 0.613799989 0.148651004
0.381561011 0.613677979 0.149352998
0.423431009 0.613524973 0.150085002
0.475982994 0.623108029 0.141112998
0.537994027 0.637848020 0.127105996
0.598419011 0.644591987 0.120880000
0.651825011 0.644622982 0.122374997
0.702270985 0.646179020 0.124481000
0.749602973 0.648223996 0.127075002
0.793914974 0.650177002 0.129547000
0.835418999 0.651947021 0.131897002
0.874877989 0.653656006 0.134032995
0.912109017 0.655304015 0.136353001
0.281432986 0.671905994 0.155365005
0.301788002 0.672455013 0.155883998
0.323760986 0.673340023 0.157104000
0.347198009 0.673798025 0.157745004
0.373840004 0.673736989 0.158172995
0.406493992 0.673676014 0.158660993
0.446258992 0.672729015 0.160155997
0.495330989 0.679961979 0.153564006
0.553924978 0.695159972 0.139099002
0.614044011 0.706817985 0.128296003
0.667388976 0.709595025 0.126190007
0.715088010 0.709502995 0.127410993
0.760497987 0.710846007 0.129242003
0.803619027 0.712677002 0.131560996
0.844147027 0.714478016 0.133759007
0.882628977 0.716156006 0.136047006
0.918945014 0.717833996 0.138366997
0.314177990 0.724518001 0.163971007
0.332672000 0.725067019 0.164611995
0.352721989 0.726013005 0.165802002
0.374298006 0.726440012 0.166565001
0.399048001 0.726440012 0.166961998
0.429809988 0.726318002 0.167480007
0.467743009 0.725281000 0.168975994
0.514221013 0.730346978 0.164428994
0.569244027 0.743987978 0.151427999
0.628143013 0.758911014 0.137085006
0.682465017 0.766327024 0.130431995
0.728911996 0.766174018 0.131286994
0.772095025 0.766327024 0.131989002
0.813202024 0.767302990 0.133727998
0.852630973 0.768921018 0.135773003
0.890106022 0.770599008 0.138091996
0.925567985 0.772125006 0.140349999
0.345122993 0.770354986 0.171813995
0.361815989 0.771057010 0.172484994
0.380066007 0.772002995 0.173675999
0.399780005 0.772400022 0.174529999
0.422728986 0.772278011 0.174957007
0.451629996 0.772125006 0.175446004
0.487946004 0.771362007 0.176514000
0.532104015 0.774444997 0.173828006
0.584533989 0.786742985 0.162047997
0.641541004 0.803283989 0.146148995
0.695496023 0.813598990 0.136382997
0.742278993 0.815765023 0.134887993
0.784057975 0.815460026 0.135802999
0.823273003 0.815460026 0.136657998
0.860778987 0.816132009 0.138091996
0.897247016 0.817565978 0.140075997
0.931762993 0.818938971 0.142303005
0.375030994 0.810638011 0.179198995
0.389923006 0.811218023 0.179839998
0.406342000 0.812195003 0.181122005
0.424286008 0.812592030 0.181976005
0.445342988 0.812469006 0.182373002
0.472503990 0.812224984 0.182799995
0.507202029 0.811614990 0.183654994
0.549286008 0.812987983 0.182556003
0.599609017 0.824432015 0.171448007
0.654326975 0.841094971 0.155242994
0.707396984 0.853302002 0.143616006
0.755005002 0.859039009 0.138306007
0.795593023 0.858398020 0.139525995
0.833679020 0.858184993 0.140075997
0.869445980 0.858002007 0.140929997
0.904114008 0.858520985 0.142303005
0.937622011 0.859710991 0.144501001
0.404601991 0.846588016 0.186432004
0.417663991 0.847168028 0.187041998
0.432312012 0.848145008 0.188292995
0.448363990 0.848541021 0.189117000
0.467682004 0.848389030 0.189575002
0.493072987 0.848021984 0.189971998
0.526093006 0.847411990 0.190734997
0.566497982 0.848052979 0.190368995
0.614777029 0.858276010 0.180206001
0.667450011 0.874846995 0.163910002
0.719604015 0.888854980 0.150330007
0.767180979 0.896911979 0.142487004
0.807129025 0.896790028 0.142883003
0.844054997 0.896393001 0.143707007
0.878661990 0.895995975 0.144501001
0.911652029 0.895659983 0.145080999
0.943603992 0.896057010 0.146697998
0.433928996 0.878754020 0.193359002
0.445190012 0.879455984 0.193969995
0.458068997 0.880402029 0.195343003
0.472382009 0.880797982 0.196135998
0.489960015 0.880585015 0.196594000
0.513580024 0.880156994 0.196990997
0.545044005 0.879577994 0.197693005
0.583739996 0.879333019 0.197876006
0.630309999 0.889129996 0.188201994
0.681213021 0.905640006 0.171783000
0.731414974 0.919341981 0.158112004
0.778320014 0.929046988 0.148620993
0.818877995 0.931671023 0.146088004
0.854430974 0.930694997 0.146972999
0.888000011 0.930145025 0.147735998
0.919861019 0.929596007 0.148528993
0.949950993 0.928955019 0.149109006
0.038635001 0.047516000 0.128571004
0.080352999 0.048248000 0.128662005
0.122985996 0.049591001 0.129242003
0.166808993 0.052154999 0.129547000
0.214507997 0.054198999 0.130431995
0.269744992 0.057677999 0.131865993
0.333099008 0.061340000 0.134186000
0.402222008 0.065704003 0.136810005
0.472748011 0.070464998 0.139800996
0.539672971 0.074584998 0.142455995
0.601257026 0.078979000 0.144927993
0.657927990 0.082703002 0.147156000
0.710448980 0.086731002 0.149474993
0.759582996 0.090178996 0.151306003
0.805786014 0.093902998 0.153136998
0.849487007 0.097198002 0.155150995
0.890807986 0.100708000 0.156920999
0.043152001 0.092162997 0.129180998
0.083953999 0.092193998 0.129180998
0.125824004 0.093018003 0.129547000
0.168853998 0.094604000 0.130096003
0.215881005 0.096252002 0.130676001
0.270965993 0.098601997 0.132140994
0.333862007 0.101593003 0.134277001
0.402832001 0.105315998 0.136962995
0.473235995 0.109160997 0.139800996
0.540252984 0.112700999 0.142578006
0.601746023 0.116089001 0.145172000
0.658416986 0.119415000 0.147339001
0.710937977 0.122528002 0.149474993
0.759917974 0.125396997 0.151519999
0.805908024 0.128204003 0.153320000
0.849700987 0.130951002 0.155150995
0.890929997 0.133606002 0.156920999
0.050781000 0.136536002 0.129485995
0.089569002 0.136565998 0.129822001
0.129485995 0.136870995 0.130431995
0.170990005 0.137970001 0.131042004
0.217467993 0.139617994 0.131072998
0.271667004 0.141295999 0.132446006
0.334441990 0.143676996 0.134490997
0.403533995 0.146636993 0.137268007
0.473845989 0.149780005 0.140105993
0.540893972 0.152893007 0.142853007
0.602385998 0.155579001 0.145293996
0.658752024 0.158080995 0.147582993
0.711211979 0.160552993 0.149749994
0.760161996 0.162750006 0.151549995
0.806122005 0.164885998 0.153595001
0.849762022 0.167023003 0.155396000
0.890900016 0.169158995 0.157166004
0.060028002 0.181762993 0.131042004
0.097198002 0.182128996 0.131347999
0.135590002 0.182739004 0.132201999
0.175354004 0.183349997 0.132813007
0.219788000 0.184998006 0.131469995
0.273041010 0.186492994 0.132446006
0.335418999 0.188446000 0.134795994
0.404327005 0.190979004 0.137390003
0.474700987 0.193694994 0.140380993
0.541687012 0.196227998 0.143158004
0.603148997 0.198486000 0.145691007
0.659453988 0.200499997 0.147888005
0.711700022 0.202332005 0.150023997
0.760468006 0.204071000 0.152069002
0.806244016 0.205626994 0.153870001
0.849731028 0.207245007 0.155670002
0.890717030 0.208771005 0.157440007
0.073638998 0.231475994 0.133667007
0.108337000 0.231658995 0.134215996
0.144835994 0.232452005 0.135101005
0.182953000 0.232758000 0.135956004
0.224669993 0.233978003 0.134613007
0.276214987 0.236145005 0.133269995
0.337920994 0.238189995 0.135010004
0.406342000 0.240447998 0.137878001
0.476471007 0.242919996 0.140778005
0.543426991 0.245331004 0.143707007
0.604552984 0.247253001 0.146271005
0.660705984 0.248992994 0.148438007
0.712646008 0.250548989 0.150543004
0.761169016 0.251984000 0.152373999
0.806671023 0.253203988 0.154358000
0.849883974 0.254395008 0.156158000
