public/lut/103.cube
TITLE "17x17x17 Adobe/IRIDAS cube 3D LUT exported with GrossGrade v0.2.2 (beta) 64 bit"
DOMAIN_MIN 0 0 0
DOMAIN_MAX 1 1 1
LUT_3D_SIZE 5
0.038635001 0.045471001 0.042511001
0.215302005 0.054138001 0.050689999
0.472992003 0.070006996 0.066192999
0.710570991 0.086304002 0.081726000
0.890929997 0.100708000 0.095519997
0.074280001 0.231475994 0.058807001
0.225281000 0.233978003 0.060180999
0.476714998 0.242827997 0.070923001
0.712737978 0.250366002 0.085724004
0.890807986 0.255432010 0.098632999
0.176330999 0.477874994 0.094054997
0.292755008 0.479279011 0.097321004
0.506103992 0.499146014 0.081482001
0.730255008 0.506958008 0.095306002
0.899811029 0.512848020 0.106780998
0.314392000 0.724518001 0.137786999
0.399199992 0.726318002 0.140929997
0.569396973 0.744018972 0.126221001
0.772095025 0.766265988 0.108245999
0.925598025 0.772095025 0.118591003
0.434325993 0.878754020 0.172637999
0.490112007 0.880463004 0.175812006
0.630402029 0.889099002 0.168060005
0.818938971 0.931609988 0.126953006
0.949950993 0.928864002 0.131805003
0.039246000 0.050354000 0.223144993
0.212677002 0.055420000 0.222809002
0.471679986 0.070800997 0.227844000
0.709838986 0.086852998 0.233184993
0.890166998 0.101104997 0.236297995
0.070770003 0.234375000 0.220642000
0.224364996 0.235351995 0.222687006
0.476868004 0.244231999 0.227539003
0.713347971 0.251953006 0.233733997
0.891448975 0.257201999 0.237243995
0.174560994 0.477753013 0.236388996
0.293976009 0.482726991 0.241364002
0.506500006 0.500702024 0.224304006
0.731078982 0.508666992 0.231749997
0.900604010 0.514708996 0.236205995
0.312958002 0.724425972 0.261139005
0.401093006 0.730286002 0.267212003
0.570007026 0.743041992 0.255768001
0.773223996 0.768249989 0.230469003
0.926726997 0.774109006 0.234771997
0.432738990 0.878601015 0.277069002
0.492339998 0.884856999 0.284087986
0.632538021 0.889984012 0.279143989
0.820312977 0.933807015 0.233307004
0.951354980 0.931061029 0.233337000
0.031952001 0.074920997 0.485870004
0.215270996 0.081023999 0.486968994
0.463104010 0.072875999 0.502471983
0.703643978 0.088165000 0.509796023
0.884247005 0.102264002 0.515717030
0.066192999 0.250335991 0.485168010
0.230103001 0.255890012 0.488097996
0.469085991 0.245849997 0.504760981
0.708190978 0.253143013 0.512726009
0.886596978 0.258513987 0.518859982
0.161773995 0.498717993 0.502044976
0.277435005 0.500792980 0.504059017
0.508728027 0.510468006 0.513823986
0.735473990 0.519531012 0.523437977
0.906005979 0.526244998 0.530457020
0.308685005 0.746276975 0.508697987
0.391815007 0.745422006 0.512603998
0.587249994 0.759917974 0.541962028
0.780151010 0.781554997 0.527770996
0.934508979 0.787750006 0.534424007
0.427673012 0.892913997 0.519653022
0.483855993 0.893036008 0.526244998
0.656036019 0.917603016 0.561859012
0.822906017 0.936950982 0.547851980
0.960541010 0.945708990 0.538421988
0.000000000 0.097015001 0.724976003
0.202880993 0.102813996 0.726043999
0.454315007 0.093414001 0.741913021
0.693328977 0.090668000 0.753143013
0.874359012 0.103790000 0.758179009
0.037842002 0.269531012 0.722351015
0.222655997 0.274962991 0.726867974
0.463836998 0.266815007 0.741729975
0.697875977 0.253479004 0.755859017
0.876830995 0.258666992 0.761107981
0.139312997 0.504333019 0.742766976
0.265960991 0.507049978 0.742919981
0.518005013 0.532104015 0.748932004
0.725830019 0.520416021 0.766510010
0.896911979 0.527038991 0.772643983
0.294860989 0.764770985 0.753265023
0.374206990 0.767302990 0.755768001
0.569213986 0.780211985 0.768218994
0.780609012 0.789947987 0.780028999
0.935698986 0.798614979 0.785797000
0.424834996 0.932830989 0.759369016
0.473693997 0.935546994 0.762328982
0.640289009 0.938445985 0.773468018
0.833037972 0.946349978 0.798523009
0.962677002 0.957062006 0.789856017
0.000000000 0.111511000 0.906432986
0.177460000 0.116637997 0.906280994
0.446808010 0.108612001 0.915648997
0.686737001 0.096527003 0.929809988
0.865143001 0.106049001 0.924956977
0.000000000 0.278777987 0.899811029
0.205230996 0.284424007 0.902984977
0.459533989 0.279358000 0.911559999
0.691649973 0.256774992 0.929961979
0.867706001 0.258850008 0.925507009
0.118500002 0.509338021 0.907745004
0.255095989 0.513366997 0.907166004
0.518706977 0.542968988 0.913299978
0.720336974 0.527893007 0.930297971
0.888306022 0.527465999 0.930846989
0.280883998 0.768371999 0.915679991
0.360228986 0.770995975 0.917510986
0.561737001 0.783568978 0.927794993
0.782531977 0.799773991 0.929351985
0.928557992 0.799926996 0.936004996
0.411651999 0.931914985 0.906036019
0.459412009 0.934325993 0.908325016
0.627197027 0.947296023 0.920929015
0.820739985 0.957184017 0.930510998
0.959685981 0.961638987 0.933867991
