public/lut/104.cube
TITLE "17x17x17 Adobe/IRIDAS cube 3D LUT exported with GrossGrade v0.2.2 (beta) 64 bit"
DOMAIN_MIN 0 0 0
DOMAIN_MAX 1 1 1
LUT_3D_SIZE 5
0.000000000 0.000000000 0.000000000
0.152312994 0.003174000 0.000793000
0.378174007 0.018127000 0.005920000
0.609070003 0.049651999 0.015961001
0.729004025 0.068939000 0.023651000
0.088776000 0.237334996 0.053801998
0.203644007 0.231658995 0.029175000
0.409148991 0.203186005 0.002777000
0.621033013 0.172454998 0.013031000
0.739014030 0.175872996 0.020691000
0.235596001 0.563934028 0.068115003
0.288940012 0.561828971 0.064788997
0.487854004 0.539031982 0.037842002
0.686828971 0.512299001 0.002167000
0.808228016 0.510161996 0.007904000
0.380371004 0.856383979 0.140198007
0.424896002 0.853179991 0.141051993
0.575989008 0.836791992 0.135711998
0.751555979 0.810669005 0.109954998
0.874755979 0.794951975 0.000000000
0.598999023 1.000000000 0.412476003
0.626586974 1.000000000 0.409240991
0.703369021 1.000000000 0.397338986
0.815551996 1.000000000 0.369507015
0.921661019 1.000000000 0.313353986
0.077301003 0.000793000 0.219237998
0.187836006 0.001587000 0.213378996
0.399841011 0.004730000 0.200256005
0.624846995 0.014404000 0.185516000
0.744719982 0.022491001 0.166351005
0.124633998 0.232819006 0.227081001
0.203186005 0.233184993 0.208862007
0.416106999 0.200988993 0.195160002
0.635039985 0.137603998 0.162505999
0.749634027 0.132751003 0.125792995
0.244080007 0.560882986 0.226256996
0.297455013 0.556091011 0.222472996
0.490783989 0.537078977 0.200531006
0.690429986 0.511536002 0.153198004
0.815033019 0.506317019 0.094604000
0.385071009 0.854125977 0.243256003
0.431243986 0.848174989 0.242706001
0.578094006 0.833312988 0.224090993
0.751403987 0.809508979 0.197540000
0.877440989 0.795288026 0.124329001
0.609557986 1.000000000 0.463409007
0.635955989 1.000000000 0.459351003
0.709563971 1.000000000 0.446013987
0.818542004 1.000000000 0.419281006
0.925750971 1.000000000 0.373932004
0.219025001 0.004730000 0.514221013
0.264954001 0.005524000 0.512908995
0.453795999 0.008270000 0.500732005
0.660919011 0.016174000 0.485107005
0.781157970 0.019317999 0.476043999
0.229949996 0.227631003 0.512633979
0.281464010 0.222472996 0.520202994
0.464538991 0.195403993 0.502288997
0.669983029 0.124358997 0.484679997
0.793883979 0.074463002 0.470977992
0.314972013 0.544128001 0.531219006
0.349456996 0.542908013 0.525635004
0.471496999 0.544434011 0.487244010
0.685516000 0.518585026 0.484160990
0.813750982 0.512359977 0.469298989
0.427094012 0.839080989 0.548676014
0.463806003 0.835083008 0.545807004
0.582367003 0.823547006 0.528563976
0.746703982 0.808685005 0.519043028
0.884247005 0.796020985 0.476134986
0.640349984 1.000000000 0.636291981
0.665436029 1.000000000 0.635039985
0.734130979 1.000000000 0.629944026
0.833739996 1.000000000 0.615172982
0.942505002 0.999939024 0.587494016
0.351287991 0.012024000 0.789336979
0.374419987 0.012817000 0.788848996
0.526580989 0.025818000 0.779694021
0.714203000 0.019928001 0.765075982
0.829528987 0.042693999 0.751221001
0.354369998 0.214690998 0.793945014
0.385284007 0.208831996 0.791778982
0.533813000 0.159637004 0.782378972
0.720978022 0.032134999 0.769867003
0.839110970 0.035491999 0.754211009
0.406646997 0.537445009 0.774811029
0.433562994 0.537781000 0.765990973
0.553588986 0.528594971 0.785431027
0.732849002 0.505707026 0.769469976
0.871002018 0.485291004 0.756072998
0.503937006 0.823669016 0.797637999
0.535827994 0.821716011 0.792572021
0.628814995 0.816711009 0.774963021
0.727111995 0.817596018 0.747466981
0.920746028 0.781585991 0.762054026
0.694458008 1.000000000 0.832976997
0.715424001 1.000000000 0.832367003
0.774474978 1.000000000 0.830353022
0.863708019 0.999939024 0.825500011
0.968872011 0.999939024 0.807739019
0.443572998 0.019714000 0.977661014
0.489807010 0.021300999 0.974487007
0.609833002 0.032745000 0.964538991
0.766875982 0.041565001 0.951903999
0.872864008 0.032349002 0.945343018
0.448729992 0.154877007 0.985992014
0.494843006 0.141937003 0.982940972
0.614104986 0.043761998 0.974853992
0.769531012 0.040801998 0.957549989
0.880218983 0.032928001 0.952239990
0.505675972 0.520721018 0.997375011
0.545929015 0.516541004 0.995757997
0.651672006 0.502166986 0.991820991
0.793120980 0.465636998 0.987456977
0.922973990 0.407348990 0.987854004
0.616057992 0.811676025 0.999939024
0.643401980 0.809174001 0.999939024
0.719910026 0.800872982 0.999817014
0.833770990 0.784882009 0.998444021
0.961333990 0.748565972 0.996856987
0.776978016 0.999939024 0.998138011
0.792999029 0.999939024 0.998138011
0.839263976 0.999939024 0.998198986
0.911468983 0.999939024 0.998413026
0.999572992 0.999512017 0.998291016
