public/lut/104.cube
TITLE "17x17x17 Adobe/IRIDAS cube 3D LUT exported with GrossGrade v0.2.2 (beta) 64 bit"
DOMAIN_MIN 0 0 0
DOMAIN_MAX 1 1 1
LUT_3D_SIZE 17
0.000000000 0.000000000 0.000000000
0.025574001 0.000000000 0.000000000
0.062011998 0.000793000 0.000000000
0.104065001 0.001587000 0.000793000
0.152312994 0.003174000 0.000793000
0.206024006 0.005280000 0.001343000
0.261718988 0.008881000 0.002380000
0.319427013 0.013062000 0.003937000
0.378174007 0.018127000 0.005920000
0.436890006 0.024689000 0.007904000
0.495391995 0.032439999 0.010254000
0.552978992 0.040924001 0.012878000
0.609070003 0.049651999 0.015961001
0.663452029 0.058502000 0.019073000
0.711426020 0.066344999 0.022186000
0.729828000 0.068939000 0.023651000
0.729004025 0.068939000 0.023651000
0.013153000 0.040222000 0.012360000
0.032501001 0.040252998 0.008514000
0.069031000 0.036469001 0.000092000
0.110260002 0.032593001 0.000000000
0.157104000 0.025238000 0.000793000
0.207427993 0.013214000 0.001343000
0.263305992 0.008423000 0.002380000
0.320708990 0.011780000 0.003937000
0.378998011 0.017302999 0.005920000
0.437438995 0.024628000 0.007904000
0.495727986 0.032439999 0.010254000
0.553161979 0.040924001 0.012878000
0.609314024 0.050170999 0.015961001
0.663452029 0.058502000 0.019073000
0.711426020 0.066344999 0.022186000
0.729828000 0.068939000 0.023651000
0.729004025 0.068939000 0.023651000
0.030853000 0.096740998 0.028687000
0.046721999 0.096802004 0.027069001
0.081603996 0.095946997 0.018616000
0.123322003 0.089965999 0.001251000
0.169128001 0.083495997 0.000000000
0.218170002 0.075103998 0.000793000
0.270386010 0.065002002 0.002075000
0.324584991 0.050903000 0.003601000
0.380919993 0.035491999 0.005524000
0.438293010 0.028472999 0.007538000
0.496398985 0.030944999 0.010254000
0.553497016 0.038300000 0.012878000
0.609344006 0.048553001 0.015961001
0.663483024 0.057617001 0.019073000
0.711211979 0.065154999 0.022186000
0.729645014 0.068268001 0.023651000
0.728851020 0.067780003 0.023651000
0.056731999 0.162536994 0.043304000
0.066071004 0.163025007 0.042693999
0.096771002 0.162781000 0.038054999
0.139129996 0.159912005 0.026215000
0.185791001 0.153656006 0.002563000
0.235045999 0.146697998 0.000000000
0.285950005 0.138611004 0.001587000
0.338286996 0.129517004 0.002380000
0.392058998 0.119475998 0.003937000
0.446655005 0.109160997 0.006317000
0.501677990 0.098907001 0.008972000
0.556457996 0.089111000 0.012085000
0.610656977 0.081482001 0.015198000
0.663239002 0.075928003 0.018585000
0.710570991 0.077758998 0.022095000
0.729797006 0.080658004 0.023010001
0.729247987 0.083587997 0.023010001
0.088776000 0.237334996 0.053801998
0.090271004 0.237822995 0.053801998
0.115082003 0.237822995 0.051178001
0.155670002 0.236175999 0.043671001
0.203644007 0.231658995 0.029175000
0.253784001 0.224761993 0.004181000
0.304535002 0.217345998 0.000000000
0.356445014 0.210297003 0.001587000
0.409148991 0.203186005 0.002777000
0.462249994 0.195586994 0.004486000
0.515625000 0.187378004 0.006805000
0.568665028 0.179413006 0.009918000
0.621033013 0.172454998 0.013031000
0.672088981 0.167724997 0.016113000
0.718322992 0.167449996 0.019226000
0.739044011 0.170196995 0.020691000
0.739014030 0.175872996 0.020691000
0.123687997 0.317382991 0.059661999
0.123535000 0.317809999 0.059661999
0.135833994 0.317840993 0.058350001
0.174834996 0.316711009 0.053497002
0.221771002 0.313201994 0.044769000
0.272736013 0.307128996 0.029998999
0.324279994 0.299773991 0.005157000
0.375945985 0.292450011 0.000000000
0.428162009 0.285156012 0.001434000
0.480773985 0.278351009 0.002960000
0.533234000 0.272094995 0.004486000
0.585143983 0.266692996 0.006805000
0.636138976 0.262389988 0.009918000
0.685822010 0.259887993 0.013031000
0.731109977 0.259795994 0.016113000
0.753875971 0.262573004 0.017059000
0.754088998 0.268157989 0.017059000
0.160338998 0.399506003 0.062224999
0.160309002 0.399719000 0.062224999
0.163268998 0.399901986 0.062073000
0.196960002 0.398773015 0.058655001
0.242064998 0.396117985 0.052276999
0.291747987 0.391234994 0.044403002
0.343932986 0.384398997 0.029846000
0.395996004 0.376677990 0.006989000
0.447661996 0.369293004 0.000000000
0.499785990 0.362212986 0.000641000
0.551819026 0.355590999 0.002960000
0.602997005 0.350066990 0.005280000
0.652863026 0.345764011 0.006805000
0.701354980 0.343261987 0.009918000
0.745818973 0.342925996 0.012238000
0.770781994 0.345398009 0.013702000
0.771270990 0.350342005 0.013702000
0.197693005 0.482086003 0.064269997
0.197693005 0.482178003 0.064269997
0.197418004 0.482391000 0.064269997
0.222137004 0.481689006 0.062531002
0.264342993 0.479339987 0.058318999
0.312256008 0.475342005 0.050964002
0.363373011 0.469451994 0.044647001
0.415832996 0.462096989 0.031647000
0.467864990 0.454346001 0.010345000
0.519164979 0.447113007 0.000000000
0.570221007 0.440185994 0.000336000
0.620971978 0.433959991 0.002960000
0.670013011 0.429168999 0.004730000
0.717437983 0.426025003 0.006805000
0.761107981 0.424926996 0.009003000
0.788940012 0.426483005 0.010590000
0.789641976 0.430969000 0.010590000
0.235596001 0.563934028 0.068115003
0.235596001 0.564117014 0.068115003
0.234771997 0.564301014 0.068115003
0.250519007 0.563843012 0.067139000
0.288940012 0.561828971 0.064788997
0.334991008 0.558350027 0.059813999
0.383942008 0.553345025 0.053070001
0.435516000 0.546692014 0.049286000
0.487854004 0.539031982 0.037842002
0.539000988 0.531403005 0.016113000
0.589020014 0.524322987 0.001465000
0.638427973 0.517791986 0.000000000
0.686828971 0.512299001 0.002167000
0.733184993 0.508331001 0.004486000
0.776275992 0.506133974 0.006317000
0.807190001 0.506470025 0.007904000
0.808228016 0.510161996 0.007904000
0.273315012 0.644011974 0.076476999
0.273315012 0.644073009 0.076476999
0.272765994 0.644164979 0.076476999
0.282501012 0.643890023 0.076080002
0.316803008 0.642090023 0.074799001
0.360291004 0.638976991 0.071929999
0.406890988 0.634521008 0.066863999
0.456146002 0.628723025 0.062164001
0.507323980 0.621613026 0.059601001
0.558533013 0.613861024 0.048797999
0.608398020 0.606476009 0.025330000
0.656372011 0.599700987 0.004974000
0.703125000 0.593750000 0.000000000
0.748076975 0.589049995 0.002167000
0.790802002 0.585784972 0.003693000
0.824981987 0.584533989 0.005524000
0.826294005 0.587401986 0.005524000
0.310546994 0.720580995 0.091339000
0.310546994 0.720611989 0.091339000
0.309937000 0.720611989 0.091339000
0.317779988 0.720245004 0.091491997
0.348601997 0.718536019 0.090759002
0.388671994 0.715668023 0.089478001
0.432586998 0.711609006 0.086883999
0.479095012 0.706390023 0.082457997
0.527801991 0.699950993 0.078827001
0.577759027 0.692627013 0.076660000
0.626984000 0.685059011 0.065978996
0.674621999 0.677917004 0.039306998
0.719726980 0.671721995 0.008972000
0.762878001 0.666504025 0.000000000
0.804291010 0.662292004 0.001373000
0.841063976 0.659453988 0.002563000
0.843384027 0.661162972 0.002563000
0.346466005 0.791840017 0.113219999
0.346343994 0.791809022 0.113219999
0.345795006 0.791747987 0.113219999
0.356171012 0.791077018 0.113434002
0.384552002 0.789367974 0.113219999
0.420929015 0.786590993 0.112853996
0.461456001 0.782745004 0.111571997
0.505034983 0.777863026 0.108978003
0.550567985 0.772063971 0.105224997
0.597838998 0.765289009 0.102385998
0.645476997 0.757965028 0.098999001
0.691802979 0.750823975 0.086823002
0.736266971 0.744292974 0.057068001
0.778198004 0.738708019 0.011780000
0.817870975 0.733947992 0.000000000
0.854583979 0.729979992 0.000000000
0.859314024 0.730377018 0.000000000
0.380371004 0.856383979 0.140198007
0.380645990 0.856262028 0.140198007
0.382934988 0.855956972 0.140380993
0.398499012 0.854979992 0.140717000
0.424896002 0.853179991 0.141051993
0.457183987 0.850432992 0.141112998
0.493896008 0.846771002 0.140655994
0.533966005 0.842163026 0.139160007
0.575989008 0.836791992 0.135711998
0.619781017 0.830688000 0.132598996
0.664763987 0.823943973 0.130126998
0.708922982 0.817107975 0.123657003
0.751555979 0.810669005 0.109954998
0.792755008 0.804961979 0.077789001
0.832213998 0.799896002 0.014404000
0.867340028 0.795653999 0.000000000
0.874755979 0.794951975 0.000000000
0.415344000 0.914031982 0.170898005
0.418121010 0.913726985 0.170898005
0.427551001 0.913115978 0.171142995
0.445037991 0.911895990 0.171630993
0.468140006 0.910034001 0.172301993
0.496398985 0.907378972 0.172667995
0.529143989 0.903900027 0.172851995
0.565398991 0.899658024 0.172271997
0.603820980 0.894744992 0.170074001
0.643768013 0.889312983 0.167023003
0.684966981 0.883301020 0.164031997
0.726500988 0.877166986 0.159821004
0.766906977 0.871245980 0.150909007
0.806182981 0.865723014 0.135773003
0.844817996 0.860809028 0.102631003
0.880890012 0.856628001 0.019257000
0.890289009 0.855193973 0.014984000
0.464722008 0.964568973 0.209472999
0.470398009 0.964203000 0.209472999
0.479766995 0.963562012 0.209777996
0.494109988 0.962463021 0.209990993
0.513671994 0.960723996 0.209868997
0.538146973 0.958495975 0.209747002
0.566497982 0.955565989 0.207825005
0.598450005 0.951843023 0.206207007
0.632996023 0.947449028 0.204712003
0.668853998 0.942687988 0.201874003
0.706023991 0.937622011 0.198730007
0.744414985 0.932190001 0.196502998
0.782378972 0.926819026 0.191405997
0.819671988 0.921752989 0.180756003
0.856536984 0.917083979 0.163147002
0.891632020 0.913115978 0.136261001
0.902710021 0.911590993 0.120238997
0.531372011 1.000000000 0.291411996
0.535187006 1.000000000 0.290313989
0.542450011 1.000000000 0.289398015
0.553345025 1.000000000 0.286437988
0.568390012 0.999969006 0.281830013
0.587921023 0.999664009 0.276183993
0.608489990 0.999207020 0.255980998
0.633697987 0.997161984 0.242859006
0.663635015 0.993561029 0.240447998
0.695098996 0.989777029 0.236968994
0.728026986 0.985778987 0.232849002
0.762543023 0.981353998 0.233733997
0.798278987 0.976715028 0.240264997
0.833221018 0.972564995 0.231689006
0.868255973 0.968536019 0.219176993
0.901763976 0.965026975 0.201079994
0.913055003 0.963469982 0.192230001
0.598999023 1.000000000 0.412476003
0.601929009 1.000000000 0.412230998
0.607208014 1.000000000 0.411956996
0.615143001 1.000000000 0.410674989
0.626586974 1.000000000 0.409240991
0.641234994 1.000000000 0.407195985
0.659210026 1.000000000 0.404754996
0.679901004 1.000000000 0.401122987
0.703369021 1.000000000 0.397338986
0.728911996 1.000000000 0.392791986
0.756317019 1.000000000 0.387726009
0.785278022 1.000000000 0.380553991
0.815551996 1.000000000 0.369507015
0.846862972 1.000000000 0.356476009
0.879028022 1.000000000 0.339873999
0.910552979 1.000000000 0.320464998
0.921661019 1.000000000 0.313353986
0.006958000 0.000000000 0.043120999
0.030853000 0.000000000 0.037108999
0.067962997 0.000000000 0.036316000
0.109070003 0.000793000 0.033356000
0.157562003 0.000854000 0.030944999
0.210510001 0.001617000 0.026703000
0.267058998 0.002960000 0.022125000
0.324950993 0.004028000 0.015564000
0.383026004 0.007629000 0.009155000
0.439819008 0.017639000 0.006836000
0.496277004 0.030456999 0.008820000
0.553223014 0.041046001 0.011963000
0.608825982 0.050934002 0.015869001
0.663239002 0.059204001 0.019073000
0.711304009 0.066863999 0.022186000
0.729767025 0.069489002 0.023651000
0.728972971 0.068970002 0.023651000
0.016266000 0.040924001 0.038849000
0.031005999 0.041717999 0.033417001
0.070983998 0.034302000 0.029479999
0.115997002 0.009613000 0.018340999
0.161530003 0.002960000 0.020538000
0.212280005 0.000732000 0.023804000
0.268097013 0.001221000 0.020691000
0.326202005 0.002777000 0.012573000
0.383697987 0.008270000 0.007233000
0.439758003 0.019562000 0.006439000
0.496367991 0.030944999 0.008820000
0.553375006 0.041260000 0.011963000
0.609161019 0.051146999 0.015930001
0.663299978 0.059204001 0.019073000
0.711304009 0.066405997 0.022186000
0.729767025 0.069489002 0.023651000
0.728972971 0.068970002 0.023651000
0.034697998 0.096740998 0.045471001
0.049896002 0.096863002 0.042541999
0.083801001 0.095183998 0.038054999
0.127350003 0.087462999 0.014008000
0.172974005 0.079193003 0.001251000
0.220886007 0.071198002 0.000946000
0.271941990 0.061981000 0.001953000
0.325836003 0.047150001 0.002960000
0.381866008 0.031891000 0.004242000
0.439177990 0.026458999 0.006439000
0.496612996 0.030944999 0.009277000
0.553497016 0.039184999 0.011963000
0.609375000 0.049408000 0.015930001
0.663330019 0.058318999 0.019073000
0.711151004 0.065734997 0.022186000
0.729583979 0.068328999 0.023651000
0.729004025 0.068268001 0.023651000
0.059691999 0.162750006 0.052306999
0.069153003 0.162750006 0.051056001
0.099120997 0.162322998 0.046448000
0.141326994 0.159759998 0.034851000
0.188019007 0.153228998 0.004242000
0.236725003 0.145476997 0.000000000
0.286987007 0.137695000 0.000000000
0.338744998 0.128509998 0.001190000
0.392334014 0.118377998 0.003448000
0.446990997 0.108276002 0.005920000
0.501861989 0.098236002 0.008911000
0.556518972 0.088623002 0.012024000
0.610565007 0.080688000 0.015198000
0.663239002 0.075165004 0.018585000
0.710601985 0.077789001 0.022095000
0.729857981 0.080627002 0.023010001
0.729340017 0.083130002 0.023010001
0.090453997 0.237396002 0.056426998
0.092345998 0.237792999 0.056304999
0.117400996 0.237396002 0.053252999
0.157226995 0.235717997 0.045410000
0.204833999 0.231170997 0.029327000
0.254700005 0.224213004 0.002563000
0.305267006 0.216827005 0.000000000
0.356873006 0.209747002 0.000732000
0.409301996 0.202545002 0.002319000
0.462311000 0.195006996 0.004425000
0.515747011 0.186767995 0.006805000
0.568726003 0.178772002 0.009918000
0.621033013 0.171905994 0.013031000
0.672057986 0.167144999 0.016113000
0.718262017 0.166991994 0.019226000
0.738892019 0.169799998 0.020691000
0.739044011 0.175446004 0.020691000
0.124420002 0.317505002 0.058929000
0.123931997 0.317871004 0.059509002
0.137299001 0.317840993 0.057799999
0.175963998 0.316376001 0.052611999
0.222655997 0.312927008 0.043915000
0.273407012 0.306793004 0.028839000
0.324768007 0.299438000 0.003387000
0.376282007 0.292023003 0.000000000
0.428375006 0.284759998 0.001129000
0.480957001 0.277924001 0.002899000
0.533356011 0.271697998 0.004486000
0.585205019 0.266265988 0.006805000
0.636138976 0.261992991 0.009918000
0.685791016 0.259552002 0.013031000
0.731018007 0.259429991 0.016113000
0.753661990 0.262145996 0.017609000
0.753997982 0.267883003 0.017059000
0.160338998 0.399506003 0.061310001
0.160064995 0.399780005 0.061340000
0.163788006 0.399962991 0.061310001
0.197844997 0.398833990 0.057953000
0.242798001 0.395965993 0.051483002
0.292450011 0.390991002 0.043579001
0.344359994 0.384063989 0.028991999
0.396331996 0.376403987 0.006104000
0.448029011 0.368957996 0.000000000
0.500000000 0.361847013 0.000793000
0.551971018 0.355224997 0.002960000
0.603057981 0.349730998 0.005280000
0.652863026 0.345459014 0.006805000
0.701263011 0.342925996 0.009918000
0.745728016 0.342743009 0.012238000
0.770781994 0.345122993 0.013947000
0.771210015 0.350158989 0.013702000
0.197693005 0.482147008 0.063933998
0.197693005 0.482300013 0.063629001
0.197478995 0.482544005 0.063629001
0.222809002 0.481658995 0.061859000
0.265044987 0.479279011 0.057799999
0.312866002 0.475250006 0.050719999
0.363860995 0.469238013 0.044585999
0.416260004 0.461822987 0.030853000
0.468201011 0.454102010 0.009918000
0.519286990 0.446716011 0.000000000
0.570403993 0.439850003 0.000336000
0.621093988 0.433746010 0.002960000
0.670073986 0.428925008 0.004730000
0.717346013 0.425751001 0.006805000
0.761017025 0.424712986 0.009003000
0.788848996 0.426270008 0.010590000
0.789551020 0.430694997 0.010590000
0.235596001 0.563995004 0.068085000
0.235596001 0.564117014 0.068085000
0.234833002 0.564330995 0.068085000
0.251098990 0.563843012 0.067107998
0.289581001 0.561767995 0.064361997
0.335449010 0.558288991 0.059540000
0.384398997 0.553192019 0.053070001
0.435882986 0.546539009 0.048950002
0.488097996 0.538818002 0.037445001
0.539184988 0.531189024 0.015778000
0.589232981 0.524078012 0.001465000
0.638549984 0.517578006 0.000000000
0.686828971 0.512085021 0.002167000
0.733124018 0.508086979 0.004486000
0.776153982 0.505950987 0.006317000
0.807159007 0.506348014 0.007904000
0.808135986 0.510039985 0.007904000
0.273315012 0.644043028 0.076476999
0.273375988 0.644073009 0.076476999
0.272765994 0.644195974 0.076476999
0.282898009 0.643828988 0.076018997
0.317261010 0.641997993 0.074584998
0.360686988 0.638854980 0.071929999
0.407166004 0.634398997 0.066771999
0.456450999 0.628539979 0.061919998
0.507568002 0.621429026 0.059601001
0.558685005 0.613708019 0.048797999
0.608489990 0.606262028 0.025330000
0.656432986 0.599578977 0.004974000
0.703155994 0.593596995 0.000000000
0.748016000 0.588867009 0.002167000
0.790709972 0.585632026 0.003693000
0.824921012 0.584411979 0.005524000
0.826233029 0.587219000 0.005524000
0.310546994 0.720611989 0.091339000
0.310516000 0.720611989 0.091339000
0.309906006 0.720611989 0.091339000
0.318085015 0.720245004 0.091491997
0.348937988 0.718474984 0.090759002
0.388976991 0.715546012 0.089478001
0.432861000 0.711426020 0.086760998
0.479308993 0.706206977 0.082213998
0.528015018 0.699799001 0.078827001
0.577942014 0.692444026 0.076660000
0.627044976 0.684813976 0.065978996
0.674621999 0.677765012 0.039306998
0.719695985 0.671599984 0.008972000
0.762817025 0.666382015 0.000000000
0.804198980 0.662140012 0.001373000
0.840973020 0.659362972 0.002563000
0.843384027 0.660979986 0.002563000
0.346435994 0.791809022 0.113219999
0.346282989 0.791809022 0.113219999
0.345795006 0.791747987 0.113219999
0.356476009 0.791046023 0.113219999
0.384887993 0.789306998 0.113219999
0.421204001 0.786468983 0.112732001
0.461730987 0.782622993 0.111450002
0.505218983 0.777740002 0.108887002
0.550719976 0.771880984 0.105224997
0.597899973 0.765137017 0.102385998
0.645476997 0.757843018 0.098999001
0.691742003 0.750640988 0.086700000
0.736205995 0.744202018 0.056580000
0.778075993 0.738586009 0.011932000
0.817718983 0.733825982 0.000000000
0.854400992 0.729888976 0.000000000
0.859314024 0.730255008 0.000000000
0.380340993 0.856323004 0.140198007
0.380645990 0.856200993 0.140198007
0.383056998 0.855926991 0.140380993
0.398804009 0.854919016 0.140717000
0.425139993 0.853057981 0.141051993
0.457397014 0.850310981 0.141112998
0.494080007 0.846648991 0.140380993
0.534088016 0.842041016 0.138885006
0.576018989 0.836700022 0.135711998
0.619812012 0.830565989 0.132751003
0.664734006 0.823791981 0.130126998
0.708862007 0.816986024 0.123657003
0.751434028 0.810546994 0.109954998
0.792603016 0.804901004 0.077789001
0.832091987 0.799804986 0.014404000
0.867187977 0.795531988 0.000000000
0.874755979 0.794861019 0.000000000
0.415405005 0.913971007 0.170898005
0.418213010 0.913726985 0.170898005
0.427765012 0.913085997 0.171142995
0.445160002 0.911835015 0.171630993
0.468230993 0.910004020 0.172301993
0.496459991 0.907288015 0.172667995
0.529266000 0.903809011 0.172851995
0.565460026 0.899567008 0.172119007
0.603820980 0.894622982 0.170074001
0.643737972 0.889190972 0.167023003
0.684937000 0.883239985 0.164031997
0.726348996 0.877044976 0.159821004
0.766723990 0.871124029 0.150635004
0.805999994 0.865601003 0.135528997
0.844726980 0.860718012 0.102936000
0.880707026 0.856505990 0.019257000
0.890227973 0.855103016 0.014984000
0.464843988 0.964538991 0.209442005
0.470519990 0.964203000 0.209472999
0.479797006 0.963469982 0.209747002
0.494141012 0.962401986 0.209839001
0.513733029 0.960753977 0.209868997
0.538146973 0.958405018 0.209685996
0.566528022 0.955505013 0.207733005
0.598419011 0.951752007 0.206207007
0.632903993 0.947356999 0.204680994
0.668793023 0.942596018 0.201874003
0.705932975 0.937469006 0.198699996
0.744262993 0.932067990 0.196349993
0.782226980 0.926757991 0.191405997
0.819489002 0.921630979 0.180756003
0.856383979 0.916992009 0.163147002
0.891448975 0.912994027 0.136261001
0.902617991 0.911499023 0.119965002
0.531432986 1.000000000 0.291289985
0.535399973 1.000000000 0.290648997
0.542297006 1.000000000 0.288818002
0.553161979 1.000000000 0.285950005
0.568419993 0.999969006 0.281708002
0.587859988 0.999634027 0.275786996
0.608307004 0.999207020 0.255492985
0.633606017 0.997070014 0.242523000
0.663513005 0.993469000 0.240264997
0.695038021 0.989715993 0.237029999
0.727814019 0.985747993 0.232544005
0.762328982 0.981293023 0.233398005
0.798035026 0.976562977 0.240234002
0.833007991 0.972442985 0.231566995
0.868103027 0.968474984 0.219176993
0.901549995 0.964965999 0.201079994
0.912994027 0.963409007 0.192017004
0.599182010 1.000000000 0.412537009
0.602172971 1.000000000 0.412140012
0.607268989 1.000000000 0.411651999
0.615356028 1.000000000 0.410582989
0.626677990 1.000000000 0.408966005
0.641387999 1.000000000 0.407135010
0.659241021 1.000000000 0.404509991
0.679931998 1.000000000 0.401030988
0.703369021 1.000000000 0.397217005
0.728911996 1.000000000 0.392821997
0.756226003 1.000000000 0.387847990
0.785094976 1.000000000 0.380553991
0.815398991 1.000000000 0.369385004
0.846710026 1.000000000 0.356658995
0.878784001 1.000000000 0.340485007
0.910369992 1.000000000 0.320800990
0.921661019 1.000000000 0.313324004
0.019135000 0.000000000 0.090972997
0.041717999 0.000000000 0.089661002
0.077422999 0.000000000 0.088592999
0.117766999 0.000793000 0.085724004
0.164031997 0.000793000 0.082947001
0.216003001 0.001343000 0.079742000
0.270996004 0.002380000 0.076049998
0.328063995 0.003845000 0.071716003
0.386352986 0.005524000 0.065978996
0.444976985 0.008423000 0.059356999
0.503265023 0.011841000 0.050903000
0.560913026 0.015228000 0.039825000
0.616973996 0.019714000 0.026703000
0.669983029 0.031036001 0.018279999
0.715484977 0.049469002 0.017852999
0.731628001 0.061584000 0.020203000
0.730072021 0.064850003 0.020203000
0.024689000 0.040222000 0.086548001
0.044403002 0.038879000 0.090545997
0.080231003 0.029816000 0.088531002
0.122589000 0.004791000 0.083649002
0.167603001 0.000000000 0.080963001
0.217467993 0.000000000 0.078918003
0.272094995 0.001923000 0.075653002
0.329163015 0.003510000 0.070708998
0.387145996 0.005859000 0.064850003
0.445313007 0.008514000 0.057677999
0.503632009 0.011932000 0.048950002
0.561278999 0.015228000 0.036956999
0.617187977 0.020508001 0.024383999
0.669525027 0.033417001 0.017487001
0.714721978 0.052124001 0.017944001
0.731445014 0.062194999 0.020203000
0.729888976 0.065430000 0.020904999
0.042938001 0.096404999 0.092743002
0.058594000 0.096038997 0.090759002
0.080321997 0.096923999 0.083678998
0.125244007 0.088500999 0.080292001
0.175414994 0.076964997 0.073334001
0.227997005 0.059937000 0.063538000
0.280914009 0.028687000 0.056334998
0.333678991 0.006317000 0.058623999
0.388884991 0.002167000 0.060120001
0.446381003 0.005188000 0.055481002
0.504242003 0.008392000 0.045837000
0.561859012 0.011780000 0.032471001
0.617278993 0.019012000 0.019531000
0.668731987 0.036224000 0.015533000
0.713500977 0.055633999 0.018524000
0.731109977 0.063079998 0.020264000
0.729583979 0.065796003 0.020996001
0.067322001 0.162261993 0.097228996
0.075745001 0.162261993 0.096344002
0.100739002 0.162414998 0.091797002
0.141875997 0.159637004 0.087769002
0.189453006 0.153473005 0.078277998
0.239684999 0.143616006 0.067749001
0.291229010 0.130280003 0.057098001
0.344451994 0.116210997 0.035431001
0.397826999 0.105347000 0.021454001
0.451355010 0.096008003 0.014648000
0.505065978 0.087006003 0.009369000
0.558929026 0.077301003 0.010986000
0.613007009 0.067169003 0.011963000
0.664856017 0.066436999 0.014740000
0.711273015 0.074584998 0.018524000
0.729888976 0.079437003 0.020203000
0.728851020 0.084259003 0.020996001
0.095062003 0.237183005 0.098297000
0.096557997 0.237488002 0.098236002
0.120696999 0.236388996 0.095458999
0.160095006 0.234650001 0.090301998
0.207122996 0.230712995 0.082915999
0.256439000 0.224304006 0.071381003
0.307799995 0.217010006 0.059296001
0.360718012 0.208281994 0.032928001
0.413605005 0.199127004 0.011047000
0.465728998 0.190674007 0.003113000
0.517822027 0.183166996 0.000885000
0.569916010 0.176025003 0.004822000
0.621734977 0.169158995 0.009369000
0.672393978 0.165527001 0.014130000
0.718200982 0.166320994 0.018250000
0.738494992 0.169189006 0.020416001
