public/lut/105.cube
TITLE "17x17x17 Adobe/IRIDAS cube 3D LUT exported with GrossGrade v0.2.2 (beta) 64 bit"
DOMAIN_MIN 0 0 0
DOMAIN_MAX 1 1 1
LUT_3D_SIZE 17
0.000000000 0.000000000 0.000000000
0.018433001 0.000000000 0.000000000
0.049773999 0.000000000 0.000000000
0.088073999 0.000000000 0.000000000
0.132446006 0.000793000 0.000610000
0.181945994 0.001343000 0.000793000
0.235229000 0.002075000 0.000793000
0.290069997 0.002380000 0.001221000
0.344298989 0.003540000 0.001587000
0.397796988 0.005066000 0.002380000
0.450928003 0.006592000 0.003448000
0.502593994 0.008667000 0.004730000
0.552947998 0.010468000 0.005524000
0.602111995 0.012756000 0.006439000
0.649567008 0.015076000 0.007904000
0.692656994 0.017364999 0.009460000
0.704497993 0.018158000 0.009460000
0.011566000 0.033202998 0.010864000
0.027832000 0.030944999 0.006195000
0.056823999 0.028687000 0.000092000
0.093108997 0.025635000 0.000000000
0.136016995 0.019805999 0.000000000
0.184631005 0.009308000 0.000610000
0.237274006 0.002472000 0.000793000
0.291534007 0.001465000 0.001282000
0.345519990 0.003021000 0.001587000
0.398743004 0.004669000 0.002380000
0.451507986 0.006561000 0.003448000
0.503234982 0.008606000 0.004730000
0.553466976 0.010468000 0.005524000
0.602356017 0.012756000 0.006439000
0.649567008 0.015076000 0.007904000
0.692656994 0.017302999 0.009460000
0.704528987 0.018097000 0.009460000
0.030060001 0.085175000 0.027892999
0.040984999 0.084624998 0.026215000
0.071471997 0.081542999 0.016266000
0.108489998 0.076629996 0.001099000
0.149535999 0.071075000 0.000000000
0.195435002 0.063750997 0.000000000
0.245056003 0.054474000 0.000000000
0.296692014 0.042693999 0.000092000
0.348327994 0.028198000 0.001282000
0.400451988 0.016907001 0.002380000
0.452239990 0.011627000 0.003448000
0.503632009 0.010468000 0.004730000
0.553802013 0.010468000 0.005524000
0.602416992 0.011475000 0.006561000
0.649567008 0.014587000 0.007904000
0.692474008 0.018433001 0.009460000
0.704406977 0.023743000 0.009460000
0.055481002 0.149292007 0.043304000
0.058136001 0.149566993 0.043304000
0.085998997 0.147247002 0.038695998
0.125916004 0.142517000 0.023987001
0.169066995 0.135956004 0.002350000
0.213866994 0.129577994 0.000000000
0.261352986 0.123108000 0.000000000
0.310425013 0.116118997 0.000000000
0.360107005 0.109039001 0.000000000
0.410187006 0.102385998 0.000153000
0.460357994 0.096680000 0.000458000
0.509949028 0.091980003 0.000946000
0.558838010 0.088867001 0.002075000
0.606658995 0.088042997 0.003296000
0.653320014 0.090636998 0.004333000
0.696228027 0.097411998 0.005035000
0.708343983 0.108062997 0.005035000
0.087006003 0.223968998 0.054931998
0.086944997 0.224273995 0.054931998
0.101531997 0.223083004 0.053070001
0.141326994 0.218353003 0.045593001
0.188507006 0.211974993 0.027222000
0.236145005 0.204467997 0.003357000
0.282927990 0.197815001 0.000000000
0.330017000 0.192168996 0.000000000
0.377869010 0.187469006 0.000000000
0.426117003 0.183502004 0.000000000
0.474548012 0.179931998 0.000000000
0.522674978 0.176941007 0.000000000
0.570343018 0.174926996 0.000000000
0.617125988 0.174591005 0.000214000
0.662781000 0.176543996 0.000977000
0.704864979 0.181152001 0.000977000
0.716216981 0.189025998 0.000977000
0.121857002 0.304259986 0.061675999
0.121734999 0.304320991 0.061310001
0.124664001 0.304230005 0.061278999
0.159424007 0.299652010 0.057098001
0.205933005 0.292908013 0.047851998
0.256011993 0.285216987 0.028687000
0.305083990 0.277435005 0.004303000
0.352173001 0.270446986 0.000000000
0.398712009 0.264618009 0.000000000
0.445495993 0.259979010 0.000000000
0.492554009 0.256226003 0.000000000
0.539246023 0.253479004 0.000000000
0.585510015 0.251892000 0.000000000
0.630919993 0.251464993 0.000000000
0.675384998 0.252624989 0.000000000
0.716338992 0.255798012 0.000000000
0.726746023 0.261168987 0.000000000
0.157775998 0.385071009 0.065430000
0.158020005 0.385132015 0.065430000
0.156737998 0.385192990 0.065430000
0.180419996 0.381682992 0.063170999
0.225372002 0.374725014 0.057434000
0.274962991 0.366699010 0.047363002
0.324860007 0.358581990 0.027313000
0.373504996 0.350769013 0.004578000
0.420653999 0.343383998 0.000000000
0.466643989 0.337280005 0.000000000
0.512145996 0.332428008 0.000000000
0.557708979 0.328583002 0.000000000
0.602752984 0.325989008 0.000000000
0.646851003 0.324615002 0.000000000
0.690155029 0.324921012 0.000000000
0.729919016 0.326995999 0.000000000
0.739655018 0.331207007 0.000000000
0.194152996 0.464630008 0.068695001
0.193969995 0.464599997 0.068695001
0.193114996 0.464630008 0.068999998
0.205321997 0.462280005 0.068024002
0.247131005 0.455626994 0.063629001
0.295013011 0.447539985 0.057556000
0.343932986 0.439269990 0.047363002
0.392944008 0.431091011 0.027252000
0.441040009 0.423186988 0.005066000
0.488007009 0.415679991 0.000000000
0.533263981 0.409363002 0.000000000
0.577208996 0.404572010 0.000000000
0.621124029 0.400725991 0.000000000
0.664215028 0.398254007 0.000000000
0.706328988 0.397217005 0.000000000
0.744934022 0.397980005 0.000000000
0.754395008 0.401214987 0.000000000
0.230132997 0.542357981 0.074157998
0.230132997 0.542297006 0.074157998
0.229614004 0.542145014 0.074157998
0.234070003 0.540709972 0.073913999
0.271026999 0.534636974 0.070800997
0.316895008 0.526825011 0.066559002
0.363707989 0.518554986 0.060821999
0.411926001 0.510222971 0.050415002
0.460052013 0.502135992 0.030762000
0.507354975 0.494293004 0.006683000
0.553802013 0.486755013 0.000000000
0.597809017 0.480468988 0.000000000
0.640289009 0.475708008 0.000000000
0.682036996 0.472075999 0.000000000
0.723021984 0.469788015 0.000000000
0.760712028 0.469146997 0.000000000
0.770294011 0.471527010 0.000000000
0.266052008 0.617706001 0.083801001
0.266052008 0.617614985 0.083801001
0.265747011 0.617431998 0.083801001
0.266663015 0.616455019 0.083466001
0.297699004 0.611083984 0.081603996
0.340514988 0.603729010 0.078674003
0.385161996 0.595734000 0.074767999
0.431365997 0.587341011 0.069061004
0.478729010 0.579070985 0.058563001
0.525604010 0.571228027 0.037292000
0.571959972 0.563628972 0.009369000
0.617249012 0.556182981 0.000000000
0.659759998 0.550018013 0.000000000
0.700531006 0.545349002 0.000000000
0.739960015 0.542023003 0.000000000
0.776703000 0.540099978 0.000000000
0.786987007 0.541472971 0.000000000
0.301665992 0.690093994 0.099457003
0.301544011 0.690002024 0.099303998
0.301422000 0.689788997 0.099303998
0.301636010 0.688872993 0.098907001
0.327300996 0.684143007 0.097809002
0.366364002 0.677245975 0.095673002
0.408874989 0.669616997 0.092834003
0.452576011 0.661559999 0.089446999
0.498016000 0.653289974 0.083191000
0.544188976 0.645202994 0.072600998
0.589385986 0.637695014 0.049316000
0.634094000 0.630492985 0.015686000
0.677703977 0.623351991 0.000092000
0.718780994 0.617309988 0.000000000
0.757628977 0.612761974 0.000000000
0.792968988 0.609833002 0.000000000
0.804108024 0.610167980 0.000000000
0.336822987 0.758544981 0.121765003
0.336699992 0.758391976 0.121459998
0.336486995 0.758208990 0.121459998
0.336609006 0.757080019 0.120849997
0.359679997 0.752655029 0.119873002
0.395294011 0.746367991 0.118469000
0.434845001 0.739135981 0.116364002
0.476074010 0.731445014 0.113617003
0.518799007 0.723479986 0.109862998
0.563049018 0.715393007 0.102783002
0.607483029 0.707611024 0.091247998
0.650726020 0.700622976 0.066497996
0.693175972 0.694060981 0.025878999
0.734650016 0.687346995 0.003998000
0.774474978 0.681304991 0.000000000
0.809601009 0.677062988 0.000000000
0.821776986 0.676299989 0.000000000
0.371306986 0.821929991 0.149506003
0.371185005 0.821807981 0.149260998
0.370727986 0.821502984 0.149169996
0.372588992 0.819976985 0.148560002
0.395354986 0.815674007 0.147614002
0.427673012 0.809844971 0.146362007
0.463622987 0.803223014 0.144745007
0.501953006 0.795898020 0.142487004
0.541594982 0.788390994 0.139617994
0.583037972 0.780640006 0.134765998
0.625945985 0.772888005 0.125976995
0.668030024 0.765778005 0.113007002
0.708922982 0.759338021 0.089050002
0.748932004 0.753418028 0.043517999
0.788055003 0.747466981 0.007690000
0.825164974 0.741608024 0.000000000
0.838715017 0.739684999 0.000000000
0.404601991 0.880127013 0.180724993
0.404388011 0.879912972 0.180510998
0.403991997 0.879181027 0.180084005
0.411895990 0.876984000 0.179535002
0.434296012 0.872833014 0.178924993
0.462981999 0.867492974 0.177917004
0.495178014 0.861359000 0.176758006
0.530182004 0.854645014 0.175109997
0.566986024 0.847504020 0.172699004
0.605103016 0.840363026 0.169189006
0.644989014 0.833069026 0.163025007
0.685698986 0.825989008 0.152770996
0.725036979 0.819640994 0.138306007
0.763458014 0.814055979 0.114288002
0.801330984 0.808898985 0.068328999
0.837219000 0.803924978 0.010559000
0.852020025 0.801330984 0.005707000
0.440613002 0.930266976 0.224304006
0.440643013 0.929840028 0.223755002
0.443695009 0.928864002 0.222930998
0.457672000 0.926392019 0.221709996
0.477385998 0.923003972 0.220062003
0.501586974 0.918762028 0.217925996
0.529663026 0.913757026 0.215515003
0.560822010 0.908111989 0.212280005
0.594237983 0.901916981 0.209259003
0.628997982 0.895385981 0.206389993
0.665436029 0.888733029 0.201752007
0.703643978 0.882111013 0.193909004
0.741424978 0.875945985 0.182616994
0.778289974 0.870575011 0.166656002
0.814849973 0.865813971 0.142425999
0.849822998 0.861541986 0.100891002
0.865020990 0.859435976 0.062164001
0.501648009 0.953948975 0.334228992
0.504639030 0.953948975 0.332123011
0.510680974 0.953948975 0.328278005
0.519867003 0.954041004 0.322021008
0.532867014 0.954163015 0.312866002
0.549651980 0.954253972 0.299865991
0.570770025 0.953643978 0.285706013
0.595641971 0.952820003 0.267517000
0.624176025 0.949370980 0.256531000
0.655304015 0.943755984 0.254058987
0.687592030 0.938262999 0.249573007
0.721648991 0.932860970 0.242370993
0.757721007 0.927367985 0.233307004
0.792968988 0.922515988 0.220734000
0.828032970 0.918335021 0.203125000
0.861846983 0.914672971 0.179168999
0.876891971 0.912841976 0.163665995
0.546814024 0.953247011 0.395538002
0.549896002 0.953247011 0.395110995
0.555388987 0.953247011 0.394318014
0.563995004 0.953247011 0.393218994
0.576141000 0.953247011 0.391907007
0.591521978 0.953247011 0.389526010
0.610137999 0.953247011 0.386658013
0.631622016 0.953247011 0.383056998
0.655578971 0.953247011 0.378540009
0.681671023 0.953247011 0.373259991
0.709258974 0.953247011 0.366851985
0.738463998 0.953247011 0.357391000
0.769409001 0.953278005 0.342956990
0.801208019 0.953247011 0.325316995
0.833922982 0.953247011 0.303131014
0.866546988 0.953247011 0.275757015
0.881713986 0.953247011 0.260039985
0.004639000 0.000000000 0.028717000
0.023163000 0.000000000 0.027069001
0.054352000 0.000000000 0.027069001
0.091491997 0.000000000 0.027069001
0.135619998 0.000000000 0.027069001
0.185149997 0.000793000 0.026306000
0.238646999 0.000793000 0.025513001
0.292450011 0.001282000 0.023956001
0.346587986 0.002014000 0.021637000
0.399719000 0.002411000 0.017852999
0.452544987 0.003510000 0.012817000
0.504181027 0.005829000 0.007935000
0.553986013 0.008881000 0.005280000
0.602692008 0.011230000 0.005341000
0.649872005 0.015076000 0.006256000
0.692840993 0.017456001 0.007843000
0.704437017 0.018188000 0.008575000
0.013885000 0.031707998 0.031005999
0.028625000 0.031738002 0.029479999
0.061951000 0.025757000 0.023406999
0.099670000 0.006989000 0.014984000
0.140288994 0.001526000 0.017487001
0.187713996 0.000000000 0.024352999
0.240051001 0.000000000 0.025085000
0.293945014 0.000000000 0.023254000
0.347626001 0.001129000 0.020508001
0.400725991 0.002319000 0.015930001
0.453399986 0.003174000 0.010193000
0.504547000 0.005768000 0.005859000
0.554291010 0.008881000 0.004547000
0.602844000 0.011963000 0.005341000
0.649811029 0.015076000 0.006256000
0.692809999 0.017364999 0.007843000
0.704497993 0.018097000 0.008575000
0.031707998 0.083832003 0.038086001
0.043090999 0.084229000 0.035735998
0.076416001 0.080200002 0.028076001
0.113036998 0.073729999 0.006256000
0.152985007 0.067566000 0.000183000
0.198302999 0.061096001 0.000397000
0.247253001 0.052611999 0.000488000
0.298186988 0.040160999 0.000458000
0.349761993 0.022826999 0.003448000
0.401825011 0.010712000 0.006317000
0.453613013 0.008759000 0.005127000
0.504577994 0.009125000 0.003784000
0.554413021 0.009949000 0.004547000
0.602783024 0.011536000 0.005341000
0.649749994 0.014587000 0.006958000
0.692596018 0.019257000 0.008514000
0.704437017 0.025269000 0.008575000
0.056701999 0.148468003 0.045685001
0.059905998 0.148803994 0.045471001
0.087921001 0.146697998 0.041076999
0.128417999 0.142058998 0.026276000
0.171233997 0.135773003 0.001434000
0.215453997 0.129088998 0.000000000
0.262511998 0.122772001 0.000000000
0.311370999 0.115966998 0.000000000
0.360839993 0.108521000 0.000000000
0.410797000 0.101379000 0.000092000
0.460815012 0.096344002 0.000183000
0.510468006 0.092224002 0.000885000
0.559234977 0.089111000 0.001862000
0.606903017 0.088379003 0.003265000
0.653563976 0.091063999 0.004150000
0.696349978 0.097747996 0.004974000
0.708190978 0.108459003 0.004883000
0.087096997 0.223601997 0.054168999
0.087035999 0.223784998 0.054320998
0.102294996 0.222504005 0.052368000
0.142670006 0.217865005 0.044891000
0.189696997 0.211639002 0.026276000
0.237151995 0.204192996 0.002167000
0.283538997 0.197601005 0.000000000
0.330597013 0.192168996 0.000000000
0.378479004 0.187744007 0.000000000
0.426604986 0.183777004 0.000000000
0.474914998 0.180084005 0.000000000
0.523010015 0.176971003 0.000000000
0.570679009 0.175017998 0.000061000
0.617340028 0.174651995 0.000214000
0.663115978 0.176635996 0.000977000
0.705138981 0.181365997 0.000977000
0.716216981 0.189178005 0.000977000
0.121734999 0.303772002 0.061005000
0.121399000 0.304015994 0.061066002
0.124939002 0.303833008 0.061066002
0.160370007 0.299102992 0.056304999
0.207001001 0.292450011 0.046386998
0.256743997 0.284729004 0.027008001
0.305725008 0.277161002 0.003143000
0.352661014 0.270172000 0.000000000
0.399170011 0.264526010 0.000000000
0.445892006 0.259887993 0.000000000
0.492828012 0.256164998 0.000000000
0.539520025 0.253448009 0.000000000
0.585753977 0.251769990 0.000000000
0.631165028 0.251464993 0.000000000
0.675598025 0.252624989 0.000000000
0.716461003 0.255798012 0.000000000
0.726715028 0.261229992 0.000000000
0.157683998 0.384826988 0.065398999
0.157775998 0.384856999 0.065398999
0.156708002 0.384826988 0.065430000
0.181395993 0.381226003 0.062958002
0.226288006 0.374237001 0.057158999
0.275757015 0.366333008 0.046661001
0.325470001 0.358245999 0.027252000
0.373932004 0.350493997 0.004517000
0.420989990 0.343201011 0.000000000
0.466948986 0.337096989 0.000000000
0.512450993 0.332336009 0.000000000
0.557982981 0.328583002 0.000000000
0.602997005 0.325958014 0.000000000
0.647125006 0.324676991 0.000000000
0.690276980 0.324921012 0.000000000
0.729979992 0.326965004 0.000000000
0.739624023 0.331268013 0.000000000
0.193969995 0.464325011 0.068695001
0.193969995 0.464325011 0.068695001
0.192963004 0.464264005 0.068999998
0.206024006 0.461822987 0.067809999
0.247803003 0.455139011 0.063629001
0.295623988 0.447144002 0.057190001
0.344330013 0.438872993 0.047363002
0.393341005 0.430846989 0.027252000
0.441376001 0.422942996 0.005066000
0.488251001 0.415466011 0.000000000
0.533478022 0.409209996 0.000000000
0.577422976 0.404480010 0.000000000
0.621429026 0.400696009 0.000000000
0.664336979 0.398162991 0.000000000
0.706328988 0.397217005 0.000000000
0.745025992 0.397949010 0.000000000
0.754424989 0.401244998 0.000000000
0.229980007 0.541992009 0.074157998
0.229889005 0.541900992 0.074157998
0.229431003 0.541809022 0.073913999
0.234405994 0.540314019 0.073729999
0.271483988 0.534271002 0.070800997
0.317351997 0.526520014 0.066436999
0.364075005 0.518311024 0.060516000
0.412261993 0.509917974 0.050140001
0.460296988 0.501984000 0.030762000
0.507538021 0.494141012 0.006683000
0.553955019 0.486633003 0.000000000
0.598021984 0.480376989 0.000000000
0.640380979 0.475616008 0.000000000
0.682129025 0.471985012 0.000000000
0.723083019 0.469756991 0.000000000
0.760712028 0.469146997 0.000000000
0.770385981 0.471466005 0.000000000
0.265899986 0.617431998 0.083801001
0.265778005 0.617249012 0.083801001
0.265594006 0.617156982 0.083801001
0.266631991 0.616088986 0.083466001
0.297973990 0.610747993 0.081603996
0.340880990 0.603393972 0.078460999
0.385497987 0.595489979 0.074767999
0.431641012 0.587189019 0.069061004
0.478973001 0.578857005 0.058563001
0.525786996 0.571106017 0.037292000
0.572052002 0.563507020 0.009369000
0.617340028 0.556061029 0.000000000
0.659820974 0.549956977 0.000000000
0.700591981 0.545257986 0.000000000
0.739960015 0.541992009 0.000000000
0.776703000 0.540039003 0.000000000
0.787018001 0.541442990 0.000000000
0.301544011 0.689818978 0.099303998
0.301544011 0.689635992 0.099303998
0.301239014 0.689513981 0.099303998
0.301514000 0.688567996 0.098907001
0.327392995 0.683807015 0.097809002
0.366638005 0.676971018 0.095427997
0.409148991 0.669403017 0.092834003
0.452758998 0.661377013 0.089446999
0.498138011 0.653106987 0.083191000
0.544281006 0.644958019 0.072388001
0.589447021 0.637543023 0.049316000
0.634064019 0.630432010 0.015198000
0.677734017 0.623322010 0.000092000
0.718719006 0.617278993 0.000000000
0.757598996 0.612700999 0.000000000
0.792846978 0.609710991 0.000000000
0.804077029 0.610137999 0.000000000
0.336699992 0.758270025 0.121459998
0.336609006 0.758117974 0.121459998
0.336394995 0.757934988 0.121338002
0.336578012 0.756835997 0.120849997
0.359802008 0.752411008 0.119873002
0.395476997 0.746124029 0.118256003
0.434998006 0.738952994 0.116364002
0.476226985 0.731262028 0.113617003
0.518890023 0.723327994 0.109862998
0.563109994 0.715240002 0.102783002
0.607513011 0.707489014 0.091095001
0.650695980 0.700500011 0.066497996
0.693145990 0.693908989 0.025878999
0.734588981 0.687255979 0.003998000
0.774474978 0.681244016 0.000000000
0.809478998 0.676971018 0.000000000
0.821776986 0.676239014 0.000000000
0.371185005 0.821747005 0.149260998
0.371093988 0.821594000 0.149260998
0.370543987 0.821289003 0.148986995
0.372588992 0.819763005 0.148406997
0.395446986 0.815460026 0.147368997
0.427765012 0.809661984 0.146271005
0.463683993 0.802978992 0.144745007
0.502044976 0.795746028 0.142487004
0.541656017 0.788239002 0.139617994
0.583069026 0.780517995 0.134765998
0.625945985 0.772765994 0.126159996
0.668030024 0.765625000 0.113007002
0.708893001 0.759216011 0.088715002
0.748809993 0.753325999 0.043517999
0.787932992 0.747375011 0.007690000
0.825043023 0.741546988 0.000000000
0.838744998 0.739655018 0.000000000
0.404448986 0.879944026 0.180510998
0.404235989 0.879700005 0.180298001
0.403899997 0.878937006 0.180053994
0.411895990 0.876770020 0.179321006
0.434296012 0.872588992 0.178710997
0.462981999 0.867278993 0.177917004
0.495178014 0.861176014 0.176758006
0.530151010 0.854430974 0.175109997
0.566955984 0.847411990 0.172699004
0.605041981 0.840240002 0.169189006
0.644958019 0.832947016 0.162933007
0.685608029 0.825866997 0.152527004
0.724945009 0.819549978 0.138031006
0.763366997 0.813965023 0.114288002
0.801239014 0.808807015 0.068420000
0.837158024 0.803864002 0.010559000
0.852020025 0.801239014 0.005707000
0.440459996 0.930083990 0.223968998
0.440490991 0.929687977 0.223541006
0.443664998 0.928650022 0.222747996
0.457610995 0.926208019 0.221558005
0.477355987 0.922820985 0.220000997
0.501525998 0.918549001 0.217833996
0.529632986 0.913573980 0.215332001
0.560760021 0.907989979 0.212097004
0.594147027 0.901763976 0.209044993
0.628937006 0.895264030 0.206329003
0.665374994 0.888671994 0.201691002
0.703552008 0.882049978 0.193877995
0.741333008 0.875885010 0.182616994
0.778168023 0.870482981 0.166656002
0.814666986 0.865692019 0.142425999
0.849731028 0.861510992 0.100891002
0.865050972 0.859405994 0.062164001
0.501343012 0.953948975 0.333496004
0.504424989 0.953948975 0.331573009
0.510437012 0.953948975 0.327728003
0.519684017 0.954041004 0.321532995
0.532684028 0.954163015 0.312285990
0.549561024 0.954192996 0.299347013
0.570648015 0.953612983 0.285187006
0.595489979 0.952727973 0.266936988
0.624054015 0.949310005 0.256256014
0.655211985 0.943633974 0.254058987
0.687469006 0.938202024 0.249573007
0.721557975 0.932799995 0.242370993
0.757628977 0.927307010 0.233153999
0.792846978 0.922455013 0.220734000
0.827849984 0.918182015 0.203308001
0.861724973 0.914611995 0.178955004
0.876801014 0.912688971 0.163665995
0.546814024 0.953247011 0.395538002
0.549896002 0.953247011 0.395110995
0.555359006 0.953247011 0.394501001
0.563995004 0.953247011 0.393279999
0.575989008 0.953247011 0.391631991
0.591431022 0.953247011 0.389526010
0.610046029 0.953247011 0.386566013
0.631531000 0.953247011 0.382934988
0.655517995 0.953247011 0.378661990
0.681518972 0.953247011 0.373046994
0.709258974 0.953247011 0.367035002
0.738434017 0.953247011 0.357757986
0.769257009 0.953247011 0.342925996
0.801024973 0.953247011 0.325195014
0.833770990 0.953247011 0.303618997
0.866364002 0.953247011 0.276001006
0.881713986 0.953247011 0.260039985
0.015289000 0.000000000 0.073334001
0.033996999 0.000000000 0.073181003
0.064727999 0.000000000 0.073028997
0.100830004 0.000000000 0.071654998
0.142395005 0.000000000 0.070189998
0.190947995 0.000549000 0.070037998
0.243164003 0.000793000 0.069977000
0.296416998 0.001221000 0.069122002
0.349700987 0.001587000 0.068359002
0.402404994 0.002380000 0.066405997
0.454865009 0.003174000 0.064361997
0.506286979 0.004181000 0.061554000
0.556334972 0.005829000 0.058104999
0.605072021 0.007202000 0.054047000
0.652130008 0.008179000 0.049194001
0.695068002 0.009766000 0.044403002
0.706237972 0.010559000 0.038757000
0.020752000 0.031585999 0.076324001
0.039337002 0.030243000 0.075989000
0.070068002 0.023560001 0.074920997
0.106078997 0.003052000 0.070373997
0.147308007 0.000000000 0.069641002
0.193329006 0.000000000 0.069824003
0.244781002 0.000000000 0.070037998
0.297820985 0.000732000 0.069182999
0.350921988 0.001526000 0.067841001
0.403259009 0.002380000 0.065796003
0.455626994 0.003174000 0.063262999
0.506622016 0.004181000 0.060028002
0.556640983 0.005829000 0.056549001
0.605193973 0.007202000 0.052306999
0.652221978 0.008179000 0.047759999
0.694976985 0.009705000 0.042419001
0.706085026 0.010437000 0.037292000
0.037659001 0.082092002 0.080658004
0.051270001 0.082030997 0.079742000
0.077209003 0.080994003 0.076843001
0.116118997 0.074036002 0.071075000
0.158813000 0.064879999 0.065490998
0.206024006 0.050537001 0.058166999
0.255127013 0.024444999 0.053070001
0.304320991 0.003845000 0.055725001
0.353973001 0.000000000 0.061432000
0.404816002 0.000000000 0.063904002
0.456268013 0.000000000 0.062438998
0.507049978 0.000946000 0.060028002
0.556824028 0.002167000 0.056000002
0.605163991 0.003113000 0.051727001
0.652100027 0.004547000 0.046082001
0.694854975 0.005463000 0.040344000
0.706268013 0.006317000 0.030640000
0.062408000 0.145751998 0.084807999
0.067078002 0.146239996 0.084380999
0.091858000 0.145965993 0.080321997
0.135741994 0.140563995 0.071686000
0.179870993 0.133819997 0.059631001
0.223052993 0.126099005 0.053741001
0.269683987 0.115662001 0.047759999
0.318145990 0.105071999 0.037994001
0.366791010 0.097290002 0.025726000
0.415710002 0.091430999 0.017364999
0.464935005 0.085968003 0.010590000
0.513701975 0.082213998 0.003845000
0.561676025 0.081146002 0.005188000
0.608765006 0.082703002 0.006195000
0.654694021 0.087433003 0.006805000
0.697112978 0.096375003 0.007385000
0.708800972 0.107178003 0.006226000
0.091309004 0.220917001 0.084045000
0.091339000 0.221283004 0.083618000
0.107268997 0.221588001 0.080444001
0.147643998 0.216949001 0.075409003
0.195068002 0.210235998 0.064361997
0.243773997 0.202911004 0.044891000
0.289642006 0.196655005 0.036956999
0.335541010 0.190734997 0.024597000
0.382750988 0.185241997 0.011932000
0.430328012 0.180419996 0.002747000
0.477753013 0.176483005 0.000000000
0.525207996 0.173828006 0.000000000
0.572112978 0.172821000 0.000000000
0.618286014 0.173614994 0.000000000
0.663513005 0.176575005 0.000000000
0.705231011 0.182556003 0.000000000
