public/lut/105.cube
TITLE "17x17x17 Adobe/IRIDAS cube 3D LUT exported with GrossGrade v0.2.2 (beta) 64 bit"
DOMAIN_MIN 0 0 0
DOMAIN_MAX 1 1 1
LUT_3D_SIZE 5
0.000000000 0.000000000 0.000000000
0.132446006 0.000793000 0.000610000
0.344298989 0.003540000 0.001587000
0.552947998 0.010468000 0.005524000
0.704497993 0.018158000 0.009460000
0.087006003 0.223968998 0.054931998
0.188507006 0.211974993 0.027222000
0.377869010 0.187469006 0.000000000
0.570343018 0.174926996 0.000000000
0.716216981 0.189025998 0.000977000
0.230132997 0.542357981 0.074157998
0.271026999 0.534636974 0.070800997
0.460052013 0.502135992 0.030762000
0.640289009 0.475708008 0.000000000
0.770294011 0.471527010 0.000000000
0.371306986 0.821929991 0.149506003
0.395354986 0.815674007 0.147614002
0.541594982 0.788390994 0.139617994
0.708922982 0.759338021 0.089050002
0.838715017 0.739684999 0.000000000
0.546814024 0.953247011 0.395538002
0.576141000 0.953247011 0.391907007
0.655578971 0.953247011 0.378540009
0.769409001 0.953278005 0.342956990
0.881713986 0.953247011 0.260039985
0.066559002 0.000000000 0.192626998
0.168120995 0.000000000 0.189330995
0.365081996 0.001587000 0.184325993
0.565612972 0.004730000 0.183319002
0.712401986 0.008667000 0.182128996
0.117218003 0.212738007 0.210235998
0.200806007 0.209380999 0.200348005
0.390166998 0.188690007 0.187683001
0.582336009 0.162627995 0.172913000
0.730132997 0.153258994 0.136840999
0.238403007 0.532531977 0.200011998
0.280059993 0.530762017 0.190796003
0.470032007 0.498504996 0.172271997
0.649109006 0.473724008 0.133484006
0.782257020 0.468445003 0.099059999
0.373351991 0.816161990 0.201965004
0.398041010 0.814361989 0.195892006
0.543945014 0.787383974 0.196106002
0.711669981 0.757659972 0.165497005
0.846099973 0.739104986 0.045715000
0.548247993 0.953247011 0.410400003
0.577057004 0.953247011 0.407288015
0.657104015 0.953247011 0.398712009
0.771057010 0.953247011 0.372864008
0.884307981 0.953247011 0.305999994
0.198486000 0.000793000 0.466095001
0.248566002 0.000793000 0.464661002
0.421234012 0.001587000 0.455994010
0.605620980 0.004333000 0.447571009
0.744354010 0.006317000 0.444335997
0.218383998 0.207916006 0.477966011
0.273773015 0.207947001 0.473785013
0.436859012 0.193297997 0.462799013
0.618317008 0.159484997 0.451079994
0.762359977 0.133331001 0.441650003
0.300933987 0.507721007 0.499390006
0.336975008 0.505218983 0.496277004
0.475158989 0.497283995 0.478363007
0.659668028 0.478668004 0.462859988
0.799468994 0.473082989 0.449584991
0.413634986 0.789794981 0.512786984
0.440216005 0.789000988 0.509887993
0.559539974 0.779083014 0.492401004
0.743957996 0.747802973 0.457275003
0.878570974 0.730926991 0.429046988
0.581023991 0.953247011 0.577544987
0.604735970 0.953247011 0.574065983
0.675841987 0.953247011 0.565612972
0.784515023 0.953247011 0.555388987
0.898499012 0.953185976 0.521697998
0.319579989 0.000793000 0.716643989
0.357421994 0.001587000 0.715668023
0.494354010 0.004333000 0.709625006
0.659911990 0.003937000 0.699036002
0.788513005 0.010864000 0.691101015
0.330413997 0.206024006 0.726409972
0.373259991 0.206634998 0.721130013
0.504607975 0.184295997 0.715393007
0.669708014 0.122864000 0.706450999
0.807097971 0.035613999 0.698485970
0.387023985 0.497283995 0.740203977
0.421783000 0.496764988 0.733703971
0.541320980 0.491943002 0.730041981
0.696166992 0.477631003 0.718536019
0.837249994 0.461517006 0.708465993
0.479979992 0.770599008 0.755127013
0.510680974 0.768158019 0.752746999
0.606841981 0.760497987 0.743651986
0.721190989 0.754547000 0.727936029
0.881958008 0.733398020 0.716979980
0.640990973 0.953247011 0.775786996
0.661010981 0.953247011 0.774658024
0.718445003 0.953247011 0.770507991
0.810271978 0.953217030 0.760559022
0.921997011 0.953185976 0.743622005
0.435180992 0.002380000 0.921112001
0.475890994 0.002960000 0.919921994
0.581328988 0.005127000 0.915252984
0.721038997 0.007904000 0.906219006
0.833281994 0.007904000 0.898101985
0.441650003 0.179168999 0.930724978
0.481445014 0.162993997 0.928771973
0.585570991 0.112792999 0.926392019
0.727478027 0.000000000 0.918060005
0.845978022 0.007904000 0.909789979
0.486084014 0.490723014 0.943908989
0.523375988 0.489746004 0.939391971
0.618744016 0.482300013 0.933166981
0.750060976 0.454589993 0.932830989
0.880034983 0.401917011 0.932892025
0.570831001 0.760528982 0.951599002
0.599273980 0.758301020 0.949706972
0.677520990 0.751830995 0.944275022
0.789246023 0.741577029 0.937377989
0.913971007 0.712554991 0.937072992
0.724518001 0.953185976 0.945556998
0.740692019 0.953185976 0.945374012
0.787078977 0.953185976 0.944976985
0.860870004 0.953185976 0.944275022
0.951903999 0.953125000 0.945434988
