public/lut/106.cube
TITLE "17x17x17 Adobe/IRIDAS cube 3D LUT exported with GrossGrade v0.2.2 (beta) 64 bit"
DOMAIN_MIN 0 0 0
DOMAIN_MAX 1 1 1
LUT_3D_SIZE 17
0.000000000 0.000000000 0.000000000
0.024780000 0.000000000 0.000000000
0.048859000 0.000702000 0.000000000
0.076812997 0.000793000 0.000000000
0.106934004 0.001373000 0.000610000
0.140808001 0.001587000 0.000793000
0.177581996 0.002380000 0.000793000
0.216949001 0.003174000 0.001221000
0.259766012 0.003540000 0.001587000
0.308043987 0.004272000 0.002380000
0.361876994 0.005524000 0.002655000
0.414855987 0.006317000 0.003174000
0.464203000 0.006317000 0.003174000
0.522400022 0.007233000 0.003937000
0.593047976 0.009460000 0.004730000
0.647125006 0.008667000 0.004730000
0.700896978 0.008667000 0.004730000
0.002319000 0.034912001 0.001526000
0.027892999 0.028687000 0.000061000
0.058104999 0.026276000 0.000000000
0.084259003 0.025513001 0.000000000
0.113891996 0.025513001 0.000000000
0.145172000 0.026306000 0.000000000
0.179596007 0.027100001 0.000000000
0.216644004 0.028687000 0.000061000
0.257690012 0.029877000 0.000793000
0.302643001 0.031799000 0.001190000
0.353484988 0.033721998 0.001617000
0.410095006 0.035980001 0.002411000
0.465088010 0.038238999 0.003174000
0.519958019 0.040375002 0.003357000
0.586059988 0.042755000 0.003998000
0.648010015 0.044891000 0.004730000
0.703278005 0.046172999 0.004730000
0.003937000 0.073455997 0.001587000
0.029418999 0.067199998 0.000793000
0.060577001 0.063904002 0.000793000
0.094910003 0.060028002 0.000000000
0.125762999 0.059296001 0.000000000
0.157440007 0.059386998 0.000000000
0.192626998 0.060332999 0.000000000
0.230407998 0.061492998 0.000000000
0.271575987 0.063110001 0.000000000
0.315398991 0.065338001 0.000000000
0.363463998 0.067993000 0.000092000
0.416779011 0.071258999 0.000793000
0.471313000 0.074097000 0.001587000
0.519806027 0.076508000 0.001587000
0.574127018 0.078979000 0.001678000
0.632628977 0.082122996 0.002380000
0.698700011 0.085235998 0.002472000
0.005524000 0.111481003 0.001587000
0.031036001 0.106140003 0.001465000
0.062743999 0.103058003 0.000793000
0.096619003 0.101074003 0.000793000
0.133881003 0.098480001 0.000000000
0.170898005 0.097565003 0.000000000
0.207122996 0.098236002 0.000000000
0.245544001 0.099792004 0.000000000
0.287566990 0.101898000 0.000000000
0.332305998 0.104461998 0.000000000
0.380645990 0.106964000 0.000000000
0.435790986 0.110229000 0.000000000
0.494690001 0.114349000 0.000000000
0.546172976 0.117798001 0.000305000
0.603577018 0.121642999 0.000793000
0.667968988 0.125976995 0.001587000
0.728637993 0.129851997 0.002380000
0.007690000 0.153136998 0.001587000
0.033417001 0.148040995 0.001587000
0.065948002 0.145568997 0.000793000
0.100281000 0.144196004 0.000793000
0.136932001 0.142853007 0.000793000
0.177368000 0.141387999 0.000000000
0.220214993 0.140320003 0.000000000
0.260803014 0.141266003 0.000000000
0.302673012 0.143676996 0.000000000
0.348327994 0.146239996 0.000000000
0.396851003 0.149292007 0.000000000
0.452881008 0.152770996 0.000000000
0.518311024 0.156982005 0.000000000
0.582611024 0.161835000 0.000000000
0.644073009 0.166840002 0.000793000
0.696654975 0.171173006 0.000793000
0.750122011 0.175322995 0.000977000
0.008667000 0.199828997 0.001587000
0.036316000 0.195251003 0.001587000
0.070952997 0.192534998 0.000793000
0.105774000 0.191680998 0.000793000
0.142853007 0.190491006 0.000793000
0.182586998 0.189667001 0.000793000
0.226563007 0.188446000 0.000000000
0.273894995 0.187438995 0.000000000
0.319153011 0.188750997 0.000000000
0.364349008 0.191925004 0.000000000
0.413147002 0.195068002 0.000000000
0.467162997 0.198486000 0.000000000
0.536559999 0.202820003 0.000000000
0.616943002 0.208038002 0.000000000
0.668242991 0.213348001 0.000000000
0.717406988 0.218170002 0.000000000
0.769531012 0.223175004 0.000000000
0.010254000 0.251372993 0.000793000
0.039368000 0.247008994 0.000793000
0.075928003 0.243835002 0.000793000
0.111938000 0.242889002 0.000793000
0.149963006 0.242523000 0.000793000
0.190430000 0.241913006 0.000793000
0.233429000 0.241272002 0.000793000
0.281342000 0.240784004 0.000000000
0.332336009 0.240143001 0.000000000
0.381713986 0.241638005 0.000000000
0.430388987 0.244965002 0.000000000
0.483123988 0.248687997 0.000000000
0.552429020 0.252746999 0.000000000
0.640929997 0.257598996 0.000000000
0.687439024 0.263092011 0.000000000
0.737731993 0.268676996 0.000000000
0.790404975 0.274383992 0.000000000
0.012268000 0.307067990 0.000793000
0.043090999 0.303406000 0.000793000
0.081023999 0.299407989 0.000793000
0.119202003 0.298644990 0.000793000
0.157775998 0.298431009 0.000000000
0.199004993 0.297973990 0.000793000
0.243073002 0.297973990 0.001587000
0.289611995 0.298218012 0.000793000
0.340880990 0.297942996 0.000061000
0.395630002 0.297728986 0.000000000
0.448882997 0.299621999 0.000000000
0.501525998 0.303283989 0.000000000
0.568359017 0.307190001 0.000000000
0.656219006 0.311432004 0.000000000
0.707764030 0.317229986 0.000000000
0.758361995 0.323273003 0.000000000
0.811523020 0.329436988 0.000000000
0.013428000 0.367125988 0.000793000
0.046967000 0.363678008 0.000793000
0.086333998 0.359221995 0.000793000
0.126525998 0.358397990 0.000793000
0.166748002 0.358397990 0.000000000
0.208465993 0.358307004 0.000000000
0.253540009 0.358612001 0.000793000
0.301025003 0.358947992 0.001587000
0.350769013 0.359649986 0.000793000
0.405211985 0.360076994 0.000061000
0.463196009 0.360260010 0.000000000
0.520202994 0.362334996 0.000000000
0.585815012 0.365723014 0.000000000
0.670836985 0.369475991 0.000000000
0.728148997 0.375488013 0.000000000
0.779266000 0.381835997 0.000000000
0.833099008 0.388489008 0.000000000
0.014984000 0.430938989 0.000793000
0.050629001 0.427367985 0.000793000
0.091430999 0.422852010 0.000793000
0.133849993 0.421997011 0.000793000
0.175872996 0.422089010 0.000214000
0.219054997 0.422423989 0.000000000
0.264434993 0.422852010 0.000000000
0.313019007 0.423308998 0.000793000
0.363707989 0.424194008 0.001587000
0.416687012 0.425751001 0.000793000
0.473937988 0.426696986 0.000061000
0.535369992 0.427215993 0.000000000
0.603820980 0.428894013 0.000000000
0.685791016 0.432007015 0.000000000
0.749083996 0.437804997 0.000000000
0.800750971 0.444519013 0.000000000
0.855346978 0.451476991 0.000000000
0.016571000 0.498198986 0.000793000
0.054504000 0.494507015 0.000793000
0.096740998 0.490204006 0.000793000
0.140929997 0.489165992 0.000793000
0.185149997 0.489531994 0.000793000
0.230103001 0.489684999 0.000000000
0.276367009 0.490447998 0.000000000
0.325226009 0.491272002 0.000153000
0.377166986 0.492309988 0.000885000
0.431212991 0.493896008 0.001587000
0.487183005 0.495880008 0.001587000
0.547546029 0.497375011 0.000061000
0.618164003 0.497527987 0.000000000
0.699127018 0.498901010 0.000000000
0.769989014 0.504119992 0.000000000
0.822112978 0.510985970 0.000000000
0.877655029 0.518127024 0.000000000
0.019409001 0.580596983 0.001831000
0.058899000 0.570343018 0.001587000
0.102081001 0.562958002 0.000793000
0.148071006 0.561034977 0.000793000
0.194365993 0.560760021 0.000793000
0.241027996 0.560669005 0.000793000
0.289092988 0.561278999 0.000793000
0.338562012 0.562407970 0.000000000
0.390686005 0.563843012 0.000153000
0.445923001 0.565551996 0.001587000
0.502869010 0.567627013 0.001587000
0.561797976 0.570098996 0.001587000
0.628875971 0.571228027 0.000061000
0.710875988 0.570708990 0.000000000
0.790526986 0.574249029 0.000000000
0.843231022 0.581390023 0.000000000
0.899658024 0.588440001 0.000000000
0.026215000 0.689148009 0.002960000
0.066192999 0.672057986 0.001373000
0.110808998 0.655822992 0.002472000
0.158234000 0.650330007 0.001984000
0.206604004 0.652831972 0.001770000
0.255066007 0.653015018 0.001587000
0.304657012 0.652283013 0.000977000
0.355560005 0.650664985 0.001190000
0.407653987 0.648895025 0.000977000
0.462157995 0.647979975 0.000977000
0.519744992 0.648223996 0.001587000
0.579101980 0.649169981 0.001770000
0.642760992 0.650116026 0.001587000
0.720367014 0.649749994 0.000214000
0.811554015 0.648651004 0.000000000
0.864655018 0.655669987 0.000000000
0.921935976 0.662627995 0.000000000
0.027465999 0.789825022 0.000000000
0.073853001 0.790526986 0.000000000
0.122772001 0.772643983 0.004242000
0.171844006 0.763396978 0.004425000
0.222564995 0.774414003 0.003204000
0.272704989 0.775452018 0.002228000
0.323821992 0.773742974 0.002228000
0.376556009 0.768371999 0.003296000
0.429473996 0.759247005 0.003387000
0.483123988 0.751891971 0.002228000
0.539184988 0.747650027 0.001434000
0.598297000 0.745117009 0.001587000
0.660736024 0.743346989 0.002228000
0.733734012 0.741668999 0.001434000
0.830718994 0.736541986 0.000153000
0.886047006 0.741486013 0.000153000
0.944182992 0.746948004 0.000153000
0.022766000 0.840210021 0.000000000
0.071686000 0.840424001 0.000000000
0.121459998 0.841187000 0.000000000
0.173828006 0.840758979 0.000000000
0.226105005 0.841736019 0.000000000
0.278656006 0.842742980 0.000000000
0.332183987 0.843536019 0.000000000
0.386902004 0.844757020 0.000000000
0.442963004 0.846252024 0.000000000
0.500365973 0.847838998 0.000000000
0.559143007 0.849364996 0.000000000
0.619476020 0.850952029 0.000000000
0.681213021 0.852692008 0.000000000
0.750885010 0.853882015 0.000000000
0.839416981 0.852385998 0.001587000
0.902007997 0.851226985 0.002258000
0.962219000 0.852020025 0.001587000
0.018097000 0.898742974 0.000000000
0.070099004 0.898833990 0.000000000
0.122040004 0.899138987 0.000000000
0.176177993 0.899627984 0.000000000
0.230560005 0.900237978 0.000000000
0.285095006 0.901031017 0.000000000
0.340514988 0.902100027 0.000000000
0.396973014 0.903351009 0.000000000
0.454497993 0.904724002 0.000000000
0.513306022 0.906403005 0.000000000
0.573424995 0.908203006 0.000000000
0.634917974 0.910156012 0.000000000
0.697632015 0.912353992 0.000000000
0.765929997 0.914276004 0.000000000
0.847899973 0.914825022 0.000793000
0.913390994 0.917603016 0.000793000
0.975677013 0.921112001 0.000793000
0.014191000 0.961791992 0.000000000
0.067993000 0.961944997 0.000000000
0.122589000 0.962311029 0.000000000
0.178680003 0.962859988 0.000000000
0.235076994 0.963622987 0.000000000
0.291655988 0.964661002 0.000000000
0.348969012 0.965973020 0.000000000
0.407288015 0.967559993 0.000000000
0.466522008 0.969330013 0.000000000
0.526854992 0.971313000 0.000000000
0.588440001 0.973541021 0.000000000
0.651184022 0.976013005 0.000000000
0.715148985 0.978699028 0.000000000
0.781677008 0.981476009 0.000000000
0.853209972 0.984009027 0.000000000
0.925109982 0.986755013 0.000732000
0.989197016 0.990692019 0.000000000
0.003052000 0.000000000 0.044280998
0.030243000 0.000000000 0.039641999
0.057220001 0.000000000 0.039673001
0.085570998 0.000000000 0.040314000
0.115601003 0.000000000 0.038787998
0.148406997 0.000061000 0.037994001
0.184570000 0.000549000 0.037230998
0.223876998 0.000854000 0.036437999
0.266602010 0.001221000 0.036040999
0.314209014 0.001617000 0.035645001
0.369201988 0.002411000 0.034912001
0.425049007 0.003204000 0.034912001
0.473663002 0.003937000 0.035645001
0.530517995 0.005676000 0.037230998
0.598297000 0.007904000 0.039581001
0.648193002 0.007935000 0.040405001
0.701659977 0.007904000 0.041839998
0.003876000 0.033356000 0.035735998
0.024840999 0.030212000 0.028046001
0.051575001 0.027892999 0.026458999
0.079223998 0.027100001 0.025818000
0.108948000 0.026458999 0.025085000
0.142272994 0.026306000 0.024139000
0.177947998 0.026366999 0.024109000
0.216156006 0.027892999 0.025330000
0.257232994 0.029418999 0.026825000
0.301665992 0.031005999 0.028290000
0.352569997 0.032928001 0.030548001
0.409301996 0.035675000 0.032837000
0.464446992 0.038054999 0.034912001
0.519348025 0.039763998 0.036621001
0.583922982 0.042633001 0.038787998
0.648346007 0.044891000 0.040405001
0.703369021 0.046234000 0.041839998
0.005463000 0.071929999 0.034912001
0.028534001 0.066223003 0.026427999
0.058685001 0.063385002 0.023987001
0.093108997 0.060089000 0.021790000
0.124724999 0.058867998 0.021637000
0.156616002 0.058745999 0.022368999
0.191437006 0.059723001 0.023651000
0.229491994 0.060883000 0.025085000
0.270415992 0.062531002 0.026215000
0.314056009 0.064788997 0.027802000
0.361602992 0.067657001 0.029418999
0.414763987 0.070739999 0.031311002
0.469603986 0.073792003 0.033507999
0.518890023 0.076172002 0.035094999
0.573090017 0.078918003 0.036621001
0.631744027 0.081726000 0.038849000
0.696564019 0.084839001 0.040405001
0.006256000 0.109679997 0.030456999
0.030944999 0.105071999 0.024932999
0.062256001 0.102325000 0.023254000
0.095917001 0.100341998 0.023163000
0.133056998 0.097686999 0.023071000
0.169769004 0.096436001 0.023864999
0.206299007 0.097411998 0.025238000
0.245026007 0.099365003 0.026184000
0.286406994 0.101256996 0.027434999
0.331084996 0.103729002 0.028991999
0.379332989 0.106597997 0.030060001
0.433806986 0.109894000 0.031647000
0.492493004 0.113861002 0.033264000
0.543883979 0.117523000 0.034851000
0.599547982 0.121123999 0.036529999
0.663909972 0.125426993 0.038849000
0.727844000 0.129608005 0.041076999
0.007111000 0.151672006 0.028046001
0.033202998 0.147247002 0.025390999
0.065459996 0.144775003 0.024750000
0.099884003 0.143433005 0.025390999
0.136565998 0.142212003 0.026123000
0.176543996 0.140594006 0.026123000
0.219025001 0.139557004 0.026916999
0.260010004 0.140746996 0.027832000
0.301849008 0.143126994 0.029236000
0.347290009 0.145781994 0.030517999
0.395752013 0.148926005 0.031585999
0.450928003 0.152435005 0.032776002
0.514648020 0.156494007 0.034058001
0.578429997 0.161346003 0.035767000
0.642180979 0.166565001 0.037323002
0.695403993 0.170958996 0.038849000
0.749786019 0.175171003 0.040465999
0.008667000 0.198547006 0.027832000
0.035521999 0.194152996 0.027588001
0.070496000 0.191528007 0.027069001
0.105042003 0.190674007 0.027588001
0.142547995 0.189728007 0.028441999
0.181945994 0.188842997 0.029175000
0.225739002 0.187804997 0.029175000
0.272918999 0.186829001 0.029967999
0.318176001 0.188384995 0.030762000
0.363281012 0.191437006 0.032104000
0.411956996 0.194672003 0.033080999
0.465362996 0.198151007 0.034363002
0.533111989 0.202483997 0.035431001
0.614044011 0.207764000 0.036956999
0.667968988 0.213165000 0.038054999
0.717041016 0.217987001 0.039581001
0.769164979 0.223021999 0.041016001
0.010254000 0.250030994 0.029906999
0.038635001 0.246062994 0.029906999
0.075409003 0.242736995 0.029906999
0.111571997 0.242096007 0.029906999
0.149474993 0.241576999 0.030640000
0.189818993 0.240967005 0.031493999
0.232787997 0.240752995 0.032226998
0.280579001 0.240051001 0.032226998
0.331481993 0.239471003 0.032928001
0.380706996 0.241089001 0.033813000
0.429320991 0.244598001 0.035156000
0.481812000 0.248321995 0.036132999
0.549530029 0.252411008 0.036926001
0.637176991 0.257355005 0.038451999
0.687255979 0.262816995 0.039489999
0.737121999 0.268341005 0.040801998
0.790039003 0.274170011 0.041779000
0.011841000 0.305907995 0.032196000
0.042815998 0.302399009 0.032196000
0.080565996 0.298523009 0.032196000
0.118865997 0.297760010 0.032196000
0.157288000 0.297607005 0.032379001
0.198516995 0.297210991 0.033752002
0.242523000 0.297302008 0.034545999
0.288971007 0.297607005 0.035278000
0.340148985 0.297302008 0.035278000
0.394623011 0.297241002 0.035980001
0.447784007 0.299133003 0.036865000
0.500304997 0.302825987 0.037659001
0.565979004 0.306823999 0.038940001
0.652343988 0.311066002 0.039978001
0.707396984 0.316832989 0.041106999
0.757934988 0.322876006 0.042206001
0.811187983 0.329223990 0.043212999
0.013428000 0.365996987 0.034453999
0.046631001 0.362549007 0.034515001
0.085876003 0.358336985 0.034515001
0.126067996 0.357329994 0.034515001
0.166290000 0.357421994 0.035248000
0.208008006 0.357544005 0.035248000
0.253082007 0.357910007 0.036835000
0.300292999 0.358245999 0.037597999
0.350066990 0.359008998 0.038330000
0.404388011 0.359405994 0.038330000
0.462341011 0.359618992 0.038727000
0.519043028 0.361815989 0.039763998
0.583862007 0.365265012 0.040679999
0.667999029 0.369080007 0.041412000
0.727844000 0.375030994 0.042847000
0.778931022 0.381531000 0.043945000
0.832702994 0.388152987 0.045044001
0.014587000 0.429749012 0.036773998
0.050629001 0.426178008 0.037170000
0.091003001 0.421844006 0.037505999
0.133269995 0.420897990 0.037567001
0.175414994 0.421021014 0.037567001
0.218596995 0.421508998 0.037567001
0.263855010 0.422057986 0.038300000
0.312469006 0.422637999 0.039886001
0.363068014 0.423523009 0.040679999
0.415984988 0.424865991 0.041351002
0.473206013 0.425873011 0.041351002
0.534301996 0.426575005 0.041351002
0.601348996 0.428496987 0.042663999
0.681122005 0.431823999 0.043549001
0.748961985 0.437377989 0.044739000
0.800414979 0.444121987 0.045685001
0.854919016 0.451018989 0.046721999
0.016083000 0.497191995 0.039825000
0.054076999 0.493407995 0.039825000
0.096221998 0.489075005 0.039825000
0.140503004 0.488159001 0.039825000
0.184753001 0.488341987 0.039825000
0.229706004 0.488617003 0.040557999
0.275817990 0.489349008 0.040557999
0.324707001 0.490417004 0.041320998
0.376556009 0.491486013 0.042815998
0.430510998 0.493010998 0.043853998
0.486481011 0.495117009 0.044220001
0.546599984 0.496643007 0.044220001
0.615356028 0.497162014 0.044829998
0.693085015 0.498778999 0.045623999
0.769958019 0.503570974 0.046356000
0.821716011 0.510590017 0.047485001
0.877228022 0.517731011 0.048401002
0.018677000 0.577179015 0.042998999
0.058350001 0.567687988 0.042755000
0.101593003 0.561583996 0.042755000
0.147674993 0.559753001 0.042755000
0.193909004 0.559234977 0.042755000
0.240661994 0.559296012 0.042755000
0.288695991 0.560088992 0.043457001
0.338043004 0.561554015 0.043457001
0.390166998 0.563049018 0.044312000
0.445342988 0.564606011 0.045715000
0.502288997 0.566771984 0.046997000
0.561187983 0.569458008 0.046997000
0.627013981 0.570770025 0.046967000
0.707213998 0.570586979 0.047577001
0.790374994 0.573729992 0.048340000
0.842742980 0.580841005 0.049529999
0.899260998 0.588012993 0.050354000
0.024840999 0.683288991 0.046142999
0.065613002 0.667908013 0.045410000
0.109985001 0.653046012 0.046386998
0.157440007 0.646973014 0.046417002
0.205750003 0.649627984 0.046264999
0.254395008 0.650542974 0.046264999
0.303986013 0.648499012 0.046599999
0.354553014 0.646179020 0.047118999
0.406554997 0.645020008 0.047118999
0.461304009 0.644958019 0.047791000
0.518921018 0.645659983 0.049011000
0.578307986 0.647095025 0.049896002
0.641357005 0.648681998 0.050322998
0.717377007 0.649109006 0.049805000
0.810393989 0.647979975 0.050322998
0.863952994 0.654968023 0.051483002
0.921416998 0.662109017 0.052216001
0.027465999 0.790192008 0.046204001
0.073853001 0.789672971 0.046172999
0.121918000 0.768706977 0.050781000
0.170349002 0.757018983 0.050751001
0.221251994 0.768981993 0.049561001
0.271881014 0.772643983 0.049529999
0.323273003 0.765929997 0.051116999
0.374695003 0.756622016 0.051360998
0.427062988 0.749297976 0.050811999
0.481445014 0.744812012 0.050811999
0.537810981 0.741851985 0.050811999
0.597259998 0.739989996 0.051635999
0.659820974 0.739989996 0.052917000
0.732056022 0.739777029 0.053374998
0.827422976 0.735260010 0.052948002
0.885254025 0.740234017 0.053589001
0.943572998 0.746124029 0.054260001
0.022675000 0.840301991 0.048920002
0.071686000 0.840484977 0.048920002
0.121399000 0.841431022 0.048859000
0.174011007 0.840179026 0.048859000
0.226105005 0.841826975 0.049561001
0.278564006 0.842926025 0.049561001
0.332091987 0.843994021 0.050110001
0.386902004 0.845367014 0.050232001
0.442963004 0.846771002 0.050841998
0.500275016 0.848174989 0.051514000
0.559020996 0.849700987 0.052124001
0.619292974 0.851226985 0.052795000
0.680846989 0.852904975 0.053406000
0.750030994 0.853455007 0.054198999
0.838042974 0.849792004 0.057158999
0.902007997 0.848999023 0.057158999
0.962432981 0.850677013 0.057647999
0.018097000 0.898804009 0.051483002
0.070099004 0.898864985 0.051483002
0.122009002 0.899200022 0.051483002
0.176117003 0.899689019 0.052002002
0.230407998 0.900237978 0.052094001
0.285034001 0.901031017 0.052124001
0.340454012 0.902130008 0.052765001
0.396881014 0.903380990 0.052795000
0.454376012 0.904815972 0.053406000
0.513184011 0.906403005 0.054016002
0.573273003 0.908234000 0.054595999
0.634734988 0.910216987 0.054839998
0.697449028 0.912383974 0.055877998
0.765137017 0.914367974 0.056458000
0.845031977 0.915283024 0.057677999
0.913573980 0.917725027 0.058288999
0.975677013 0.921142995 0.058867998
0.014191000 0.961791992 0.053955000
0.067993000 0.961944997 0.053955000
0.122589000 0.962341011 0.053955000
0.178680003 0.962859988 0.054565001
0.235016003 0.963715017 0.054625999
0.291565001 0.964752018 0.054625999
0.348937988 0.966033995 0.055206001
0.407135010 0.967589974 0.055206001
0.466399997 0.969359994 0.055847000
0.526794016 0.971374989 0.056396000
0.588379025 0.973632991 0.056701999
0.651122987 0.976043999 0.057220001
0.715088010 0.978729010 0.057799999
0.781372011 0.981536984 0.058318999
0.852111995 0.984192014 0.059386998
0.925231993 0.986786008 0.060028002
0.989197016 0.990783989 0.061127000
0.005524000 0.000000000 0.079254001
0.033417001 0.000000000 0.074767999
0.061829001 0.000000000 0.075499997
0.089478001 0.000000000 0.074676998
0.120209001 0.000000000 0.074097000
0.153350994 0.000000000 0.073546998
0.189575002 0.000000000 0.073853001
0.228760004 0.000000000 0.073974997
0.270873994 0.000793000 0.074738003
0.317901999 0.001129000 0.075562000
0.373474002 0.001862000 0.076476999
0.430236995 0.002380000 0.077698000
0.480010986 0.003174000 0.079193003
0.540283024 0.003937000 0.080627002
0.609893978 0.004822000 0.082457997
0.660156012 0.004822000 0.084229000
0.713195980 0.004150000 0.085937999
0.006195000 0.033356000 0.070618004
0.027953999 0.028778000 0.066344999
0.055206001 0.027161000 0.063568003
0.083282001 0.026427999 0.062896997
0.113342002 0.026306000 0.062438998
0.146484002 0.026123000 0.062835999
0.182068005 0.026062001 0.063323997
0.220703006 0.026306000 0.064452998
0.262908995 0.026825000 0.066376001
0.308472008 0.028625000 0.068480998
0.359984994 0.030609000 0.070037998
0.418213010 0.032867000 0.072540000
0.474914998 0.034912001 0.074553996
0.530762017 0.036681999 0.076935001
0.598784983 0.039000999 0.079314999
0.659271002 0.040557999 0.081603996
0.715057015 0.041962001 0.083434999
0.007690000 0.070404001 0.072356999
0.030151000 0.066071004 0.064514004
0.054657001 0.065917999 0.060486000
0.084197998 0.064423002 0.058715999
0.114807002 0.063721001 0.059723001
0.147735998 0.063538000 0.060210999
0.183349997 0.064087003 0.060913000
0.222014993 0.064788997 0.061919998
0.263336003 0.066192999 0.063019000
0.307830989 0.067809999 0.064696997
0.356139988 0.069945998 0.066344999
0.409729004 0.072173998 0.068512000
0.464904994 0.074553996 0.070525996
0.515320003 0.076447003 0.072144002
0.570221007 0.078368999 0.073729999
0.626984000 0.080779999 0.076110996
0.687224984 0.083466001 0.078856997
0.008575000 0.108002000 0.071960002
0.032531999 0.104309000 0.066009998
0.060424998 0.103455000 0.063049003
0.093474999 0.101929002 0.061340000
0.128754005 0.100372002 0.060272001
0.162414998 0.100585997 0.060883000
0.197998002 0.101685002 0.062408000
0.237609997 0.102813996 0.063110001
0.280456990 0.104309000 0.063781999
0.325713992 0.106415004 0.065154999
0.373901010 0.108704001 0.066284001
0.427917004 0.111236997 0.067901999
0.486236989 0.114288002 0.069274999
0.537903011 0.117187999 0.070496000
0.590820014 0.120421998 0.073028997
0.649444997 0.123931997 0.075499997
0.714690983 0.128113002 0.078766003
0.009277000 0.150298998 0.071167000
0.034058001 0.146179006 0.066955999
0.065307997 0.145019993 0.064300999
0.098816000 0.143921003 0.063689999
0.135468006 0.142547995 0.062592000
0.174438000 0.141937003 0.062592000
0.214019999 0.141967997 0.063170999
0.255340993 0.142943993 0.063323997
0.299071997 0.144653007 0.063904002
0.344940007 0.146819994 0.064788997
0.393768013 0.149627998 0.065796003
0.448273003 0.152649000 0.067413002
0.509124994 0.156219006 0.069397002
0.568023980 0.160370007 0.071350001
0.627471983 0.165009007 0.073913999
0.692902029 0.170349002 0.077271000
