public/lut/106.cube
TITLE "17x17x17 Adobe/IRIDAS cube 3D LUT exported with GrossGrade v0.2.2 (beta) 64 bit"
DOMAIN_MIN 0 0 0
DOMAIN_MAX 1 1 1
LUT_3D_SIZE 5
0.000000000 0.000000000 0.000000000
0.106934004 0.001373000 0.000610000
0.259766012 0.003540000 0.001587000
0.464203000 0.006317000 0.003174000
0.700896978 0.008667000 0.004730000
0.007690000 0.153136998 0.001587000
0.136932001 0.142853007 0.000793000
0.302673012 0.143676996 0.000000000
0.518311024 0.156982005 0.000000000
0.750122011 0.175322995 0.000977000
0.013428000 0.367125988 0.000793000
0.166748002 0.358397990 0.000000000
0.350769013 0.359649986 0.000793000
0.585815012 0.365723014 0.000000000
0.833099008 0.388489008 0.000000000
0.026215000 0.689148009 0.002960000
0.206604004 0.652831972 0.001770000
0.407653987 0.648895025 0.000977000
0.642760992 0.650116026 0.001587000
0.921935976 0.662627995 0.000000000
0.014191000 0.961791992 0.000000000
0.235076994 0.963622987 0.000000000
0.466522008 0.969330013 0.000000000
0.715148985 0.978699028 0.000000000
0.989197016 0.990692019 0.000000000
0.011627000 0.000000000 0.156951994
0.127288997 0.000000000 0.146576002
0.279053003 0.000000000 0.149719000
0.489746004 0.002380000 0.161193997
0.720611989 0.003937000 0.176452994
0.012634000 0.148711994 0.149872005
0.129120007 0.147034004 0.137939006
0.285919011 0.152465999 0.146271005
0.493378013 0.164702997 0.159759998
0.738922000 0.179564998 0.174591005
0.015778000 0.362915009 0.169769004
0.166045994 0.355865002 0.164276004
0.349274009 0.358916998 0.167174995
0.571654975 0.368835002 0.174896002
0.831573009 0.389526010 0.186492994
0.022095000 0.676849008 0.191162005
0.203887999 0.637054026 0.192017004
0.405211985 0.637481987 0.195038006
0.639464974 0.646393001 0.202515006
0.922577024 0.661377013 0.209930003
0.011841000 0.963440001 0.217528999
0.234008998 0.964783013 0.219208002
0.466187000 0.970245004 0.224456996
0.715424001 0.979400992 0.232758000
0.989898980 0.991333008 0.243713006
0.026031001 0.000000000 0.339141995
0.143004999 0.000000000 0.317748994
0.297820985 0.000000000 0.324279994
0.515838981 0.000793000 0.338806003
0.740112007 0.002380000 0.366241008
0.021698000 0.149932995 0.313324004
0.143341005 0.146819994 0.316466987
0.302094012 0.152465999 0.320160002
0.511658013 0.163207993 0.338317990
0.762206972 0.176269993 0.364531994
0.022095000 0.361115009 0.359436005
0.172821000 0.356049001 0.350250006
0.339996010 0.366454989 0.351287991
0.555297971 0.379242003 0.369690001
0.820496023 0.399352998 0.393860012
0.018921001 0.670013011 0.398101985
0.207122996 0.634552002 0.403380990
0.406219006 0.636475027 0.407317996
0.640289009 0.648468018 0.418731987
0.915497005 0.668060005 0.437561005
0.001190000 0.968932986 0.437988013
0.227111995 0.969726980 0.441437006
0.463164985 0.974304020 0.451660007
0.715789974 0.982268989 0.468140006
0.992156982 0.993194997 0.490325987
0.034118999 0.000000000 0.504974008
0.162018001 0.000000000 0.516692996
0.319701999 0.000000000 0.540557981
0.552825987 0.000000000 0.575378001
0.773773015 0.000000000 0.602966011
0.034515001 0.152099997 0.550963998
0.164428994 0.149109006 0.542725027
0.323547006 0.154633000 0.549072027
0.533203006 0.163207993 0.561461985
0.787200987 0.172545999 0.584044993
0.037842002 0.363281012 0.611968994
0.186249003 0.359863013 0.565918028
0.358734012 0.367065012 0.579742014
0.572265983 0.381743997 0.590851009
0.842833996 0.399596989 0.614104986
0.023651000 0.665984988 0.668365002
0.215087995 0.633880973 0.629822016
0.415313989 0.639069021 0.631072998
0.635039985 0.656403005 0.643432975
0.911620975 0.676299989 0.670531988
0.000000000 0.972716987 0.690338016
0.223205999 0.974792004 0.682190001
0.456115991 0.980682015 0.686950982
0.715210021 0.987091005 0.708770990
0.995482981 0.996093988 0.741180003
0.051024999 0.000000000 0.760161996
0.191314995 0.000000000 0.811065972
0.349395990 0.000000000 0.816619992
0.579163015 0.000000000 0.825866997
0.802184999 0.000000000 0.855956972
0.056366000 0.138366997 0.940033019
0.185424998 0.151978001 0.796661019
0.353363007 0.149535999 0.850494027
0.558044016 0.157562003 0.842528999
0.814971983 0.170592993 0.851166010
0.042877000 0.356902987 0.958252013
0.208434999 0.350555003 0.955718994
0.393584996 0.356200993 0.954010010
0.612854004 0.367523015 0.953979015
0.876160026 0.385100991 0.915466011
0.016571000 0.662262022 0.971801996
0.219359994 0.632445991 0.976043999
0.431519002 0.636840999 0.975432992
0.665192008 0.650664985 0.975952029
0.953307986 0.662688971 0.978179991
0.000000000 0.976318002 0.976013005
0.226471007 0.978179991 0.977936029
0.462859988 0.983367980 0.983124018
0.718231022 0.990966976 0.990783989
0.999817014 0.999817014 0.999817014
