public/lut/107.cube
TITLE "17x17x17 Adobe/IRIDAS cube 3D LUT exported with GrossGrade v0.2.2 (beta) 64 bit"
DOMAIN_MIN 0 0 0
DOMAIN_MAX 1 1 1
LUT_3D_SIZE 17
0.000000000 0.000000000 0.000000000
0.010345000 0.000000000 0.000000000
0.121642999 0.003448000 0.000000000
0.174926996 0.055817001 0.038543999
0.222046003 0.087371998 0.072356999
0.274780005 0.098876998 0.079102002
0.330779999 0.099274002 0.075530998
0.390166998 0.119080000 0.091124997
0.451202005 0.151489004 0.119048998
0.512421012 0.181488007 0.144501001
0.572661996 0.210663006 0.169373006
0.631438971 0.238892004 0.193604007
0.688080013 0.266021997 0.216949001
0.742187977 0.291626006 0.239014000
0.793426991 0.315582007 0.259795994
0.841736019 0.337738007 0.279114008
0.885924995 0.357665986 0.296905994
0.000000000 0.000000000 0.000000000
0.041962001 0.000000000 0.000000000
0.125121996 0.022736000 0.000000000
0.174408004 0.063323997 0.038543999
0.222259998 0.091826998 0.072356999
0.274596989 0.104309000 0.078979000
0.330962986 0.106232002 0.075226001
0.390166998 0.125396997 0.090697996
0.451171994 0.156371996 0.118865997
0.512573004 0.185760006 0.144501001
0.572784007 0.214478001 0.169312000
0.631438971 0.242156997 0.193419993
0.688080013 0.268950999 0.216766000
0.742156982 0.294220001 0.238892004
0.793488026 0.317809999 0.259795994
0.841705024 0.339812994 0.279114008
0.886107981 0.359497011 0.296783000
0.101470999 0.061188001 0.002777000
0.112427004 0.060729999 0.000000000
0.135223001 0.064636000 0.000000000
0.174529999 0.083251998 0.037719999
0.222534001 0.108551003 0.071227998
0.275146008 0.124054000 0.078156002
0.331450999 0.130431995 0.073761001
0.390625000 0.148468003 0.089446999
0.451568991 0.175872996 0.118073002
0.512786984 0.202728003 0.143707007
0.572937012 0.229431003 0.168700993
0.631591976 0.255614996 0.193023995
0.688354015 0.280883998 0.216461003
0.742340028 0.305023015 0.238677993
0.793700993 0.327636987 0.259521008
0.841826975 0.348601997 0.278961003
0.886078000 0.367431998 0.296539009
0.152161002 0.119537003 0.059142999
0.154358000 0.119750999 0.055206001
0.164489999 0.118438996 0.050018001
0.183990002 0.119292997 0.054687999
0.223633006 0.135956004 0.070006996
0.275512993 0.154785007 0.076201998
0.331786990 0.167023003 0.071410999
0.391083002 0.184783995 0.087371998
0.452057004 0.208496004 0.116576999
0.513031006 0.232452005 0.142609000
0.573302984 0.256500006 0.167815998
0.631927013 0.280243009 0.192200005
0.688598990 0.303344995 0.215728998
0.742583990 0.325408995 0.237976000
0.793823004 0.346222013 0.258942008
0.842132986 0.365478992 0.278472990
0.886260986 0.382934988 0.296173006
0.180664003 0.175842002 0.091918997
0.183105007 0.176025003 0.091705002
0.191985995 0.176300004 0.089354999
0.208434999 0.176055998 0.082488999
0.233367994 0.177917004 0.078735001
0.276946992 0.192748994 0.076233000
0.332244992 0.209625006 0.068787001
0.391541004 0.228485003 0.084716998
0.452484012 0.250030994 0.114684999
0.513427973 0.271636993 0.141021997
0.573517025 0.293334991 0.166443005
0.632233024 0.314635992 0.191039994
0.688872993 0.335296988 0.214721993
0.742888987 0.354950011 0.237183005
0.794188976 0.373504996 0.258300990
0.842377007 0.390625000 0.277801991
0.886627018 0.406250000 0.295592993
0.199799001 0.237762004 0.111815996
0.202025995 0.237822995 0.111115001
0.211028993 0.238403007 0.108368002
0.228270993 0.239258006 0.102356002
0.252135992 0.239318997 0.092743002
0.284393013 0.241973996 0.080352999
0.333160013 0.255919993 0.068878002
0.391907007 0.276001006 0.083618000
0.452881008 0.296783000 0.113036998
0.513854980 0.317200005 0.139342993
0.573913991 0.337067008 0.165009007
0.632507026 0.356292993 0.189758003
0.689177990 0.374817014 0.213623002
0.743164003 0.392181009 0.236145005
0.794403017 0.408416986 0.257416010
0.842833996 0.423278987 0.277038991
0.886932015 0.436583996 0.294860989
0.228606999 0.304870993 0.140533000
0.230560005 0.304993004 0.139983997
0.238677993 0.305572987 0.137482002
0.254242003 0.306365997 0.132446006
0.277038991 0.307617009 0.124237001
0.305420011 0.307891995 0.112061001
0.341614008 0.310943991 0.097015001
0.392760992 0.325531006 0.094635002
0.453002989 0.346435994 0.113098003
0.514221013 0.366668999 0.138916001
0.574187994 0.385497987 0.163910002
0.632750988 0.403290004 0.188507006
0.689423025 0.419952005 0.212372005
0.743377984 0.435333014 0.235016003
0.794768989 0.449431986 0.256316990
0.842987001 0.462006003 0.275970012
0.887328982 0.472930998 0.293976009
0.267609000 0.375977010 0.178039998
0.269257009 0.376067996 0.177612007
0.275848001 0.376587003 0.175780997
0.288848996 0.377411008 0.171905994
0.308441013 0.378601015 0.165770993
0.334228992 0.380035013 0.156982005
0.364502013 0.380309999 0.144379005
0.402527004 0.383850008 0.130463004
0.454192996 0.398162991 0.126647994
0.514069021 0.418213010 0.141204998
0.574432015 0.437133998 0.164948002
0.632965028 0.454010010 0.188292995
0.689575016 0.469359994 0.211609006
0.743622005 0.483063012 0.234070003
0.795044005 0.495209008 0.255248994
0.843200982 0.505797982 0.275115997
0.887573004 0.514496028 0.293121010
0.309082001 0.449860007 0.218048006
0.310425013 0.449950993 0.217590004
0.315948009 0.450347990 0.216124997
0.326965004 0.451141000 0.212981999
0.343719006 0.452271014 0.208191007
0.366272002 0.453644007 0.201202005
0.394286990 0.455199987 0.192017004
0.425994992 0.455626994 0.179504007
0.464935005 0.459289998 0.165160999
0.515929997 0.472472996 0.159180000
0.574432015 0.490601003 0.170287997
0.633056998 0.507293999 0.190796003
0.689635992 0.521880984 0.212402001
0.743682981 0.534210026 0.234008998
0.795073986 0.544739008 0.254700005
0.843414009 0.553375006 0.274291992
0.887755990 0.560059011 0.292297006
0.350677013 0.524963021 0.258331001
0.351745993 0.525023997 0.257964998
0.356384009 0.525421023 0.256621987
0.365752995 0.526122987 0.254088998
0.380432010 0.527190983 0.250030994
0.400330007 0.528533995 0.244353995
0.425292999 0.530059993 0.236663997
0.455047995 0.531768978 0.227081001
0.487976015 0.532378972 0.214965999
0.527190983 0.535674989 0.200499997
0.577117980 0.547272027 0.192413002
0.633331001 0.562622011 0.199828997
0.689606011 0.576416016 0.216461003
0.743744016 0.587952018 0.235930994
0.795135021 0.597075999 0.255401999
0.843596995 0.604156017 0.274260998
0.888091981 0.608856022 0.291869998
0.391815007 0.599731028 0.298676014
0.392609000 0.599822998 0.298339993
0.396605998 0.600188971 0.297118992
0.404662997 0.600830019 0.294708014
0.417450011 0.601836979 0.291321009
0.434998006 0.603057981 0.286469012
0.457275003 0.604614019 0.280120999
0.484070003 0.606231987 0.271973014
0.515106022 0.608031988 0.262176991
0.549224973 0.608916998 0.250092000
0.588593006 0.611846983 0.235992000
0.636932015 0.621429026 0.225739002
0.690398991 0.633117974 0.228820994
0.743834972 0.643311024 0.241668999
0.795288026 0.651549995 0.258881003
0.843719006 0.657317996 0.275940001
0.888213992 0.660187006 0.292389005
0.431975991 0.673247993 0.338501006
0.432678014 0.673278987 0.338257015
0.436127007 0.673736989 0.337128013
0.442992985 0.674346983 0.334868997
0.454131991 0.675171018 0.331757009
0.469695985 0.676392019 0.327636987
0.489562988 0.677825987 0.322234988
0.513701975 0.679443002 0.315337986
0.542023003 0.681244016 0.306946009
0.574065983 0.683104992 0.296875000
0.609221995 0.684356987 0.284851015
0.648499012 0.686797976 0.270873994
0.695038021 0.693726003 0.258850008
0.744872987 0.700896978 0.257019013
0.795349002 0.707489014 0.266326994
0.843810976 0.712158024 0.280548006
0.888244987 0.713653982 0.295013011
0.470580995 0.744567990 0.377532989
0.471251994 0.744567990 0.377258003
0.474213004 0.744994998 0.376159996
0.480194002 0.745666981 0.374237001
0.489867985 0.746490002 0.371215999
0.503632009 0.747619987 0.367493004
0.521515012 0.748932004 0.362854004
0.543273985 0.750518978 0.356902987
0.568970025 0.752349973 0.349608988
0.598389030 0.754149973 0.340880990
0.631317019 0.756012022 0.330626994
0.667388976 0.757721007 0.318695009
0.706726015 0.759459972 0.304962009
0.750762999 0.763122976 0.290894002
0.796814024 0.765564024 0.283813000
0.844025016 0.768341005 0.290039003
0.888366997 0.768706977 0.300933987
0.507323980 0.812804997 0.415039003
0.507965028 0.812865973 0.414824992
0.510559022 0.813080013 0.413848996
0.515807986 0.813660026 0.411987007
0.524291992 0.814484000 0.409240991
0.536346018 0.815460026 0.405761987
0.552307010 0.816711009 0.401459008
0.572052002 0.818328977 0.396270990
0.595367014 0.820007026 0.389954001
0.622283995 0.821807981 0.382355005
0.652740002 0.823669016 0.373322010
0.686339974 0.825684011 0.362884998
0.723145008 0.827515006 0.351074010
0.762633979 0.829010010 0.337188989
0.804015994 0.828917980 0.321319997
0.845825016 0.826476991 0.309235007
0.888916016 0.824799001 0.312072992
0.542052984 0.877349973 0.450744987
0.542632997 0.877349973 0.450592011
0.544861019 0.877593994 0.449737996
0.549468994 0.878021002 0.448119998
0.556976020 0.878784001 0.445526004
0.567627013 0.879822016 0.442139000
0.581848025 0.881103992 0.438232005
0.599669993 0.882476985 0.433562994
0.620940983 0.884002984 0.427978992
0.645537972 0.885773003 0.421294987
0.673461974 0.887664974 0.413390994
0.704559028 0.889708996 0.404204994
0.738799989 0.891663015 0.393646002
0.776305974 0.893676996 0.381653011
0.816284001 0.895142019 0.367798001
0.854218006 0.890807986 0.349976003
0.891052008 0.882690012 0.332549989
0.574127018 0.937041998 0.484100014
0.574615002 0.937224984 0.483886987
0.576690972 0.937530994 0.483184993
0.580871999 0.937865973 0.481658995
0.587463021 0.938598990 0.479461998
0.596831977 0.939575016 0.476256996
0.609497011 0.940703988 0.472411990
0.625518978 0.941955984 0.468169987
0.644867003 0.943481028 0.463104010
0.667357981 0.945159972 0.457123011
0.693023980 0.947052002 0.450195014
0.721771002 0.948943973 0.441924989
0.753692985 0.950775027 0.432648003
0.788513005 0.952849984 0.422057986
0.826476991 0.954802990 0.409729004
0.867065012 0.956299007 0.396239996
0.900817990 0.946991026 0.375945985
0.600525022 0.988892019 0.511840999
0.600830019 0.989014030 0.511536002
0.602630973 0.989135981 0.510742009
0.606414974 0.989562988 0.509491026
0.612366021 0.990112007 0.507385015
0.620880008 0.991057992 0.504517019
0.632111013 0.992065012 0.500732005
0.646637022 0.993377984 0.496704012
0.664246023 0.994843006 0.492065012
0.684937000 0.996367991 0.486755013
0.708588004 0.997924984 0.480376989
0.735260010 0.999450982 0.473114014
0.764953971 1.000000000 0.464751989
0.797455013 1.000000000 0.455047995
0.832916021 1.000000000 0.444061011
0.871338010 1.000000000 0.431151986
0.912476003 1.000000000 0.417053014
0.000000000 0.000000000 0.000000000
0.010345000 0.000000000 0.000000000
0.121002004 0.003448000 0.014496000
0.174683005 0.055785999 0.053619001
0.222106993 0.087371998 0.077820003
0.274749994 0.098846003 0.086181998
0.330779999 0.099518001 0.085114002
0.390044987 0.119202003 0.100037001
0.451233000 0.151611000 0.125976995
0.512450993 0.181610003 0.150390998
0.572692990 0.210723996 0.174438000
0.631470025 0.239043996 0.197936997
0.688140988 0.266083002 0.220763996
0.742096007 0.291655988 0.242461994
0.793426991 0.315674007 0.262908995
0.841736019 0.337769002 0.282074004
0.885955989 0.357665986 0.299438000
0.000000000 0.000000000 0.000000000
0.041687001 0.000000000 0.000000000
0.125000000 0.029967999 0.024750000
0.174805000 0.068359002 0.059875000
0.222504005 0.095154002 0.081573002
0.274749994 0.107207999 0.089630000
0.330962986 0.108733997 0.088287003
0.390320003 0.127075002 0.101746000
0.451323986 0.157226995 0.126770005
0.512450993 0.186066002 0.150543004
0.572784007 0.214478001 0.174316004
0.631500006 0.242156997 0.197815001
0.688080013 0.268768013 0.220550999
0.742096007 0.294097990 0.242248997
0.793518007 0.317719012 0.262755990
0.841705024 0.339722008 0.281830013
0.886047006 0.359497011 0.299315989
0.100983001 0.060577001 0.027161000
0.116028003 0.060973998 0.032104000
0.135498002 0.064758003 0.034882002
0.174683005 0.085876003 0.058623999
0.222595006 0.111327998 0.081055000
0.275085002 0.126892000 0.089599997
0.331054986 0.132873997 0.087554999
0.390410990 0.150207996 0.101256996
0.451384991 0.177001998 0.126372993
0.512543023 0.203338996 0.150330007
0.572754025 0.229797006 0.174133003
0.631438971 0.255768001 0.197540000
0.688262999 0.281035990 0.220397994
0.742249012 0.305054009 0.242126003
0.793640018 0.327636987 0.262755990
0.841643989 0.348632991 0.281830013
0.886017025 0.367615014 0.299315989
0.152161002 0.119507000 0.067322001
0.156951994 0.119811997 0.070983998
0.166351005 0.118652001 0.067932002
0.184203997 0.119354002 0.068115003
0.223663002 0.137299001 0.080719002
0.275481999 0.156554997 0.087890998
0.331696004 0.168518007 0.085937999
0.390839010 0.185974002 0.099518001
0.451781988 0.209351003 0.124968998
0.512878001 0.233002007 0.149323002
0.573119998 0.256866008 0.173247993
0.631744027 0.280487001 0.196807995
0.688476980 0.303528011 0.219726995
0.742523015 0.325500011 0.241668999
0.793640018 0.346251994 0.262237996
0.842010021 0.365601003 0.281464010
0.886138976 0.383087009 0.298981011
0.180847004 0.175842002 0.096161000
0.184814006 0.176025003 0.098540999
0.193634003 0.176300004 0.096344002
0.209380999 0.176177993 0.091797002
0.233582005 0.178039998 0.088988997
0.276946992 0.193329006 0.088440001
0.332275003 0.210540995 0.084076002
0.391570985 0.229308993 0.097565003
0.452331990 0.250519007 0.123412997
0.513306022 0.272094995 0.147797003
0.573455989 0.293610007 0.172028005
0.632049978 0.314788997 0.195801005
0.688781977 0.335357994 0.218871996
0.742797971 0.355071992 0.240752995
0.794036984 0.373596013 0.261444002
0.842284977 0.390807986 0.280730993
0.886475027 0.406342000 0.298370004
0.200103998 0.237822995 0.116760001
0.203704998 0.237976000 0.118438996
0.212677002 0.238434002 0.115966998
0.229614004 0.239348993 0.110962003
0.252685994 0.239226997 0.102539003
0.284485012 0.241881996 0.092407003
0.333191007 0.256287009 0.083801001
0.391936988 0.276398003 0.096557997
0.452850014 0.297118992 0.121886998
0.513763011 0.317382991 0.146271005
0.573853016 0.337188989 0.170592993
0.632416010 0.356415004 0.194580004
0.689055979 0.374817014 0.217682004
0.743041992 0.392181009 0.239806995
0.794281006 0.408446997 0.260558993
0.842742980 0.423339993 0.280028999
0.886870980 0.436675996 0.297668010
0.228943005 0.304839998 0.144867003
0.231749997 0.304931998 0.145781994
0.239960000 0.305602998 0.143889993
0.255309999 0.306365997 0.139252007
0.277862996 0.307617009 0.131652996
0.305786014 0.307891995 0.120788999
0.341796994 0.311066002 0.107422002
0.392821997 0.325805992 0.105590999
0.453033000 0.346619010 0.121918000
0.514190972 0.366851985 0.145905003
0.574158013 0.385589987 0.169646993
0.632721007 0.403351009 0.193389997
0.689330995 0.420044005 0.216582999
0.743286014 0.435333014 0.238738999
0.794616997 0.449431986 0.259644002
0.842987001 0.462188989 0.279143989
0.887268007 0.473114014 0.296813995
0.268036008 0.376038015 0.181670994
0.269989014 0.376129001 0.182098001
0.276825011 0.376587003 0.180450007
0.289673001 0.377411008 0.176818997
0.309082001 0.378693014 0.171082005
0.334656000 0.380035013 0.162627995
0.364807010 0.380371004 0.150726005
0.402617991 0.383911014 0.137908995
0.454192996 0.398193002 0.134307995
0.514129996 0.418303996 0.147888005
0.574401975 0.437195003 0.170562997
0.632934988 0.454070985 0.193237007
0.689484000 0.469390988 0.215850994
0.743561029 0.483092993 0.237731993
0.794951975 0.495209008 0.258574992
0.843169987 0.505828977 0.278167993
0.887573004 0.514648020 0.295897990
0.309448004 0.449768007 0.221038997
0.310912997 0.449921012 0.221038997
0.316588998 0.450347990 0.219726995
0.327515006 0.451110989 0.216887996
0.344238013 0.452300996 0.212157995
0.366699010 0.453644007 0.205353007
0.394591987 0.455291986 0.196410999
0.426178008 0.455597013 0.184325993
0.464873999 0.459197998 0.170624003
0.516052008 0.472534001 0.165069997
0.574463010 0.490662009 0.175689995
0.632996023 0.507354975 0.195435002
0.689575016 0.521880984 0.216704994
0.743651986 0.534210026 0.237639993
0.795073986 0.544739008 0.257964998
0.843445003 0.553406000 0.277373999
0.887786984 0.560150027 0.295165986
0.350951999 0.524901986 0.261016995
0.352111995 0.525023997 0.260863990
0.356873006 0.525421023 0.259705007
0.366272002 0.526062012 0.257111013
0.380858988 0.527130008 0.253235012
0.400635004 0.528473020 0.247589007
0.425536990 0.530089974 0.240143001
0.455170006 0.531830013 0.230712995
0.488068014 0.532378972 0.218842000
0.527221978 0.535674989 0.204864994
0.577179015 0.547362983 0.196990997
0.633331001 0.562653005 0.204163000
0.689575016 0.576447010 0.220458999
0.743713021 0.587981999 0.239563003
0.795135021 0.597106993 0.258727998
0.843596995 0.604187012 0.277343988
0.888062000 0.608977973 0.294708014
0.392058998 0.599669993 0.301086009
0.392975003 0.599762022 0.300781012
0.397033989 0.600158989 0.299712986
0.405120999 0.600861013 0.297333002
0.417847008 0.601806998 0.293945014
0.435272008 0.603057981 0.289214998
0.457489014 0.604583979 0.282959014
0.484221995 0.606231987 0.274962991
0.515166998 0.608002007 0.265258998
0.549286008 0.608947992 0.253356993
0.588622987 0.611877024 0.239531994
0.637023985 0.621460021 0.229583994
0.690338016 0.633117974 0.232574001
0.743682981 0.643280029 0.245116994
0.795319021 0.651642025 0.262084991
0.843657970 0.657317996 0.278991997
0.888213992 0.660247982 0.295257986
0.432190001 0.673156977 0.340667993
0.432953000 0.673309028 0.340332001
0.436370999 0.673676014 0.339354992
0.443329006 0.674286008 0.337157995
0.454407007 0.675171018 0.334075987
0.469909996 0.676392019 0.329986989
0.489776999 0.677856028 0.324553996
0.513885021 0.679382026 0.317687988
0.542114019 0.681182981 0.309417993
0.574127018 0.683044016 0.299438000
0.609252989 0.684387028 0.287598014
0.648621023 0.686797976 0.273956001
0.695128977 0.693755984 0.262023985
0.744872987 0.700896978 0.260284007
0.795379996 0.707520008 0.269409001
0.843810976 0.712219000 0.283538997
0.888213992 0.713593006 0.297791004
0.470885992 0.744629025 0.379456013
0.471558005 0.744719982 0.379150003
0.474579006 0.744994998 0.378174007
0.480560005 0.745575011 0.376282007
0.490173012 0.746367991 0.373290986
0.503875971 0.747619987 0.369536996
0.521697998 0.748932004 0.364928991
0.543456972 0.750365973 0.359008998
0.569091976 0.752197027 0.351745993
0.598510981 0.754059017 0.343048006
0.631408989 0.756012022 0.332946986
0.667450011 0.757721007 0.321166992
0.706786990 0.759398997 0.307556003
0.750732005 0.763031006 0.293792993
0.796814024 0.765564024 0.286774009
0.843994021 0.768311024 0.292786002
0.888396978 0.768737972 0.303772002
0.507659972 0.812775016 0.416747987
0.508208990 0.812835991 0.416503996
0.510833979 0.813049018 0.415648997
0.516112983 0.813660026 0.413879007
0.524505973 0.814484000 0.411101997
0.536559999 0.815460026 0.407593012
0.552520990 0.816742003 0.403380990
0.572234988 0.818328977 0.398162991
0.595520020 0.820007026 0.391846001
0.622406006 0.821838021 0.384308010
0.652740002 0.823700011 0.375396997
0.686339974 0.825684011 0.365081996
0.723205984 0.827515006 0.353271008
0.762633979 0.829010010 0.339599997
0.804077029 0.828857005 0.323700011
0.845885992 0.826507986 0.311829001
0.888916016 0.824859977 0.314606011
0.542357981 0.877258003 0.452362001
0.542815983 0.877349973 0.452118009
0.545104980 0.877533019 0.451323986
0.549866021 0.877991021 0.449768007
0.557219982 0.878814995 0.447205007
0.567870975 0.879791021 0.443816990
0.581969976 0.881042004 0.439850003
0.599792004 0.882416010 0.435211003
0.621062994 0.884002984 0.429657012
0.645659983 0.885773003 0.422973990
0.673523009 0.887664974 0.415131003
0.704650998 0.889708996 0.406035990
0.738922000 0.891663015 0.395476997
0.776337028 0.893737972 0.383574992
0.816284001 0.895202994 0.369964987
0.854278982 0.890807986 0.352295011
0.890990973 0.882690012 0.334899992
0.574432015 0.937041998 0.485565007
0.574828982 0.937164009 0.485352010
0.576996028 0.937407970 0.484679997
0.581085026 0.937804997 0.483184993
0.587677002 0.938567996 0.480926991
0.597136974 0.939544976 0.477721989
0.609740973 0.940703988 0.473906994
0.625640988 0.941955984 0.469574004
0.644989014 0.943419993 0.464661002
0.667479992 0.945159972 0.458831996
0.693114996 0.947052002 0.451813012
0.721984982 0.949005008 0.443726003
0.753784001 0.950775027 0.434356987
0.788543999 0.952849984 0.423767000
0.826507986 0.954802990 0.411590993
0.867096007 0.956237972 0.397888005
0.900909007 0.947082996 0.378082007
0.600768983 0.988952994 0.513062000
0.601135015 0.988982975 0.512878001
0.603026986 0.989075005 0.512328982
0.606719971 0.989531994 0.510985970
0.612549007 0.990172982 0.508759022
0.621033013 0.991057992 0.505768001
0.632416010 0.992065012 0.502258003
0.646637022 0.993255973 0.497925013
0.664336979 0.994781017 0.493317008
0.685059011 0.996367991 0.488189995
0.708527029 0.997924984 0.481689006
0.735291004 0.999450982 0.474548012
0.765044987 1.000000000 0.466309011
0.797577024 1.000000000 0.456573009
0.832976997 1.000000000 0.445679009
0.871245980 1.000000000 0.432953000
0.912505984 1.000000000 0.418976009
0.105071999 0.033996999 0.063141003
0.113280997 0.033904999 0.063110001
0.138123006 0.036651999 0.068176001
0.173920006 0.058777001 0.078491002
0.221680000 0.086975001 0.097686999
0.274536014 0.099212997 0.110381998
0.330536008 0.099914998 0.115234002
0.389954001 0.119507000 0.129120007
0.451141000 0.151855007 0.150665000
0.512328982 0.181793004 0.172088996
0.572601020 0.210998997 0.193847999
0.631317019 0.239226997 0.215393007
0.687927008 0.266295999 0.236511007
0.742065012 0.291779011 0.256592005
0.793395996 0.315703988 0.275848001
0.841583014 0.337830007 0.293700993
0.885833979 0.357757986 0.310059011
0.106903002 0.042389002 0.064269997
0.120636001 0.046356000 0.063721001
0.140411004 0.051146999 0.068970002
0.174254999 0.069061004 0.080902003
0.221832007 0.095275998 0.100493997
0.274536014 0.108002000 0.113190003
0.330565989 0.109771997 0.117675997
0.389831990 0.127868995 0.130829006
0.450958014 0.157897994 0.151611000
0.512176991 0.186615005 0.172759995
0.572510004 0.214935005 0.194183007
0.631195009 0.242614999 0.215485007
0.687897027 0.269196004 0.236542001
0.741882026 0.294402987 0.256713986
0.793335021 0.318053991 0.275878996
0.841674984 0.340027004 0.293823004
0.885895014 0.359802008 0.310180992
0.119629003 0.071563996 0.068878002
0.128631994 0.071594000 0.069091998
0.142853007 0.072967999 0.071563996
0.180389002 0.087677002 0.082213998
0.233642995 0.108612001 0.098328002
0.287292004 0.114868000 0.102417000
0.342132986 0.118927002 0.103485003
0.399841011 0.137756005 0.116668999
0.459289998 0.165160999 0.137908995
0.519348025 0.192656994 0.159759998
0.578643978 0.220032007 0.182190001
0.636627018 0.247008994 0.204497993
0.692687988 0.273101985 0.226471007
0.746307015 0.297973990 0.247711003
0.797272027 0.321442008 0.267731011
0.845336974 0.343079001 0.286529988
0.889312983 0.362823009 0.303710997
0.151336998 0.118835002 0.086883999
0.156737998 0.118835002 0.088653997
0.162964001 0.120177999 0.085814998
0.182219997 0.119202003 0.081573002
0.227356002 0.135681003 0.091430999
0.282806009 0.150207996 0.095611997
0.340393007 0.159851000 0.096252002
0.399414003 0.176880002 0.110229000
0.459838986 0.200103998 0.133361995
0.520264030 0.223968998 0.156128004
0.579773009 0.248229995 0.179198995
0.637755990 0.272368997 0.202208996
0.693908989 0.296021014 0.224579006
0.747497976 0.318603992 0.246062994
0.798461974 0.340056986 0.266326994
0.846436024 0.360137999 0.285369992
0.890442014 0.378113002 0.302612007
0.181273997 0.175720006 0.112915002
0.185332999 0.175963998 0.114684999
0.188384995 0.177246004 0.108581997
0.202911004 0.176360995 0.100189000
0.231018007 0.177764997 0.095734000
0.278075993 0.191284001 0.094299003
0.335631996 0.206664994 0.092468001
0.396239996 0.224335000 0.106384002
0.457367003 0.244811997 0.130463004
0.518401980 0.265991002 0.153991997
0.578400016 0.287414998 0.177521005
0.636810005 0.308746010 0.200836003
0.693268001 0.329558998 0.223480001
0.747253001 0.349579006 0.245086998
0.798247993 0.368469000 0.265594006
0.846252024 0.386139005 0.284698009
