public/lut/107.cube
TITLE "17x17x17 Adobe/IRIDAS cube 3D LUT exported with GrossGrade v0.2.2 (beta) 64 bit"
DOMAIN_MIN 0 0 0
DOMAIN_MAX 1 1 1
LUT_3D_SIZE 5
0.000000000 0.000000000 0.000000000
0.222046003 0.087371998 0.072356999
0.451202005 0.151489004 0.119048998
0.688080013 0.266021997 0.216949001
0.885924995 0.357665986 0.296905994
0.180664003 0.175842002 0.091918997
0.233367994 0.177917004 0.078735001
0.452484012 0.250030994 0.114684999
0.688872993 0.335296988 0.214721993
0.886627018 0.406250000 0.295592993
0.309082001 0.449860007 0.218048006
0.343719006 0.452271014 0.208191007
0.464935005 0.459289998 0.165160999
0.689635992 0.521880984 0.212402001
0.887755990 0.560059011 0.292297006
0.470580995 0.744567990 0.377532989
0.489867985 0.746490002 0.371215999
0.568970025 0.752349973 0.349608988
0.706726015 0.759459972 0.304962009
0.888366997 0.768706977 0.300933987
0.600525022 0.988892019 0.511840999
0.612366021 0.990112007 0.507385015
0.664246023 0.994843006 0.492065012
0.764953971 1.000000000 0.464751989
0.912476003 1.000000000 0.417053014
0.171082005 0.105469003 0.162902996
0.231383994 0.104156002 0.172516003
0.449310005 0.154785007 0.234496996
0.687286019 0.267517000 0.303223014
0.885497987 0.358521014 0.359833002
0.196686000 0.182616994 0.175262004
0.228363007 0.176330999 0.172424003
0.477905005 0.208434999 0.195923001
0.717284977 0.299041986 0.262237996
0.910889030 0.382050008 0.330352992
0.323455989 0.447723001 0.292266995
0.321319997 0.451842993 0.252411008
0.455565989 0.455291986 0.190399006
0.699065983 0.509612978 0.235016003
0.904388011 0.548065007 0.314453006
0.480408013 0.743317008 0.428833008
0.478271008 0.746674001 0.397002995
0.556151986 0.753937006 0.364989996
0.704346001 0.759856999 0.317566007
0.892700016 0.764648020 0.314850003
0.607819021 0.987945974 0.548156977
0.617065012 0.989471018 0.536590993
0.670593023 0.994414985 0.525817990
0.768646002 1.000000000 0.501067996
0.914551020 1.000000000 0.458801001
0.279601991 0.225310996 0.400359988
0.318848014 0.228790000 0.409087986
0.449523985 0.233612001 0.438995004
0.675994992 0.281859994 0.507445991
0.880187988 0.365539998 0.541930974
0.301604986 0.289763987 0.403869987
0.327544987 0.285522014 0.450011998
0.472534001 0.275054991 0.474487007
0.701476991 0.306457996 0.515227973
0.903961003 0.385558993 0.539000988
0.385010004 0.455109000 0.446258992
0.390929997 0.457001001 0.449950993
0.461151004 0.451263011 0.445313007
0.710753977 0.493651986 0.489807010
0.944335997 0.580200016 0.560698986
0.536682010 0.734435976 0.585479975
0.535034001 0.737304986 0.575562000
0.545531988 0.748871028 0.529510021
0.682312012 0.745360970 0.466309011
0.918640018 0.770385981 0.490752995
0.649260998 0.981598020 0.682708979
0.655457020 0.983336985 0.674773991
0.717224002 0.991424978 0.682587028
0.811218023 1.000000000 0.690491021
0.928680003 1.000000000 0.667603016
0.424438000 0.380035013 0.691864014
0.447723001 0.382506996 0.696716011
0.534331977 0.390778005 0.716643989
0.678375006 0.398131996 0.751160026
0.856598020 0.398865014 0.774138987
0.438353986 0.422973990 0.694275022
0.459991008 0.422973990 0.746948004
0.552520990 0.427460015 0.767822027
0.697722971 0.423797995 0.785309017
0.875182986 0.415984988 0.790466011
0.498077005 0.561309993 0.710693002
0.503021002 0.559051991 0.726166010
0.603851020 0.598572016 0.794556022
0.743651986 0.609344006 0.830963016
0.918731987 0.587158024 0.838715017
0.599976003 0.752686024 0.768463016
0.603699028 0.754669011 0.772095025
0.641327024 0.770232975 0.796630979
0.776794016 0.804229975 0.821654975
0.910278022 0.823273003 0.855408013
0.720763981 0.973021984 0.862823009
0.728729010 0.974030018 0.861359000
0.784851015 0.980286002 0.872802973
0.883911014 0.991180003 0.911377013
0.957427979 1.000000000 0.921752989
0.489654988 0.450470001 0.933745980
0.507385015 0.452271014 0.937134027
0.575195014 0.459441990 0.951263011
0.691466987 0.469788015 0.979034007
0.851624012 0.475861013 1.000000000
0.500702024 0.484252989 0.934783995
0.515594006 0.481658995 0.936859012
0.583800972 0.491515994 0.951080024
0.697205007 0.501495004 0.979034007
0.855651975 0.507416010 1.000000000
0.547272027 0.602416992 0.940460026
0.559418023 0.600952029 0.941771984
0.652710021 0.644257009 0.955048025
0.751861989 0.668182015 0.981383979
0.881958008 0.673340023 1.000000000
0.637115002 0.776703000 0.964172006
0.646728992 0.776642025 0.964294016
0.717926025 0.799987972 0.970305979
0.842315972 0.862182975 0.987335026
0.930419981 0.883789003 1.000000000
0.746825993 0.980286002 1.000000000
0.755096018 0.981078982 1.000000000
0.807739019 0.985473990 1.000000000
0.899932981 0.995148003 1.000000000
0.974304020 1.000000000 1.000000000
