public/lut/108.cube
TITLE "17x17x17 Adobe/IRIDAS cube 3D LUT exported with GrossGrade v0.2.2 (beta) 64 bit"
DOMAIN_MIN 0 0 0
DOMAIN_MAX 1 1 1
LUT_3D_SIZE 5
0.015778000 0.032349002 0.017364999
0.087860003 0.000000000 0.000000000
0.163848996 0.000000000 0.000000000
0.327086985 0.000000000 0.000000000
0.624054015 0.000000000 0.000000000
0.000000000 0.114136003 0.000000000
0.098724000 0.123474002 0.000000000
0.323089987 0.142333999 0.000000000
0.538695991 0.161773995 0.000000000
0.753509998 0.185637996 0.000000000
0.000000000 0.243895993 0.000000000
0.118927002 0.270691007 0.000000000
0.410156012 0.309356987 0.000000000
0.680664003 0.353637993 0.000000000
0.880645990 0.408142000 0.000000000
0.000000000 0.442474008 0.000000000
0.120238997 0.439087003 0.000000000
0.424591005 0.502686024 0.000000000
0.705932975 0.517180979 0.000000000
0.935150027 0.576964974 0.000000000
0.000000000 0.692932010 0.000000000
0.127379999 0.674713016 0.000000000
0.401885986 0.762115002 0.000000000
0.695708990 0.765166998 0.000000000
0.927917004 0.775146008 0.000000000
0.002563000 0.007477000 0.087615997
0.100555003 0.000000000 0.097778000
0.257750988 0.000000000 0.108368002
0.459075987 0.000000000 0.115997002
0.677825987 0.000000000 0.085326999
0.000000000 0.106017999 0.063354000
0.096863002 0.132598996 0.089599997
0.333739996 0.151732996 0.101166002
0.554320991 0.179443002 0.118256003
0.711364985 0.182219997 0.101195998
0.000000000 0.249786004 0.050964002
0.109343998 0.275207996 0.069214001
0.399780005 0.353058010 0.113525003
0.658813000 0.412445009 0.139892995
0.864807010 0.445556998 0.198424995
0.000000000 0.444550008 0.039032001
0.123322003 0.425781012 0.033112001
0.428406000 0.521088004 0.095550999
0.708710015 0.553252995 0.137328997
0.910521984 0.628081977 0.222534001
0.000000000 0.685546994 0.034302000
0.130706996 0.671051025 0.020111000
0.446776986 0.689361989 0.021698000
0.708281994 0.769257009 0.114868000
0.954742014 0.786773980 0.077026002
0.000000000 0.000000000 0.163360998
0.095977999 0.000000000 0.247620001
0.326873988 0.000000000 0.303223014
0.560913026 0.000000000 0.386200011
0.790039003 0.000000000 0.387481987
0.000000000 0.105347000 0.226165995
0.102966003 0.135681003 0.304749012
0.360291004 0.170715004 0.356139988
0.598021984 0.195709005 0.373322010
0.794005990 0.218200997 0.380463004
0.000000000 0.264495999 0.256500006
0.094054997 0.316985995 0.326233000
0.367888987 0.409729004 0.404785007
0.641846001 0.430359006 0.424926996
0.865508974 0.461975008 0.452118009
0.000000000 0.458312988 0.254364014
0.110045999 0.484557986 0.286377013
0.385895014 0.541289985 0.359467000
0.675781012 0.636107981 0.458007991
0.914672971 0.703400016 0.471648991
0.000000000 0.717254996 0.228851005
0.119048998 0.696411014 0.242859006
0.452971995 0.704070985 0.247681007
0.689361989 0.817200005 0.463348001
0.947539985 0.855804026 0.513580024
0.000000000 0.000000000 0.380371004
0.108643003 0.000000000 0.442687988
0.334015012 0.000000000 0.562653005
0.609252989 0.000000000 0.554046988
0.791809022 0.000214000 0.634734988
0.000000000 0.115447998 0.433623999
0.090178996 0.130248994 0.479308993
0.363555998 0.188782007 0.595916986
0.622528017 0.217712000 0.577697992
0.797393978 0.240234002 0.604065001
0.000000000 0.286285013 0.537598014
0.093079001 0.326263011 0.564484000
0.387816995 0.411864996 0.633331001
0.662872016 0.450684011 0.671570003
0.881255984 0.495543987 0.669250011
0.000000000 0.478424013 0.544739008
0.116057999 0.499083996 0.577301025
0.401244998 0.585479975 0.647095025
0.639038026 0.677277029 0.689758003
0.905242980 0.684296012 0.724853992
0.000000000 0.727234006 0.542479992
0.099945001 0.709015012 0.554168999
0.425781012 0.773681998 0.608612001
0.690246999 0.839874029 0.671051025
0.922973990 0.908996999 0.710205019
0.000000000 0.000000000 0.650940001
0.072967999 0.000000000 0.678435981
0.312285990 0.000000000 0.800049007
0.599547982 0.000000000 0.793488026
0.853302002 0.038635001 0.799408019
0.000000000 0.130034998 0.653137028
0.055481002 0.129760996 0.654815972
0.313782007 0.172545999 0.774384022
0.574127018 0.235107005 0.778687000
0.823517025 0.268523991 0.778931022
0.000000000 0.319855005 0.769867003
0.064056002 0.343169987 0.736724973
0.348816007 0.399138987 0.773070991
0.657898009 0.467438012 0.851013005
0.889739990 0.523437977 0.849547982
0.000000000 0.513885021 0.803040028
0.126067996 0.525237978 0.798035026
0.418915004 0.590117991 0.833800972
0.693877995 0.660125971 0.884827018
0.908294976 0.695922971 0.906463981
0.000000000 0.749695003 0.818390012
0.168457001 0.749237001 0.817229986
0.428986013 0.787627995 0.846283019
0.697722971 0.858582020 0.901947021
0.935211003 0.931029975 0.940186024
