public/lut/108.cube
TITLE "17x17x17 Adobe/IRIDAS cube 3D LUT exported with GrossGrade v0.2.2 (beta) 64 bit"
DOMAIN_MIN 0 0 0
DOMAIN_MAX 1 1 1
LUT_3D_SIZE 17
0.015778000 0.032349002 0.017364999
0.038970999 0.021484001 0.011139000
0.058104999 0.008270000 0.004150000
0.074309997 0.000000000 0.000000000
0.087860003 0.000000000 0.000000000
0.102692001 0.000000000 0.000000000
0.119292997 0.000000000 0.000000000
0.139617994 0.000000000 0.000000000
0.163848996 0.000000000 0.000000000
0.193969995 0.000000000 0.000000000
0.229369998 0.000000000 0.000000000
0.272888005 0.000000000 0.000000000
0.327086985 0.000000000 0.000000000
0.391723990 0.000000000 0.000000000
0.465178996 0.000000000 0.000000000
0.543914974 0.000000000 0.000000000
0.624054015 0.000000000 0.000000000
0.001099000 0.051330999 0.001923000
0.028137000 0.048583999 0.000305000
0.051178001 0.046356000 0.000000000
0.071716003 0.041320998 0.000000000
0.088500999 0.035186999 0.000000000
0.102692001 0.002563000 0.000000000
0.118529998 0.000000000 0.000000000
0.138091996 0.000000000 0.000000000
0.163085997 0.000000000 0.000000000
0.192931995 0.000000000 0.000000000
0.228423998 0.000000000 0.000000000
0.272368997 0.000000000 0.000000000
0.326415986 0.000000000 0.000000000
0.391723990 0.000000000 0.000000000
0.465485007 0.000000000 0.000000000
0.544434011 0.000000000 0.000000000
0.624512017 0.000000000 0.000000000
0.000000000 0.072936997 0.000000000
0.018005000 0.072388001 0.000000000
0.042877000 0.070464998 0.000000000
0.066832997 0.068787001 0.000000000
0.090576001 0.066253997 0.000000000
0.116820998 0.061554000 0.000000000
0.145508006 0.056823999 0.000000000
0.174988002 0.053771999 0.000000000
0.203826994 0.051208001 0.000000000
0.232452005 0.047791000 0.000000000
0.263947010 0.044952001 0.000000000
0.302307010 0.042998999 0.000000000
0.349761993 0.042389002 0.000000000
0.407440007 0.043945000 0.000000000
0.475463986 0.048797999 0.000000000
0.551117003 0.057647999 0.000000000
0.629729986 0.069762997 0.000000000
0.000000000 0.094146997 0.000000000
0.000000000 0.094146997 0.000000000
0.032958999 0.093566999 0.000000000
0.063873000 0.094146997 0.000000000
0.094116002 0.094939999 0.000000000
0.131531000 0.096404999 0.000000000
0.175109997 0.097992003 0.000000000
0.222626001 0.099701002 0.000000000
0.270904988 0.101837002 0.000000000
0.317261010 0.104004003 0.000000000
0.361999989 0.105926998 0.000000000
0.406493992 0.107910000 0.000000000
0.452636987 0.110198997 0.000000000
0.502228022 0.113280997 0.000000000
0.557250977 0.117339998 0.000000000
0.618682981 0.122893997 0.000000000
0.685211003 0.130401999 0.000000000
0.000000000 0.114136003 0.000000000
0.000000000 0.114136003 0.000000000
0.025635000 0.114990003 0.000000000
0.062743999 0.118927002 0.000000000
0.098724000 0.123474002 0.000000000
0.143799007 0.128234997 0.000000000
0.198058993 0.132721007 0.000000000
0.259032995 0.137268007 0.000000000
0.323089987 0.142333999 0.000000000
0.384552002 0.147490993 0.000000000
0.440246999 0.152527004 0.000000000
0.490783989 0.157317996 0.000000000
0.538695991 0.161773995 0.000000000
0.586822987 0.166656002 0.000000000
0.638000011 0.172119007 0.000000000
0.693419993 0.178252995 0.000000000
0.753509998 0.185637996 0.000000000
0.000000000 0.134978995 0.000000000
0.000000000 0.134978995 0.000000000
0.018433001 0.137511998 0.000000000
0.063354000 0.145630002 0.000000000
0.104584001 0.154387996 0.000000000
0.155640006 0.162567005 0.000000000
0.216156006 0.170410007 0.000000000
0.284148991 0.177886993 0.000000000
0.356476009 0.185546994 0.000000000
0.426910013 0.193146005 0.000000000
0.490355998 0.200531006 0.000000000
0.545867980 0.207275003 0.000000000
0.595275998 0.213776007 0.000000000
0.642395020 0.220367000 0.000000000
0.691559017 0.227264002 0.000000000
0.745208979 0.234741002 0.000000000
0.803771973 0.242553994 0.000000000
0.000000000 0.164245993 0.000000000
0.000000000 0.164214998 0.000000000
0.012817000 0.165832996 0.000000000
0.064117000 0.177794993 0.000000000
0.111542001 0.190185994 0.000000000
0.167969003 0.200439006 0.000000000
0.232512996 0.209534004 0.000000000
0.303252995 0.218903005 0.000000000
0.378325999 0.228637993 0.000000000
0.453002989 0.238312006 0.000000000
0.521820009 0.247498006 0.000000000
0.582153022 0.256316990 0.000000000
0.634398997 0.264984012 0.000000000
0.681244016 0.273773015 0.000000000
0.727356017 0.282683998 0.000000000
0.777648985 0.291534007 0.000000000
0.833893001 0.299591005 0.000000000
0.000000000 0.201262996 0.000000000
0.000000000 0.201385006 0.000000000
0.007385000 0.201477006 0.000000000
0.063538000 0.214232996 0.000000000
0.116729997 0.229644999 0.000000000
0.178832993 0.241210997 0.000000000
0.248199001 0.250122011 0.000000000
0.320679009 0.259368986 0.000000000
0.395172000 0.269591987 0.000000000
0.470061988 0.280243009 0.000000000
0.541382015 0.290679991 0.000000000
0.605956972 0.301178008 0.000000000
0.662231028 0.312011987 0.000000000
0.711090028 0.323211998 0.000000000
0.756408989 0.334778011 0.000000000
0.803771973 0.346008003 0.000000000
0.857146978 0.355316013 0.000000000
0.000000000 0.243895993 0.000000000
0.000000000 0.243957996 0.000000000
0.003754000 0.242676005 0.000000000
0.062286001 0.253113002 0.000000000
0.118927002 0.270691007 0.000000000
0.186004996 0.284363002 0.000000000
0.260589987 0.292632997 0.000000000
0.336151004 0.300200999 0.000000000
0.410156012 0.309356987 0.000000000
0.483153999 0.319640994 0.000000000
0.554320991 0.330321997 0.000000000
0.621002018 0.341553003 0.000000000
0.680664003 0.353637993 0.000000000
0.732940972 0.367035002 0.000000000
0.780333996 0.381561011 0.000000000
0.827971995 0.395965993 0.000000000
0.880645990 0.408142000 0.000000000
0.000000000 0.289581001 0.000000000
0.000000000 0.289642006 0.000000000
0.001373000 0.287414998 0.000000000
0.060547002 0.293365002 0.000000000
0.119171001 0.311646014 0.000000000
0.188416004 0.328429997 0.000000000
0.266936988 0.337646008 0.000000000
0.346801996 0.343383998 0.000000000
0.422668010 0.350432992 0.000000000
0.494536996 0.359192014 0.000000000
0.564270020 0.368896008 0.000000000
0.630737007 0.379272014 0.000000000
0.691955984 0.391387999 0.000000000
0.746948004 0.406006008 0.000000000
0.797393978 0.423186988 0.000000000
0.847442985 0.441132009 0.000000000
0.901549995 0.456542999 0.000000000
0.000000000 0.337646008 0.000000000
0.000000000 0.337799013 0.000000000
0.000000000 0.334717005 0.000000000
0.059386998 0.335601985 0.000000000
0.118744001 0.352295011 0.000000000
0.188262999 0.372893989 0.000000000
0.267486989 0.385315001 0.000000000
0.350189000 0.390594006 0.000000000
0.429504007 0.395110995 0.000000000
0.503081977 0.401793987 0.000000000
0.572112978 0.409606993 0.000000000
0.637633979 0.418242991 0.000000000
0.699036002 0.428588986 0.000000000
0.755614996 0.442595989 0.000000000
0.808655024 0.461151004 0.000000000
0.860992014 0.482055992 0.000000000
0.916411996 0.500365973 0.000000000
0.000000000 0.388458014 0.000000000
0.000000000 0.388641000 0.000000000
0.000000000 0.384644002 0.000000000
0.058867998 0.381011993 0.000000000
0.118927002 0.394165009 0.000000000
0.187438995 0.417510986 0.000000000
0.265044987 0.435454994 0.000000000
0.347595006 0.442809999 0.000000000
0.429412991 0.445740014 0.000000000
0.506348014 0.449829012 0.000000000
0.577086985 0.455565989 0.000000000
0.642455995 0.461944997 0.000000000
0.703643978 0.469482005 0.000000000
0.761047006 0.480834991 0.000000000
0.816101015 0.498259991 0.000000000
0.870422006 0.520020008 0.000000000
0.926666021 0.540314019 0.000000000
0.000000000 0.442474008 0.000000000
0.000000000 0.442719012 0.000000000
0.001770000 0.437500000 0.000000000
0.060089000 0.431091011 0.000000000
0.120238997 0.439087003 0.000000000
0.187804997 0.462646008 0.000000000
0.262634009 0.486847013 0.000000000
0.342772990 0.499419987 0.000000000
0.424591005 0.502686024 0.000000000
0.504059017 0.504607975 0.000000000
0.577789009 0.508179009 0.000000000
0.644713998 0.512450993 0.000000000
0.705932975 0.517180979 0.000000000
0.763549984 0.524689019 0.000000000
0.820098996 0.538055003 0.000000000
0.876861989 0.557097971 0.000000000
0.935150027 0.576964974 0.000000000
0.000000000 0.499664009 0.000000000
0.000000000 0.499877989 0.000000000
0.006500000 0.493622005 0.000000000
0.062560998 0.486084014 0.000000000
0.122405998 0.488707989 0.000000000
0.189758003 0.509307981 0.000000000
0.261871010 0.538177013 0.000000000
0.338501006 0.558166981 0.000000000
0.418181986 0.564666986 0.000000000
0.497925013 0.565307975 0.000000000
0.574158013 0.566619992 0.000000000
0.643706977 0.569335997 0.000000000
0.705627024 0.572234988 0.000000000
0.763184011 0.576476991 0.000000000
0.820586979 0.584380984 0.000000000
0.879424989 0.597015023 0.000000000
0.940002024 0.612609982 0.000000000
0.000000000 0.560393989 0.000000000
0.000000000 0.560608029 0.000000000
0.011932000 0.553557992 0.000000000
0.065002002 0.546356022 0.000000000
0.125121996 0.544463992 0.000000000
0.192871004 0.559081972 0.000000000
0.263123006 0.589447021 0.000000000
0.335631996 0.617156982 0.000000000
0.411682010 0.629424989 0.000000000
0.489867985 0.630370975 0.000000000
0.567139030 0.629577994 0.000000000
0.639557004 0.630614996 0.000000000
0.703827024 0.633056998 0.000000000
0.760985970 0.635742009 0.000000000
0.817505002 0.639770985 0.000000000
0.877106011 0.646027029 0.000000000
0.939270020 0.654846013 0.000000000
0.000000000 0.624359012 0.000000000
0.000000000 0.624450982 0.000000000
0.017333999 0.617187977 0.000000000
0.067534998 0.610840023 0.000000000
0.127593994 0.606505990 0.000000000
0.196410999 0.613922000 0.000000000
0.265778005 0.641265988 0.000000000
0.334289998 0.674926996 0.000000000
0.406067014 0.694885015 0.000000000
0.482055992 0.698364019 0.000000000
0.559174001 0.695922971 0.000000000
0.633179009 0.695221007 0.000000000
0.699981987 0.697234988 0.000000000
0.758391976 0.700438976 0.000000000
0.813416004 0.703369021 0.000000000
0.871887028 0.706116021 0.000000000
0.933838010 0.709960997 0.000000000
0.000000000 0.692932010 0.000000000
0.000000000 0.691314995 0.000000000
0.022766000 0.684937000 0.000000000
0.067962997 0.679565012 0.000000000
0.127379999 0.674713016 0.000000000
0.197387993 0.676422000 0.000000000
0.267302990 0.698822021 0.000000000
0.333617985 0.735046029 0.000000000
0.401885986 0.762115002 0.000000000
0.475829989 0.769348025 0.000000000
0.552338004 0.766234994 0.000000000
0.627135992 0.764129996 0.000000000
0.695708990 0.765166998 0.000000000
0.755554020 0.768218994 0.000000000
0.811583996 0.771880984 0.000000000
0.868041992 0.774200022 0.000000000
0.927917004 0.775146008 0.000000000
0.014191000 0.027710000 0.037505999
0.038176998 0.019897001 0.036621001
0.058777001 0.007538000 0.032074001
0.077271000 0.000000000 0.028778000
0.091095001 0.000000000 0.023406999
0.102783002 0.000000000 0.002533000
0.118652001 0.000000000 0.000000000
0.138977006 0.000000000 0.000000000
0.163727000 0.000000000 0.000000000
0.192993000 0.000000000 0.000000000
0.228485003 0.000000000 0.000000000
0.272460997 0.000000000 0.000000000
0.326507986 0.000000000 0.000000000
0.391295999 0.000000000 0.000000000
0.465117991 0.000000000 0.000000000
0.543883979 0.000000000 0.000000000
0.624023020 0.000000000 0.000000000
0.001831000 0.049316000 0.027404999
0.028137000 0.048583999 0.027344000
0.051116999 0.045012999 0.025726000
0.072388001 0.039917000 0.023314999
0.090271004 0.034453999 0.020324999
0.102783002 0.002380000 0.000977000
0.118469000 0.000000000 0.000000000
0.138031006 0.000000000 0.000000000
0.162536994 0.000000000 0.000000000
0.192351997 0.000000000 0.000000000
0.228027001 0.000000000 0.000000000
0.272064000 0.000000000 0.000000000
0.326355010 0.000000000 0.000000000
0.391265988 0.000000000 0.000000000
0.465117991 0.000000000 0.000000000
0.544128001 0.000000000 0.000000000
0.624237001 0.000000000 0.000000000
0.000000000 0.070952997 0.017212000
0.018005000 0.071410999 0.017151000
0.042877000 0.069916002 0.015686000
0.067322001 0.068236999 0.012756000
0.091003001 0.066161998 0.000153000
0.116272002 0.061156999 0.000000000
0.144775003 0.056304999 0.000000000
0.174713001 0.054047000 0.000000000
0.203125000 0.050873000 0.000000000
0.231903002 0.047791000 0.000000000
0.263579994 0.044952001 0.000000000
0.302094012 0.043060001 0.000000000
0.349640012 0.042541999 0.000000000
0.407409996 0.043945000 0.000000000
0.475403011 0.048920002 0.000000000
0.550872982 0.057677999 0.000000000
0.629700005 0.069762997 0.000000000
0.000000000 0.094025001 0.000000000
0.000000000 0.094025001 0.000000000
0.032867000 0.093535997 0.000000000
0.063873000 0.094146997 0.000000000
0.094116002 0.094939999 0.000000000
0.131469995 0.096404999 0.000000000
0.175079003 0.097992003 0.000000000
0.222321004 0.099486999 0.000000000
0.270599008 0.101837002 0.000000000
0.317139000 0.104004003 0.000000000
0.361815989 0.105926998 0.000000000
0.406403005 0.107726999 0.000000000
0.452666998 0.110198997 0.000000000
0.502288997 0.113219999 0.000000000
0.557525992 0.117339998 0.000000000
0.618957996 0.122955002 0.000000000
0.685576975 0.130401999 0.000000000
0.000000000 0.114136003 0.000000000
0.000000000 0.114136003 0.000000000
0.025635000 0.114990003 0.000000000
0.062743999 0.118927002 0.000000000
0.098724000 0.123474002 0.000000000
0.143799007 0.128204003 0.000000000
0.198028997 0.132689998 0.000000000
0.259155005 0.137268007 0.000000000
0.323119998 0.142333999 0.000000000
0.384337991 0.147490993 0.000000000
0.440246999 0.152527004 0.000000000
0.490783989 0.157226995 0.000000000
0.538757026 0.161773995 0.000000000
0.586944997 0.166626006 0.000000000
0.638336003 0.172179997 0.000000000
0.694031000 0.178406000 0.000000000
0.754211009 0.185669005 0.000000000
0.000000000 0.135193005 0.000000000
0.000000000 0.134978995 0.000000000
0.018433001 0.137511998 0.000000000
0.063354000 0.145630002 0.000000000
0.104675002 0.154358000 0.000000000
0.155640006 0.162567005 0.000000000
0.216064006 0.170258000 0.000000000
0.284209996 0.177855998 0.000000000
0.356597990 0.185546994 0.000000000
0.427031994 0.193146005 0.000000000
0.490417004 0.200378001 0.000000000
0.545807004 0.207213998 0.000000000
0.595367014 0.213653997 0.000000000
0.642548025 0.220214993 0.000000000
0.691802979 0.227264002 0.000000000
0.745604992 0.234741002 0.000000000
0.804413021 0.242614999 0.000000000
0.000000000 0.164245993 0.000000000
0.000000000 0.164214998 0.000000000
0.012817000 0.165832996 0.000000000
0.064117000 0.177794993 0.000000000
0.111542001 0.190185994 0.000000000
0.167846993 0.200133994 0.000000000
0.232299998 0.209411994 0.000000000
0.303375006 0.218903005 0.000000000
0.378479004 0.228577003 0.000000000
0.453125000 0.238159001 0.000000000
0.521911979 0.247374997 0.000000000
0.582213998 0.256316990 0.000000000
0.634491026 0.264892995 0.000000000
0.681244016 0.273681998 0.000000000
0.727447987 0.282561988 0.000000000
0.777801991 0.291442990 0.000000000
0.834197998 0.299591005 0.000000000
0.000000000 0.201385006 0.000000000
0.000000000 0.201385006 0.000000000
0.007385000 0.201477006 0.000000000
0.063538000 0.214232996 0.000000000
0.116547003 0.229736000 0.000000000
0.178832993 0.241118997 0.000000000
0.248046994 0.249969006 0.000000000
0.320556998 0.259216011 0.000000000
0.395264000 0.269591987 0.000000000
0.470153987 0.280211985 0.000000000
0.541504025 0.290648997 0.000000000
0.606049001 0.301117003 0.000000000
0.662322998 0.311859012 0.000000000
0.711121023 0.322968006 0.000000000
0.756531000 0.334686011 0.000000000
0.803893983 0.345885992 0.000000000
0.857361019 0.355316013 0.000000000
0.000000000 0.243895993 0.000000000
0.000000000 0.243957996 0.000000000
0.003754000 0.242767006 0.000000000
0.062286001 0.253295988 0.000000000
0.118835002 0.270720989 0.000000000
0.185944006 0.284363002 0.000000000
0.260497987 0.292602986 0.000000000
0.336120993 0.300170988 0.000000000
0.410126001 0.309235007 0.000000000
0.483215004 0.319611013 0.000000000
0.554413021 0.330199987 0.000000000
0.621093988 0.341369987 0.000000000
0.680724978 0.353455007 0.000000000
0.732971013 0.366851985 0.000000000
0.780395985 0.381408989 0.000000000
0.828002989 0.395873994 0.000000000
0.880797982 0.408019990 0.000000000
0.000000000 0.289581001 0.000000000
0.000000000 0.289673001 0.000000000
0.001373000 0.287506014 0.000000000
0.060547002 0.293518007 0.000000000
0.119171001 0.311767995 0.000000000
0.188416004 0.328491002 0.000000000
0.266936988 0.337554991 0.000000000
0.346619010 0.343261987 0.000000000
0.422576994 0.350311011 0.000000000
0.494507015 0.359070003 0.000000000
0.564177990 0.368683010 0.000000000
0.630675972 0.379058987 0.000000000
0.691955984 0.391144007 0.000000000
0.746978998 0.405761987 0.000000000
0.797515988 0.423034996 0.000000000
0.847534001 0.440948009 0.000000000
0.901732981 0.456360012 0.000000000
0.000000000 0.337769002 0.000000000
0.000000000 0.337830007 0.000000000
0.000000000 0.334717005 0.000000000
0.059386998 0.335601985 0.000000000
0.118804999 0.352508992 0.000000000
0.188262999 0.373077005 0.000000000
0.267426014 0.385315001 0.000000000
0.349976003 0.390502989 0.000000000
0.429351985 0.395049989 0.000000000
0.502929986 0.401672006 0.000000000
0.572021008 0.409514993 0.000000000
0.637573004 0.417937994 0.000000000
0.699036002 0.428252995 0.000000000
0.755645990 0.442290992 0.000000000
0.808776975 0.460907012 0.000000000
0.861083984 0.481873006 0.000000000
0.916625977 0.500182986 0.000000000
0.000000000 0.388518989 0.000000000
0.000000000 0.388763011 0.000000000
0.000000000 0.384734988 0.000000000
0.058867998 0.381134003 0.000000000
0.118896000 0.394439995 0.000000000
0.187438995 0.417786002 0.000000000
0.264923006 0.435608000 0.000000000
0.347443014 0.442748994 0.000000000
0.429230005 0.445648015 0.000000000
0.506165028 0.449737996 0.000000000
0.576964974 0.455536008 0.000000000
0.642395020 0.461760998 0.000000000
0.703612983 0.469177008 0.000000000
0.761047006 0.480529994 0.000000000
0.816161990 0.497954994 0.000000000
0.870453000 0.519806027 0.000000000
0.926849008 0.540161014 0.000000000
0.000000000 0.442566007 0.000000000
0.000000000 0.442719012 0.000000000
0.001770000 0.437530994 0.000000000
0.060089000 0.431183010 0.000000000
0.120117001 0.439301014 0.000000000
0.187744007 0.463104010 0.000000000
0.262481987 0.487183005 0.000000000
0.342590004 0.499511987 0.000000000
0.424407989 0.502655029 0.000000000
0.503906012 0.504607975 0.000000000
0.577759027 0.508148015 0.000000000
0.644622982 0.512421012 0.000000000
0.705841005 0.517059028 0.000000000
0.763489008 0.524474978 0.000000000
0.820098996 0.537720025 0.000000000
0.876923025 0.556854010 0.000000000
0.935211003 0.576752007 0.001343000
0.000000000 0.499877989 0.000000000
0.000000000 0.499969006 0.000000000
0.006500000 0.493712991 0.000000000
0.062560998 0.486205995 0.000000000
0.122374997 0.488922000 0.000000000
0.189636007 0.509734988 0.000000000
0.261718988 0.538818002 0.000000000
0.338286996 0.558593988 0.000000000
0.418029994 0.564788997 0.000000000
0.497803003 0.565307975 0.000000000
0.574096978 0.566649973 0.000000000
0.643616021 0.569275022 0.000000000
0.705443978 0.572296023 0.000000000
0.762969971 0.576447010 0.000000000
0.820434988 0.584258974 0.000000000
0.879669011 0.596924007 0.000549000
0.940246999 0.612456977 0.011230000
0.000000000 0.560486019 0.000000000
0.000000000 0.560729980 0.000000000
0.011932000 0.553680003 0.000000000
0.064940996 0.546387017 0.000000000
0.125061005 0.544556022 0.000000000
0.192718998 0.559539974 0.000000000
0.262787014 0.590240002 0.000000000
0.335236013 0.617981017 0.000000000
0.411377013 0.629912972 0.000000000
0.489746004 0.630523980 0.000000000
0.567077994 0.629547000 0.000000000
0.639526010 0.630614996 0.000000000
0.703857005 0.632965028 0.000000000
0.761078000 0.635650992 0.000000000
0.817809999 0.639557004 0.002625000
0.878966987 0.645781994 0.011932000
0.940948009 0.654937983 0.020691000
0.000000000 0.624390006 0.000000000
0.000000000 0.624602973 0.000000000
0.017302999 0.617218018 0.000000000
0.067534998 0.610930979 0.000000000
0.127410993 0.606598020 0.000000000
0.196410999 0.614166021 0.000000000
0.265563995 0.641692996 0.000000000
0.333983988 0.675293028 0.000000000
0.405883998 0.695190012 0.000000000
0.481994987 0.698302984 0.000000000
0.559020996 0.695312977 0.000580000
0.633301020 0.694031000 0.000061000
0.701385021 0.695068002 0.000061000
0.762176991 0.697722971 0.000000000
0.818145990 0.701141000 0.000000000
0.876038015 0.705200016 0.004486000
0.937317014 0.709685981 0.013702000
0.000000000 0.692169011 0.002960000
0.000000000 0.690491021 0.002960000
0.022857999 0.684234977 0.000061000
0.068512000 0.678924978 0.000000000
0.128234997 0.674286008 0.000000000
0.198822007 0.674468994 0.000000000
0.271331996 0.691192985 0.000000000
0.339446992 0.723052979 0.000000000
0.406158000 0.752166986 0.000000000
0.476898015 0.764922976 0.000000000
0.551819026 0.764862001 0.000000000
0.626830995 0.762512028 0.000000000
0.697327018 0.762206972 0.000000000
0.760132015 0.764403999 0.000000000
0.817902029 0.768494010 0.000000000
0.874023020 0.771911979 0.000092000
0.932677984 0.774078012 0.006104000
0.010345000 0.021484001 0.060883000
0.036559999 0.016022000 0.060242001
0.057587001 0.005219000 0.056334998
0.078583002 0.000000000 0.053679999
0.095977999 0.000000000 0.049988002
0.113738999 0.000000000 0.045531999
0.135253996 0.000000000 0.040924001
0.159424007 0.000000000 0.036621001
0.186462000 0.000000000 0.032439999
0.215911999 0.000000000 0.027984999
0.248932004 0.000000000 0.023254000
0.288848996 0.000000000 0.018828999
0.339264005 0.000000000 0.014984000
0.401793987 0.000000000 0.011444000
0.474395990 0.000000000 0.008270000
0.550994992 0.000000000 0.009033000
0.627898991 0.000000000 0.013123000
0.001099000 0.046599999 0.049224999
0.028778000 0.045837000 0.050507002
0.051757999 0.042174999 0.049835000
0.075011998 0.038146999 0.048401002
0.095673002 0.032928001 0.047699001
0.113617003 0.001831000 0.044555999
0.134064004 0.000000000 0.040130999
0.158295006 0.000000000 0.035889000
0.185516000 0.000000000 0.032074001
0.214629993 0.000000000 0.027588001
0.248016000 0.000000000 0.022826999
0.288208008 0.000000000 0.018371999
0.339203000 0.000000000 0.014984000
0.401733011 0.000000000 0.011444000
0.474700987 0.000000000 0.008270000
0.551482975 0.000000000 0.009033000
0.628570974 0.000000000 0.013123000
0.000000000 0.067382999 0.037749998
0.018828999 0.067870997 0.039246000
0.042969000 0.066803001 0.040038999
0.068908997 0.065094002 0.039917000
0.095946997 0.062866002 0.037262000
0.124939002 0.058104999 0.034271002
0.156128004 0.053863999 0.031463999
0.189025998 0.051543999 0.028839000
0.219359994 0.049072001 0.026215000
0.246460006 0.047028001 0.023254000
0.274536014 0.044525001 0.020416001
0.309601009 0.042663999 0.017700000
0.354492009 0.041260000 0.014984000
0.410064995 0.041443001 0.012970000
0.477782995 0.045380000 0.011749000
0.553101003 0.055206001 0.012482000
0.631133974 0.069214001 0.015869001
0.000000000 0.089599997 0.026062001
0.000000000 0.089599997 0.026123000
0.032958999 0.091858000 0.027434999
0.064575002 0.092987001 0.027313000
0.097075999 0.094299003 0.026764000
0.135284007 0.095154002 0.025420999
0.179839998 0.097167999 0.023712000
0.228545994 0.099212997 0.021880999
0.277801991 0.102081001 0.020111000
0.324066013 0.105163999 0.018738000
0.366881996 0.107787997 0.017333999
0.407867014 0.109954998 0.016602000
0.449126989 0.111815996 0.015625000
0.493957996 0.114105001 0.015137000
0.546234012 0.116974004 0.015137000
0.607604980 0.122040004 0.016510000
0.675689995 0.129059002 0.019226000
0.000000000 0.110625997 0.016571000
0.000000000 0.110625997 0.016479000
0.024932999 0.115143001 0.017151000
0.062622003 0.120392002 0.017700000
0.099518001 0.125732005 0.018250000
0.144805998 0.130248994 0.018127000
0.198699996 0.134490997 0.017456001
0.259918004 0.139160007 0.016083000
0.324310005 0.144501001 0.015381000
0.386566013 0.150177002 0.015289000
0.442535013 0.155608997 0.015289000
0.491912991 0.160309002 0.015869001
0.536437988 0.164398000 0.016449001
0.579590023 0.168243006 0.017302999
0.625580013 0.172271997 0.018616000
0.677398980 0.176909998 0.021240000
