public/lut/109.cube
TITLE "17x17x17 Adobe/IRIDAS cube 3D LUT exported with GrossGrade v0.2.2 (beta) 64 bit"
DOMAIN_MIN 0 0 0
DOMAIN_MAX 1 1 1
LUT_3D_SIZE 17
0.037078999 0.037078999 0.037078999
0.040130999 0.010712000 0.010712000
0.050597999 0.000000000 0.000000000
0.080200002 0.000000000 0.000000000
0.122222997 0.000000000 0.000000000
0.166045994 0.000000000 0.000000000
0.209594995 0.000000000 0.000000000
0.254027992 0.000000000 0.000000000
0.300446004 0.000000000 0.000000000
0.349335015 0.000000000 0.000000000
0.401946992 0.000000000 0.000000000
0.457091987 0.000000000 0.000000000
0.512755990 0.000000000 0.000000000
0.576752007 0.000000000 0.000000000
0.670867980 0.000000000 0.000000000
0.782531977 0.000000000 0.000000000
0.898406982 0.000000000 0.000000000
0.000000000 0.038543999 0.000061000
0.042022999 0.037505999 0.000000000
0.052154999 0.039641999 0.000000000
0.078429997 0.019470001 0.000000000
0.120209001 0.000000000 0.000000000
0.164856002 0.000000000 0.000000000
0.208710000 0.000000000 0.000000000
0.253814995 0.000000000 0.000000000
0.300110012 0.000000000 0.000000000
0.348877013 0.000000000 0.000000000
0.401488990 0.000000000 0.000000000
0.456786990 0.000000000 0.000000000
0.512481987 0.000000000 0.000000000
0.576447010 0.000000000 0.000000000
0.670226991 0.000000000 0.000000000
0.782012999 0.000000000 0.000000000
0.897736013 0.000000000 0.000000000
0.000000000 0.048462000 0.000000000
0.000153000 0.048492000 0.000000000
0.068389997 0.048645001 0.000000000
0.092864998 0.054993000 0.000000000
0.124664001 0.062775001 0.000000000
0.164428994 0.076355003 0.000000000
0.205779999 0.065398999 0.000000000
0.250853986 0.003937000 0.000000000
0.298065007 0.000000000 0.000000000
0.347443014 0.000000000 0.000000000
0.400330007 0.000000000 0.000000000
0.455657989 0.000000000 0.000000000
0.511353016 0.000000000 0.000000000
0.575195014 0.000000000 0.000000000
0.668518007 0.000000000 0.000000000
0.780028999 0.000000000 0.000000000
0.895905018 0.000000000 0.000000000
0.000000000 0.085205004 0.000000000
0.000000000 0.084778003 0.000000000
0.095245004 0.080077998 0.000000000
0.124633998 0.082824998 0.000000000
0.147735998 0.093291998 0.000000000
0.179352000 0.105774000 0.000000000
0.217254996 0.113403000 0.000000000
0.257568002 0.110870004 0.000000000
0.299834996 0.112182997 0.000000000
0.345001012 0.113922000 0.000000000
0.395873994 0.073669001 0.000000000
0.452971995 0.000000000 0.000000000
0.509124994 0.000000000 0.000000000
0.572632015 0.000000000 0.000000000
0.664856017 0.000000000 0.000000000
0.776215017 0.000000000 0.000000000
0.892090023 0.000000000 0.000000000
0.000000000 0.138153002 0.000000000
0.000000000 0.137542993 0.000000000
0.001862000 0.135468006 0.000000000
0.125092000 0.132935002 0.000000000
0.174316004 0.135406002 0.000000000
0.201446995 0.142395005 0.000000000
0.236846998 0.148894995 0.000000000
0.276367009 0.156676993 0.000000000
0.316864014 0.165527001 0.000000000
0.360137999 0.172454998 0.000000000
0.406982005 0.169556007 0.000000000
0.456786990 0.153687000 0.000000000
0.507598996 0.145538002 0.000000000
0.566681027 0.130585000 0.000000000
0.657745004 0.013794000 0.000000000
0.769500971 0.000000000 0.000000000
0.885924995 0.000000000 0.000000000
0.000000000 0.187561005 0.000000000
0.000000000 0.187378004 0.000000000
0.000000000 0.186615005 0.000000000
0.133544996 0.183837995 0.000000000
0.195068002 0.181548998 0.000000000
0.224976003 0.183594003 0.000000000
0.259644002 0.187775001 0.000000000
0.296142995 0.192047000 0.000000000
0.337249994 0.196715996 0.000000000
0.381682992 0.201874003 0.000000000
0.428252995 0.208710000 0.000000000
0.475890994 0.217957005 0.000000000
0.523468018 0.228851005 0.000000000
0.578612983 0.229552999 0.000000000
0.663146973 0.181395993 0.000000000
0.768921018 0.118285999 0.000000000
0.878174007 0.093506001 0.000000000
0.000000000 0.230407998 0.000000000
0.000000000 0.230407998 0.000000000
0.000000000 0.229706004 0.000000000
0.026764000 0.228210002 0.000000000
0.186157003 0.225005999 0.000000000
0.250793010 0.223358005 0.000000000
0.282653987 0.225372002 0.000000000
0.317077994 0.229583994 0.000000000
0.356049001 0.234070003 0.000000000
0.400512993 0.238220006 0.000000000
0.447753996 0.242064998 0.000000000
0.496306986 0.246032998 0.000000000
0.545073986 0.250762999 0.000000000
0.599395990 0.255279988 0.000000000
0.679931998 0.255432010 0.000000000
0.789520025 0.244507000 0.000000000
0.900452018 0.224396005 0.000000000
0.000000000 0.275391012 0.000000000
0.000000000 0.275115997 0.000000000
0.000000000 0.274596989 0.000000000
0.000000000 0.273651004 0.000000000
0.165680006 0.270660013 0.000000000
0.269897014 0.267273009 0.000000000
0.302917004 0.265868992 0.000000000
0.339020014 0.267791986 0.000000000
0.376495004 0.272186011 0.000000000
0.418213010 0.276459008 0.000000000
0.464569002 0.280090004 0.000000000
0.513366997 0.283600003 0.000000000
0.563416004 0.287108988 0.000000000
0.616729975 0.290008992 0.000000000
0.690551996 0.286224008 0.000000000
0.807860970 0.270202994 0.000000000
0.926849008 0.250824004 0.000000000
0.000000000 0.325316995 0.000000000
0.000000000 0.325103998 0.000000000
0.000000000 0.324553996 0.000000000
0.000000000 0.323424995 0.000000000
0.100005999 0.321319997 0.000000000
0.264403999 0.317108005 0.000000000
0.322968006 0.313048989 0.000000000
0.358245999 0.311583996 0.000000000
0.398285002 0.313598990 0.000000000
0.438201994 0.317840993 0.000000000
0.481353998 0.321898997 0.000000000
0.528625011 0.325073004 0.000000000
0.578827024 0.327789009 0.000000000
0.628966987 0.330139011 0.000000000
0.690856993 0.328978986 0.000000000
0.813750982 0.313843012 0.000000000
0.938995004 0.296204001 0.000000000
0.000000000 0.380401999 0.000000000
0.000000000 0.380127013 0.000000000
0.000000000 0.379577994 0.000000000
0.000000000 0.378448009 0.000000000
0.029967999 0.376861989 0.000000000
0.220489994 0.373138011 0.000000000
0.328339010 0.368286014 0.000000000
0.375396997 0.364380002 0.000000000
0.417998999 0.362518013 0.000000000
0.459381014 0.363647014 0.000000000
0.500304997 0.367004007 0.000000000
0.544434011 0.369994998 0.000000000
0.592559993 0.371917993 0.000000000
0.638671994 0.374022990 0.000000000
0.686096013 0.376892000 0.000000000
0.810944021 0.362976015 0.000000000
0.940216005 0.346587986 0.000000000
0.000000000 0.441040009 0.000000000
0.000000000 0.440917999 0.000000000
0.000000000 0.440337986 0.000000000
0.000000000 0.439209014 0.000000000
0.000000000 0.437592000 0.000000000
0.146331996 0.435088992 0.000000000
0.313629001 0.430083990 0.000000000
0.392944008 0.424499989 0.000000000
0.432280988 0.419494987 0.000000000
0.477416992 0.415955007 0.000000000
0.519989014 0.415497005 0.000000000
0.562012017 0.417389005 0.000000000
0.606231987 0.418853998 0.000000000
0.648041010 0.420807004 0.000000000
0.683288991 0.426604986 0.000000000
0.798370004 0.415955007 0.000000000
0.930724978 0.400664985 0.000000000
0.000000000 0.504639030 0.000000000
0.000000000 0.504455984 0.000000000
0.000000000 0.503906012 0.000000000
0.000000000 0.502776980 0.000000000
0.000000000 0.501250982 0.000000000
0.078552000 0.499083996 0.000000000
0.276977986 0.494414985 0.000000000
0.392334014 0.487700999 0.000000000
0.442932010 0.480621010 0.000000000
0.489165992 0.474059999 0.000000000
0.535064995 0.469238013 0.000000000
0.578674018 0.467438012 0.000000000
0.620666981 0.467864990 0.000000000
0.656921029 0.469788015 0.000000000
0.685608029 0.477081001 0.000000000
0.778900027 0.472321004 0.000000000
0.913146973 0.457794011 0.000000000
0.000000000 0.569031000 0.000000000
0.000000000 0.568786979 0.000000000
0.000000000 0.568268001 0.000000000
0.000000000 0.567229986 0.000000000
0.000000000 0.565581977 0.000000000
0.063141003 0.563385010 0.000000000
0.208739996 0.560516000 0.000000000
0.359008998 0.553924978 0.000000000
0.455565989 0.544708014 0.000000000
0.495635986 0.535827994 0.000000000
0.544403017 0.527924001 0.000000000
0.590698004 0.521697998 0.000000000
0.633453012 0.518280029 0.000000000
0.666199028 0.519134998 0.000000000
0.690765023 0.530884027 0.000000000
0.756072998 0.532471001 0.000000000
0.892669976 0.517731011 0.000000000
0.000000000 0.634124994 0.000000000
0.000000000 0.633911014 0.000000000
0.000000000 0.633331001 0.000000000
0.000000000 0.632323980 0.000000000
0.000000000 0.630707026 0.000000000
0.059661999 0.628539979 0.000000000
0.174621999 0.625792980 0.000000000
0.328033000 0.620635986 0.000000000
0.454041004 0.611603022 0.000000000
0.501372993 0.600739002 0.000000000
0.549346983 0.590088010 0.000000000
0.597442985 0.579895020 0.000000000
0.641327024 0.570922971 0.000000000
0.677398980 0.569396973 0.000000000
0.703064024 0.588409007 0.000000000
0.731903017 0.595551014 0.000000000
0.866028011 0.581604004 0.000000000
0.000000000 0.699799001 0.000000000
0.000000000 0.699676991 0.000000000
0.000000000 0.699158013 0.000000000
0.000000000 0.698180974 0.000000000
0.000000000 0.696776986 0.000000000
0.036194000 0.694916010 0.000000000
0.151398003 0.692382991 0.000000000
0.249083996 0.689697027 0.000000000
0.396026999 0.682312012 0.000000000
0.507263005 0.669341981 0.000000000
0.547729015 0.655333996 0.000000000
0.596405029 0.641601980 0.000000000
0.642943978 0.627349973 0.000000000
0.682434022 0.621185005 0.000000000
0.709533989 0.643799007 0.000000000
0.717346013 0.651978016 0.000000000
0.813202024 0.645325005 0.000000000
0.000000000 0.798798025 0.000000000
0.000000000 0.798492014 0.000000000
0.000000000 0.797455013 0.000000000
0.000000000 0.795653999 0.000000000
0.000000000 0.792937994 0.000000000
0.000000000 0.789458990 0.000000000
0.003540000 0.784759998 0.000000000
0.136565998 0.779083014 0.000000000
0.323029011 0.771544993 0.000000000
0.477050990 0.757965028 0.000000000
0.523651004 0.738952994 0.000000000
0.576171994 0.719848990 0.000000000
0.627929986 0.699065983 0.000000000
0.673828006 0.683776975 0.000000000
0.700133979 0.699310005 0.000000000
0.704497993 0.700958014 0.000000000
0.741424978 0.700958014 0.000000000
0.000000000 0.902465999 0.000000000
0.000000000 0.902130008 0.000000000
0.000000000 0.901093006 0.000000000
0.000000000 0.899200022 0.000000000
0.000000000 0.896484017 0.000000000
0.000000000 0.892609000 0.000000000
0.000000000 0.887817025 0.000000000
0.000000000 0.881775022 0.000000000
0.078247003 0.874786019 0.000000000
0.349608988 0.863524973 0.000000000
0.492339998 0.844726980 0.000000000
0.539641976 0.822601020 0.000000000
0.594666004 0.800812006 0.000000000
0.644195974 0.778716981 0.000000000
0.677398980 0.769653022 0.000000000
0.694733024 0.792815983 0.000000000
0.700348020 0.788940012 0.000000000
0.022338999 0.022338999 0.040863000
0.042174999 0.004395000 0.041320998
0.054352000 0.000000000 0.040222000
0.082976997 0.000000000 0.049896002
0.122345001 0.000000000 0.001343000
0.166045994 0.000000000 0.000000000
0.209594995 0.000000000 0.000000000
0.254027992 0.000000000 0.000000000
0.300446004 0.000000000 0.000000000
0.349335015 0.000000000 0.000000000
0.401946992 0.000000000 0.000000000
0.457091987 0.000000000 0.000000000
0.512755990 0.000000000 0.000000000
0.576752007 0.000000000 0.000000000
0.670867980 0.000000000 0.000000000
0.782531977 0.000000000 0.000000000
0.898284972 0.000000000 0.000000000
0.000000000 0.039184999 0.037475999
0.039733998 0.038176998 0.036621001
0.051392000 0.040252998 0.041106999
0.078277998 0.015015000 0.001099000
0.120209001 0.000000000 0.000000000
0.164856002 0.000000000 0.000000000
0.208648995 0.000000000 0.000000000
0.253814995 0.000000000 0.000000000
0.299804986 0.000000000 0.000000000
0.348877013 0.000000000 0.000000000
0.401488990 0.000000000 0.000000000
0.456786990 0.000000000 0.000000000
0.512450993 0.000000000 0.000000000
0.576447010 0.000000000 0.000000000
0.670226991 0.000000000 0.000000000
0.781830013 0.000000000 0.000000000
0.897736013 0.000000000 0.000000000
0.000000000 0.048462000 0.000000000
0.000061000 0.047882002 0.000000000
0.067962997 0.048035000 0.000000000
0.092499003 0.054320998 0.000000000
0.124054000 0.062134001 0.000000000
0.163910002 0.076049998 0.000000000
0.205779999 0.063965000 0.000000000
0.250945985 0.003448000 0.000000000
0.298065007 0.000000000 0.000000000
0.347443014 0.000000000 0.000000000
0.400330007 0.000000000 0.000000000
0.455657989 0.000000000 0.000000000
0.511505008 0.000000000 0.000000000
0.574981987 0.000000000 0.000000000
0.668395996 0.000000000 0.000000000
0.780028999 0.000000000 0.000000000
0.895905018 0.000000000 0.000000000
0.000000000 0.084839001 0.000000000
0.000000000 0.084045000 0.000000000
0.095245004 0.079956003 0.000000000
0.124573000 0.082824998 0.000000000
0.147735998 0.093291998 0.000000000
0.179535002 0.105742998 0.000000000
0.217407003 0.113128997 0.000000000
0.257537991 0.110443003 0.000000000
0.299804986 0.112305000 0.000000000
0.344879001 0.112548999 0.000000000
0.395844012 0.071442001 0.000000000
0.452971995 0.000000000 0.000000000
0.509186029 0.000000000 0.000000000
0.572661996 0.000000000 0.000000000
0.664856017 0.000000000 0.000000000
0.776215017 0.000000000 0.000000000
0.892090023 0.000000000 0.000000000
0.000000000 0.137665004 0.000000000
0.000000000 0.137328997 0.000000000
0.001770000 0.135436997 0.000000000
0.124573000 0.132660002 0.000000000
0.174316004 0.135344997 0.000000000
0.201111004 0.142120004 0.000000000
0.236693993 0.148681998 0.000000000
0.276214987 0.156463996 0.000000000
0.316772014 0.165465996 0.000000000
0.359894007 0.172088996 0.000000000
0.406920999 0.169006005 0.000000000
0.456696004 0.153350994 0.000000000
0.507598996 0.145325005 0.000000000
0.566681027 0.130523995 0.000000000
0.657684028 0.013306000 0.000000000
0.769500971 0.000000000 0.000000000
0.885802984 0.000000000 0.000000000
0.000000000 0.187438995 0.000000000
0.000000000 0.187378004 0.000000000
0.000000000 0.186554000 0.000000000
0.133544996 0.183562994 0.000000000
0.195221007 0.181457996 0.000000000
0.224822998 0.183379993 0.000000000
0.259552002 0.187683001 0.000000000
0.296081990 0.191925004 0.000000000
0.337036014 0.196532995 0.000000000
0.381531000 0.201720998 0.000000000
0.428131014 0.208771005 0.000000000
0.475829989 0.217896000 0.000000000
0.523468018 0.228760004 0.000000000
0.578522027 0.229369998 0.000000000
0.662903011 0.181090996 0.000000000
0.768828988 0.117919996 0.000000000
0.877991021 0.093506001 0.000000000
0.000000000 0.230407998 0.000000000
0.000000000 0.230286002 0.000000000
0.000000000 0.229706004 0.000000000
0.023345999 0.228148997 0.000000000
0.185424998 0.224944994 0.000000000
0.250824004 0.223235995 0.000000000
0.282653987 0.225372002 0.000000000
0.316832989 0.229431003 0.000000000
0.355926991 0.233978003 0.000000000
0.400299013 0.238067999 0.000000000
0.447692990 0.241973996 0.000000000
0.496306986 0.246002004 0.000000000
0.545044005 0.250701994 0.000000000
0.599335015 0.255279988 0.000000000
0.679718018 0.255432010 0.000000000
0.789336979 0.244445994 0.000000000
0.900237978 0.224273995 0.000000000
0.000000000 0.275299013 0.000000000
0.000000000 0.275115997 0.000000000
0.000000000 0.274596989 0.000000000
0.000000000 0.273528993 0.000000000
0.163299993 0.270660013 0.000000000
0.269257009 0.267242014 0.000000000
0.302855998 0.265778005 0.000000000
0.338867009 0.267699987 0.000000000
0.376403987 0.272094995 0.000000000
0.418152004 0.276398003 0.000000000
0.464507997 0.280059993 0.000000000
0.513213992 0.283446997 0.000000000
0.563385010 0.287079006 0.000000000
0.616698980 0.289885998 0.000000000
0.690491021 0.286163002 0.000000000
0.807739019 0.270141989 0.000000000
0.926849008 0.250824004 0.000000000
0.000000000 0.325165004 0.000000000
0.000000000 0.324981987 0.000000000
0.000000000 0.324402004 0.000000000
0.000000000 0.323363990 0.000000000
0.098511003 0.321258992 0.000000000
0.263702005 0.317016989 0.000000000
0.322937012 0.312988013 0.000000000
0.358215004 0.311583996 0.000000000
0.398223996 0.313598990 0.000000000
0.438140988 0.317779988 0.000000000
0.481200993 0.321868986 0.000000000
0.528503001 0.325011998 0.000000000
0.578734994 0.327697992 0.000000000
0.628906012 0.330017000 0.000000000
0.690886974 0.328949004 0.000000000
0.813721001 0.313782007 0.000000000
0.938995004 0.296081990 0.000000000
0.000000000 0.380248994 0.000000000
0.000000000 0.380127013 0.000000000
0.000000000 0.379456013 0.000000000
0.000000000 0.378417999 0.000000000
0.029633000 0.376740009 0.000000000
0.220092997 0.373016000 0.000000000
0.328094006 0.368317008 0.000000000
0.375366002 0.364380002 0.000000000
0.417847008 0.362426996 0.000000000
0.459259003 0.363525003 0.000000000
0.500213981 0.366943002 0.000000000
0.544372976 0.370025992 0.000000000
0.592499018 0.371917993 0.000000000
0.638611019 0.373993009 0.000000000
0.686096013 0.376830995 0.000000000
0.810851991 0.362915009 0.000000000
0.940033019 0.346558005 0.000000000
0.000000000 0.441040009 0.000000000
0.000000000 0.440856993 0.000000000
0.000000000 0.440185994 0.000000000
0.000000000 0.439177990 0.000000000
0.000000000 0.437500000 0.000000000
0.145721003 0.434998006 0.000000000
0.313324004 0.430054009 0.000000000
0.392975003 0.424438000 0.000000000
0.432251006 0.419402987 0.000000000
0.477234006 0.415832996 0.000000000
0.519896984 0.415497005 0.000000000
0.561981022 0.417389005 0.000000000
0.606231987 0.418853998 0.000000000
0.647948980 0.420807004 0.000000000
0.683228016 0.426604986 0.000000000
0.798218012 0.415863007 0.000000000
0.930572987 0.400604010 0.000000000
0.000000000 0.504577994 0.000000000
0.000000000 0.504395008 0.000000000
0.000000000 0.503844976 0.000000000
0.000000000 0.502776980 0.000000000
0.000000000 0.501190007 0.000000000
0.078400001 0.498961985 0.000000000
0.276733011 0.494354010 0.000000000
0.392212003 0.487639993 0.000000000
0.442840993 0.480560005 0.000000000
0.489104986 0.473998994 0.000000000
0.534911990 0.469208002 0.000000000
0.578583002 0.467467993 0.000000000
0.620635986 0.467833996 0.000000000
0.656921029 0.469788015 0.000000000
0.685608029 0.477111995 0.000000000
0.778869987 0.472321004 0.000000000
0.913025022 0.457764000 0.000000000
0.000000000 0.569031000 0.000000000
0.000000000 0.568786979 0.000000000
0.000000000 0.568237007 0.000000000
0.000000000 0.567139030 0.000000000
0.000000000 0.565460026 0.000000000
0.062927000 0.563262999 0.000000000
0.208556995 0.560455024 0.000000000
0.358916998 0.553924978 0.000000000
0.455475003 0.544708014 0.000000000
0.495483011 0.535767019 0.000000000
0.544312000 0.527831972 0.000000000
0.590637028 0.521637022 0.000000000
0.633331001 0.518188000 0.000000000
0.666137993 0.519043028 0.000000000
0.690703988 0.530822992 0.000000000
0.755919993 0.532440007 0.000000000
0.892486989 0.517638981 0.000000000
0.000000000 0.634064019 0.000000000
0.000000000 0.633819997 0.000000000
0.000000000 0.633239985 0.000000000
0.000000000 0.632171988 0.000000000
0.000000000 0.630675972 0.000000000
0.059204001 0.628448009 0.000000000
0.174500003 0.625823975 0.000000000
0.327881008 0.620697021 0.000000000
0.453949004 0.611603022 0.000000000
0.501312017 0.600677013 0.000000000
0.549315989 0.590026975 0.000000000
0.597442985 0.579864979 0.000000000
0.641387999 0.570861995 0.000000000
0.677429020 0.569305003 0.000000000
0.703032970 0.588347971 0.000000000
0.731750011 0.595520020 0.000000000
0.865997016 0.581543028 0.000000000
0.000000000 0.699706972 0.000000000
0.000000000 0.699615002 0.000000000
0.000000000 0.699127018 0.000000000
0.000000000 0.698180974 0.000000000
0.000000000 0.696776986 0.000000000
0.036194000 0.694916010 0.000000000
0.151183993 0.692474008 0.000000000
0.248870999 0.689758003 0.000000000
0.395873994 0.682250977 0.000000000
0.507171988 0.669341981 0.000000000
0.547667980 0.655364990 0.000000000
0.596405029 0.641541004 0.000000000
0.642943978 0.627349973 0.000000000
0.682434022 0.621093988 0.000000000
0.709502995 0.643768013 0.000000000
0.717468023 0.651978016 0.000000000
0.813049018 0.645264030 0.000000000
0.000000000 0.798705995 0.000000000
0.000000000 0.798430979 0.000000000
0.000000000 0.797455013 0.000000000
0.000000000 0.795714974 0.000000000
0.000000000 0.792937994 0.000000000
0.000000000 0.789367974 0.000000000
0.003540000 0.784636974 0.000000000
0.136565998 0.779021978 0.000000000
0.322937012 0.771422982 0.000000000
0.476929009 0.757874012 0.000000000
0.523590028 0.738922000 0.000000000
0.576111019 0.719695985 0.000000000
0.627869010 0.699036002 0.000000000
0.673798025 0.683685005 0.000000000
0.700133979 0.699187994 0.000000000
0.704497993 0.700806022 0.000000000
0.741240978 0.700958014 0.000000000
0.000000000 0.902343988 0.000000000
0.000000000 0.902221978 0.000000000
0.000000000 0.901031017 0.000000000
0.000000000 0.899109006 0.000000000
0.000000000 0.896362007 0.000000000
0.000000000 0.892669976 0.000000000
0.000000000 0.887726009 0.000000000
0.000000000 0.881622016 0.000000000
0.078064002 0.874724984 0.000000000
0.349548012 0.863434017 0.000000000
0.492339998 0.844666004 0.000000000
0.539641976 0.822479010 0.000000000
0.594635010 0.800750971 0.000000000
0.644164979 0.778594971 0.000000000
0.677429020 0.769531012 0.000000000
0.694733024 0.792693973 0.000000000
0.700317025 0.788878977 0.000000000
0.015869001 0.015869001 0.058472000
0.050811999 0.007141000 0.065338001
0.068970002 0.000000000 0.070160002
0.093933001 0.000000000 0.062775001
0.130859002 0.000000000 0.065796003
0.169921994 0.000000000 0.077301003
0.212280005 0.000000000 0.099059999
0.254790992 0.000000000 0.061554000
0.299804986 0.000000000 0.000000000
0.348816007 0.000000000 0.000000000
0.401641995 0.000000000 0.000000000
0.457001001 0.000000000 0.000000000
0.512755990 0.000000000 0.000000000
0.576752007 0.000000000 0.000000000
0.670624018 0.000000000 0.000000000
0.782226980 0.000000000 0.000000000
0.898284972 0.000000000 0.000000000
0.000000000 0.039763998 0.046172999
0.041138001 0.039581001 0.045531999
0.057495002 0.040252998 0.050934002
0.089752004 0.000793000 0.053374998
0.128631994 0.000000000 0.062775001
0.168975994 0.000000000 0.076447003
0.210571006 0.000000000 0.100676998
0.253693014 0.000000000 0.051056001
0.299560994 0.000000000 0.000000000
0.348632991 0.000000000 0.000000000
0.401306003 0.000000000 0.000000000
0.456757009 0.000000000 0.000000000
0.512450993 0.000000000 0.000000000
0.576263011 0.000000000 0.000000000
0.670226991 0.000000000 0.000000000
0.781830013 0.000000000 0.000000000
0.897614002 0.000000000 0.000000000
0.000000000 0.055298001 0.035278000
0.000000000 0.054260001 0.034515001
0.056641001 0.054260001 0.034393001
0.091003001 0.054535002 0.040100001
0.125670999 0.061707001 0.057526000
0.165648997 0.076476999 0.081940003
0.206238002 0.059509002 0.038695998
0.250427008 0.001740000 0.000000000
0.297820985 0.000000000 0.000000000
0.347382009 0.000000000 0.000000000
0.400330007 0.000000000 0.000000000
0.455657989 0.000000000 0.000000000
0.511353016 0.000000000 0.000000000
0.574981987 0.000000000 0.000000000
0.668182015 0.000000000 0.000000000
0.779663026 0.000000000 0.000000000
0.895476997 0.000000000 0.000000000
0.000000000 0.083770998 0.042479999
0.000000000 0.082947001 0.042389002
0.086760998 0.081115998 0.040130999
0.123504996 0.081940003 0.060454998
0.147582993 0.092499003 0.003113000
0.178985998 0.105042003 0.000000000
0.216858000 0.111969002 0.000000000
0.257050008 0.109406002 0.000000000
0.299194008 0.112090997 0.000000000
0.344695985 0.109252997 0.000000000
0.395904988 0.065002002 0.000000000
0.452666998 0.000000000 0.000000000
0.508942008 0.000000000 0.000000000
0.572449028 0.000000000 0.000000000
0.664794981 0.000000000 0.000000000
0.776062012 0.000000000 0.000000000
0.891785026 0.000000000 0.000000000
0.000000000 0.136840999 0.000000000
0.000000000 0.136291996 0.000000000
0.001282000 0.135101005 0.000000000
0.123595998 0.131775007 0.000000000
0.173614994 0.134490997 0.000000000
0.200316995 0.141632006 0.000000000
0.236328006 0.148346007 0.000000000
0.275848001 0.156066999 0.000000000
0.316345006 0.165099993 0.000000000
0.359618992 0.171173006 0.000000000
0.406524986 0.167083994 0.000000000
0.456450999 0.152618006 0.000000000
0.507263005 0.145080999 0.000000000
0.566314995 0.129943997 0.000000000
0.657531977 0.011841000 0.000000000
0.769195974 0.000000000 0.000000000
