public/lut/109.cube
TITLE "17x17x17 Adobe/IRIDAS cube 3D LUT exported with GrossGrade v0.2.2 (beta) 64 bit"
DOMAIN_MIN 0 0 0
DOMAIN_MAX 1 1 1
LUT_3D_SIZE 5
0.037078999 0.037078999 0.037078999
0.122222997 0.000000000 0.000000000
0.300446004 0.000000000 0.000000000
0.512755990 0.000000000 0.000000000
0.898406982 0.000000000 0.000000000
0.000000000 0.138153002 0.000000000
0.174316004 0.135406002 0.000000000
0.316864014 0.165527001 0.000000000
0.507598996 0.145538002 0.000000000
0.885924995 0.000000000 0.000000000
0.000000000 0.325316995 0.000000000
0.100005999 0.321319997 0.000000000
0.398285002 0.313598990 0.000000000
0.578827024 0.327789009 0.000000000
0.938995004 0.296204001 0.000000000
0.000000000 0.569031000 0.000000000
0.000000000 0.565581977 0.000000000
0.455565989 0.544708014 0.000000000
0.633453012 0.518280029 0.000000000
0.892669976 0.517731011 0.000000000
0.000000000 0.902465999 0.000000000
0.000000000 0.896484017 0.000000000
0.078247003 0.874786019 0.000000000
0.594666004 0.800812006 0.000000000
0.700348020 0.788940012 0.000000000
0.021300999 0.021880999 0.133239999
0.164611995 0.000000000 0.166198999
0.310027987 0.000000000 0.164611995
0.515564024 0.000000000 0.180114999
0.896973014 0.000000000 0.000000000
0.000000000 0.147826999 0.085602000
0.164642006 0.144379005 0.102966003
0.314940989 0.163939998 0.128417999
0.508301020 0.144439995 0.137908995
0.884459972 0.000000000 0.000000000
0.000000000 0.323882997 0.004150000
0.077789001 0.319916010 0.000000000
0.396881014 0.312041998 0.000000000
0.577544987 0.326629996 0.000000000
0.936890006 0.295105010 0.000000000
0.000000000 0.567809999 0.000000000
0.000000000 0.564391971 0.000000000
0.454223990 0.543700993 0.000000000
0.632293999 0.517180979 0.000000000
0.890015006 0.516601980 0.000000000
0.000000000 0.900299013 0.000000000
0.000000000 0.894317985 0.000000000
0.074615002 0.872711003 0.000000000
0.593963981 0.798950016 0.000000000
0.700317025 0.786499023 0.000000000
0.024048001 0.025635000 0.288726985
0.184998006 0.000000000 0.318634003
0.385376006 0.000000000 0.390807986
0.570891976 0.000000000 0.358855993
0.961547971 0.000000000 0.320526004
0.000000000 0.187653005 0.327758998
0.191162005 0.182769999 0.326141000
0.374908000 0.181793004 0.365662009
0.556945980 0.130371004 0.342590004
0.942291021 0.000000000 0.310241997
0.000000000 0.369109988 0.299834996
0.000000000 0.364623994 0.295134991
0.403198004 0.353455007 0.309967011
0.592499018 0.347472996 0.315613002
0.967315972 0.293792993 0.271789998
0.000000000 0.582274973 0.294616997
0.000000000 0.578064024 0.297881991
0.428588986 0.565491021 0.270599008
0.627838016 0.525969982 0.210754007
0.893768013 0.515685976 0.050537001
0.000000000 0.892302990 0.000000000
0.000000000 0.886382997 0.000000000
0.063506998 0.864745975 0.000000000
0.591400027 0.791900992 0.000000000
0.700469971 0.777588010 0.255401999
0.063323997 0.064606003 0.492888987
0.249175996 0.042174999 0.514343023
0.412108988 0.000000000 0.608887017
0.665283024 0.000000000 0.669616997
1.000000000 0.000000000 0.613556027
0.000000000 0.246154994 0.526520014
0.231841996 0.241730005 0.523804009
0.395141989 0.238738999 0.592315972
0.653168023 0.119354002 0.658111989
1.000000000 0.000000000 0.600036979
0.000000000 0.426665992 0.620208979
0.000000000 0.422363013 0.617096007
0.412781000 0.406188995 0.606994987
0.641448975 0.379761010 0.596801996
1.000000000 0.305694997 0.587401986
0.000000000 0.638244987 0.536406994
0.000000000 0.634369016 0.532684028
0.425170988 0.617003977 0.517333984
0.630707026 0.580138981 0.524474978
0.925719976 0.549010992 0.508179009
0.000000000 0.908508003 0.463622987
0.000000000 0.902588010 0.459136993
0.208526999 0.881438971 0.442382991
0.613892019 0.815643013 0.372711003
0.707520008 0.774414003 0.602203012
0.000000000 0.000000000 0.891632020
0.256377995 0.000000000 0.913573980
0.419494987 0.000000000 0.999939024
0.695831001 0.000000000 0.999939024
0.999969006 0.000000000 0.999969006
0.000000000 0.237671003 0.917052984
0.207396999 0.226013005 0.915161014
0.401764005 0.238159001 1.000000000
0.685913026 0.059052002 1.000000000
0.999969006 0.000000000 0.999969006
0.000000000 0.427978992 0.999969006
0.000000000 0.424010992 1.000000000
0.408264011 0.412414998 1.000000000
0.661895990 0.405701011 1.000000000
1.000000000 0.355132997 1.000000000
0.000000000 0.666229010 1.000000000
0.000000000 0.663268983 1.000000000
0.411803991 0.642090023 0.965637028
0.605193973 0.626098990 0.975250006
0.927887022 0.589416981 0.936523020
0.000000000 0.941588998 0.749512017
0.000000000 0.935150027 0.743622005
0.157288000 0.910674989 0.722015023
0.587432981 0.848784983 0.664062977
0.718169987 0.767150998 0.704986989
