public/lut/11.cube
TITLE "17x17x17 Adobe/IRIDAS cube 3D LUT exported with GrossGrade v0.2.2 (beta) 64 bit"
DOMAIN_MIN 0 0 0
DOMAIN_MAX 1 1 1
LUT_3D_SIZE 5
0.035486002 0.041758999 0.042516001
0.148112506 0.049669001 0.036471251
0.342655003 0.049327001 0.033119999
0.491970003 0.048466749 0.038246252
0.607878029 0.045462999 0.049669001
0.144200504 0.189451754 0.055560246
0.375244528 0.250158727 0.027797498
0.603113234 0.273495257 0.007886000
0.711779952 0.285999507 0.015968502
0.780358195 0.252296001 0.039231751
0.353910506 0.407509506 0.027206000
0.538915753 0.460831016 0.028585751
0.754230976 0.499122560 0.031149002
0.824894011 0.488512039 0.048258252
0.863024473 0.447787523 0.091658503
0.395600736 0.499857008 0.032923251
0.576912284 0.545218527 0.047930002
0.777549982 0.592305541 0.082505256
0.861971974 0.601165473 0.115103260
0.882393479 0.592968762 0.288669258
0.596795022 0.670351982 0.334921002
0.621287763 0.677688479 0.348580748
0.695868015 0.699640989 0.401954472
0.806345284 0.739291251 0.460883021
0.922932029 0.791510999 0.581104994
0.031740252 0.044188250 0.119313501
0.122973509 0.052181751 0.137618259
0.319088995 0.047068000 0.160286516
0.458568752 0.042887751 0.168798506
0.585306525 0.039429002 0.153649002
0.048812252 0.181540251 0.198253006
0.246199757 0.255734533 0.216408253
0.478982747 0.279933274 0.228039265
0.616441011 0.296848506 0.228489771
0.734789491 0.266973764 0.194291756
0.152193010 0.376193047 0.238667250
0.389541537 0.445605487 0.256100535
0.623349786 0.492914021 0.269443274
0.732745767 0.493387759 0.261639744
0.829182267 0.455919743 0.237253249
0.243717253 0.475477993 0.227428243
0.444451302 0.537072003 0.247254997
0.661770284 0.586672783 0.282204509
0.791134775 0.604607224 0.294325769
0.878129482 0.597642243 0.333563030
0.577602267 0.670623481 0.375101000
0.611411691 0.683366716 0.376817763
0.689602733 0.706057549 0.426629007
0.803201258 0.744615495 0.485045522
0.921857715 0.794561744 0.595225513
0.035091501 0.050008498 0.212773010
0.076338753 0.048292249 0.205783248
0.255974531 0.057129502 0.236685008
0.402229011 0.057436503 0.262033999
0.534618974 0.053973000 0.242532507
0.044186249 0.186932757 0.303887725
0.155397236 0.237274259 0.312761247
0.378685772 0.274426252 0.349346220
0.541648030 0.274359465 0.346888006
0.676266789 0.239605755 0.281919748
0.058357500 0.348050535 0.399629503
0.234562501 0.418365002 0.412759006
0.496735483 0.481656522 0.429170012
0.642389297 0.479412019 0.422854006
0.783848047 0.424080014 0.319841027
0.094149247 0.457491249 0.405701280
0.279502511 0.517193794 0.431427240
0.543625295 0.577563703 0.464535773
0.716986299 0.612733006 0.480309248
0.869857192 0.609659553 0.432512492
0.499303490 0.655565500 0.488294482
0.540568233 0.671064019 0.495587528
0.658423007 0.725378036 0.511541486
0.790046513 0.763090968 0.567094028
0.919553041 0.806728959 0.649624467
0.039429002 0.071972251 0.288264483
0.051985752 0.049497999 0.251311511
0.207907498 0.063809499 0.302453250
0.353854507 0.070528246 0.313151240
0.496931255 0.076406501 0.326153278
0.044554748 0.201281756 0.384645760
0.100483507 0.231706515 0.359704256
0.278194010 0.246246755 0.380493253
0.448453784 0.266479999 0.408170760
0.588134766 0.203065753 0.372693241
0.052674502 0.333001733 0.460842013
0.159129515 0.396149486 0.466132522
0.413372010 0.459890246 0.485228002
0.569766998 0.480865538 0.516496241
0.720670283 0.420794487 0.431358993
0.054295000 0.410799742 0.505505025
0.160961002 0.495797008 0.523871064
0.458125770 0.568969250 0.554286003
0.625470042 0.614673555 0.566566348
0.832018018 0.592087746 0.523277998
0.342470467 0.650241017 0.582460761
0.415019482 0.672477007 0.597744942
0.591886520 0.724373221 0.634033024
0.760253251 0.785305738 0.671113253
0.906661272 0.815218449 0.732390225
0.041758999 0.098728999 0.345423996
0.039429002 0.052181751 0.273281246
0.135754019 0.065924004 0.328521997
0.291539013 0.095087998 0.374733984
0.451288998 0.088290997 0.401917994
0.045462999 0.204297245 0.430612743
0.047062751 0.177818507 0.382295996
0.125405505 0.161080495 0.375555247
0.282265007 0.093837000 0.376892000
0.454721749 0.088729002 0.405448258
0.050683998 0.314369500 0.501945496
0.059091002 0.329682529 0.495641530
0.195082009 0.384613514 0.520209014
0.384158015 0.396899521 0.537395239
0.618960500 0.414219022 0.563786983
0.053651001 0.379181236 0.548228741
0.062495999 0.416088760 0.556752503
0.293862283 0.529312015 0.612824738
0.530588508 0.573418021 0.660067022
0.772078276 0.592256546 0.694327533
0.055567998 0.417062014 0.577879012
0.161949262 0.602079272 0.659630775
0.433990538 0.705502033 0.717152476
0.698101759 0.780388474 0.776573002
0.884117007 0.838935018 0.823212028
