public/lut/11.cube
TITLE "17x17x17 Adobe/IRIDAS cube 3D LUT exported with GrossGrade v0.2.2 (beta) 64 bit"
DOMAIN_MIN 0 0 0
DOMAIN_MAX 1 1 1
LUT_3D_SIZE 17
0.035486002 0.041758999 0.042516001
0.038541436 0.042468689 0.043217253
0.062825620 0.042421374 0.039527502
0.102764636 0.046624061 0.037704062
0.148112506 0.049669001 0.036471251
0.198579311 0.052140437 0.034943562
0.249171764 0.052592624 0.033909000
0.298050106 0.050641999 0.033119999
0.342655003 0.049327001 0.033119999
0.384954244 0.048985001 0.033119999
0.423395246 0.047332000 0.033415876
0.458601564 0.046891998 0.034943562
0.491970003 0.048466749 0.038246252
0.523594797 0.051268816 0.042041194
0.553885221 0.051686000 0.045552753
0.581870854 0.049626246 0.047682814
0.607878029 0.045462999 0.049669001
0.037013687 0.045998689 0.044645872
0.041514810 0.047371563 0.044645872
0.070571996 0.049274877 0.040313378
0.116327390 0.054401815 0.037802689
0.167978689 0.058194064 0.034943499
0.221056193 0.060525373 0.033169311
0.274788320 0.061302565 0.031641565
0.323767632 0.060673375 0.030852625
0.367938370 0.060038187 0.030803312
0.408882111 0.059997626 0.030803312
0.446470648 0.059131250 0.031099189
0.480366439 0.058709562 0.032578249
0.512022138 0.060617127 0.035633691
0.541038811 0.062341817 0.038738694
0.568946898 0.061658245 0.041805819
0.595607519 0.058758620 0.044096630
0.618356347 0.052093688 0.045596313
0.054745123 0.071989000 0.052670248
0.057172380 0.073360182 0.052012250
0.105838999 0.088551126 0.046891998
0.173375502 0.097752690 0.040313374
0.243450373 0.105910249 0.033711500
0.313158810 0.111906007 0.027255375
0.372429609 0.115950003 0.023361625
0.424943030 0.120783500 0.021143813
0.468910635 0.123816758 0.020108374
0.506242871 0.126585752 0.020108374
0.538979113 0.128378496 0.021193124
0.568378985 0.129050136 0.023509499
0.594722033 0.130484372 0.026811501
0.618618488 0.131890863 0.031345628
0.641585648 0.130346999 0.035880256
0.661785781 0.123321056 0.040458318
0.680124342 0.110741504 0.043356627
0.088422820 0.122891895 0.059641875
0.089583687 0.122588888 0.057936940
0.151715577 0.145064563 0.048898187
0.231836140 0.162812948 0.042041183
0.311825842 0.172585949 0.031690497
0.387650847 0.179839075 0.022080500
0.446771771 0.186422184 0.016658435
0.500717342 0.192916647 0.012469435
0.546026051 0.199868709 0.010546873
0.582123041 0.205479696 0.009758687
0.612215340 0.208754748 0.011335686
0.638192356 0.210613191 0.013947936
0.662212908 0.213725954 0.018038936
0.683286428 0.215956450 0.023608131
0.702699184 0.210566312 0.030458817
0.719775140 0.198812053 0.036668506
0.737257004 0.184012577 0.041137438
0.144200504 0.189451754 0.055560246
0.145010948 0.188924879 0.053269185
0.201126263 0.209337622 0.046081871
0.294777155 0.236934558 0.037306871
0.375244528 0.250158727 0.027797498
0.448729932 0.253890991 0.018777812
0.507633030 0.260859489 0.013109874
0.559385657 0.268136382 0.009363936
0.603113234 0.273495257 0.007886000
0.638633847 0.278495789 0.007886000
0.667165518 0.283772886 0.010054000
0.691378355 0.285807759 0.011878001
0.711779952 0.285999507 0.015968502
0.730393529 0.286939204 0.021735445
0.748379230 0.284567267 0.029177133
0.765618503 0.273758113 0.035338003
0.780358195 0.252296001 0.039231751
0.206840068 0.257572234 0.046347689
0.207694873 0.257069200 0.044264004
0.260511696 0.274446309 0.038688190
0.345296890 0.301770210 0.032085251
0.435619205 0.324616760 0.025037499
0.508650720 0.334382623 0.017595250
0.561803937 0.333842814 0.013701499
0.608619809 0.336884916 0.011138624
0.650650978 0.342736006 0.009364188
0.683644354 0.346830636 0.010892374
0.709123313 0.347890407 0.012913188
0.730507851 0.349234730 0.016017875
0.749501765 0.349835545 0.020059252
0.765967190 0.349282682 0.027402882
0.782825112 0.346054107 0.034401320
0.798301816 0.333434612 0.038985442
0.810773790 0.309691757 0.041277125
0.264550030 0.317395270 0.037950248
0.266327322 0.317097217 0.036471814
0.315758526 0.333261758 0.031542871
0.393412918 0.357394993 0.028980186
0.477643877 0.380143046 0.026023000
0.552186310 0.394600898 0.021242689
0.608591437 0.401199013 0.017841501
0.653570175 0.401204824 0.015524812
0.690249383 0.402736783 0.015968626
0.721262574 0.405313462 0.016461752
0.744408131 0.405446768 0.019418502
0.763628244 0.404363811 0.022523876
0.780145705 0.404211521 0.027107006
0.793319941 0.402239382 0.034105822
0.806712747 0.396492898 0.042687636
0.821215332 0.382887095 0.048018694
0.835541248 0.362939775 0.050673127
0.318919837 0.369037956 0.030655935
0.320267409 0.369001240 0.029620748
0.365356088 0.384220958 0.027156748
0.436110854 0.405644804 0.026368188
0.512425065 0.425487965 0.026466815
0.586701214 0.442868888 0.027156627
0.645695388 0.451883972 0.024051566
0.691148043 0.456952780 0.022967065
0.724803865 0.454224408 0.021833880
0.750160933 0.452121645 0.024889253
0.774123013 0.453569770 0.026860755
0.792300701 0.453155398 0.031345878
0.804012299 0.449429095 0.037999131
0.814672828 0.444592029 0.044441633
0.825701594 0.439560115 0.052455641
0.839576721 0.427730173 0.058571760
0.853493929 0.407604784 0.063378885
0.353910506 0.407509506 0.027206000
0.356124371 0.407757580 0.026121562
0.402907372 0.422587514 0.024347374
0.466122389 0.442002416 0.026417501
0.538915753 0.460831016 0.028585751
0.608860016 0.477162629 0.031444687
0.673861384 0.490221500 0.030655880
0.717607319 0.495961010 0.031149002
0.754230976 0.499122560 0.031149002
0.779357135 0.496573746 0.033021443
0.796929121 0.492924392 0.037358880
0.813571036 0.490950137 0.041437816
0.824894011 0.488512039 0.048258252
0.833658338 0.483130187 0.055580888
0.844030261 0.476968884 0.064143889
0.854118705 0.466654748 0.071696952
0.863024473 0.447787523 0.091658503
0.379137933 0.438351244 0.026023000
0.380972654 0.438496202 0.025283312
0.427549958 0.452850521 0.022770375
0.490751356 0.471913368 0.027008813
0.558176816 0.489363611 0.030902188
0.625175238 0.505012572 0.035683125
0.688823402 0.519224286 0.040448375
0.736463785 0.526627183 0.038985189
0.770812988 0.530160010 0.040828817
0.800737202 0.532013237 0.042311311
0.817846656 0.528046012 0.047173563
0.829584241 0.523349702 0.053501375
0.839060426 0.520911336 0.061385065
0.848125458 0.517272234 0.069124445
0.857015312 0.509602427 0.079133190
0.867798805 0.499055982 0.086744130
0.870469272 0.486915320 0.127661243
0.392582744 0.462620497 0.027107500
0.394281834 0.462684005 0.026368188
0.438255370 0.475555629 0.023854375
0.505739391 0.494900316 0.029620625
0.570013463 0.510929585 0.034894124
0.632846534 0.525612950 0.041075688
0.692871511 0.539142728 0.047842752
0.745128930 0.549755991 0.049868312
0.780001879 0.553846478 0.050661750
0.806856036 0.555988073 0.055111747
0.831488132 0.557179749 0.058238626
0.843771815 0.553740919 0.065495372
0.849581122 0.549223959 0.076188505
0.855497062 0.544932604 0.087551825
0.864582121 0.539174974 0.098092631
0.877231777 0.529759288 0.105451070
0.876151621 0.522368014 0.172032252
0.396824002 0.482797056 0.028635250
0.398446560 0.482909530 0.027895873
0.444839627 0.494534135 0.026860999
0.512811780 0.513396502 0.033317123
0.576983333 0.529276013 0.041078378
0.636064589 0.543095350 0.048966873
0.692823708 0.556181848 0.056877438
0.743683457 0.567739844 0.062893935
0.783239245 0.574450195 0.063931815
0.810149789 0.577219784 0.067926370
0.832140386 0.578604639 0.074892998
0.850963593 0.579494596 0.081559189
0.857820272 0.575780749 0.093068063
0.862790883 0.571132779 0.107673645
0.870234787 0.566419184 0.120560825
0.882981598 0.559244514 0.129356071
0.879029751 0.556071937 0.226477996
0.395600736 0.499857008 0.032923251
0.396993041 0.499951392 0.032183815
0.442108124 0.510085523 0.030852877
0.511110127 0.528840303 0.038590629
0.576912284 0.545218527 0.047930002
0.635430932 0.558811665 0.058489881
0.688753843 0.571453273 0.068166256
0.735709906 0.582681298 0.076637387
0.777549982 0.592305541 0.082505256
0.809241593 0.597108483 0.084905006
0.829091012 0.599557757 0.096091755
0.846513271 0.600741088 0.106120944
0.861971974 0.601165473 0.115103260
0.869396627 0.597542107 0.129867077
0.875543952 0.592117965 0.145114020
0.885910690 0.587827802 0.161167756
0.882393479 0.592968762 0.288669258
0.401061684 0.517606795 0.040788323
0.402155668 0.517682254 0.039915133
0.439044088 0.525791347 0.035485946
0.507371545 0.544361174 0.046030261
0.573480785 0.560833693 0.057836324
0.631905258 0.574388146 0.070108518
0.681154191 0.586681724 0.082122773
0.725057781 0.597535610 0.093050346
0.764384449 0.607458055 0.102910899
0.798339963 0.615818977 0.111309841
0.824358821 0.621017575 0.118012026
0.842056632 0.623113871 0.131312460
0.857100964 0.623734117 0.144264475
0.870747268 0.622703791 0.157431290
0.878055394 0.618886232 0.174957603
0.892084479 0.616434515 0.191054046
0.891506314 0.630823195 0.336156517
0.409404516 0.537276089 0.049155381
0.409959674 0.537283599 0.048593946
0.439383864 0.543022275 0.041655883
0.503071785 0.559992790 0.053918574
0.568435311 0.577006996 0.068443261
0.626265943 0.591214478 0.083028577
0.672040343 0.602708399 0.097401895
0.713363290 0.613690019 0.110923275
0.750641584 0.623672485 0.123456396
0.782286167 0.632169068 0.133674264
0.811117768 0.639823139 0.143866286
0.835930049 0.646894395 0.156843394
0.852558017 0.648714006 0.173156530
0.866610587 0.648435950 0.190454230
0.880998611 0.647459745 0.206917793
0.896127045 0.646375537 0.224326670
0.901151717 0.673021317 0.391245425
0.428770423 0.560748816 0.055646285
0.429149866 0.560802162 0.055091541
0.449485868 0.564020574 0.047551665
0.504399538 0.578651845 0.059216794
0.564683914 0.594503880 0.075052224
0.620424747 0.608807683 0.092200227
0.666609943 0.621160090 0.108352289
0.704822719 0.631754041 0.124283731
0.736842453 0.641167104 0.140506044
0.766684651 0.649897754 0.155210167
0.794551373 0.658236504 0.168995962
0.820104718 0.665663183 0.181114390
0.844262183 0.673779011 0.198768228
0.864999592 0.679380476 0.219101876
0.882098496 0.679293394 0.238683805
0.899177313 0.677935839 0.258025050
0.915630460 0.723255932 0.453105778
0.596795022 0.670351982 0.334921002
0.596795022 0.670351982 0.334921002
0.600622892 0.671590507 0.336135119
0.610025585 0.674642801 0.340207994
0.621287763 0.677688479 0.348580748
0.636398673 0.682030916 0.359106988
0.654575109 0.687343121 0.371612877
0.673894703 0.692613542 0.386127263
0.695868015 0.699640989 0.401954472
0.720999360 0.708277822 0.417764187
0.748631239 0.718372583 0.433183134
0.777212620 0.727922559 0.443169445
0.806345284 0.739291251 0.460883021
0.837892056 0.753024340 0.487147778
0.870956779 0.767585576 0.515729785
0.902226031 0.780819535 0.546041608
0.922932029 0.791510999 0.581104994
0.034697000 0.040994000 0.045371875
0.037013683 0.041758999 0.046757374
0.061154686 0.042516001 0.046755560
0.102816761 0.045910437 0.045183688
0.149169371 0.048812252 0.044591375
0.199937314 0.050851997 0.043719001
0.250678271 0.051061627 0.042507499
0.296958506 0.048639063 0.041465499
0.339246660 0.047287621 0.041465499
0.379241079 0.046269439 0.042224500
0.416184068 0.045235999 0.042975001
0.449718922 0.044096123 0.043948062
0.482493699 0.044324249 0.046969000
0.515131056 0.046356250 0.051010817
0.545460701 0.046175871 0.054128189
0.573301375 0.043399561 0.054731000
0.599298596 0.039621938 0.054772310
0.034746312 0.045998689 0.048764873
0.040019874 0.049315002 0.050672688
0.068970375 0.050672688 0.049399436
0.113873065 0.054997437 0.046523370
0.163348049 0.058761999 0.045808252
0.215642303 0.060118373 0.043852933
0.268101692 0.061302561 0.042925753
0.316499740 0.060340375 0.042876441
0.361147434 0.060038187 0.043246940
0.401549429 0.061183751 0.044674058
0.440084249 0.062893629 0.046025623
0.474870771 0.063428938 0.048101500
0.507646203 0.065410562 0.051462311
0.539581954 0.068036623 0.055434063
0.569845319 0.069383375 0.059438877
0.598276675 0.066695869 0.061260194
0.623246968 0.059356626 0.061810810
0.053588063 0.073431373 0.056381252
0.056010563 0.074415192 0.056420878
0.103768818 0.090167195 0.051471688
0.171648264 0.098891810 0.045949064
0.239972383 0.107219063 0.040356316
0.308137000 0.112210378 0.033464938
0.366246194 0.116183750 0.030212250
0.416830719 0.120805249 0.029177062
0.460473806 0.123493373 0.028930813
0.497909009 0.125726119 0.029571500
0.530377984 0.127936184 0.030852625
0.559229493 0.129018500 0.033711437
0.586222291 0.130506441 0.037949625
0.611870646 0.132293135 0.042499632
0.636575222 0.131562382 0.046208940
0.658096194 0.124930292 0.050205249
0.677297950 0.111787498 0.051549435
0.087952256 0.123818450 0.062907435
0.090075389 0.124715820 0.062328249
0.150829524 0.146479517 0.051642999
0.230916828 0.165039897 0.045771558
0.310545027 0.174652830 0.036914747
0.385095894 0.181046829 0.027255436
0.443932235 0.187430143 0.021883309
0.496820271 0.193809152 0.017693747
0.542143404 0.200883016 0.015918937
0.578039348 0.206123069 0.015574123
0.607592463 0.209417388 0.017742936
0.633618236 0.211532518 0.021045126
0.657848358 0.214404628 0.025677875
0.679574132 0.216360688 0.031838756
0.699860096 0.211288989 0.037950508
0.717697144 0.199716374 0.043254882
0.735932946 0.184597075 0.045457438
0.143333510 0.190517500 0.058616061
0.145798504 0.191424325 0.058505062
0.200357378 0.210561499 0.049408250
0.293121397 0.238067880 0.040883251
0.374016494 0.251851767 0.031542625
0.447217375 0.255366683 0.023263123
0.506032705 0.262113929 0.016954249
0.556605518 0.269168824 0.013553623
0.600035608 0.274334878 0.011779563
0.635691345 0.279476553 0.011976562
0.664262414 0.284942508 0.014095688
0.688254952 0.287292868 0.016806375
0.708835900 0.287209749 0.021242563
0.727989256 0.287758797 0.027452253
0.746773362 0.285423130 0.033267945
0.764576197 0.274636716 0.039231814
0.779493630 0.252355993 0.042181123
0.204821825 0.258257955 0.049617063
0.208193630 0.259433001 0.048807502
0.259620726 0.275465906 0.041655626
0.343487442 0.302439988 0.035288498
0.433936715 0.325902909 0.028783124
0.507479548 0.335992485 0.020798687
0.560397625 0.334920257 0.016658686
0.606482267 0.337728709 0.014144812
0.647492409 0.343346626 0.012962313
0.681154251 0.347617060 0.014145063
0.706508577 0.348689944 0.016165936
0.727545083 0.349871427 0.019763688
0.746876419 0.350450814 0.023657128
0.764004290 0.349968314 0.030951509
0.781346262 0.346791595 0.038048696
0.797265589 0.333998740 0.041890752
0.810003698 0.309963137 0.044135500
0.262466758 0.317763001 0.040935434
0.265183270 0.318627417 0.040935434
0.314120531 0.333892226 0.034451064
0.391561985 0.357842326 0.031838752
0.475574821 0.380853623 0.029226376
0.550526977 0.395722508 0.024248814
0.607248545 0.402196944 0.020355126
0.651112676 0.401778847 0.018482251
0.687770069 0.403221965 0.018580751
0.718833983 0.405848503 0.019467877
0.742151439 0.405860305 0.021932127
0.761283040 0.404743701 0.025234502
0.777704716 0.404597521 0.030705193
0.791504204 0.402525723 0.037112571
0.805335522 0.396706283 0.045488756
0.820376813 0.383237064 0.050583631
0.835128903 0.362971336 0.051921569
0.315404028 0.369066924 0.033662122
0.318242967 0.369895846 0.033662122
0.363273174 0.384472162 0.029719124
0.433886409 0.405852169 0.029374313
0.510187745 0.425719470 0.029029191
0.584228158 0.443185657 0.030064253
0.643473327 0.452141911 0.026712878
0.689065993 0.457144111 0.025185188
0.722349823 0.454256147 0.024051443
0.747938633 0.452324033 0.027107378
0.772015035 0.453769714 0.029867316
0.790290415 0.453389525 0.033761002
0.802070498 0.449585021 0.040728945
0.813193977 0.444686919 0.046467196
0.824612975 0.439705163 0.054555386
0.838862479 0.427960664 0.060561948
0.852859080 0.407666653 0.065280885
0.350831270 0.407429874 0.029472938
0.353219122 0.408162057 0.029867439
0.400184691 0.422516316 0.026713375
0.463717848 0.441940308 0.028881375
0.536614716 0.460931748 0.030803626
0.606533468 0.477285296 0.033711560
0.671711922 0.490509123 0.033268128
0.715423584 0.496057302 0.033415876
0.752215445 0.499212623 0.033366628
0.777333975 0.496615946 0.035288874
0.795021534 0.492890388 0.039514128
0.811743975 0.490941584 0.043603066
0.823491633 0.488592446 0.050231382
0.832328856 0.483211637 0.057673384
0.843018472 0.477034152 0.066076450
0.853424489 0.466821164 0.073631205
0.862484157 0.448075145 0.093883187
0.376076758 0.438200444 0.028290438
0.378754228 0.438981682 0.028290438
0.424969345 0.452641070 0.025036938
0.488539398 0.471900254 0.028930688
0.556012869 0.489414185 0.033021629
0.623138309 0.505066156 0.037605062
0.686859310 0.519365728 0.042595997
0.734526396 0.526881516 0.041124251
0.769086063 0.530217707 0.043013252
0.798897028 0.532039523 0.044446126
0.816374242 0.528019309 0.048524249
0.828047693 0.523407996 0.055221941
0.837940872 0.521005392 0.063299440
0.847009420 0.517323732 0.071145758
0.856213093 0.509634912 0.080708951
0.867325008 0.499174416 0.088016823
0.870043993 0.487086058 0.129425198
0.389183581 0.462343097 0.028635189
0.391008466 0.462870300 0.029078439
0.435508430 0.475177944 0.025776563
0.503339469 0.494712770 0.031444624
0.567609370 0.510788918 0.037161563
0.630780160 0.525554895 0.043200810
0.691081464 0.539183974 0.049822126
0.743311167 0.549847424 0.052171934
0.778562784 0.553994894 0.052569192
0.805548191 0.556100070 0.056557562
0.830222547 0.557254553 0.059974317
0.842702925 0.553867877 0.067403808
0.848515749 0.549278319 0.078146815
0.854642928 0.544943631 0.089145511
0.863983989 0.539189756 0.099354640
0.876820564 0.529816747 0.106523126
0.875846207 0.522492886 0.173322245
0.394112229 0.482646734 0.029916689
0.395799428 0.483029962 0.030162938
0.442682564 0.494300246 0.028388813
0.510449409 0.513177276 0.035190061
0.574834108 0.529141545 0.042830251
0.634513319 0.543076336 0.050916623
0.691193581 0.556145906 0.058601502
0.742183685 0.567778409 0.064642005
0.781874537 0.574608803 0.065686375
0.809116423 0.577346444 0.069637313
0.831068754 0.578782558 0.076761685
0.850079298 0.579614341 0.083172940
0.857084632 0.575839698 0.094531126
0.862058878 0.571136177 0.109297134
0.869792998 0.566464543 0.121792376
0.882730663 0.559337795 0.130313888
0.878850698 0.556089461 0.227286756
0.393602639 0.499655366 0.034450941
0.395468831 0.500029743 0.034450941
0.440082937 0.509864092 0.031641565
0.509175837 0.528748155 0.040109754
0.575356960 0.545159519 0.049434565
0.634169817 0.558832943 0.060026504
0.687458575 0.571456969 0.069705822
0.734561980 0.582667887 0.078016266
0.776456416 0.592405319 0.083948068
0.808277071 0.597256124 0.086642191
0.828332424 0.599711955 0.097634383
0.845852435 0.600842237 0.107532069
0.861420870 0.601243973 0.116412379
0.868901789 0.597611129 0.131033659
0.875237465 0.592180669 0.146125838
0.885653317 0.587881505 0.161934689
0.882306159 0.592968762 0.289157808
0.399255186 0.517488897 0.042132318
0.400219113 0.517772794 0.042132318
0.437107921 0.525535524 0.036224946
0.505742490 0.544254243 0.047403011
0.572117984 0.560790837 0.058975387
0.630809903 0.574370801 0.071620271
0.680129409 0.586671770 0.083455265
0.724045157 0.597598195 0.094794273
0.763526559 0.607505918 0.104361713
0.797535539 0.615875840 0.112660460
0.823813558 0.621129930 0.119077772
0.841549456 0.623251021 0.132657334
0.856677234 0.623849094 0.145472482
0.870319664 0.622819364 0.158644423
0.877766430 0.618942261 0.176015660
0.891979098 0.616453290 0.191656530
0.891483068 0.630823195 0.336338758
0.408409446 0.537166595 0.049878381
0.409267157 0.537399590 0.049878381
0.438059926 0.542866290 0.042414755
0.502136946 0.559939444 0.054519136
0.567357421 0.576962352 0.069449261
0.625344098 0.591244280 0.084145762
0.671401381 0.602773607 0.098527141
0.712710083 0.613756478 0.112142578
0.750010014 0.623769283 0.124561399
0.781739235 0.632224023 0.134510770
0.810600758 0.639856160 0.144745216
0.835473776 0.646900654 0.157724530
0.852147341 0.648805857 0.174212977
0.866389990 0.648521960 0.191095918
0.880817652 0.647503793 0.207767487
0.896005154 0.646423399 0.224842787
0.901147962 0.673021317 0.391329318
0.428100049 0.560748816 0.056234475
0.428845108 0.560962379 0.056234475
0.449049205 0.564127505 0.048249602
0.503811896 0.578743994 0.059778791
0.564045370 0.594527006 0.075520843
0.619692802 0.608858645 0.092988849
0.666030884 0.621188223 0.109397657
0.704267323 0.631848931 0.125182986
0.736273527 0.641188085 0.141285285
0.766256273 0.649956882 0.155960843
0.794167876 0.658308744 0.169726521
0.819784582 0.665709138 0.181806326
0.844065607 0.673868954 0.199369639
0.864845037 0.679463863 0.219609693
0.882011533 0.679337382 0.239145145
0.899063945 0.678061426 0.258438647
0.915604234 0.723255932 0.453175783
0.596693337 0.670351982 0.335130274
0.596746206 0.670351982 0.335022241
0.600483060 0.671559632 0.336262435
0.609971464 0.674659669 0.340234607
0.621250272 0.677822530 0.348889560
0.636365712 0.682041943 0.359293133
0.654545784 0.687425017 0.371910363
0.673849702 0.692651629 0.386161745
0.695846498 0.699640989 0.401997507
0.720981479 0.708298802 0.417841554
0.748609364 0.718419313 0.433301806
0.777172923 0.727968693 0.443154365
0.806271672 0.739263713 0.460901022
0.837892056 0.753009737 0.487173647
0.870904803 0.767493010 0.515575349
0.902226031 0.780819535 0.546045184
0.922932029 0.791510999 0.581155598
0.031543002 0.040896874 0.064923748
0.033169314 0.040994000 0.066597059
0.053457625 0.045188125 0.073093995
0.093226947 0.049367126 0.080536127
0.147858873 0.048984125 0.082060374
0.201353997 0.049583502 0.083054870
0.252403647 0.048380371 0.084012374
0.298766643 0.045865998 0.082883872
0.338479400 0.044096623 0.081510752
0.374301672 0.043264002 0.081741750
0.409202874 0.042232126 0.081807628
0.441949069 0.040751189 0.081675500
0.474295765 0.040994000 0.084332749
0.506867707 0.041663375 0.087764695
0.537685990 0.041567747 0.089036122
0.565629184 0.039281063 0.087227382
0.591347396 0.036076877 0.084708996
0.032282688 0.045907065 0.068994001
0.031592309 0.043169942 0.067985438
0.053587187 0.044736065 0.074149497
0.093972825 0.049622752 0.080311507
0.154332310 0.052622814 0.082373001
0.210421130 0.054482002 0.082622997
0.263822287 0.055273499 0.083665691
0.311972529 0.054150812 0.082851373
0.351882011 0.052656502 0.081071876
0.389171213 0.052329686 0.081100941
0.425400555 0.053179502 0.082643621
0.458668381 0.052891128 0.083438568
0.490521342 0.053048126 0.084221318
0.522099555 0.054250937 0.088113628
0.552103996 0.054022498 0.090534136
0.578909457 0.049698744 0.089679375
0.602583408 0.043559246 0.085225195
0.035387378 0.075716376 0.084061377
0.040649749 0.079431184 0.087033182
0.085365377 0.099326760 0.095755756
0.150488898 0.105536379 0.098294564
0.213233009 0.110916622 0.095923878
0.273008257 0.114049375 0.092943564
0.327753156 0.115641378 0.091638125
0.377457350 0.118846871 0.091211997
0.421353012 0.122360118 0.090783000
0.459115297 0.125453174 0.091880560
0.493017256 0.128745869 0.093958750
0.524902105 0.132654876 0.097168311
0.555577338 0.136916012 0.100156248
0.585621238 0.140210494 0.103811264
0.613541126 0.138617754 0.107708879
0.642547846 0.135120571 0.108065501
0.667877138 0.121243000 0.103048004
0.067121193 0.129603639 0.098330438
0.070075691 0.131010324 0.098701313
0.125240147 0.152183875 0.104706064
0.204012156 0.174160883 0.104235500
0.281110346 0.182157457 0.099366128
0.348943204 0.188134134 0.092756875
0.408004194 0.192242444 0.086873062
0.459351748 0.196551755 0.083093435
0.500762463 0.200646013 0.081887811
0.535218596 0.204470694 0.083049126
0.567246675 0.207598314 0.084987879
0.597432017 0.212170243 0.088101812
0.623061121 0.214842260 0.092535749
0.647761822 0.216348007 0.097333014
0.673004746 0.213036135 0.101180755
0.698788404 0.205550671 0.101148121
0.723012567 0.189389706 0.094380945
0.115093999 0.191949502 0.108710498
0.118489183 0.193445444 0.109290749
0.176157013 0.217050001 0.108358748
0.259709656 0.241542444 0.099946752
0.340147406 0.259835631 0.100693628
0.412339866 0.265866071 0.093961433
0.474200428 0.271625727 0.084850132
0.522834063 0.276580513 0.079361252
0.565146327 0.280704230 0.077010125
0.601065397 0.285651445 0.076723874
0.631584704 0.291115016 0.078156248
0.656852603 0.293671519 0.082033314
0.678766370 0.293554008 0.087350756
0.700881779 0.292707503 0.093413636
0.725007176 0.290655255 0.097797506
0.748057425 0.279473245 0.097423196
