public/lut/110.cube
TITLE "17x17x17 Adobe/IRIDAS cube 3D LUT exported with GrossGrade v0.2.2 (beta) 64 bit"
DOMAIN_MIN 0 0 0
DOMAIN_MAX 1 1 1
LUT_3D_SIZE 5
0.000000000 0.000000000 0.000000000
0.161010996 0.002380000 0.000000000
0.354645014 0.000000000 0.000793000
0.587523997 0.000000000 0.000793000
0.811004996 0.000000000 0.000000000
0.024840999 0.125762999 0.002380000
0.165314004 0.104979999 0.000793000
0.360626012 0.103638001 0.000793000
0.592957020 0.066009998 0.000000000
0.813660026 0.022887999 0.000000000
0.029967999 0.295471013 0.001984000
0.175292999 0.264800996 0.000793000
0.372222990 0.239075005 0.000000000
0.599762022 0.240112007 0.000000000
0.815765023 0.243713006 0.000000000
0.000000000 0.497009009 0.000000000
0.178985998 0.460785002 0.000000000
0.387726009 0.434020996 0.000000000
0.606903017 0.405609012 0.000000000
0.816009998 0.414337009 0.000000000
0.149414003 0.685455024 0.000000000
0.237334996 0.651489019 0.000000000
0.414734006 0.625732005 0.000000000
0.618194997 0.598267019 0.000000000
0.817963004 0.571135998 0.000000000
0.015594000 0.000000000 0.091034003
0.100555003 0.003754000 0.038635001
0.272980005 0.004333000 0.027802000
0.491759986 0.000000000 0.020111000
0.721893013 0.000000000 0.011047000
0.030944999 0.087371998 0.058014002
0.211792007 0.185424998 0.117889002
0.412932992 0.189147994 0.106078997
0.638366997 0.180053994 0.092437997
0.849915028 0.177521005 0.076233000
0.060332999 0.239135996 0.062500000
0.226043999 0.366546988 0.131042004
0.427855998 0.346496999 0.097075999
0.647765994 0.352753013 0.077483997
0.853546023 0.362884998 0.056701999
0.012024000 0.433227986 0.064636000
0.251006991 0.563812017 0.143493995
0.445190012 0.543578982 0.094360001
0.653106987 0.514832020 0.053833000
0.853057981 0.523375988 0.031952001
0.111144997 0.627898991 0.071410999
0.321197987 0.745850027 0.173096001
0.478850991 0.726043999 0.117400996
0.666930974 0.698424995 0.060486000
0.856536984 0.670898020 0.024261000
0.000000000 0.000000000 0.273559988
0.066680998 0.000000000 0.179138005
0.211028993 0.003937000 0.106934004
0.406250000 0.000000000 0.092041001
0.633759022 0.000000000 0.081696004
0.009857000 0.083649002 0.216248006
0.155487001 0.184998006 0.323882997
0.346496999 0.198578000 0.229980007
0.562500000 0.195556998 0.207885996
0.777283013 0.190033004 0.190796003
0.065094002 0.194915995 0.165527001
0.242798001 0.324799001 0.272033989
0.490173012 0.460967988 0.387665004
0.701690972 0.468475014 0.365112007
0.898193002 0.477692008 0.344298989
0.024261000 0.380309999 0.169861004
0.266083002 0.519653022 0.284790009
0.514739990 0.648010015 0.412079006
0.707062006 0.628051996 0.362304986
0.898773015 0.634094000 0.338622987
0.070496000 0.575989008 0.187195003
0.321655005 0.702942014 0.312561005
0.551361024 0.819671988 0.442077994
0.719726980 0.801117003 0.388489008
0.899384022 0.773742974 0.335693002
0.000000000 0.000000000 0.526916981
0.000000000 0.000000000 0.413879007
0.155762002 0.000000000 0.299255013
0.333252013 0.000000000 0.201934993
0.552184999 0.000000000 0.179290995
0.000000000 0.069518998 0.460875988
0.002350000 0.179656997 0.573853016
0.282135010 0.185577005 0.475739002
0.486449987 0.195769995 0.361694008
0.702179015 0.193604007 0.332123011
0.000000000 0.193237007 0.391387999
0.145080999 0.323181003 0.517760992
0.433288991 0.458649009 0.637238026
0.632507026 0.475800008 0.534698009
0.828552008 0.486449987 0.506195009
0.005524000 0.325897008 0.329742014
0.259337991 0.469420999 0.454284996
0.522033989 0.609802008 0.579132020
0.754181027 0.733124018 0.691375971
0.936919987 0.739014030 0.668242991
0.000000000 0.527863026 0.334412009
0.299683005 0.660950005 0.460967988
0.557708979 0.783416986 0.590698004
0.774353027 0.894531012 0.710937977
0.940276980 0.876953006 0.666015983
0.000000000 0.000000000 0.772827029
0.000000000 0.000000000 0.667297006
0.000000000 0.000000000 0.557281017
0.270630002 0.000000000 0.435454994
0.470703006 0.000000000 0.324005008
0.000000000 0.034302000 0.711426020
0.000000000 0.163115993 0.815703988
0.160583004 0.170044005 0.725983024
0.429107994 0.181244001 0.609497011
0.623260021 0.189392000 0.496764988
0.000000000 0.183228001 0.644989014
0.016968001 0.319945991 0.757690012
0.375580013 0.454254001 0.870604992
0.580138981 0.466614008 0.774353027
0.757812977 0.483550996 0.663971007
0.000000000 0.324737996 0.574950993
0.173920006 0.468261987 0.692322016
0.466735989 0.606536984 0.810669005
0.706817985 0.729552984 0.914916992
0.875609994 0.745482981 0.820281982
0.000000000 0.467132986 0.510497987
0.297363013 0.605988026 0.630402029
0.557007015 0.736541986 0.747406006
0.783263981 0.859619021 0.860137999
0.982239008 0.976440012 0.969666004
