public/lut/110.cube
TITLE "17x17x17 Adobe/IRIDAS cube 3D LUT exported with GrossGrade v0.2.2 (beta) 64 bit"
DOMAIN_MIN 0 0 0
DOMAIN_MAX 1 1 1
LUT_3D_SIZE 17
0.000000000 0.000000000 0.000000000
0.030121000 0.000793000 0.000000000
0.073608004 0.000793000 0.000000000
0.116576999 0.001587000 0.000000000
0.161010996 0.002380000 0.000000000
0.205626994 0.002380000 0.000793000
0.252440989 0.001587000 0.000793000
0.301575005 0.000000000 0.000793000
0.354645014 0.000000000 0.000793000
0.410889000 0.000000000 0.000793000
0.469359994 0.000000000 0.001099000
0.528563976 0.000000000 0.001587000
0.587523997 0.000000000 0.000793000
0.645874023 0.000000000 0.000793000
0.702911019 0.000000000 0.000793000
0.758422971 0.000000000 0.000793000
0.811004996 0.000000000 0.000000000
0.003845000 0.022430001 0.000000000
0.033264000 0.019378999 0.000000000
0.074799001 0.020050000 0.000000000
0.117675997 0.020935001 0.000000000
0.161773995 0.022338999 0.000000000
0.207092002 0.022491001 0.000000000
0.253448009 0.021973001 0.000549000
0.302825987 0.019653000 0.000793000
0.355652004 0.012726000 0.000793000
0.412140012 0.004303000 0.000793000
0.470367014 0.000000000 0.000793000
0.529419005 0.000000000 0.000793000
0.588500977 0.000000000 0.000793000
0.646515012 0.000000000 0.000793000
0.703643978 0.000000000 0.000793000
0.758789003 0.000000000 0.000000000
0.811523020 0.000000000 0.000000000
0.008484000 0.053833000 0.000793000
0.036437999 0.048737001 0.000793000
0.076233000 0.045318998 0.000000000
0.118927002 0.045898002 0.000000000
0.162536994 0.046783000 0.000000000
0.207855001 0.048064999 0.000549000
0.254577994 0.047637999 0.000793000
0.303986013 0.045563001 0.000793000
0.357178003 0.039611999 0.000793000
0.413574010 0.028472999 0.000793000
0.471679986 0.014282000 0.000793000
0.530609012 0.002380000 0.000793000
0.589507997 0.000000000 0.000793000
0.647369027 0.000000000 0.000793000
0.704468012 0.000000000 0.000000000
0.759674013 0.000000000 0.000000000
0.811981022 0.000000000 0.000000000
0.016113000 0.089233004 0.001587000
0.042479999 0.083587997 0.000793000
0.079131998 0.078552000 0.000793000
0.119934000 0.074309997 0.000793000
0.163573995 0.074799001 0.000793000
0.208771005 0.076172002 0.000793000
0.255645990 0.076416001 0.000793000
0.305206001 0.075438999 0.000793000
0.358734012 0.071381003 0.000793000
0.415253013 0.064025998 0.000793000
0.473450005 0.051665999 0.000793000
0.532288015 0.035094999 0.000793000
0.590942025 0.017852999 0.000153000
0.648711979 0.004333000 0.000000000
0.705474973 0.000000000 0.000000000
0.760590017 0.000000000 0.000000000
0.812835991 0.000000000 0.000000000
0.024840999 0.125762999 0.002380000
0.050018001 0.119537003 0.001587000
0.083678998 0.114257999 0.000793000
0.122772001 0.109039001 0.000793000
0.165314004 0.104979999 0.000793000
0.210082993 0.105103001 0.000793000
0.256713986 0.105988003 0.000793000
0.306885004 0.105988003 0.000793000
0.360626012 0.103638001 0.000793000
0.417266995 0.098968998 0.000793000
0.475432992 0.091247998 0.000793000
0.534362972 0.080321997 0.000000000
0.592957020 0.066009998 0.000000000
0.650481999 0.050995000 0.000000000
0.707031012 0.037842002 0.000000000
0.761718988 0.028441999 0.000000000
0.813660026 0.022887999 0.000000000
0.033172999 0.163696006 0.003174000
0.058044001 0.156799003 0.002960000
0.089263998 0.151519999 0.001587000
0.126770005 0.146301001 0.001587000
0.167846993 0.140441999 0.001587000
0.211974993 0.135986000 0.000793000
0.258881003 0.135956004 0.000793000
0.308990002 0.136687994 0.000793000
0.362884998 0.135711998 0.000793000
0.419586003 0.132935002 0.000793000
0.477631003 0.128204003 0.000000000
0.536194026 0.121918000 0.000000000
0.594817996 0.114165999 0.000000000
0.652130008 0.105498999 0.000000000
0.708374023 0.096740998 0.000000000
0.763031006 0.090117998 0.000000000
0.814728022 0.086364999 0.000000000
0.040405001 0.204071000 0.003174000
0.064727999 0.196655005 0.003876000
0.094420999 0.190368995 0.002960000
0.130797997 0.184723005 0.001587000
0.171448007 0.179230005 0.001099000
0.214629993 0.172942996 0.001526000
0.261260986 0.168457001 0.000793000
0.311706990 0.167846993 0.000793000
0.365783989 0.168212995 0.000793000
0.422271997 0.166869998 0.000000000
0.480042011 0.164489999 0.000000000
0.538421988 0.161316007 0.000000000
0.596343994 0.157349005 0.000000000
0.653442025 0.153441995 0.000000000
0.709411979 0.150177002 0.000000000
0.763885021 0.148040995 0.000000000
0.815398991 0.147551998 0.000000000
0.040557999 0.247954994 0.003174000
0.067047000 0.239593998 0.003510000
0.097565003 0.232207999 0.003174000
0.133635998 0.226073995 0.002167000
0.174225003 0.220305994 0.000793000
0.217804000 0.214141995 0.000793000
0.264373988 0.207427993 0.000793000
0.315001994 0.202271000 0.000793000
0.368835002 0.201477006 0.000000000
0.425110012 0.202025995 0.000000000
0.482634991 0.201446995 0.000000000
0.540557981 0.200470001 0.000000000
0.598083019 0.198944002 0.000000000
0.654663026 0.197418004 0.000000000
0.710358024 0.196686000 0.000000000
0.764496028 0.196624994 0.000000000
0.815612972 0.197510004 0.000000000
0.029967999 0.295471013 0.001984000
0.061370999 0.286255002 0.002380000
0.096038997 0.277862996 0.003174000
0.133941993 0.270934999 0.001709000
0.175292999 0.264800996 0.000793000
0.220092997 0.258574992 0.000000000
0.267852992 0.251892000 0.000092000
0.318542004 0.244568005 0.000000000
0.372222990 0.239075005 0.000000000
0.428162009 0.238463998 0.000000000
0.485291004 0.239684999 0.000000000
0.542632997 0.240021005 0.000000000
0.599762022 0.240112007 0.000000000
0.655974984 0.240294993 0.000000000
0.711090028 0.240814000 0.000000000
0.764892995 0.241943002 0.000000000
0.815765023 0.243713006 0.000000000
0.011322000 0.345032007 0.000458000
0.046172999 0.335509986 0.000793000
0.088836998 0.326507986 0.001221000
0.131104007 0.318695009 0.000946000
0.174896002 0.312133998 0.000000000
0.221435994 0.305756003 0.000000000
0.270752013 0.299194008 0.000000000
0.322295994 0.291992009 0.000000000
0.375793010 0.284301996 0.000000000
0.431183010 0.278809011 0.000000000
0.487823009 0.278380990 0.000000000
0.544799984 0.279998988 0.000000000
0.601409972 0.281188995 0.000000000
0.657135010 0.282409996 0.000000000
0.711914003 0.283874989 0.000000000
0.765197992 0.285797000 0.000000000
0.815796018 0.287963986 0.000000000
0.000000000 0.395720989 0.000000000
0.026520001 0.386078000 0.000000000
0.077728003 0.376709014 0.000000000
0.127196997 0.368072987 0.000000000
0.174376994 0.361115009 0.000000000
0.222687006 0.354645014 0.000000000
0.273346007 0.348145008 0.000000000
0.325805992 0.341187000 0.000000000
0.379608005 0.333678991 0.000000000
0.434540004 0.325866997 0.000000000
0.490539998 0.320160002 0.000000000
0.547088981 0.320190012 0.000000000
0.603271008 0.322295994 0.000000000
0.658508003 0.324187994 0.000000000
0.712737978 0.326263011 0.000000000
0.765471995 0.328521997 0.000000000
0.815856993 0.330962986 0.000000000
0.000000000 0.446655005 0.000000000
0.012512000 0.436798006 0.000000000
0.069243997 0.427489996 0.000000000
0.124968998 0.418365002 0.000000000
0.175292999 0.410889000 0.000000000
0.225067005 0.404388011 0.000000000
0.276520014 0.397826999 0.000000000
0.329558998 0.391144007 0.000000000
0.383545011 0.383758992 0.000000000
0.438201994 0.376067996 0.000000000
0.493530005 0.368346989 0.000000000
0.549315989 0.362670988 0.000000000
0.605010986 0.363007009 0.000000000
0.659729004 0.365417004 0.000000000
0.713500977 0.367920011 0.000000000
0.765929997 0.370422006 0.000000000
0.815886974 0.373077005 0.000000000
0.000000000 0.497009009 0.000000000
0.013794000 0.487396002 0.000000000
0.070556998 0.477874994 0.000000000
0.127379999 0.468780994 0.000000000
0.178985998 0.460785002 0.000000000
0.229308993 0.454010010 0.000000000
0.280761987 0.447692990 0.000000000
0.333678991 0.441161990 0.000000000
0.387726009 0.434020996 0.000000000
0.442200005 0.426483005 0.000000000
0.496948004 0.418792993 0.000000000
0.551940978 0.411163002 0.000000000
0.606903017 0.405609012 0.000000000
0.661010981 0.406219006 0.000000000
0.714385986 0.409027010 0.000000000
0.766448975 0.411742985 0.000000000
0.816009998 0.414337009 0.000000000
0.006989000 0.546356022 0.000000000
0.033417001 0.536773980 0.000000000
0.083953999 0.527465999 0.000000000
0.136444002 0.518371999 0.000000000
0.186798006 0.510132015 0.000000000
0.236114994 0.503296018 0.000000000
0.286713004 0.496948004 0.000000000
0.339111000 0.490570009 0.000000000
0.392517000 0.483734012 0.000000000
0.446686000 0.476500988 0.000000000
0.500916004 0.468932986 0.000000000
0.555023015 0.461333990 0.000000000
0.609070003 0.453826994 0.000000000
0.662598014 0.448363990 0.000000000
0.715393007 0.449340999 0.000000000
0.766937017 0.452271014 0.000000000
0.816161990 0.454926014 0.000000000
0.047882002 0.594482005 0.000000000
0.072448999 0.585114002 0.000000000
0.108978003 0.576080024 0.000000000
0.152802005 0.567077994 0.000000000
0.199340999 0.558838010 0.000000000
0.246277004 0.551819026 0.000000000
0.295197010 0.545502007 0.000000000
0.346130013 0.539184988 0.000000000
0.398589998 0.532653987 0.000000000
0.451903999 0.525786996 0.000000000
0.505402029 0.518341005 0.000000000
0.558655024 0.510864019 0.000000000
0.611572027 0.503448009 0.000000000
0.664276004 0.496338010 0.000000000
0.716491997 0.490631014 0.000000000
0.767609000 0.492004007 0.000000000
0.816466987 0.494598001 0.000000000
0.103485003 0.641083002 0.000000000
0.115814000 0.632263005 0.000000000
0.140258998 0.623322010 0.000000000
0.175537005 0.614502013 0.000000000
0.216582999 0.606293023 0.000000000
0.260010004 0.599273980 0.000000000
0.306273997 0.592895985 0.000000000
0.355255008 0.586669981 0.000000000
0.406035990 0.580291986 0.000000000
0.458038002 0.573729992 0.000000000
0.510559022 0.566742003 0.000000000
0.562835991 0.559296012 0.000000000
0.614745975 0.551880002 0.000000000
0.666504025 0.544799984 0.000000000
0.717864990 0.537810981 0.000000000
0.768706977 0.531677008 0.000000000
0.816986024 0.533356011 0.000000000
0.149414003 0.685455024 0.000000000
0.156250000 0.676909983 0.000000000
0.173553005 0.668120980 0.000000000
0.201874003 0.659453988 0.000000000
0.237334996 0.651489019 0.000000000
0.276520014 0.644500971 0.000000000
0.319701999 0.638213992 0.000000000
0.366088986 0.631989002 0.000000000
0.414734006 0.625732005 0.000000000
0.464904994 0.619324028 0.000000000
0.516022027 0.612671018 0.000000000
0.567260981 0.605651975 0.000000000
0.618194997 0.598267019 0.000000000
0.668671012 0.591063976 0.000000000
0.719054997 0.584137022 0.000000000
0.768828988 0.577544987 0.000000000
0.817963004 0.571135998 0.000000000
0.003052000 0.000000000 0.012238000
0.021088000 0.000793000 0.005463000
0.058655001 0.001587000 0.003845000
0.101195998 0.002380000 0.003113000
0.143555000 0.003113000 0.002319000
0.187836006 0.003174000 0.000977000
0.233582005 0.002625000 0.000793000
0.281493992 0.001587000 0.000793000
0.332520008 0.000000000 0.000793000
0.387603998 0.000000000 0.000793000
0.445313007 0.000000000 0.000793000
0.504088998 0.000000000 0.000793000
0.563354015 0.000000000 0.000793000
0.622070014 0.000000000 0.000793000
0.679687977 0.000000000 0.000793000
0.735840023 0.000000000 0.000793000
0.789246023 0.000000000 0.000000000
0.006958000 0.017059000 0.006989000
0.045104999 0.034545999 0.013794000
0.084351003 0.035583001 0.012360000
0.126555994 0.036956999 0.010803000
0.169891000 0.037842002 0.009369000
0.214355007 0.037842002 0.008423000
0.261229992 0.037354000 0.007690000
0.310790986 0.034302000 0.006165000
0.364136010 0.027313000 0.004974000
0.420684993 0.015869001 0.003845000
0.478760004 0.003906000 0.002319000
0.537720025 0.000000000 0.001526000
0.596436024 0.000000000 0.001343000
0.654326975 0.000000000 0.000793000
0.711090028 0.000000000 0.000793000
0.766205013 0.000000000 0.000000000
0.818419993 0.000000000 0.000000000
0.011627000 0.043976001 0.007629000
0.050048999 0.066924997 0.015381000
0.088196002 0.065154999 0.012512000
0.129333004 0.065490998 0.010193000
0.173096001 0.066559002 0.009308000
0.217925996 0.067169003 0.007782000
0.264495999 0.066832997 0.006500000
0.314606011 0.064879999 0.005463000
0.368651986 0.059937000 0.004181000
0.425415009 0.049988002 0.002716000
0.483612001 0.035583001 0.001587000
0.542388976 0.018585000 0.000793000
0.601073980 0.004578000 0.000732000
0.658783019 0.000000000 0.000610000
0.715270996 0.000000000 0.000000000
0.770020008 0.000000000 0.000000000
0.821991026 0.000000000 0.000000000
0.017792000 0.078552000 0.008514000
0.055633999 0.101654001 0.016205000
0.091063999 0.099243000 0.013214000
0.130980998 0.094939999 0.010101000
0.173522994 0.094512999 0.007843000
0.218596995 0.095764004 0.006897000
0.265258998 0.096161000 0.005463000
0.315764993 0.095550999 0.003937000
0.369994998 0.092162997 0.002625000
0.426757991 0.085937999 0.001465000
0.485168010 0.076080002 0.000732000
0.543976009 0.062714003 0.000732000
0.602416992 0.046386998 0.000000000
0.659882009 0.030548001 0.000000000
0.716338992 0.017639000 0.000000000
0.770905018 0.010437000 0.000000000
0.822539985 0.007599000 0.000000000
0.025574001 0.114593998 0.009918000
0.062743999 0.138366997 0.017792000
0.095519997 0.135315001 0.014038000
0.133667007 0.129668996 0.010162000
0.175231993 0.124968998 0.007111000
0.219726995 0.125092000 0.005524000
0.266968012 0.126404002 0.004089000
0.317595989 0.126221001 0.002563000
0.371917993 0.124450997 0.001465000
0.428986013 0.120728001 0.000732000
0.487183005 0.114684999 0.000732000
0.545929015 0.106628001 0.000000000
0.604247987 0.096465997 0.000000000
0.661590993 0.085205004 0.000000000
0.717651010 0.075165004 0.000000000
0.772002995 0.068236999 0.000000000
0.823547006 0.064177997 0.000000000
0.034148999 0.151916996 0.011444000
0.069762997 0.176483005 0.019317999
0.100922003 0.173492000 0.015442000
0.137390003 0.167603001 0.010895000
0.178435996 0.161530003 0.007111000
0.222075999 0.156859994 0.004791000
0.269226015 0.156676993 0.003265000
0.320068002 0.157562003 0.001678000
0.374480993 0.156891003 0.000732000
0.431427002 0.154937997 0.000732000
0.489410013 0.151489004 0.000000000
0.547729015 0.147156000 0.000000000
0.605865002 0.142150998 0.000000000
0.662932992 0.136902004 0.000000000
0.718872011 0.132293999 0.000000000
0.773010015 0.129059002 0.000000000
0.824370980 0.127808005 0.000000000
0.042419001 0.191162005 0.012421000
0.074584998 0.217437997 0.020660000
0.104950003 0.213836998 0.016449001
0.140991002 0.207550004 0.011536000
0.181488007 0.201262996 0.007233000
0.225067005 0.194915995 0.004791000
0.272094995 0.190033004 0.002502000
0.323029011 0.189605996 0.001038000
0.377472013 0.190459996 0.000732000
0.434235007 0.190033004 0.000000000
0.491943002 0.188599005 0.000000000
0.549896002 0.186767995 0.000000000
0.607451975 0.184570000 0.000000000
0.664062977 0.182403997 0.000000000
0.719542980 0.180969000 0.000000000
0.773528993 0.180634007 0.000000000
0.824738026 0.181427002 0.000000000
0.045685001 0.233855993 0.013214000
0.073974997 0.261902004 0.020904999
0.105742998 0.257629007 0.017212000
0.142517000 0.250670999 0.011841000
0.183471993 0.244323999 0.007111000
0.227814004 0.237914994 0.003601000
0.275359988 0.230803996 0.001770000
0.326447010 0.225555003 0.000732000
0.380768001 0.225127995 0.000000000
0.437133998 0.226471007 0.000000000
0.494323999 0.226653993 0.000000000
0.551940978 0.226471007 0.000000000
0.609070003 0.226073995 0.000000000
0.665252984 0.225799993 0.000000000
0.720336974 0.226073995 0.000000000
0.773895025 0.227111995 0.000000000
0.824859977 0.228760004 0.000000000
0.038483001 0.280243009 0.012024000
0.065521002 0.309722990 0.019714000
0.102050997 0.304749012 0.016754000
0.141234994 0.297028005 0.011353000
0.183777004 0.290436000 0.005920000
0.229828000 0.284027010 0.002075000
0.278717011 0.277099997 0.000336000
0.330047995 0.269470006 0.000000000
0.384094000 0.264099002 0.000000000
0.440063000 0.263823986 0.000000000
0.496886998 0.265533000 0.000000000
0.554046988 0.266631991 0.000000000
0.610747993 0.267455995 0.000000000
0.666472971 0.268310994 0.000000000
0.721130013 0.269562006 0.000000000
0.774169981 0.271423012 0.000000000
0.824768007 0.273712009 0.000000000
0.020264000 0.329254001 0.010468000
0.049621999 0.359741002 0.016663000
0.094054997 0.354126006 0.014435000
0.138457999 0.345672995 0.009918000
0.183654994 0.338775992 0.004150000
0.231261998 0.332244992 0.000946000
0.281616002 0.325531006 0.000000000
0.333862007 0.318329006 0.000000000
0.387665004 0.310425013 0.000000000
0.443053991 0.304931998 0.000000000
0.499572992 0.304931998 0.000000000
0.556182981 0.306975991 0.000000000
0.612335026 0.308623999 0.000000000
0.667632997 0.310333014 0.000000000
0.721771002 0.312195003 0.000000000
0.774505973 0.314545006 0.000000000
0.824706972 0.317139000 0.000000000
0.003693000 0.379577994 0.007385000
0.033234000 0.410308987 0.013245000
0.085876003 0.404693991 0.010651000
0.136291996 0.395476997 0.007477000
0.184112996 0.388092011 0.002563000
0.233275995 0.381561011 0.000214000
0.284514993 0.375061005 0.000000000
0.337554991 0.368072987 0.000000000
0.391570985 0.360504001 0.000000000
0.446442008 0.352600008 0.000000000
0.502228022 0.347014993 0.000000000
0.558288991 0.347229004 0.000000000
0.614104986 0.349669993 0.000000000
0.668853998 0.351958990 0.000000000
0.722473025 0.354155988 0.000000000
0.774901986 0.356781006 0.000000000
0.824921012 0.359497011 0.000000000
0.000000000 0.430786014 0.003601000
0.027069001 0.460967988 0.009705000
0.083159998 0.455321997 0.006805000
0.137024000 0.445800990 0.004395000
0.186829001 0.437988013 0.001373000
0.236693993 0.431335002 0.000000000
0.288177013 0.424865991 0.000000000
0.341461003 0.418181986 0.000000000
0.395691007 0.410889000 0.000000000
0.450195014 0.403106987 0.000000000
0.505280018 0.395264000 0.000000000
0.560638011 0.389771014 0.000000000
0.615813971 0.390320003 0.000000000
0.670013011 0.392944008 0.000000000
0.723236024 0.395568997 0.000000000
0.775237978 0.398346007 0.000000000
0.824828982 0.400970012 0.000000000
0.000000000 0.481415004 0.000732000
0.037445001 0.511078000 0.006104000
0.090545997 0.505370975 0.003876000
0.143096998 0.495849997 0.001587000
0.192718998 0.487731993 0.000153000
0.242310002 0.480957001 0.000000000
0.293334991 0.474487007 0.000000000
0.346130013 0.467864990 0.000000000
0.400085002 0.460967988 0.000000000
0.454407007 0.453491002 0.000000000
0.508789003 0.445740014 0.000000000
0.563323975 0.438109994 0.000000000
0.617736995 0.432738990 0.000000000
0.671387017 0.433533013 0.000000000
0.724120975 0.436309993 0.000000000
0.775695980 0.439177990 0.000000000
0.824768007 0.441832989 0.000000000
0.004089000 0.531067014 0.000000000
0.064758003 0.559997976 0.005188000
0.109039001 0.554291010 0.002258000
0.155579001 0.544891000 0.000732000
0.202820003 0.536652029 0.000000000
0.250670999 0.529784977 0.000000000
0.300507009 0.523315012 0.000000000
0.352355987 0.516906977 0.000000000
0.405456990 0.510254025 0.000000000
0.459197998 0.503081977 0.000000000
0.512969971 0.495543987 0.000000000
0.566559017 0.488007009 0.000000000
0.620087028 0.480652004 0.000000000
0.672973990 0.475158989 0.000000000
0.725127995 0.476195991 0.000000000
0.776275992 0.479187012 0.000000000
0.825073004 0.481720001 0.000000000
0.034302000 0.579833984 0.000000000
0.101775996 0.607757986 0.005432000
0.135773003 0.602141976 0.002258000
0.174529999 0.592926025 0.000732000
0.217377007 0.584716976 0.000000000
0.262450993 0.577849984 0.000000000
0.310119987 0.571380973 0.000000000
0.360260010 0.565002024 0.000000000
0.412108988 0.558593988 0.000000000
0.464783013 0.551757991 0.000000000
0.517760992 0.544556022 0.000000000
0.570403993 0.536987007 0.000000000
0.622802973 0.529663026 0.000000000
0.674773991 0.522460997 0.000000000
0.726409972 0.516875982 0.000000000
0.777100027 0.518341005 0.000000000
0.825469971 0.520843983 0.000000000
0.091095001 0.627044976 0.000000000
0.141937003 0.654143989 0.009308000
0.166901007 0.648651004 0.004791000
0.198302999 0.639526010 0.001617000
0.236114994 0.631470025 0.000214000
0.277496010 0.624602973 0.000000000
0.322326988 0.618194997 0.000000000
0.370238990 0.611908019 0.000000000
0.420165986 0.605590999 0.000000000
0.471343994 0.599059999 0.000000000
0.523163021 0.592194021 0.000000000
0.574859977 0.584930003 0.000000000
0.626160026 0.577575982 0.000000000
0.677062988 0.570434988 0.000000000
0.727936029 0.563445985 0.000000000
0.778137028 0.557434022 0.000000000
0.826171994 0.559081972 0.000000000
0.137360007 0.671782970 0.000732000
0.180053994 0.698302984 0.018371999
0.199157998 0.692992985 0.012512000
0.224761993 0.684020996 0.006256000
0.257445991 0.676117003 0.001038000
0.294800013 0.669312000 0.000000000
0.336517006 0.662932992 0.000000000
0.381835997 0.656554997 0.000000000
0.429473996 0.650330007 0.000000000
0.478760004 0.644043028 0.000000000
0.528991997 0.637421012 0.000000000
0.579528987 0.630463004 0.000000000
0.629851997 0.623291016 0.000000000
0.679687977 0.616119027 0.000000000
0.729369998 0.609221995 0.000000000
0.778778017 0.602509022 0.000000000
0.827270985 0.596190989 0.000000000
0.006897000 0.000000000 0.033721998
0.018494001 0.000793000 0.022918999
0.044066999 0.001587000 0.012421000
0.085235998 0.003021000 0.010742000
0.126922995 0.003845000 0.009155000
0.169921994 0.004639000 0.007843000
0.215362996 0.004639000 0.006897000
0.261992991 0.003174000 0.006104000
0.311278999 0.001099000 0.005341000
0.364776999 0.000000000 0.003845000
0.421508998 0.000000000 0.003052000
0.479889005 0.000000000 0.002258000
0.539000988 0.000000000 0.001465000
0.597899973 0.000000000 0.001465000
0.655974984 0.000000000 0.000793000
0.712799013 0.000000000 0.000793000
0.766875982 0.000000000 0.000702000
0.007050000 0.016998000 0.025482001
0.041016001 0.034759998 0.035248000
0.074036002 0.038787998 0.027100001
0.113098003 0.039519999 0.023804000
0.155640006 0.040222000 0.021484001
0.199493006 0.041076999 0.019928001
0.245361000 0.040557999 0.018371999
0.293395996 0.038300000 0.016357001
0.345367014 0.033234000 0.014832000
0.400848001 0.023163000 0.012970000
0.458557010 0.010101000 0.011383000
0.517150998 0.001190000 0.009857000
0.575896978 0.000000000 0.008270000
0.634033024 0.000000000 0.006805000
0.691009998 0.000000000 0.005127000
0.746520996 0.000000000 0.003021000
0.799468994 0.000000000 0.001465000
0.013214000 0.037262000 0.019317999
0.055144999 0.061218001 0.031677000
0.097961001 0.080994003 0.040497001
0.138762996 0.083861999 0.038451999
0.181640998 0.084320001 0.036072001
0.226135001 0.084778003 0.033752002
0.272704989 0.084778003 0.031555001
0.323150992 0.082886003 0.029236000
0.377045006 0.078429997 0.026916999
0.433623999 0.070952997 0.024689000
0.491638005 0.058623999 0.022368999
0.550109982 0.043304000 0.020050000
0.608307004 0.026215000 0.017944001
0.665679991 0.011078000 0.015625000
0.721679986 0.004028000 0.012634000
0.776031017 0.001312000 0.009705000
0.827484012 0.000702000 0.006714000
0.020111000 0.069091998 0.019226000
0.061737001 0.094177000 0.032288000
0.104584001 0.116393998 0.043427002
0.144409001 0.116547003 0.040252998
0.186340004 0.116028003 0.037108999
0.231232002 0.117035002 0.034118999
0.278625011 0.117431998 0.031799000
0.329528987 0.116516002 0.029479999
0.383971989 0.113922000 0.027161000
0.440825999 0.108733997 0.024840999
0.498748988 0.101074003 0.021819999
0.557190001 0.090880997 0.019623000
0.615265012 0.078339003 0.016663000
0.672179997 0.065277003 0.013794000
0.727904975 0.054412998 0.011292000
0.781952024 0.047637999 0.008270000
0.833159983 0.044464000 0.005280000
0.027892999 0.103790000 0.021484001
0.068236999 0.130034998 0.033904999
0.108856000 0.152802005 0.044861000
0.146972999 0.151916996 0.040863000
0.187896997 0.147125006 0.035491999
0.232361004 0.146911994 0.032226998
0.279816002 0.147826999 0.029387999
0.331115991 0.147857994 0.026946999
0.385711998 0.146393001 0.024048001
0.442413002 0.143371999 0.021729000
0.500365973 0.138946995 0.018828999
0.558533013 0.133301005 0.016174000
0.616455019 0.126617000 0.013519000
0.673247993 0.119658999 0.010498000
0.728760004 0.113646999 0.007507000
0.782684028 0.109527998 0.004486000
