public/lut/111.cube
TITLE "17x17x17 Adobe/IRIDAS cube 3D LUT exported with GrossGrade v0.2.2 (beta) 64 bit"
DOMAIN_MIN 0 0 0
DOMAIN_MAX 1 1 1
LUT_3D_SIZE 17
0.000000000 0.000000000 0.000000000
0.010590000 0.000000000 0.000000000
0.121002004 0.006592000 0.000000000
0.174896002 0.054779001 0.042266998
0.222534001 0.087371998 0.071442001
0.274596989 0.098480001 0.079102002
0.331023991 0.099518001 0.075714000
0.390015006 0.119080000 0.090880997
0.451050013 0.151215002 0.119048998
0.512450993 0.181365997 0.144775003
0.572632015 0.210723996 0.169524997
0.631438971 0.239043996 0.193604007
0.688080013 0.266021997 0.216949001
0.742125988 0.291655988 0.239014000
0.793395996 0.315582007 0.259795994
0.841705024 0.337769002 0.279114008
0.885802984 0.357573986 0.296905994
0.000000000 0.000000000 0.000000000
0.042450000 0.000000000 0.000000000
0.124358997 0.025330000 0.000000000
0.174560994 0.063019000 0.042266998
0.222321004 0.091797002 0.071442001
0.274749994 0.104033999 0.079102002
0.331084996 0.106445000 0.075226001
0.390289009 0.125549003 0.090697996
0.451384991 0.156494007 0.118865997
0.512512028 0.185760006 0.144347996
0.572784007 0.214478001 0.169312000
0.631560981 0.242310002 0.193389997
0.688140988 0.269042999 0.216766000
0.742125988 0.294220001 0.238860995
0.793488026 0.317809999 0.259795994
0.841796994 0.339812994 0.279114008
0.885985970 0.359497011 0.296783000
0.102050997 0.063202001 0.005798000
0.112121999 0.062622003 0.000000000
0.135681003 0.065369003 0.000000000
0.174926996 0.083618000 0.040527001
0.222595006 0.108551003 0.070435002
0.275146008 0.124054000 0.078185998
0.331299007 0.130431995 0.074097000
0.390563995 0.148711994 0.089630000
0.451537997 0.175995007 0.118073002
0.512664974 0.202911004 0.143707007
0.572906017 0.229614004 0.168700993
0.631682992 0.255737007 0.193023995
0.688385010 0.281006008 0.216399997
0.742309988 0.305054009 0.238677993
0.793671012 0.327636987 0.259521008
0.841826975 0.348601997 0.278961003
0.886047006 0.367523015 0.296539009
0.151427999 0.118927002 0.057647999
0.154296994 0.119507000 0.055450000
0.164551005 0.118408002 0.052246001
0.184631005 0.119934000 0.055725001
0.223906994 0.136199996 0.070006996
0.275330007 0.154967993 0.076110996
0.331878990 0.167236000 0.071746998
0.391083002 0.184783995 0.087371998
0.452026010 0.208556995 0.116393998
0.513122976 0.232574001 0.142609000
0.573273003 0.256592005 0.167786002
0.631927013 0.280304015 0.192200005
0.688628972 0.303467005 0.215728998
0.742583990 0.325439006 0.237946004
0.793793023 0.346251994 0.258942008
0.842163026 0.365570009 0.278472990
0.886200011 0.383026004 0.296173006
0.180847004 0.176085994 0.091826998
0.182953000 0.176146999 0.091216996
0.192017004 0.176300004 0.088592999
0.208343998 0.176055998 0.082428001
0.233582005 0.178161994 0.078735001
0.277038991 0.192809999 0.076233000
0.332123011 0.209747002 0.069182999
0.391663015 0.228577003 0.085051998
0.452454001 0.250030994 0.114684999
0.513427973 0.271789998 0.141021997
0.573517025 0.293334991 0.166534007
0.632233024 0.314635992 0.191192999
0.688872993 0.335296988 0.214721993
0.742859006 0.354950011 0.237183005
0.794188976 0.373535007 0.258392006
0.842468023 0.390717000 0.277924001
0.886505008 0.406158000 0.295563012
0.199615002 0.237762004 0.111815996
0.201874003 0.237822995 0.111115001
0.211089998 0.238434002 0.108429000
0.228270993 0.239258006 0.102356002
0.252196997 0.239380002 0.092743002
0.284424007 0.242035002 0.080352999
0.333160013 0.255919993 0.069397002
0.391907007 0.276001006 0.083618000
0.452942014 0.296844006 0.112976000
0.513823986 0.317200005 0.139403999
0.573913991 0.337067008 0.164948002
0.632507026 0.356323004 0.189758003
0.689148009 0.374877989 0.213623002
0.743103027 0.392181009 0.236145005
0.794372976 0.408416986 0.257355005
0.842804015 0.423278987 0.277038991
0.886840999 0.436522990 0.294739008
0.228606999 0.304870993 0.140533000
0.230560005 0.304993004 0.139983997
0.238800004 0.305572987 0.137482002
0.254242003 0.306365997 0.132385001
0.277161002 0.307617009 0.124237001
0.305420011 0.307799995 0.112061001
0.341827005 0.311156988 0.097015001
0.392944008 0.325652987 0.095062003
0.452942014 0.346343994 0.113128997
0.514099002 0.366576999 0.138916001
0.574187994 0.385468006 0.163910002
0.632750988 0.403320014 0.188507006
0.689391971 0.419983000 0.212372005
0.743377984 0.435333014 0.235076994
0.794768989 0.449431986 0.256377995
0.843078971 0.462128013 0.276093006
0.887268007 0.473022014 0.293976009
0.267609000 0.376067996 0.177947998
0.269318014 0.376098990 0.177612007
0.275970012 0.376587003 0.175659001
0.288879007 0.377411008 0.171905994
0.308472008 0.378632009 0.165770993
0.334197998 0.380005002 0.156982005
0.364502013 0.380309999 0.144347996
0.402801991 0.384094000 0.130768001
0.454315007 0.398285002 0.127136007
0.514069021 0.418152004 0.141234994
0.574340999 0.437072992 0.164856002
0.632965028 0.454041004 0.188446000
0.689575016 0.469359994 0.211609006
0.743561029 0.483002007 0.234070003
0.795044005 0.495270014 0.255371004
0.843262017 0.505797982 0.275115997
0.887512028 0.514557004 0.293121010
0.309082001 0.449860007 0.217865005
0.310485989 0.450011998 0.217590004
0.315948009 0.450347990 0.216064006
0.326965004 0.451141000 0.212981999
0.343750000 0.452271014 0.208191007
0.366333008 0.453644007 0.201202005
0.394286990 0.455199987 0.192017004
0.426086009 0.455597013 0.179413006
0.465148985 0.459502995 0.165282995
0.516083002 0.472626001 0.159546003
0.574432015 0.490601003 0.170441002
0.633056998 0.507293999 0.190856993
0.689635992 0.521911979 0.212585002
0.743591011 0.534210026 0.233855993
0.795044005 0.544768989 0.254700005
0.843414009 0.553375006 0.274291992
0.887726009 0.560150027 0.292236000
0.350647002 0.524963021 0.258331001
0.351745993 0.525023997 0.258056998
0.356415004 0.525421023 0.256621987
0.365814000 0.526153982 0.254180998
0.380432010 0.527190983 0.250030994
0.400330007 0.528533995 0.244353995
0.425292999 0.530059993 0.236725003
0.454986989 0.531677008 0.227051005
0.488007009 0.532410026 0.214782998
0.527374029 0.535857975 0.200683996
0.577208996 0.547333002 0.192748994
0.633391976 0.562682986 0.200011998
0.689606011 0.576447010 0.216582999
0.743744016 0.587981999 0.236022994
0.795135021 0.597106993 0.255432010
0.843627989 0.604156017 0.274260998
0.887969971 0.608856022 0.291869998
0.391723990 0.599700987 0.298676014
0.392670006 0.599762022 0.298370004
0.396605998 0.600188971 0.297057986
0.404724002 0.600830019 0.294768989
0.417479992 0.601806998 0.291321009
0.434998006 0.603057981 0.286469012
0.457305998 0.604614019 0.280120999
0.484131008 0.606231987 0.271973014
0.515106022 0.608002007 0.262176991
0.549224973 0.608887017 0.250092000
0.588715017 0.611908019 0.235992000
0.637054026 0.621460021 0.226013005
0.690398991 0.633117974 0.229034007
0.743773997 0.643280029 0.241698995
0.795257986 0.651549995 0.258881003
0.843750000 0.657288015 0.275848001
0.888184011 0.660216987 0.292328000
0.431975991 0.673247993 0.338501006
0.432709008 0.673340023 0.338196009
0.436127007 0.673676014 0.337128013
0.443085015 0.674346983 0.334930003
0.454163015 0.675200999 0.331726015
0.469695985 0.676392019 0.327605993
0.489594012 0.677856028 0.322234988
0.513701975 0.679443002 0.315277010
0.541992009 0.681244016 0.306854010
0.574158013 0.683135986 0.296783000
0.609252989 0.684356987 0.284851015
0.648590028 0.686767995 0.270873994
0.695098996 0.693726003 0.258881003
0.744872987 0.700927973 0.257140994
0.795349002 0.707520008 0.266357005
0.843872011 0.712189019 0.280548006
0.888184011 0.713593006 0.294952005
0.470580995 0.744567990 0.377440989
0.471222013 0.744629025 0.377258003
0.474213004 0.744994998 0.376159996
0.480286002 0.745635986 0.374206990
0.489867985 0.746460021 0.371215999
0.503692985 0.747588992 0.367462009
0.521515012 0.748901010 0.362823009
0.543273985 0.750487983 0.356842011
0.569000006 0.752318978 0.349548012
0.598389030 0.754088998 0.340851009
0.631317019 0.756012022 0.330536008
0.667419016 0.757721007 0.318572998
0.706848025 0.759521008 0.304931998
0.750854015 0.763184011 0.291106999
0.796875000 0.765625000 0.284209996
0.844025016 0.768341005 0.290069997
0.888275027 0.768706977 0.300933987
0.507323980 0.812804997 0.415039003
0.507965028 0.812804997 0.414795011
0.510528982 0.813018978 0.413848996
0.515807986 0.813660026 0.411987007
0.524291992 0.814484000 0.409240991
0.536346018 0.815429986 0.405791998
0.552307010 0.816711009 0.401398003
0.572021008 0.818328977 0.396210015
0.595398009 0.820007026 0.389923006
0.622344971 0.821807981 0.382324010
0.652740002 0.823638976 0.373322010
0.686371028 0.825622976 0.362946004
0.723114014 0.827484012 0.350951999
0.762664974 0.829010010 0.337188989
0.804077029 0.828948975 0.321442008
0.845916986 0.826599002 0.309601009
0.888854980 0.824799001 0.312011987
0.542052984 0.877349973 0.450652987
0.542693973 0.877288997 0.450592011
0.544921994 0.877533019 0.449737996
0.549468994 0.877991021 0.448058993
0.556976020 0.878784001 0.445526004
0.567656994 0.879791021 0.442139000
0.581848025 0.881042004 0.438201994
0.599669993 0.882416010 0.433533013
0.620971978 0.884002984 0.427978992
0.645569026 0.885742009 0.421294987
0.673461974 0.887664974 0.413361013
0.704590023 0.889708996 0.404114008
0.738830984 0.891663015 0.393646002
0.776275992 0.893676996 0.381653011
0.816254020 0.895080984 0.367675990
0.854309022 0.890869021 0.349976003
0.891052008 0.882843018 0.332854986
0.574127018 0.937041998 0.484070003
0.574615002 0.937195003 0.484008998
0.576721013 0.937469006 0.483215004
0.580811024 0.937897027 0.481658995
0.587523997 0.938567996 0.479431003
0.596831977 0.939544976 0.476195991
0.609497011 0.940703988 0.472411990
0.625518978 0.941986024 0.468140006
0.644896984 0.943481028 0.463073999
0.667357981 0.945159972 0.457062006
0.692963004 0.946991026 0.450103998
0.721710026 0.948943973 0.441924989
0.753692985 0.950744987 0.432738990
0.788513005 0.952727973 0.421813995
0.826476991 0.954620004 0.409698009
0.866913021 0.955871999 0.396149009
0.900757015 0.946716011 0.375945985
0.600403011 0.988739014 0.511718988
0.600861013 0.988892019 0.511536002
0.602661014 0.989014030 0.510773003
0.606383979 0.989471018 0.509429991
0.612396002 0.990020990 0.507354975
0.620940983 0.990966976 0.504577994
0.632080019 0.992003977 0.500702024
0.646515012 0.993224978 0.496490002
0.664215028 0.994781017 0.491943002
0.684813976 0.996276975 0.486449987
0.708495975 0.997864008 0.480255008
0.735198975 0.999419987 0.472900003
0.764984012 1.000000000 0.464691013
0.797424018 0.999939024 0.455047995
0.833007991 0.999939024 0.444213986
0.871398985 0.999939024 0.431365997
0.912383974 0.999939024 0.417297006
0.000000000 0.000000000 0.000000000
0.014038000 0.000000000 0.000000000
0.119690001 0.006409000 0.017700000
0.174621999 0.054717999 0.052979000
0.222259998 0.087371998 0.077422999
0.274749994 0.098846003 0.086487003
0.330933005 0.099914998 0.085541002
0.390015006 0.119231999 0.100037001
0.451050013 0.151336998 0.125976995
0.512421012 0.181610003 0.150543004
0.572661996 0.210846007 0.174529999
0.631438971 0.239043996 0.197998002
0.688140988 0.266021997 0.220763996
0.742065012 0.291655988 0.242553994
0.793395996 0.315674007 0.263031006
0.841736019 0.337769002 0.282074004
0.885864019 0.357634991 0.299438000
0.000000000 0.000000000 0.000000000
0.042206001 0.000000000 0.000000000
0.124268003 0.031982001 0.027404999
0.174529999 0.067534998 0.059142999
0.222534001 0.095092997 0.081450999
0.275054991 0.107483000 0.089905001
0.331176996 0.109099999 0.088592999
0.390197992 0.127075002 0.101958998
0.451415986 0.157349005 0.126770005
0.512481987 0.186187997 0.150543004
0.572722971 0.214629993 0.174316004
0.631500006 0.242310002 0.197876006
0.688080013 0.268799007 0.220550999
0.742034972 0.294066995 0.242278993
0.793488026 0.317809999 0.262878001
0.841643989 0.339722008 0.281951994
0.886017025 0.359497011 0.299315989
0.101195998 0.062592000 0.029816000
0.115539998 0.062500000 0.034942999
0.136047006 0.065521002 0.036377002
0.174683005 0.085845999 0.058685001
0.222717002 0.111327998 0.080994003
0.275177002 0.126830995 0.089294001
0.331420988 0.132903993 0.087554999
0.390533000 0.150207996 0.101043999
0.451507986 0.176788002 0.126159996
0.512603998 0.203338996 0.150330007
0.572875977 0.229797006 0.174042001
0.631653011 0.255768001 0.197510004
0.688292980 0.280914009 0.220275998
0.742218018 0.305054009 0.242126003
0.793578982 0.327636987 0.262634009
0.841736019 0.348724008 0.281830013
0.885864019 0.367523015 0.299225003
0.151672006 0.118896000 0.066405997
0.156646997 0.119231999 0.070160002
0.165923998 0.118317001 0.067993000
0.184783995 0.119934000 0.068572998
0.223906994 0.137360007 0.080719002
0.275512993 0.156525001 0.087890998
0.331786990 0.168549001 0.085937999
0.390839010 0.185974002 0.099518001
0.451842993 0.209289998 0.124968998
0.513000011 0.232970998 0.149323002
0.573119998 0.256866008 0.173157007
0.631865978 0.280487001 0.196777001
0.688507020 0.303496987 0.219726995
0.742523015 0.325531006 0.241515994
0.793700993 0.346343994 0.262237996
0.842101991 0.365662009 0.281493992
0.886138976 0.383056998 0.298889011
0.181061000 0.176085994 0.096161000
0.184998006 0.176300004 0.098540999
0.193634003 0.176269993 0.096344002
0.209351003 0.176177993 0.091797002
0.233765006 0.178252995 0.088653997
0.277099997 0.193542004 0.088348001
0.332183987 0.210693002 0.084076002
0.391663015 0.229340002 0.097565003
0.452300996 0.250519007 0.123322003
0.513306022 0.272094995 0.147735998
0.573455989 0.293518007 0.171967000
0.632111013 0.314788997 0.195769995
0.688781977 0.335357994 0.218871996
0.742797971 0.355042011 0.240752995
0.794067025 0.373566002 0.261505008
0.842315972 0.390807986 0.280730993
0.886475027 0.406342000 0.298370004
0.199950993 0.237671003 0.116791002
0.203644007 0.237976000 0.118438996
0.212555006 0.238434002 0.115936004
0.229308993 0.239258006 0.110687003
0.252716005 0.239258006 0.102508999
0.284545988 0.241943002 0.092101999
0.333252013 0.256348014 0.083801001
0.391997993 0.276488990 0.096557997
0.452881008 0.297149986 0.121826001
0.513701975 0.317382991 0.146210000
0.573822021 0.337188989 0.170592993
0.632445991 0.356415004 0.194457993
0.689055979 0.374817014 0.217742994
0.743072987 0.392181009 0.239838004
0.794250011 0.408385992 0.260589987
0.842711985 0.423308998 0.280028999
0.886870980 0.436675996 0.297668010
0.228943005 0.304809988 0.144867003
0.231749997 0.304931998 0.145781994
0.239960000 0.305541992 0.143676996
0.255309999 0.306365997 0.139069006
0.277862996 0.307617009 0.131652996
0.305817008 0.307891995 0.120604999
0.341980010 0.311278999 0.107726999
0.392852992 0.325805992 0.105865002
0.453002989 0.346558005 0.121918000
0.514129996 0.366791010 0.145813003
0.574158013 0.385589987 0.169524997
0.632721007 0.403380990 0.193329006
0.689301014 0.420013011 0.216582999
0.743286014 0.435333014 0.238738999
0.794586003 0.449402004 0.259644002
0.842926025 0.462096989 0.279114008
0.887145996 0.473082989 0.296813995
0.268036008 0.376067996 0.181793004
0.269989014 0.376129001 0.182098001
0.276764005 0.376587003 0.180450007
0.289673001 0.377411008 0.176818997
0.309082001 0.378693014 0.170898005
0.334656000 0.380066007 0.162597999
0.364838004 0.380401999 0.150603995
0.402893007 0.384124994 0.138091996
0.454376012 0.398346007 0.134735003
0.514069021 0.418242991 0.148010001
0.574340999 0.437133998 0.170441002
0.632934988 0.454070985 0.193237007
0.689484000 0.469390988 0.215850994
0.743561029 0.483092993 0.237731993
0.794891000 0.495209008 0.258635998
0.843200982 0.505828977 0.278106987
0.887450993 0.514617980 0.295836985
0.309448004 0.449889988 0.221221998
0.310974002 0.450011998 0.221129999
0.316650003 0.450439006 0.219788000
0.327454001 0.451141000 0.216796994
0.344238013 0.452300996 0.212066993
0.366638005 0.453644007 0.205321997
0.394531012 0.455199987 0.196381003
0.426270008 0.455688000 0.184235007
0.465209991 0.459533989 0.170837000
0.516174018 0.472656012 0.165344000
0.574370980 0.490631014 0.175812006
0.632996023 0.507354975 0.195435002
0.689544976 0.521880984 0.216704994
0.743622005 0.534210026 0.237700999
0.795044005 0.544739008 0.257995993
0.843445003 0.553435981 0.277373999
0.887695014 0.560150027 0.295105010
0.350951999 0.524901986 0.261078000
0.352142006 0.525023997 0.260863990
0.356873006 0.525421023 0.259613007
0.366272002 0.526093006 0.257111013
0.380858988 0.527130008 0.253143013
0.400635004 0.528473020 0.247589007
0.425536990 0.530089974 0.240143001
0.455109000 0.531708002 0.230682001
0.488128990 0.532410026 0.218658000
0.527435005 0.535919011 0.204864994
0.577270985 0.547424018 0.197295994
0.633422971 0.562713981 0.204346001
0.689513981 0.576447010 0.220489994
0.743682981 0.587952018 0.239563003
0.795073986 0.597075999 0.258727998
0.843536019 0.604218006 0.277343988
0.887969971 0.608916998 0.294678003
0.392028987 0.599669993 0.301117003
0.393005013 0.599792004 0.300841987
0.397033989 0.600158989 0.299712986
0.405120999 0.600861013 0.297363013
0.417816013 0.601776004 0.293884009
0.435241997 0.603057981 0.289184988
0.457489014 0.604552984 0.282837003
0.484221995 0.606231987 0.274962991
0.515197992 0.607971013 0.265258998
0.549315989 0.608947992 0.253325999
0.588744998 0.611999989 0.239531994
0.637023985 0.621460021 0.229797006
0.690398991 0.633117974 0.232666001
0.743682981 0.643280029 0.245239004
0.795226991 0.651610970 0.262023985
0.843689024 0.657317996 0.278930992
0.888122976 0.660247982 0.295226991
0.432190001 0.673156977 0.340698004
0.432953000 0.673278987 0.340362996
0.436370999 0.673645020 0.339293987
0.443298012 0.674286008 0.337157995
0.454468012 0.675200999 0.334105998
0.469909996 0.676392019 0.329986989
0.489807010 0.677856028 0.324553996
0.513885021 0.679382026 0.317687988
0.542114019 0.681182981 0.309417993
0.574127018 0.683044016 0.299438000
0.609221995 0.684356987 0.287537009
0.648621023 0.686797976 0.273956001
0.695128977 0.693726003 0.262145996
0.744903982 0.700927973 0.260468006
0.795379996 0.707520008 0.269562006
0.843810976 0.712189019 0.283508003
0.888153017 0.713622987 0.297791004
0.470885992 0.744597971 0.379516989
0.471496999 0.744719982 0.379150003
0.474518001 0.744994998 0.378113002
0.480529994 0.745575011 0.376282007
0.490173012 0.746367991 0.373290986
0.503875971 0.747588992 0.369536996
0.521697998 0.748901010 0.364928991
0.543456972 0.750365973 0.359008998
0.569122016 0.752197027 0.351714998
0.598541021 0.754059017 0.343017995
0.631377995 0.755950987 0.332886010
0.667419016 0.757659972 0.321166992
0.706879020 0.759491026 0.307464987
0.750854015 0.763091981 0.293884009
0.796875000 0.765625000 0.287018001
0.844054997 0.768341005 0.292937994
0.888336003 0.768737972 0.303710997
0.507659972 0.812744021 0.416779011
0.508208990 0.812804997 0.416503996
0.510833979 0.813018978 0.415558010
0.516083002 0.813598990 0.413848996
0.524474978 0.814484000 0.411101997
0.536559999 0.815460026 0.407561988
0.552489996 0.816711009 0.403320014
0.572234988 0.818297982 0.398131996
0.595551014 0.819976985 0.391784996
0.622437000 0.821807981 0.384308010
0.652740002 0.823700011 0.375396997
0.686339974 0.825684011 0.365051001
0.723205984 0.827515006 0.353240997
0.762573004 0.828948975 0.339507997
0.804138005 0.828917980 0.323882997
0.845978022 0.826599002 0.312164009
0.888854980 0.824859977 0.314606011
0.542357981 0.877197027 0.452331990
0.542877018 0.877288997 0.452118009
0.545104980 0.877502024 0.451263011
0.549866021 0.877991021 0.449737996
0.557219982 0.878814995 0.447205007
0.567902029 0.879760981 0.443816990
0.581969976 0.881012022 0.439850003
0.599822998 0.882385015 0.435211003
0.621093988 0.883971989 0.429625988
0.645659983 0.885712028 0.422942996
0.673492014 0.887664974 0.415131003
0.704650998 0.889708996 0.405975014
0.738922000 0.891692996 0.395476997
0.776337028 0.893737972 0.383545011
0.816254020 0.895111024 0.369780988
0.854369998 0.890869021 0.352355987
0.891052008 0.882874012 0.335236013
0.574463010 0.937072992 0.485626012
0.574828982 0.937164009 0.485352010
0.576934993 0.937407970 0.484679997
0.581085026 0.937804997 0.483184993
0.587707996 0.938538015 0.480926991
0.597106993 0.939513981 0.477753013
0.609679997 0.940643013 0.473906994
0.625671029 0.941924989 0.469635010
0.644989014 0.943419993 0.464661002
0.667479992 0.945128977 0.458739996
0.693085015 0.946991026 0.451752007
0.721984982 0.948943973 0.443756014
0.753784001 0.950744987 0.434417993
0.788543999 0.952759027 0.423676014
0.826538026 0.954620004 0.411621004
0.866943002 0.955780029 0.397796988
0.900847971 0.946776986 0.378082007
0.600615978 0.988830984 0.512878001
0.601166010 0.988892019 0.512938976
0.602966011 0.988982975 0.512206972
0.606598020 0.989409983 0.510864019
0.612609982 0.990050972 0.508759022
0.621093988 0.990966976 0.505859017
0.632293999 0.992003977 0.502135992
0.646667004 0.993164003 0.497954994
0.664398015 0.994690001 0.493407995
0.685059011 0.996276975 0.488097996
0.708557010 0.997864008 0.481812000
0.735291004 0.999419987 0.474487007
0.765044987 1.000000000 0.466309011
0.797546029 0.999939024 0.456450999
0.832947016 0.999939024 0.445495993
0.871338010 0.999939024 0.432983011
0.912445009 0.999939024 0.419158995
0.106078997 0.037964001 0.065490998
0.112761997 0.037903000 0.065886997
0.138579994 0.037964001 0.068420000
0.174285993 0.058745999 0.078735001
0.221741006 0.086975001 0.097809002
0.274444997 0.099151999 0.110535003
0.330657989 0.100311004 0.115355998
0.389984012 0.119750999 0.129333004
0.451079994 0.151824996 0.150757000
0.512299001 0.181793004 0.172271997
0.572601020 0.210998997 0.193939000
0.631377995 0.239226997 0.215545997
0.687958002 0.266295999 0.236663997
0.742065012 0.291779011 0.256713986
0.793335021 0.315703988 0.275970012
0.841583014 0.337769002 0.293823004
0.885773003 0.357757986 0.310180992
0.107268997 0.044922002 0.066405997
0.120392002 0.048797999 0.065796003
0.140655994 0.052062999 0.069610998
0.174683005 0.069550000 0.081238002
0.221984997 0.094971001 0.100493997
0.274414003 0.108002000 0.112853996
0.330657989 0.109862998 0.117645003
0.389892995 0.127746999 0.130768001
0.451050013 0.157897994 0.151611000
0.512206972 0.186523005 0.172545999
0.572539985 0.214935005 0.194000006
0.631255984 0.242493004 0.215424001
0.687958002 0.269104004 0.236542001
0.741913021 0.294373006 0.256713986
0.793395996 0.318053991 0.275878996
0.841705024 0.339935005 0.293945014
0.885833979 0.359710991 0.310180992
0.120056003 0.072296001 0.069214001
0.128937006 0.072327003 0.069824003
0.143646002 0.073974997 0.072021000
0.180419996 0.088104002 0.082549997
0.232970998 0.108672999 0.098328002
0.286742985 0.115509003 0.102783002
0.341888011 0.119537003 0.104217999
0.399596989 0.138336003 0.117371000
0.459167004 0.165710002 0.138457999
0.519104004 0.193114996 0.160370007
0.578429997 0.220458999 0.182616994
0.636475027 0.247437000 0.204955995
0.692565978 0.273467988 0.226928994
0.746124029 0.298218012 0.247986004
0.797150016 0.321686000 0.268126994
0.845245004 0.343291998 0.286895990
0.889129996 0.362915009 0.303925008
0.151427999 0.118835002 0.086823002
0.156737998 0.118804999 0.088561997
0.163268998 0.120238997 0.085876003
0.182831004 0.119842999 0.082030997
0.227385998 0.135711998 0.091491997
0.282561988 0.149994001 0.095702998
0.340393007 0.159667999 0.096680000
0.399475008 0.176666006 0.110625997
0.459838986 0.199950993 0.133392006
0.520264030 0.223816007 0.156128004
0.579711974 0.248108000 0.179290995
0.637848020 0.272368997 0.202240005
0.693938971 0.296021014 0.224579006
0.747497976 0.318634003 0.246032998
0.798492014 0.340056986 0.266357005
0.846466005 0.360076994 0.285369992
0.890442014 0.378113002 0.302643001
0.181090996 0.175720006 0.112915002
0.185332999 0.175963998 0.114409998
0.188384995 0.177246004 0.108856000
0.202971995 0.176392004 0.100311004
0.231200993 0.177794993 0.095794998
0.278014988 0.191131994 0.094329998
0.335693002 0.206481993 0.092804000
0.396270990 0.224030003 0.106384002
0.457457989 0.244690001 0.130401999
0.518554986 0.265929997 0.153991997
0.578490973 0.287353992 0.177489996
0.636901975 0.308654994 0.200836003
0.693328977 0.329528987 0.223389000
0.747253001 0.349456996 0.245056003
0.798187017 0.368378013 0.265594006
0.846374989 0.386139005 0.284667999
