public/lut/111.cube
TITLE "17x17x17 Adobe/IRIDAS cube 3D LUT exported with GrossGrade v0.2.2 (beta) 64 bit"
DOMAIN_MIN 0 0 0
DOMAIN_MAX 1 1 1
LUT_3D_SIZE 5
0.000000000 0.000000000 0.000000000
0.222534001 0.087371998 0.071442001
0.451050013 0.151215002 0.119048998
0.688080013 0.266021997 0.216949001
0.885802984 0.357573986 0.296905994
0.180847004 0.176085994 0.091826998
0.233582005 0.178161994 0.078735001
0.452454001 0.250030994 0.114684999
0.688872993 0.335296988 0.214721993
0.886505008 0.406158000 0.295563012
0.309082001 0.449860007 0.217865005
0.343750000 0.452271014 0.208191007
0.465148985 0.459502995 0.165282995
0.689635992 0.521911979 0.212585002
0.887726009 0.560150027 0.292236000
0.470580995 0.744567990 0.377440989
0.489867985 0.746460021 0.371215999
0.569000006 0.752318978 0.349548012
0.706848025 0.759521008 0.304931998
0.888275027 0.768706977 0.300933987
0.600403011 0.988739014 0.511718988
0.612396002 0.990020990 0.507354975
0.664215028 0.994781017 0.491943002
0.764984012 1.000000000 0.464691013
0.912383974 0.999939024 0.417297006
0.171021000 0.105469003 0.163025007
0.231506005 0.103850998 0.172516003
0.449279994 0.154785007 0.234467000
0.687286019 0.267455995 0.303223014
0.885497987 0.358521014 0.359833002
0.196807995 0.182769999 0.175414994
0.228577003 0.176788002 0.172699004
0.477692008 0.208739996 0.196135998
0.716979980 0.299315989 0.262511998
0.910674989 0.382201999 0.330536008
0.323486000 0.447692990 0.292328000
0.321563989 0.451781988 0.252593994
0.455779999 0.455383003 0.190764993
0.699065983 0.509582996 0.235167995
0.904388011 0.548065007 0.314484000
0.480408013 0.743255973 0.428894013
0.478394002 0.746643007 0.397246987
0.556151986 0.753937006 0.365051001
0.704375982 0.759827018 0.317595989
0.892669976 0.764679015 0.314940989
0.607697010 0.987854004 0.548125982
0.617096007 0.989349008 0.536682010
0.670502007 0.994292974 0.525757015
0.768616021 1.000000000 0.500885010
0.914489985 0.999939024 0.459075987
0.279754996 0.225372002 0.400543004
0.318939000 0.228790000 0.409148991
0.449707001 0.233612001 0.439177990
0.675963998 0.281859994 0.507445991
0.880065978 0.365478992 0.541900992
0.301696986 0.289885998 0.403991997
0.327605993 0.285582989 0.449737996
0.472564995 0.275115997 0.474426001
0.701447010 0.306609988 0.515166998
0.903961003 0.385619998 0.539031982
0.385192990 0.455444008 0.446503013
0.391083002 0.457183987 0.450165004
0.461486995 0.451537997 0.445618004
0.710663021 0.493469000 0.489654988
0.944335997 0.579926014 0.560516000
0.536652029 0.734435976 0.585418999
0.534973025 0.737273991 0.575500011
0.545714974 0.748778999 0.529479980
0.682403982 0.745299995 0.466522008
0.918426991 0.770447016 0.490967005
0.649231017 0.981505990 0.682677984
0.655457020 0.983276010 0.674804986
0.717041016 0.991333008 0.682434022
0.811127007 1.000000000 0.690307975
0.928557992 0.999939024 0.667510986
0.424376994 0.380005002 0.691895008
0.447784007 0.382506996 0.696776986
0.534362972 0.390778005 0.716614008
0.678497016 0.398223996 0.751250982
0.856567025 0.398986995 0.774231017
0.438385010 0.423034996 0.694305003
0.460083008 0.423004001 0.746520996
0.552489996 0.427551001 0.767638981
0.697784007 0.423889011 0.785247982
0.875092030 0.416168004 0.790526986
0.498169005 0.561339974 0.710693002
0.503174007 0.559174001 0.726288021
0.603699028 0.598450005 0.794312000
0.743682981 0.609282970 0.830749989
0.918671012 0.587341011 0.838684022
0.600005984 0.752716005 0.768523991
0.603729010 0.754729986 0.772216976
0.641448975 0.770202994 0.796570003
0.776642025 0.804229975 0.821533024
0.910278022 0.823333979 0.855255008
0.720703006 0.972961009 0.862761974
0.728667974 0.973968983 0.861298025
0.784668028 0.980225027 0.872771978
0.883697987 0.991150022 0.911132991
0.957336009 0.999939024 0.921509027
0.489654988 0.450470001 0.933715999
0.507385015 0.452331990 0.937072992
0.575255990 0.459473014 0.951233029
0.691559017 0.469756991 0.978942990
0.851562977 0.475861013 1.000000000
0.500671029 0.484252989 0.934630990
0.515625000 0.481658995 0.936767995
0.583862007 0.491607994 0.951018989
0.697234988 0.501525998 0.978972971
0.855560005 0.507476985 1.000000000
0.547272027 0.602478027 0.940429986
0.559478998 0.601043999 0.941711009
0.652648985 0.644195974 0.954986989
0.751923025 0.668242991 0.981353998
0.881896973 0.673309028 1.000000000
0.637115002 0.776732981 0.964110970
0.646820009 0.776672006 0.964232981
0.717957020 0.800018013 0.970305979
0.842254996 0.862121999 0.987335026
0.930359006 0.883728027 1.000000000
0.746703982 0.980132997 1.000000000
0.754974008 0.980956972 1.000000000
0.807677984 0.985413015 1.000000000
0.899963021 0.995117009 1.000000000
0.974213004 1.000000000 1.000000000
