public/lut/112.cube
TITLE "17x17x17 Adobe/IRIDAS cube 3D LUT exported with GrossGrade v0.2.2 (beta) 64 bit"
DOMAIN_MIN 0 0 0
DOMAIN_MAX 1 1 1
LUT_3D_SIZE 17
0.000000000 0.000000000 0.000000000
0.030151000 0.001587000 0.000000000
0.079223998 0.006104000 0.000000000
0.132110998 0.010742000 0.000793000
0.188019007 0.016968001 0.000793000
0.246582001 0.021576000 0.001587000
0.310698986 0.024932999 0.002075000
0.393860012 0.028839000 0.003174000
0.481018007 0.032349002 0.003937000
0.552765012 0.035034001 0.005524000
0.610503972 0.037078999 0.006317000
0.661346018 0.037872002 0.007111000
0.709900022 0.037872002 0.007111000
0.756989002 0.036926001 0.007904000
0.793914974 0.034607001 0.007111000
0.828185976 0.030640000 0.007111000
0.867645025 0.026031001 0.007111000
0.023254000 0.058715999 0.023254000
0.041839998 0.062164001 0.021790000
0.088653997 0.059509002 0.001190000
0.136504993 0.059540000 0.000000000
0.188141003 0.061248999 0.000793000
0.244568005 0.063933998 0.001343000
0.312133998 0.067199998 0.001587000
0.394226015 0.071869001 0.002808000
0.477692008 0.075103998 0.003937000
0.549133003 0.076874003 0.004730000
0.607635021 0.077575997 0.005524000
0.659606993 0.077881001 0.006317000
0.709563971 0.077422999 0.007111000
0.757416010 0.076812997 0.007111000
0.796630979 0.075378001 0.007111000
0.830565989 0.073334001 0.007111000
0.870177984 0.071777001 0.007111000
0.043427002 0.143646002 0.044188999
0.052306999 0.146362007 0.043517999
0.103485003 0.138762996 0.032623000
0.156188995 0.126617000 0.006256000
0.203551993 0.118408002 0.000000000
0.263366997 0.118835002 0.000702000
0.336151004 0.122405998 0.001587000
0.416229010 0.125701994 0.002380000
0.493683010 0.127441004 0.003632000
0.560302973 0.127196997 0.004730000
0.616119027 0.125946000 0.005524000
0.665955007 0.124237001 0.006317000
0.714385986 0.123016000 0.006592000
0.761870980 0.121857002 0.007111000
0.802215993 0.120849997 0.007111000
0.836273015 0.119537003 0.007111000
0.875702024 0.118896000 0.006317000
0.050781000 0.219054997 0.051543999
0.059845001 0.224304006 0.052094001
0.100891002 0.220917001 0.047455002
0.165923998 0.210357994 0.033447001
0.227356002 0.197356999 0.013611000
0.286163002 0.188416004 0.002014000
0.350555003 0.185332999 0.000641000
0.425292999 0.185760006 0.002380000
0.500153005 0.185637996 0.003174000
0.564788997 0.183319002 0.003937000
0.619781017 0.179839998 0.004730000
0.669951975 0.176697001 0.005524000
0.718810976 0.174193993 0.006317000
0.767150998 0.172394007 0.006592000
0.810638011 0.170807004 0.007111000
0.844390988 0.169464007 0.006439000
0.884033024 0.169464007 0.006317000
0.054138001 0.340332001 0.055420000
0.067657001 0.357697010 0.056519002
0.091858000 0.354705989 0.054047000
0.177063003 0.333770990 0.046204001
0.253906012 0.308288991 0.033721998
0.320740014 0.286071986 0.018005000
0.384429991 0.270446986 0.004517000
0.450287014 0.261260986 0.001221000
0.515625000 0.255066007 0.003174000
0.576111019 0.248749003 0.003693000
0.630127013 0.242188007 0.003937000
0.678955019 0.236205995 0.004730000
0.726898015 0.231628001 0.005524000
0.775116026 0.228423998 0.006317000
0.820922971 0.226043999 0.006317000
0.855560005 0.224273995 0.006317000
0.895080984 0.224335000 0.006317000
0.054931998 0.440856993 0.056823999
0.073394999 0.471740991 0.059052002
0.088653997 0.468383998 0.057953000
0.169586003 0.448363990 0.052306999
0.257934988 0.418792993 0.044098001
0.335083008 0.389342993 0.034453999
0.404754996 0.364746004 0.021545000
0.471863002 0.347075999 0.007050000
0.532500982 0.332581013 0.001984000
0.585875988 0.319550008 0.003174000
0.636382997 0.309051991 0.003937000
0.685669005 0.300476015 0.004181000
0.734467030 0.293945014 0.005188000
0.782867014 0.289092988 0.005524000
0.829773009 0.285216987 0.005768000
0.868041992 0.282593012 0.005524000
0.907653987 0.282501012 0.005524000
0.059174001 0.540099978 0.060973998
0.083099000 0.571686029 0.065673999
0.100097999 0.567627013 0.064879999
0.155242994 0.554320991 0.060364000
0.251892000 0.527557015 0.054198999
0.340698004 0.496917993 0.046478000
0.417328000 0.467833996 0.038849000
0.486815989 0.442351997 0.026123000
0.548156977 0.420226991 0.009247000
0.600310981 0.400238007 0.002228000
0.647278011 0.383635998 0.003937000
0.694213986 0.371123999 0.003937000
0.742340028 0.361815989 0.004425000
0.791229010 0.354918987 0.004730000
0.839232981 0.349548012 0.005524000
0.881713986 0.345672995 0.005524000
0.921416998 0.344788015 0.005524000
0.064911000 0.615265012 0.066832997
0.093535997 0.638244987 0.072906002
0.115172997 0.634552002 0.071533002
0.143035993 0.627135992 0.068420000
0.236480996 0.608947992 0.063812003
0.332946986 0.584197998 0.057891998
0.416076988 0.557922006 0.051270001
0.489623994 0.531952024 0.044098001
0.554443002 0.507507026 0.030365000
0.609984994 0.484252989 0.011749000
0.657745004 0.462585002 0.002380000
0.703217030 0.445587009 0.003937000
0.750304997 0.433562994 0.003937000
0.798859000 0.424499989 0.004425000
0.847504020 0.417174995 0.004730000
0.893981993 0.411193997 0.004730000
0.934813976 0.409545988 0.004730000
0.070525996 0.664825022 0.072356999
0.101746000 0.679320991 0.077820003
0.127379999 0.676849008 0.076720998
0.148254007 0.672667980 0.075011998
0.219604000 0.663085997 0.071044996
0.313843012 0.646027029 0.066711001
0.401885986 0.625792980 0.061127000
0.480010986 0.604950011 0.055481002
0.549835026 0.584228992 0.048981000
0.611450016 0.563812017 0.034210000
0.665009022 0.543213010 0.013306000
0.712799013 0.523833990 0.003174000
0.759276986 0.508391976 0.004730000
0.806976020 0.497040004 0.003937000
0.855835021 0.488068014 0.003937000
0.904784977 0.480408013 0.004730000
0.948333979 0.477753013 0.004333000
0.075591996 0.707702994 0.077575997
0.109222002 0.716766000 0.081817999
0.137999997 0.714935005 0.081023999
0.165344000 0.711822987 0.079620004
0.209868997 0.707274973 0.076201998
0.295745999 0.696166992 0.073090002
0.385895014 0.680999994 0.069397002
0.465972990 0.664672971 0.064544998
0.538543999 0.648101985 0.058837999
0.604645014 0.632018983 0.052368000
0.664489985 0.616180003 0.037354000
0.718200982 0.599640012 0.014099000
0.767242014 0.583557010 0.003601000
0.814880013 0.569976985 0.004730000
0.863312006 0.559234977 0.003937000
0.912262022 0.550200999 0.003937000
0.959563971 0.545929015 0.003937000
0.080596998 0.748382986 0.082488999
0.116637997 0.753632009 0.086273000
0.148468003 0.752135992 0.084868997
0.180389002 0.749907970 0.083495997
0.212249994 0.747893989 0.081359997
0.285979986 0.741271973 0.078491002
0.373169005 0.730499029 0.075591996
0.453949004 0.717895985 0.071777001
0.527588010 0.704559028 0.066832997
0.594940007 0.691284001 0.061432000
0.657531977 0.678802013 0.054779001
0.716491997 0.667145014 0.040252998
0.771422982 0.655028999 0.014496000
0.821929991 0.641968012 0.004272000
0.870360970 0.629791021 0.004730000
0.919188976 0.619507015 0.003937000
0.968596995 0.614135981 0.003937000
0.086150996 0.788788021 0.087921001
0.120453000 0.791992009 0.086548001
0.157532007 0.790679991 0.087554999
0.193877995 0.789124012 0.087006003
0.227081001 0.787810981 0.085114002
0.286224008 0.784026980 0.083557002
0.365752995 0.776642025 0.082336001
0.445679009 0.767242014 0.078979000
0.519226015 0.757263005 0.073882997
0.587463021 0.747070014 0.068085000
0.651122987 0.736999989 0.062531002
0.711516976 0.727599978 0.055573002
0.769867003 0.719115973 0.041198999
0.825713992 0.710143983 0.013794000
0.877318978 0.699370980 0.006592000
0.927612007 0.689148009 0.004486000
0.978148997 0.683562994 0.003937000
0.064971998 0.828552008 0.067230001
0.095154002 0.831359982 0.058258001
0.138549998 0.829802990 0.062073000
0.179870993 0.828460991 0.063781999
0.217316002 0.827727973 0.061340000
0.269775003 0.825989008 0.061859000
0.349548012 0.821502984 0.062835999
0.433227986 0.814575016 0.067047000
0.509247005 0.806244016 0.072082996
0.578857005 0.797607005 0.071777001
0.642913997 0.789581001 0.066832997
0.704253972 0.782288015 0.060547002
0.763947010 0.775909007 0.053649999
0.822387993 0.769896984 0.041717999
0.879088998 0.763275027 0.018340999
0.932403982 0.754547000 0.006592000
0.985840023 0.748534977 0.003937000
0.000000000 0.871215999 0.000000000
0.037108999 0.871307015 0.000000000
0.079254001 0.870757997 0.000000000
0.122284003 0.869965017 0.000000000
0.165436000 0.869080007 0.000000000
0.217041001 0.868134022 0.000000000
0.307983011 0.866851985 0.000000000
0.407714993 0.863556027 0.011444000
0.496062994 0.857666016 0.043212999
0.573364019 0.850983024 0.062408000
0.639770985 0.844695985 0.066376001
0.701659977 0.838867009 0.064056002
0.761627018 0.833588004 0.059142999
0.820617974 0.828948975 0.051024999
0.879119992 0.824645996 0.039276000
0.937560976 0.820312977 0.017151000
0.993134022 0.815765023 0.005829000
0.006805000 0.908813000 0.009155000
0.052581999 0.908843994 0.009277000
0.098082997 0.908416986 0.009155000
0.143950999 0.907958984 0.009064000
0.190704003 0.907531977 0.008270000
0.234984994 0.906952024 0.008270000
0.311340004 0.906005979 0.006897000
0.397704989 0.904632986 0.004303000
0.476776004 0.903228998 0.001099000
0.553557992 0.900695980 0.010590000
0.626984000 0.896422982 0.034118999
0.694091976 0.891815007 0.047974002
0.756531000 0.888122976 0.051116999
0.816771984 0.884917974 0.047088999
0.876281977 0.881896973 0.041168001
0.935944021 0.879088998 0.031342000
0.996825993 0.877686024 0.010437000
0.074951001 0.951538026 0.075409003
0.127196997 0.951476991 0.078827001
0.174468994 0.951323986 0.077026002
0.221283004 0.951141000 0.074463002
0.268584996 0.950927973 0.071563996
0.316527992 0.950562000 0.068970002
0.369536996 0.950164974 0.065186001
0.429565012 0.949706972 0.059661999
0.493164003 0.949187994 0.051635999
0.557281017 0.948607981 0.040679999
0.621643007 0.948028982 0.025269000
0.686523020 0.947296023 0.007721000
0.751403987 0.946044981 0.001587000
0.814728022 0.944122016 0.014008000
0.876128972 0.941895008 0.023712000
0.937041998 0.940155029 0.025574001
0.998046994 0.939177990 0.012482000
0.076172002 0.999877989 0.076660000
0.126587003 0.999877989 0.074738003
0.178406000 0.999877989 0.074219003
0.230164006 0.999877989 0.073761001
0.281280994 0.999877989 0.071044996
0.333220989 0.999877989 0.069854997
0.386963010 0.999877989 0.066467002
0.444976985 0.999877989 0.062560998
0.505309999 0.999877989 0.057128999
0.566375971 0.999877989 0.052216001
0.627563000 0.999877989 0.046783000
0.688781977 0.999877989 0.037903000
0.750487983 0.999877989 0.030762000
0.812195003 0.999877989 0.022430001
0.874145985 0.999877989 0.017364999
0.936554015 0.999846995 0.004639000
0.998718023 0.999724984 0.000000000
0.000000000 0.000732000 0.049042001
0.032501001 0.000000000 0.052062999
0.082030997 0.000061000 0.053222999
0.135619998 0.000885000 0.052703999
0.190430000 0.001617000 0.051575001
0.246978998 0.001862000 0.050781000
0.314330995 0.002655000 0.051453002
0.395691007 0.003998000 0.052094001
0.476958990 0.005127000 0.052765001
0.545502007 0.006256000 0.052154999
0.603119016 0.007050000 0.052154999
0.654877007 0.007538000 0.052154999
0.705048025 0.008270000 0.052154999
0.754364014 0.008270000 0.052825999
0.796630979 0.008270000 0.054047000
0.830291986 0.008179000 0.055420000
0.869231999 0.007385000 0.058350001
0.017151000 0.051453002 0.057190001
0.031952001 0.056945998 0.060637999
0.085876003 0.053528000 0.054779001
0.140411004 0.045867998 0.045166001
0.194793999 0.034302000 0.025269000
0.249633998 0.033904999 0.016571000
0.316956013 0.039276000 0.017639000
0.395233005 0.044495001 0.019531000
0.473755002 0.048615001 0.021088000
0.542603016 0.051543999 0.023468001
0.600341976 0.053467002 0.025757000
0.653137028 0.055114999 0.027588001
0.704253972 0.055907998 0.029877000
0.754149973 0.056334998 0.032745000
0.798096001 0.056304999 0.035034001
0.831573009 0.055542000 0.036681999
0.870788991 0.051819000 0.038970999
0.040405001 0.139220998 0.074982002
0.047516000 0.142821997 0.074584998
0.097107001 0.136444002 0.066467002
0.151336998 0.123016000 0.060454998
0.203766003 0.115051001 0.055206001
0.267944008 0.113403000 0.047058001
0.340575993 0.113342002 0.035278000
0.416534007 0.113280997 0.023163000
0.490020990 0.113953002 0.018738000
0.554382026 0.114105001 0.021850999
0.609740973 0.113586001 0.024932999
0.660156012 0.113007002 0.027740000
0.709747016 0.112427004 0.030121000
0.759247005 0.112121999 0.032623000
0.803406000 0.111786000 0.034790002
0.837067008 0.111023001 0.036377002
0.876434028 0.110198997 0.037903000
0.049438000 0.215698004 0.075745001
0.059082001 0.222442999 0.077026002
0.091766000 0.221618995 0.073486000
0.161376998 0.210235998 0.065215997
0.225250006 0.196410999 0.057709001
0.284911990 0.187195003 0.059052002
0.350311011 0.182982996 0.058380000
0.423676014 0.180023000 0.043853998
0.496154994 0.177123994 0.026031001
0.559203982 0.174225003 0.021484001
0.613922000 0.171325997 0.025818000
0.664947987 0.168761998 0.028625000
0.714995980 0.166840002 0.031280998
0.764464974 0.165557995 0.033569001
0.810455024 0.164611995 0.035645001
0.844910026 0.163513005 0.037170000
0.884398997 0.163939998 0.038727000
0.054016002 0.339264005 0.076476999
0.067199998 0.355194002 0.077910997
0.084137000 0.352782995 0.076568998
0.169769004 0.332152992 0.068572998
0.248932004 0.305359006 0.058472000
0.316193014 0.282471001 0.049500000
0.379456013 0.266357005 0.048859000
0.444884986 0.256377995 0.052062999
0.511382997 0.249083996 0.041260000
0.572632015 0.242004007 0.027313000
0.626098990 0.235504001 0.025787000
0.675293028 0.229889005 0.029572001
0.724090993 0.225922003 0.032074001
0.773346007 0.223144993 0.034363002
0.820708990 0.221191004 0.036377002
0.856414974 0.220000997 0.037903000
0.895874023 0.220245004 0.039429002
0.054931998 0.440979004 0.073974997
0.073028997 0.468567014 0.075805999
0.086883999 0.464569002 0.075378001
0.160644993 0.446563989 0.070679002
0.251159996 0.416350991 0.062500000
0.329894990 0.385619998 0.053589001
0.399109006 0.359802008 0.045012999
0.464722008 0.341095001 0.034790002
0.525574028 0.326355010 0.028839000
0.580780029 0.313506991 0.027740000
0.632568002 0.303191990 0.028290000
0.682770014 0.295318991 0.030212000
0.732361019 0.289429009 0.033172999
0.781403005 0.284882009 0.035094999
0.828765988 0.281280994 0.037262000
0.868408024 0.278838992 0.038879000
0.908294976 0.279114008 0.040375002
0.059174001 0.540404975 0.079529002
0.082672000 0.569091976 0.083770998
0.100524999 0.564758003 0.083130002
0.143616006 0.553252995 0.079498000
0.243835002 0.526732981 0.074097000
0.336059988 0.495238990 0.067047000
0.413605005 0.465301991 0.059478998
0.483092993 0.439056009 0.047150001
0.543793023 0.416137993 0.031799000
0.595825016 0.395873994 0.027069001
0.643799007 0.379395008 0.030609000
0.692017019 0.367096007 0.031707998
0.741119027 0.358336985 0.034302000
0.790557981 0.351837009 0.036621001
0.838898003 0.346679986 0.038543999
0.882385015 0.343048006 0.040130999
0.922240973 0.342438012 0.041595001
0.064940996 0.615478992 0.089325003
0.093139999 0.637145996 0.094910003
0.115234002 0.633635998 0.094085999
0.137816995 0.626708984 0.091858000
0.229461998 0.609344006 0.087677002
0.328094006 0.583922982 0.081909001
0.412627995 0.556640983 0.076201998
0.486694008 0.529877007 0.069672003
0.551330984 0.504577994 0.057037000
0.606445014 0.480742991 0.039214998
0.654419005 0.459259003 0.031707998
0.701049984 0.442719012 0.034759998
0.749267995 0.430999994 0.036072001
0.798552990 0.422149986 0.038208000
0.847289979 0.414855987 0.039673001
0.893828988 0.408935994 0.041533999
0.935638011 0.407867014 0.042998999
0.070800997 0.665832996 0.098663002
0.102081001 0.680328012 0.104217999
0.127838001 0.678101003 0.103394002
0.149414003 0.673766971 0.102233998
0.214995995 0.664794981 0.098540999
0.309906006 0.647552013 0.094635002
0.399811000 0.626465023 0.089996003
0.478302002 0.604645014 0.084807999
0.548003972 0.582976997 0.078827001
0.609375000 0.561859012 0.065338001
0.662872016 0.540984988 0.045258000
0.710875988 0.521790028 0.036713000
0.758117974 0.506713986 0.039184999
0.806640983 0.495575011 0.040100001
0.855835021 0.486541986 0.041595001
0.904784977 0.478911996 0.042998999
0.949218988 0.476898015 0.044434000
0.076110996 0.709167004 0.107239000
0.110260002 0.718872011 0.112396002
0.139403999 0.717346013 0.111481003
0.166961998 0.714080989 0.110381998
0.207213998 0.709716976 0.107239000
0.293303996 0.698485970 0.104828000
0.384887993 0.682860970 0.101439998
0.465575993 0.665802002 0.096923999
0.538115978 0.648437977 0.092072003
0.603942990 0.631622016 0.086029001
0.663666010 0.615356028 0.071777001
0.717224002 0.598541021 0.050170999
0.766479015 0.582520008 0.041076999
0.814453006 0.569213986 0.042908002
0.863281012 0.558411002 0.043731999
0.912810981 0.549591005 0.045044001
0.960510015 0.545929015 0.046448000
0.081238002 0.749450982 0.115662001
0.118683003 0.755614996 0.120544001
0.150848001 0.754424989 0.119965002
0.182616994 0.752106011 0.118529998
0.212952003 0.750000000 0.116547003
0.285187006 0.743164003 0.113922000
0.372406006 0.731963992 0.110900998
0.453339010 0.718689024 0.107391000
0.526947021 0.704802990 0.102936000
0.594208002 0.691101015 0.097961001
0.656890988 0.678375006 0.092285000
0.716033995 0.666687012 0.078491002
0.771027029 0.654510021 0.054412998
0.821471989 0.641417980 0.045196999
0.869843006 0.629149973 0.046448000
0.919188976 0.619080007 0.047150001
0.969330013 0.614440978 0.048431002
0.086029001 0.790436029 0.123412997
0.118133999 0.794372976 0.119994998
0.154449001 0.793488026 0.120300002
0.190917999 0.791869998 0.120026000
0.225005999 0.790283024 0.119292997
0.284332007 0.786255002 0.119323999
0.365631014 0.778503001 0.120636001
0.446442008 0.768676996 0.118621998
0.519684017 0.758179009 0.113342002
0.587523997 0.747559011 0.108124003
0.650940001 0.737121999 0.102966003
0.711333990 0.727539003 0.097046003
0.769806027 0.718963981 0.083466001
0.825713992 0.709960997 0.057556000
0.877288997 0.699280024 0.051360998
0.927856028 0.689270020 0.050200999
0.978667974 0.684174001 0.051024999
0.062103000 0.830078006 0.103240997
0.085266002 0.833465993 0.087371998
0.126038000 0.832642019 0.088715002
0.167694002 0.831328988 0.090820000
0.206909001 0.830169976 0.090759002
0.263123006 0.827820003 0.095031999
0.347930998 0.822570980 0.102325000
0.433288991 0.815307975 0.107697003
0.509064019 0.806885004 0.112792999
0.578796029 0.798035026 0.114409998
0.642974973 0.789856017 0.110443003
0.704375982 0.782562017 0.105071999
0.764069021 0.776000977 0.098724000
0.822387993 0.769927979 0.087981999
0.879059017 0.763153017 0.065459996
0.932465017 0.754547000 0.054657001
0.985870004 0.748871028 0.053557999
0.000000000 0.871520996 0.039673001
0.039429002 0.871551991 0.042479999
0.081634998 0.871093988 0.042328000
0.124358997 0.870360970 0.042206001
0.167389005 0.869476020 0.042328000
0.219054997 0.868439019 0.040465999
0.308654994 0.867125988 0.036926001
0.406646997 0.864226997 0.050719999
0.494872987 0.858458996 0.082396999
0.573119998 0.851409972 0.106812000
0.639862001 0.844940007 0.112457000
0.701629996 0.838958979 0.110808998
0.761658013 0.833648980 0.107086003
0.820708990 0.829041004 0.100281000
0.879271984 0.824799001 0.089538999
0.937835991 0.820556998 0.068207003
0.993286014 0.816161990 0.057464998
0.008423000 0.909057975 0.055695001
0.064361997 0.909057975 0.066040002
0.107970998 0.908783019 0.064056002
0.152312994 0.908356011 0.062194999
0.199096993 0.907805979 0.062500000
0.243835002 0.907135010 0.063141003
0.314422995 0.906189024 0.056304999
0.397460997 0.904815972 0.051360998
0.476776004 0.903289974 0.048827998
0.553375006 0.900909007 0.057372998
0.626708984 0.896851003 0.080321997
0.694182992 0.892120004 0.096709996
0.756622016 0.888275027 0.101593003
0.816802979 0.885010004 0.098693997
0.876250982 0.881865978 0.093750000
0.936004996 0.879088998 0.085358001
0.996948004 0.877746999 0.064331003
0.076874003 0.951538026 0.125946000
0.128967002 0.951476991 0.129242003
0.176635996 0.951323986 0.127868995
0.223784998 0.951141000 0.125701994
0.271393001 0.950896978 0.123504996
0.319153011 0.950531006 0.121246003
0.372101009 0.950133979 0.117798001
0.431580007 0.949706972 0.111969002
0.494262993 0.949187994 0.104278997
0.557830989 0.948578000 0.093627997
0.621825993 0.947997987 0.078583002
0.686461985 0.947265983 0.061492998
0.751403987 0.946075022 0.055023000
0.814758003 0.944122016 0.068542004
0.876160026 0.941895008 0.079163000
0.937102973 0.940155029 0.081969999
0.998198986 0.939270020 0.070525996
0.074707001 0.999877989 0.126892000
0.126922995 0.999877989 0.126953006
0.178435996 0.999877989 0.126342997
0.229674995 0.999877989 0.125061005
0.281432986 0.999877989 0.123749003
0.333099008 0.999877989 0.122101001
0.387053996 0.999877989 0.119598001
0.445037991 0.999877989 0.116576999
0.505340993 0.999877989 0.111602999
0.566344976 0.999877989 0.106597997
0.627593994 0.999877989 0.100830004
0.688995004 0.999877989 0.096252002
0.750580013 0.999877989 0.089354999
0.812224984 0.999877989 0.081696004
0.874114990 0.999877989 0.073578000
0.936554015 0.999817014 0.065734997
0.998718023 0.999755979 0.057495002
0.000000000 0.000793000 0.111694001
0.028778000 0.000000000 0.118835002
0.087158002 0.000000000 0.120209001
0.142821997 0.000702000 0.117095999
0.196960002 0.000702000 0.112548999
0.251801014 0.000702000 0.108459003
0.321227998 0.001465000 0.107451998
0.401336998 0.002258000 0.106049001
0.478363007 0.003448000 0.104125999
0.545288026 0.004639000 0.103271000
0.602020025 0.005341000 0.103271000
0.653320014 0.005676000 0.103606999
0.703612983 0.006195000 0.104828000
0.753386974 0.006989000 0.106140003
0.796477973 0.006989000 0.106995001
0.830413997 0.006989000 0.108093001
0.869445980 0.006317000 0.110870004
0.000336000 0.047485001 0.115326002
0.005981000 0.048218001 0.124114998
0.080658004 0.042236000 0.125153005
0.143646002 0.020812999 0.115845002
0.197082996 0.014923000 0.105469003
0.255219012 0.014801000 0.100097999
0.322723001 0.014893000 0.098145001
0.398041010 0.016357001 0.097382002
0.473632991 0.020203000 0.097046003
0.540771008 0.023314999 0.096436001
0.598968983 0.026427999 0.096129999
0.652588010 0.028717000 0.095886000
0.704590023 0.031555001 0.095917001
0.755127013 0.033844002 0.096465997
0.799896002 0.035553001 0.097321004
0.833374023 0.036956999 0.098876998
0.872559011 0.038300000 0.101929002
0.029479999 0.128479004 0.136962995
0.035370000 0.130859002 0.139312997
0.083130002 0.127899006 0.134186000
0.139648005 0.120300002 0.122466996
0.203521997 0.114074998 0.117371000
0.270752013 0.110045999 0.111663997
0.340240002 0.106688999 0.105315998
0.414063007 0.103148997 0.098663002
0.487823009 0.098540999 0.091430999
0.554198980 0.089722000 0.081329003
0.611693978 0.078583002 0.067047000
0.662994027 0.072844997 0.057250999
0.712341011 0.075286999 0.060883000
0.762145996 0.075562000 0.064727999
0.807190001 0.073761001 0.068389997
0.841187000 0.074309997 0.072479002
0.880309999 0.076568998 0.079558998
0.042511001 0.205353007 0.139617994
0.053100999 0.213348001 0.141967997
0.074097000 0.215485007 0.139374003
0.148926005 0.207396999 0.129150003
0.218108997 0.194275007 0.123993002
0.279327005 0.186554000 0.125121996
0.346801996 0.181427002 0.119781002
0.420563012 0.176238999 0.109467000
0.492706001 0.170441002 0.098632999
0.557587028 0.163299993 0.087890998
0.615234017 0.154999003 0.070708998
0.667937994 0.149260998 0.053252999
0.717742980 0.148894995 0.054168999
0.766815007 0.149657995 0.060028002
0.812897027 0.149169996 0.063904002
0.847473025 0.148986995 0.067290999
0.887299001 0.149780005 0.071075000
0.049500000 0.326110989 0.144256994
0.063415997 0.341369987 0.147094995
0.075286999 0.339507997 0.145659998
0.153899997 0.324950993 0.137024000
0.237914994 0.300139993 0.126221001
0.308533013 0.277770996 0.120177999
0.372559011 0.262053996 0.119811997
0.438262999 0.252685994 0.119415000
0.506531000 0.245269999 0.111602999
0.570465028 0.236876994 0.099091001
0.626434028 0.227660999 0.083374001
0.677794993 0.219634995 0.063933998
0.726958990 0.215790004 0.055206001
0.775879025 0.214386001 0.061889999
0.822906017 0.213286996 0.066284001
0.858734012 0.212555006 0.069793999
