public/lut/112.cube
TITLE "17x17x17 Adobe/IRIDAS cube 3D LUT exported with GrossGrade v0.2.2 (beta) 64 bit"
DOMAIN_MIN 0 0 0
DOMAIN_MAX 1 1 1
LUT_3D_SIZE 5
0.000000000 0.000000000 0.000000000
0.188019007 0.016968001 0.000793000
0.481018007 0.032349002 0.003937000
0.709900022 0.037872002 0.007111000
0.867645025 0.026031001 0.007111000
0.054138001 0.340332001 0.055420000
0.253906012 0.308288991 0.033721998
0.515625000 0.255066007 0.003174000
0.726898015 0.231628001 0.005524000
0.895080984 0.224335000 0.006317000
0.070525996 0.664825022 0.072356999
0.219604000 0.663085997 0.071044996
0.549835026 0.584228992 0.048981000
0.759276986 0.508391976 0.004730000
0.948333979 0.477753013 0.004333000
0.064971998 0.828552008 0.067230001
0.217316002 0.827727973 0.061340000
0.509247005 0.806244016 0.072082996
0.763947010 0.775909007 0.053649999
0.985840023 0.748534977 0.003937000
0.076172002 0.999877989 0.076660000
0.281280994 0.999877989 0.071044996
0.505309999 0.999877989 0.057128999
0.750487983 0.999877989 0.030762000
0.998718023 0.999724984 0.000000000
0.000610000 0.002380000 0.252472013
0.202483997 0.000793000 0.251587003
0.488525003 0.002380000 0.233429000
0.707336009 0.005524000 0.210510001
0.871460021 0.006317000 0.218017995
0.033904999 0.278290004 0.290710002
0.200623006 0.274962991 0.280456990
0.501648009 0.227294996 0.228423998
0.729492009 0.189147994 0.194518998
0.907135010 0.176971003 0.182311997
0.066895001 0.646667004 0.259613007
0.172851995 0.650512993 0.264373988
0.534973025 0.575744987 0.233032003
0.756042004 0.502349973 0.225647002
0.954285026 0.470275998 0.204529002
0.066223003 0.827392995 0.248291001
0.221251994 0.826781988 0.250304997
0.500702024 0.805755973 0.253387004
0.763062000 0.775512993 0.246094003
0.987487972 0.747955024 0.201477006
0.074401997 0.999877989 0.284759998
0.281219006 0.999877989 0.283751994
0.504700005 0.999877989 0.276703000
0.750580013 0.999877989 0.262389988
0.998839974 0.999817014 0.241364002
0.000793000 0.008270000 0.547973990
0.187958002 0.001373000 0.559630990
0.487518013 0.003174000 0.524291992
0.721588016 0.004333000 0.470551014
0.882721007 0.003937000 0.448455989
0.000000000 0.196777001 0.536620975
0.095306002 0.192596003 0.549041986
0.483397990 0.163543999 0.525359988
0.730408013 0.114074998 0.467438012
0.915679991 0.142913997 0.452086985
0.053955000 0.555419981 0.560669005
0.168212995 0.562195003 0.566649973
0.481842011 0.542999029 0.532805979
0.741820991 0.511780024 0.507934988
0.973174989 0.463836998 0.464965999
0.085175000 0.805572987 0.533538997
0.246735007 0.805114985 0.538513005
0.486847013 0.791718006 0.525421023
0.756012022 0.771148980 0.510101020
0.993834972 0.744354010 0.456696004
0.073913999 0.999877989 0.520264030
0.282532007 0.999877989 0.520325005
0.507690012 0.999877989 0.516753972
0.751891971 0.999877989 0.508728027
0.999054015 0.999724984 0.498809993
0.001587000 0.013428000 0.731536984
0.127930000 0.002960000 0.738189995
0.419555992 0.003540000 0.724945009
0.700073004 0.003937000 0.716309011
0.899016976 0.006317000 0.697632015
0.001587000 0.153045997 0.725036979
0.073913999 0.153503001 0.728393972
0.406616002 0.102721997 0.731049001
0.703094006 0.120086998 0.719695985
0.909088016 0.147125006 0.699554026
0.008484000 0.437041998 0.735778987
0.125701994 0.435303003 0.739471018
0.400085002 0.449431986 0.743134022
0.729309022 0.462830007 0.746185005
0.962249994 0.406738013 0.721771002
0.075165004 0.767669976 0.767180979
0.241852000 0.769806027 0.769257009
0.458007991 0.767760992 0.766479015
0.738434017 0.761687994 0.751677990
0.992919981 0.743804991 0.743957996
0.071594000 0.999877989 0.759705007
0.283661008 0.999877989 0.759827018
0.509674013 0.999877989 0.758544981
0.753875971 0.999817014 0.755402029
0.999481022 0.999724984 0.750885010
0.002380000 0.017364999 0.883635998
0.085510001 0.006317000 0.894562006
0.379516989 0.003174000 0.897918999
0.652221978 0.006317000 0.901184022
0.908538997 0.003937000 0.913055003
0.002380000 0.121063001 0.895385981
0.090271004 0.120026000 0.898406982
0.371277004 0.105896004 0.908020020
0.655121028 0.129668996 0.909729004
0.915314019 0.152039006 0.920440972
0.000793000 0.372985989 0.928528011
0.127563000 0.373382986 0.930572987
0.311890006 0.378325999 0.939270020
0.668549001 0.350555003 0.947937012
0.949310005 0.349456996 0.954406977
0.035278000 0.709258974 0.972534001
0.202515006 0.706511974 0.972899973
0.378632009 0.702392995 0.974640012
0.702484012 0.717559993 0.993072987
0.992125988 0.717315972 0.995055974
0.080077998 0.999877989 0.997924984
0.293579012 0.999877989 0.998016000
0.512238026 0.999877989 0.998565972
0.754944026 0.999817014 0.999359012
0.999817014 0.999817014 0.999817014
