public/lut/113.cube
TITLE "17x17x17 Adobe/IRIDAS cube 3D LUT exported with GrossGrade v0.2.2 (beta) 64 bit"
DOMAIN_MIN 0 0 0
DOMAIN_MAX 1 1 1
LUT_3D_SIZE 17
0.000000000 0.000000000 0.000000000
0.046082001 0.000793000 0.001587000
0.105926998 0.002380000 0.003174000
0.170653999 0.003937000 0.004730000
0.233612001 0.005341000 0.006104000
0.297820985 0.006317000 0.007904000
0.364715993 0.007111000 0.009460000
0.443329006 0.007111000 0.010712000
0.524811029 0.008667000 0.013794000
0.599059999 0.010590000 0.018494001
0.666351020 0.012909000 0.024261000
0.727844000 0.014984000 0.029663000
0.785827994 0.015778000 0.034118999
0.842101991 0.014832000 0.037994001
0.895934999 0.013306000 0.041106999
0.946411014 0.011047000 0.044829998
0.999877989 0.011841000 0.051697001
0.000000000 0.049377002 0.003876000
0.047394000 0.052002002 0.005432000
0.103821002 0.055695001 0.006958000
0.163910002 0.057587001 0.008484000
0.225739002 0.057861000 0.008606000
0.289214998 0.057739001 0.009216000
0.359528005 0.057739001 0.009949000
0.437469006 0.058685001 0.012238000
0.516022027 0.060120001 0.016510000
0.589385986 0.061035000 0.021149000
0.657104015 0.061584000 0.027008001
0.720093012 0.061951000 0.032471001
0.780182004 0.061797999 0.036407001
0.837768972 0.060699001 0.039581001
0.891234994 0.058990002 0.042450000
0.941771984 0.057220001 0.044769000
0.999817014 0.057799999 0.050354000
0.000000000 0.115326002 0.005524000
0.050110001 0.116668999 0.005524000
0.108153999 0.116149999 0.005615000
0.168243006 0.115295000 0.006256000
0.226745993 0.113007002 0.010651000
0.292602986 0.112823002 0.012512000
0.366759986 0.113770001 0.015289000
0.443542004 0.114257999 0.019073000
0.518799007 0.114318997 0.023468001
0.590698004 0.113830999 0.028778000
0.657715023 0.112884998 0.033507999
0.719878972 0.111542001 0.037811000
0.778900027 0.110535003 0.040984999
0.836395025 0.109833002 0.043823000
0.890900016 0.108368002 0.045990001
0.942107975 0.106688999 0.046936002
1.000000000 0.108032003 0.053497002
0.000000000 0.171325997 0.005524000
0.040070001 0.173462003 0.006165000
0.102112003 0.173065007 0.006958000
0.164734006 0.173797995 0.008362000
0.227874994 0.172913000 0.009308000
0.292358011 0.171204001 0.017242000
0.360596001 0.170166001 0.027557001
0.433533013 0.169616997 0.032837000
0.507293999 0.168487996 0.035918999
0.578490973 0.167023003 0.038849000
0.645965993 0.165252998 0.041901000
0.709838986 0.163665995 0.045258000
0.771332026 0.162567005 0.047180001
0.830353022 0.161743000 0.048705999
0.884796023 0.160064995 0.049408000
0.936004996 0.158263996 0.050140001
0.995453000 0.160583004 0.055450000
0.000000000 0.243682995 0.013611000
0.032196000 0.251251012 0.014984000
0.101074003 0.249816999 0.015778000
0.166198999 0.246857002 0.017212000
0.230803996 0.243194997 0.019317999
0.296386987 0.238708004 0.022247000
0.362915009 0.234161004 0.031158000
0.430420011 0.230224997 0.042908002
0.500153005 0.227356002 0.050841998
0.570953012 0.225067005 0.053314000
0.639007986 0.222717002 0.053711001
0.703094006 0.220458999 0.054931998
0.765349984 0.218842000 0.055084001
0.825164974 0.217896000 0.055206001
0.881255984 0.216736004 0.055633999
0.933471978 0.215210006 0.055144999
0.990540028 0.217162997 0.058502000
0.000000000 0.303496987 0.026366999
0.020111000 0.316832989 0.029479999
0.093170002 0.314911008 0.030304000
0.158478007 0.310180992 0.031097000
0.221924007 0.305298001 0.032715000
0.286987007 0.300078988 0.033477999
0.354247987 0.295134991 0.036040999
0.423278987 0.290679991 0.040894002
0.491333008 0.286163002 0.051635999
0.557860970 0.282074004 0.062469002
0.624390006 0.279143989 0.066650003
0.690612972 0.277251989 0.065886997
0.755768001 0.276672006 0.064361997
0.817107975 0.276214987 0.063110001
0.873809993 0.275207996 0.061218001
0.926056027 0.273346007 0.059113000
0.983520985 0.276154011 0.061462000
0.000000000 0.365601003 0.039032001
0.005768000 0.384276986 0.042815998
0.082947001 0.381774992 0.043609999
0.149811000 0.376067996 0.043609999
0.212555006 0.369872987 0.043915000
0.276549995 0.363555998 0.044647001
0.342804015 0.357513011 0.045074001
0.411529988 0.351990014 0.045348998
0.481994987 0.347564995 0.048370000
0.550323009 0.343475014 0.057861000
0.615783989 0.339599997 0.068389997
0.680786014 0.337523997 0.074097000
0.745818973 0.337462991 0.075409003
0.809174001 0.338043004 0.072173998
0.867645025 0.338012993 0.068512000
0.921142995 0.336883992 0.065582000
0.976836979 0.339111000 0.065796003
0.000000000 0.425751001 0.046967000
0.000000000 0.445892006 0.051056001
0.070160002 0.443329006 0.051086001
0.138733000 0.438170999 0.051270001
0.202332005 0.432648003 0.051086001
0.266052008 0.427062988 0.051757999
0.331818014 0.420989990 0.052429002
0.399383992 0.414642006 0.052429002
0.468658000 0.408690989 0.051819000
0.538543999 0.404083014 0.053009000
0.606719971 0.400725991 0.059448000
0.672760010 0.399138987 0.068726003
0.737426996 0.399657995 0.076293997
0.800567985 0.401244998 0.078185998
0.858887017 0.401885986 0.077087000
0.911742985 0.399901986 0.070525996
0.967101991 0.402435005 0.067870997
0.000000000 0.482573986 0.050689999
0.000000000 0.501038015 0.053925000
0.054168999 0.499237001 0.054625999
0.124724999 0.495391995 0.055144999
0.189850003 0.491576999 0.055266999
0.253814995 0.487244010 0.055266999
0.319732994 0.482634991 0.055877998
0.387726009 0.477539003 0.056519002
0.456665009 0.471832007 0.056519002
0.525940001 0.466461003 0.055939000
0.596588016 0.463928014 0.054625999
0.666900992 0.464293987 0.055573002
0.733336985 0.465485007 0.061462000
0.795624018 0.467406988 0.072113000
0.853667974 0.468842000 0.076233000
0.905547976 0.467193991 0.075378001
0.960541010 0.470061988 0.073394999
0.000000000 0.541442990 0.051392000
0.000000000 0.557434022 0.053314000
0.031585999 0.555755973 0.054016002
0.108825997 0.552887022 0.054260001
0.177521005 0.550812006 0.054657001
0.242370993 0.548096001 0.055023000
0.308746010 0.544861019 0.055298001
0.377380013 0.541077018 0.055298001
0.447479010 0.536530018 0.055633999
0.517059028 0.531219006 0.056000002
0.586333990 0.527252018 0.054412998
0.657500982 0.527740002 0.048797999
0.727874994 0.531310976 0.043853998
0.791992009 0.534088016 0.049102999
0.848999023 0.534484982 0.057434000
0.898773015 0.531615973 0.064117000
0.951294005 0.533538997 0.067351997
0.000000000 0.604218006 0.044647001
0.000000000 0.616364002 0.046509001
0.006592000 0.614838004 0.046509001
0.090790004 0.612945974 0.046509001
0.165222004 0.612244010 0.047485001
0.232361004 0.611724973 0.047943000
0.300415009 0.610351980 0.047943000
0.370514005 0.607940972 0.047943000
0.442200005 0.604614019 0.047667999
0.513701975 0.600463986 0.046967000
0.582885981 0.595734000 0.046509001
0.650786996 0.592987001 0.043884002
0.721008003 0.596038997 0.033234000
0.788177013 0.600768983 0.021729000
0.845703006 0.600799978 0.022980001
0.894043028 0.595885992 0.026520001
0.945984006 0.597747982 0.037445001
0.000000000 0.666656017 0.025665000
0.000000000 0.675719976 0.026703000
0.000000000 0.674377024 0.026703000
0.070312999 0.673247993 0.027252000
0.150298998 0.673552990 0.027832000
0.221618995 0.674561024 0.029083000
0.291808993 0.674744010 0.029358000
0.364104986 0.673859000 0.028839000
0.438385010 0.672302008 0.027649000
0.512695014 0.669830024 0.026215000
0.584656000 0.666625977 0.024658000
0.652465999 0.663085997 0.023314999
0.717346013 0.661010981 0.019012000
0.783111989 0.664062977 0.006470000
0.843810976 0.666411996 0.000000000
0.895447016 0.663635015 0.000000000
0.949065983 0.666565001 0.008240000
0.000000000 0.725036979 0.000610000
0.000000000 0.734802008 0.002716000
0.000000000 0.731598020 0.002777000
0.041412000 0.730010986 0.001984000
0.129210994 0.731536984 0.003143000
0.208831996 0.734070003 0.004150000
0.282012999 0.735900998 0.004150000
0.356110007 0.735565007 0.003906000
0.430938989 0.733276010 0.002380000
0.505614996 0.730041981 0.000458000
0.578765988 0.727051020 0.000000000
0.649231017 0.725158989 0.000000000
0.715575993 0.723906994 0.000000000
0.776458979 0.722320974 0.000000000
0.834380984 0.721679986 0.000000000
0.886901975 0.719147027 0.000000000
0.942260981 0.722809017 0.000000000
0.000000000 0.792023003 0.000000000
0.000000000 0.797088981 0.000000000
0.000000000 0.793762028 0.000000000
0.007080000 0.791809022 0.000000000
0.104156002 0.792357981 0.000000000
0.194915995 0.794525027 0.000000000
0.272736013 0.797577024 0.000000000
0.350982994 0.799591005 0.000000000
0.430602998 0.800171018 0.000000000
0.509979010 0.799744010 0.000000000
0.586609006 0.798400998 0.000000000
0.658752024 0.796599984 0.000000000
0.725739002 0.795073986 0.000000000
0.787476003 0.793578982 0.000000000
0.842711985 0.790374994 0.000000000
0.894867003 0.787383974 0.000000000
0.951843023 0.792541981 0.000000000
0.000000000 0.840515018 0.000000000
0.000000000 0.843169987 0.000000000
0.000000000 0.840179026 0.000000000
0.000000000 0.839538991 0.000000000
0.075684004 0.841643989 0.000000000
0.171813995 0.844330013 0.000000000
0.255432010 0.846619010 0.000000000
0.334991008 0.847656012 0.000000000
0.414673001 0.847229004 0.000000000
0.494323999 0.846161008 0.000000000
0.572968006 0.845673025 0.000000000
0.648528993 0.846099973 0.000000000
0.719177008 0.847046018 0.000000000
0.783416986 0.847136974 0.000000000
0.839995980 0.844635010 0.000000000
0.890717030 0.840088010 0.000000000
0.945922971 0.843414009 0.000000000
0.000000000 0.914885998 0.000000000
0.000000000 0.920502007 0.000000000
0.000000000 0.919067025 0.000000000
0.000000000 0.917023003 0.000000000
0.062103000 0.915709972 0.000000000
0.162384003 0.915192008 0.000000000
0.253325999 0.915436029 0.000000000
0.337067008 0.915955007 0.000000000
0.421142995 0.916137993 0.000000000
0.504577994 0.915802002 0.000000000
0.585448980 0.915314019 0.000000000
0.661773980 0.915009022 0.000000000
0.732391000 0.915099978 0.000000000
0.797455013 0.915648997 0.000000000
0.856536984 0.915314019 0.000000000
0.910614014 0.913818002 0.000000000
0.963898003 0.915314019 0.000000000
0.000000000 0.964110970 0.000000000
0.000000000 0.967284977 0.000000000
0.000000000 0.966187000 0.000000000
0.000000000 0.965575993 0.000000000
0.027404999 0.965942025 0.000000000
0.137573004 0.966674984 0.000000000
0.242096007 0.967315972 0.000000000
0.328734994 0.967957020 0.000000000
0.414977998 0.968047976 0.000000000
0.500213981 0.967742980 0.000000000
0.583099008 0.967742980 0.000000000
0.661590993 0.968262017 0.000000000
0.734099984 0.969177008 0.000000000
0.800200999 0.970122993 0.000000000
0.860625982 0.970856011 0.000000000
0.916718006 0.971190989 0.000000000
0.970062017 0.972594976 0.000000000
0.000000000 0.000000000 0.060486000
0.041076999 0.000793000 0.058258001
0.101104997 0.000061000 0.063323997
0.166931003 0.000061000 0.064575002
0.230652004 0.000092000 0.063446000
0.293457001 0.000092000 0.063506998
0.362854004 0.000092000 0.065002002
0.439788997 0.001343000 0.067657001
0.515778005 0.003632000 0.069793999
0.585663021 0.006348000 0.071381003
0.650604010 0.007996000 0.072479002
0.711547971 0.008026000 0.073546998
0.771270990 0.007782000 0.074432001
0.829955995 0.004791000 0.074982002
0.885619998 0.001770000 0.075499997
0.937987983 0.000153000 0.075653002
0.994994998 0.000183000 0.079040997
0.000000000 0.046691999 0.058228001
0.041839998 0.049438000 0.061675999
0.100768998 0.050140001 0.062896997
0.161621004 0.050811999 0.063965000
0.222321004 0.051483002 0.064025998
0.284943014 0.052154999 0.064575002
0.356018007 0.053801998 0.066588998
0.432280988 0.055633999 0.069243997
0.506958008 0.056549001 0.070831001
0.577544987 0.056945998 0.072205000
0.642913997 0.056641001 0.073455997
0.705322027 0.056488000 0.074524000
0.766937017 0.055328000 0.075409003
0.826201975 0.053467002 0.075957999
0.880463004 0.050170999 0.075562000
0.931334972 0.045593001 0.074676998
0.990783989 0.044891000 0.078064002
0.000000000 0.114165999 0.065948002
0.038940001 0.115295000 0.066620000
0.104369998 0.114409998 0.066132002
0.164702997 0.112457000 0.068145998
0.223418996 0.110748000 0.070648000
0.291045994 0.111602999 0.072265998
0.364075005 0.112457000 0.073700003
0.437622011 0.112334996 0.074920997
0.509856999 0.111359000 0.076018997
0.579346001 0.110077001 0.076843001
0.644896984 0.108704001 0.077362001
0.706757009 0.106964000 0.077910997
0.767486989 0.105559997 0.078308001
0.827208996 0.104094997 0.078339003
0.883270025 0.102141999 0.078308001
0.935882986 0.099486999 0.077941999
0.993622005 0.099486999 0.080871999
0.000000000 0.169373006 0.065765001
0.029906999 0.172607005 0.067199998
0.097717002 0.172974005 0.067749001
0.162169993 0.173125997 0.068787001
0.225890994 0.171661004 0.069426998
0.289429009 0.170135006 0.076293997
0.356934011 0.169098005 0.081267998
0.427704006 0.167664006 0.081817999
0.498474002 0.165497005 0.081298999
0.567505002 0.163147002 0.081359997
0.633911014 0.160889000 0.081482001
0.698059022 0.158966005 0.081542999
0.761260986 0.157775998 0.081482001
0.821654975 0.156646997 0.080779999
0.876830995 0.154633000 0.079802997
0.928345025 0.152007997 0.078125000
0.988159001 0.153716996 0.081450999
0.000000000 0.243499994 0.073944002
0.022217000 0.250427008 0.077118002
0.096344002 0.248900995 0.077271000
0.163055003 0.245361000 0.076447003
0.227722004 0.241058007 0.075989000
0.292510986 0.236175999 0.076384999
0.357879996 0.231323004 0.081177004
0.423920006 0.227417007 0.087860003
0.492309988 0.224181995 0.090453997
0.561981022 0.221343994 0.089478001
0.629088998 0.218230993 0.088408999
0.693450987 0.215636998 0.087494001
0.757018983 0.214355007 0.086456001
0.818665028 0.213593006 0.085510001
0.875823975 0.212280005 0.084137000
0.929168999 0.210693002 0.082488999
0.986908019 0.212127998 0.084351003
0.000000000 0.303406000 0.078491002
0.009552000 0.315459996 0.082153000
0.087921001 0.313201994 0.082213998
0.155059993 0.308441013 0.081634998
0.218811005 0.303162009 0.080779999
0.283569008 0.297576994 0.079498000
0.349669993 0.291687012 0.079558998
0.416626006 0.286316007 0.082672000
0.483002007 0.281493992 0.088898003
0.548583984 0.277251989 0.094879001
0.614929020 0.274199992 0.096557997
0.682097971 0.272583008 0.094452001
0.748504996 0.272217005 0.092254996
0.811249018 0.271912009 0.090209998
0.868194997 0.270568997 0.087494001
0.920257986 0.268249989 0.084105998
0.980072021 0.271423012 0.085602000
0.000000000 0.365723014 0.081726000
0.000977000 0.382476985 0.086487003
0.077331997 0.379882991 0.086548001
0.146118000 0.374541998 0.085724004
0.209717005 0.368194997 0.084899999
0.273986995 0.361815989 0.083770998
0.340027004 0.355347008 0.082764000
0.408111989 0.349303991 0.081878997
0.477324992 0.344177008 0.083251998
0.544036984 0.339325011 0.089782998
0.608612001 0.335175008 0.097351000
0.674163997 0.333281994 0.100249998
0.740356028 0.333496004 0.100066997
0.805054009 0.334441990 0.096283004
0.864197016 0.334441990 0.092772998
0.918151975 0.333344012 0.089171998
0.975677013 0.336120993 0.089080997
0.000000000 0.425902992 0.083313003
0.000000000 0.444793999 0.088134997
0.064331003 0.442382991 0.087830000
0.134765998 0.437317014 0.087341003
0.199524000 0.431731999 0.086823002
0.263671994 0.425597996 0.086243004
0.329407007 0.419066995 0.085418999
0.396575987 0.412048012 0.084564000
0.465088010 0.405396014 0.082764000
0.533936024 0.400115997 0.083159998
0.601288021 0.396423012 0.088165000
0.667603016 0.395141989 0.094756998
0.733153999 0.396088004 0.100189000
0.797150016 0.397980005 0.100860998
0.855865002 0.398254007 0.098357998
0.908385992 0.395691007 0.091705002
0.966309011 0.399749994 0.089782998
0.000000000 0.483916998 0.083191000
0.000000000 0.502533019 0.086944997
0.046691999 0.501007020 0.087006003
0.120513998 0.497040004 0.087006003
0.187866002 0.493194997 0.086792000
0.252472013 0.488341987 0.086487003
0.318603992 0.483002007 0.086333998
0.386352986 0.477019995 0.085754000
0.454681009 0.470275998 0.084868997
0.523101985 0.463988990 0.083526999
0.593109012 0.460815012 0.081969999
0.663361013 0.461028993 0.082732998
0.730315983 0.462585002 0.087890998
0.793182015 0.464873999 0.095275998
0.851531982 0.466187000 0.097900003
0.903198004 0.464172006 0.095702998
0.960937977 0.468903005 0.094237998
0.000000000 0.543549001 0.081207000
0.000000000 0.561004996 0.084137000
0.022583000 0.560059011 0.084229000
0.104340002 0.557036996 0.084441997
0.176146999 0.554565012 0.084472999
0.241852000 0.551330984 0.084472999
0.308685005 0.547179997 0.084229000
0.377380013 0.542357981 0.083740003
0.446898997 0.536652029 0.083159998
0.515869021 0.530364990 0.082488999
0.584656000 0.525574028 0.080627002
0.655791998 0.525757015 0.075957999
0.726378977 0.529388011 0.072356999
0.790648997 0.532195985 0.076293997
0.847473025 0.532378972 0.082855001
0.898406982 0.530304015 0.087158002
0.953612983 0.534362972 0.089446999
0.000000000 0.606688976 0.074859999
0.000000000 0.621002018 0.077271000
0.001190000 0.620208979 0.077118002
0.086487003 0.618224978 0.077118002
0.163299993 0.617034972 0.077606000
0.231781006 0.615906000 0.077789001
0.300323009 0.613341987 0.077483997
0.370330989 0.609619021 0.076660000
0.441527992 0.605041981 0.075897001
0.512573004 0.599853992 0.074890003
0.581664979 0.594635010 0.074188001
0.649749994 0.591736019 0.071533002
0.720215023 0.594971001 0.064117000
0.787383974 0.599335015 0.055633999
0.844177008 0.598815978 0.056061000
0.893706977 0.594788015 0.058258001
0.948424995 0.599090993 0.068908997
0.000000000 0.671142995 0.060516000
0.000000000 0.681854010 0.063354000
0.000000000 0.681549013 0.063354000
0.065521002 0.680481017 0.063019000
0.147614002 0.680054009 0.063385002
0.221251994 0.680297971 0.063965000
0.292450011 0.679718018 0.063781999
0.365355998 0.677947998 0.062683001
0.439453006 0.675078988 0.061400998
0.513031006 0.671203971 0.059570000
0.584442019 0.666992009 0.057495002
0.652283013 0.662872016 0.055298001
0.717254996 0.660736024 0.052398998
0.783234000 0.663818002 0.040038999
0.844330013 0.666382015 0.026184000
0.896973014 0.664367974 0.023894999
0.952301025 0.668883979 0.035767000
0.000000000 0.730742991 0.032288000
0.000000000 0.740752995 0.036132999
0.000000000 0.740050972 0.036162999
0.034790002 0.739197016 0.035980001
0.126007006 0.739562988 0.036162999
0.208098993 0.740203977 0.036956999
0.281890988 0.740203977 0.037200999
0.356261998 0.738617003 0.035980001
0.431273997 0.735503972 0.033661000
0.505950987 0.731750011 0.030548001
0.579132020 0.728302002 0.027434999
0.649841011 0.726135015 0.024658000
0.716156006 0.724578977 0.022522001
0.776763976 0.722411990 0.016907001
0.834442019 0.721343994 0.001068000
0.887755990 0.719482005 0.000000000
0.944916010 0.724762022 0.000000000
0.000000000 0.797424018 0.001923000
0.000000000 0.802856028 0.004639000
0.000000000 0.801604986 0.004028000
0.002472000 0.800629020 0.003357000
0.101104997 0.801177979 0.003845000
0.194701999 0.802367985 0.004639000
0.273467988 0.803771973 0.005920000
0.351958990 0.804229975 0.005768000
0.431273997 0.803375006 0.004395000
0.510315001 0.801726997 0.002899000
0.586731017 0.799561024 0.001038000
0.658813000 0.797302008 0.000000000
0.726166010 0.795836985 0.000000000
0.788268983 0.794434011 0.000000000
0.843932986 0.791382015 0.000000000
0.897033989 0.789215028 0.000000000
0.955048025 0.795257986 0.000000000
0.000000000 0.845153987 0.000000000
0.000000000 0.850799978 0.000000000
0.000000000 0.849487007 0.000000000
0.000000000 0.848937988 0.000000000
0.073090002 0.849915028 0.000000000
0.170319006 0.851135015 0.000000000
0.255187988 0.851898015 0.000000000
0.335175008 0.851653993 0.000000000
0.415100008 0.850281000 0.000000000
0.495025992 0.848694026 0.000000000
0.573943973 0.847869992 0.000000000
0.649719000 0.848083019 0.000000000
0.720275998 0.848601997 0.000000000
0.784026980 0.848052979 0.000000000
0.840363026 0.845122993 0.000000000
0.891327024 0.840546012 0.000000000
0.947265983 0.844482005 0.000000000
0.000000000 0.917815983 0.000000000
0.000000000 0.923187017 0.000000000
0.000000000 0.922393978 0.000000000
0.000000000 0.920989990 0.000000000
0.057709001 0.920104980 0.000000000
0.160004005 0.919646978 0.000000000
0.252898991 0.919525027 0.000000000
0.336975008 0.919281006 0.000000000
0.420929015 0.918549001 0.000000000
0.504181027 0.917328000 0.000000000
0.584960997 0.916199028 0.000000000
0.661224008 0.915588021 0.000000000
0.732239008 0.915648997 0.000000000
0.797577024 0.916199028 0.000000000
0.856963992 0.915893972 0.000000000
0.911437988 0.914734006 0.000000000
0.965453982 0.916718006 0.000000000
0.000000000 0.966125011 0.000000000
0.000000000 0.970184028 0.000000000
0.000000000 0.969635010 0.000000000
0.000000000 0.969025016 0.000000000
0.021790000 0.968872011 0.000000000
0.132935002 0.969025016 0.000000000
0.239226997 0.969085991 0.000000000
0.326355010 0.969208002 0.000000000
0.413055003 0.969025016 0.000000000
0.499022990 0.968657970 0.000000000
0.582520008 0.968567014 0.000000000
0.661437988 0.969085991 0.000000000
0.734039009 0.969940007 0.000000000
0.800109982 0.970673025 0.000000000
0.860565007 0.971068978 0.000000000
0.916687012 0.971343994 0.000000000
0.970275998 0.972838998 0.000000000
0.000000000 0.000000000 0.122620001
0.037994001 0.000000000 0.124968998
0.099151999 0.000000000 0.128967002
0.162597999 0.000000000 0.129639000
0.225676998 0.000000000 0.127838001
0.288300008 0.000000000 0.125641003
0.360260010 0.000000000 0.126250997
0.436248988 0.000000000 0.126800999
0.509643972 0.000092000 0.125824004
0.578979015 0.000183000 0.124237001
0.644409001 0.000977000 0.122893997
0.706268013 0.000977000 0.121246003
0.767364979 0.000702000 0.119811997
0.827453971 0.000092000 0.118896000
0.883849978 0.000000000 0.117310002
0.936890006 0.000000000 0.116028003
0.994567990 0.000000000 0.117431998
0.000000000 0.045348998 0.120940998
0.030486999 0.046721999 0.126464993
0.096709996 0.047485001 0.128082007
0.158080995 0.048126001 0.126800999
0.218811005 0.049346998 0.125579998
0.283019990 0.050140001 0.125183001
0.354431003 0.051879998 0.126038000
0.428986013 0.052551001 0.126555994
0.501923025 0.052216001 0.125549003
0.571259022 0.050689999 0.123931997
0.636963010 0.049102999 0.122313999
0.700591981 0.047545999 0.121063001
0.763518989 0.044158999 0.120117001
0.823578000 0.038970999 0.118591003
0.878539979 0.031982001 0.116637997
0.929687977 0.023560001 0.114044003
0.989745975 0.018402001 0.116118997
0.000000000 0.111236997 0.131805003
0.025908999 0.112305000 0.133301005
0.096680000 0.111663997 0.132538006
0.158355996 0.110290997 0.131164998
0.220763996 0.110535003 0.131652996
0.289092988 0.111602999 0.132323995
0.360260010 0.111389004 0.132232994
0.432312012 0.110229000 0.130980998
0.504088998 0.108368002 0.129302993
0.573455989 0.106140003 0.127288997
0.639038026 0.103485003 0.125366002
0.701903999 0.100922003 0.123595998
0.764069021 0.098357998 0.122040004
0.825073004 0.095519997 0.120728001
0.881775022 0.091826998 0.118865997
0.934723020 0.087494001 0.117004000
0.993010998 0.085693002 0.118988000
0.000000000 0.167480007 0.128479004
0.014008000 0.171387002 0.130493000
0.089873999 0.171844006 0.130737007
0.157958999 0.171813995 0.130493000
0.221343994 0.170166001 0.132080004
0.284209996 0.169281006 0.136016995
0.352173001 0.168212995 0.136169001
0.422791004 0.165894002 0.133667007
0.493072987 0.162810996 0.131226003
0.562134027 0.159912005 0.128967002
0.628784001 0.157134995 0.126892000
0.694000006 0.154845998 0.125213996
0.758361995 0.152893007 0.123566002
0.819549978 0.150786996 0.121765003
0.875213981 0.147765994 0.119231999
0.926971018 0.144134998 0.116149999
0.987426996 0.144896999 0.118164003
0.000000000 0.240355998 0.133514002
0.005219000 0.247131005 0.137450993
0.087219000 0.245697007 0.137024000
0.157440007 0.242644995 0.135498002
0.222838998 0.238251001 0.133698002
0.288177013 0.233429000 0.132172003
0.352173001 0.228698999 0.135376006
0.417847008 0.225159004 0.138488993
0.487029999 0.221863002 0.137360007
0.557159007 0.218383998 0.133941993
0.624481022 0.214935005 0.131255999
0.689544976 0.212097004 0.128692999
0.754395008 0.210205004 0.126647994
0.817017019 0.208984002 0.124541998
0.874755979 0.207245007 0.122009002
0.928375006 0.204803005 0.119231999
