public/lut/113.cube
TITLE "17x17x17 Adobe/IRIDAS cube 3D LUT exported with GrossGrade v0.2.2 (beta) 64 bit"
DOMAIN_MIN 0 0 0
DOMAIN_MAX 1 1 1
LUT_3D_SIZE 5
0.000000000 0.000000000 0.000000000
0.233612001 0.005341000 0.006104000
0.524811029 0.008667000 0.013794000
0.785827994 0.015778000 0.034118999
0.999877989 0.011841000 0.051697001
0.000000000 0.243682995 0.013611000
0.230803996 0.243194997 0.019317999
0.500153005 0.227356002 0.050841998
0.765349984 0.218842000 0.055084001
0.990540028 0.217162997 0.058502000
0.000000000 0.482573986 0.050689999
0.189850003 0.491576999 0.055266999
0.456665009 0.471832007 0.056519002
0.733336985 0.465485007 0.061462000
0.960541010 0.470061988 0.073394999
0.000000000 0.725036979 0.000610000
0.129210994 0.731536984 0.003143000
0.430938989 0.733276010 0.002380000
0.715575993 0.723906994 0.000000000
0.942260981 0.722809017 0.000000000
0.000000000 0.964110970 0.000000000
0.027404999 0.965942025 0.000000000
0.414977998 0.968047976 0.000000000
0.734099984 0.969177008 0.000000000
0.970062017 0.972594976 0.000000000
0.000000000 0.000000000 0.257782012
0.210114002 0.000000000 0.258392006
0.494780988 0.000000000 0.250427008
0.760559022 0.000000000 0.227509007
0.994262993 0.000000000 0.213806003
0.000000000 0.229218006 0.262726009
0.206604004 0.227997005 0.261658013
0.475769013 0.211974993 0.244507000
0.749634027 0.194426998 0.226776004
0.986603022 0.177521005 0.212523997
0.000000000 0.472534001 0.223998994
0.157042995 0.481597990 0.228515998
0.443298012 0.461791992 0.219359994
0.725005984 0.453765988 0.219542995
0.961884022 0.453949004 0.204772994
0.000000000 0.729094982 0.176238999
0.066071004 0.738281012 0.179993004
0.413695991 0.733031988 0.176635996
0.714995980 0.724273980 0.167297006
0.946929991 0.720580995 0.138762996
0.000000000 0.966979980 0.061675999
0.000000000 0.969573975 0.070952997
0.383666992 0.969604015 0.078277998
0.726989985 0.971190989 0.089019999
0.970734000 0.973419011 0.106505997
0.000000000 0.000000000 0.527526975
0.183532998 0.000000000 0.532531977
0.460570991 0.000000000 0.515044987
0.740966976 0.000000000 0.500823975
0.987976015 0.000000000 0.493407995
0.000000000 0.189636007 0.515869021
0.151306003 0.188019007 0.519073009
0.448639005 0.178955004 0.504607975
0.736938000 0.154602006 0.490355998
0.987273991 0.040100001 0.473663002
0.000000000 0.437377989 0.474242985
0.089019999 0.443542004 0.479889005
0.408904999 0.433685005 0.470398009
0.723021984 0.417998999 0.456481993
0.974304020 0.381805003 0.422455013
0.000000000 0.714538991 0.419005990
0.000793000 0.725403011 0.413787991
0.332152992 0.724120975 0.401611000
0.707580984 0.718567014 0.391173989
0.954192996 0.701201975 0.366028011
0.000000000 0.968932986 0.306335002
0.000000000 0.970978022 0.313262999
0.228911996 0.972594976 0.322052002
0.696319997 0.974425972 0.333739996
0.972504020 0.975372016 0.337677002
0.000000000 0.000000000 0.772278011
0.170166001 0.000000000 0.767059028
0.452179015 0.000000000 0.762176991
0.739929020 0.000000000 0.755309999
0.969726980 0.000000000 0.750487983
0.000000000 0.147490993 0.756408989
0.103912003 0.143250003 0.756744027
0.430969000 0.127288997 0.755370975
0.734070003 0.085022002 0.750000000
0.969910026 0.000000000 0.743866026
0.000000000 0.394012004 0.722716987
0.000000000 0.386078000 0.728546023
0.345611989 0.367125988 0.736755013
0.719025016 0.354492009 0.736052990
0.972992003 0.293121010 0.719237983
0.000000000 0.681151986 0.692902029
0.000000000 0.690460026 0.701171994
0.204589993 0.695038021 0.705078006
0.680908024 0.690551996 0.701294005
0.966919005 0.666472971 0.679871023
0.000000000 0.967284977 0.666199028
0.000000000 0.971221983 0.666137993
0.000000000 0.975799978 0.657135010
0.642120004 0.976288021 0.659393013
0.978729010 0.979767025 0.673278987
0.000000000 0.000000000 0.974304020
0.148223996 0.000000000 0.971771002
0.441742003 0.000000000 0.969237983
0.737914979 0.000000000 0.967589974
0.968291998 0.000000000 0.965668023
0.000000000 0.068207003 0.970062017
0.036469001 0.055144999 0.968536019
0.408080995 0.003937000 0.966858029
0.727081001 0.000000000 0.966156006
0.967377007 0.000000000 0.964752018
0.000000000 0.300873011 0.964385986
0.000000000 0.285095006 0.965270996
0.252990991 0.270660013 0.965117991
0.685791016 0.240355998 0.964965999
0.967132986 0.186249003 0.964447021
0.000000000 0.650757015 0.951721013
0.000000000 0.640137017 0.952789009
0.000000000 0.604828000 0.957153022
0.572112978 0.578460991 0.963257015
0.971008003 0.608398020 0.968262017
0.000000000 0.970703006 0.968169987
0.000000000 0.970703006 0.968231022
0.000000000 0.973267019 0.971008003
0.549468994 0.977599978 0.975739002
0.990356028 0.990172982 0.989502013
