public/lut/114.cube
TITLE "17x17x17 Adobe/IRIDAS cube 3D LUT exported with GrossGrade v0.2.2 (beta) 64 bit"
DOMAIN_MIN 0 0 0
DOMAIN_MAX 1 1 1
LUT_3D_SIZE 17
0.000000000 0.000000000 0.000000000
0.061646000 0.000000000 0.000000000
0.122985996 0.000000000 0.000000000
0.183379993 0.000000000 0.000000000
0.242431998 0.000000000 0.000000000
0.301086009 0.000000000 0.000000000
0.358642995 0.000000000 0.000000000
0.416321009 0.000000000 0.000000000
0.471161008 0.000000000 0.000000000
0.521210015 0.000000000 0.000000000
0.567229986 0.000000000 0.000000000
0.609924018 0.000000000 0.000000000
0.649078012 0.000000000 0.000000000
0.682953000 0.000000000 0.000000000
0.708434999 0.001587000 0.000000000
0.730590999 0.002411000 0.000000000
0.750518978 0.004730000 0.000000000
0.000000000 0.062835999 0.000000000
0.061707001 0.061707001 0.000000000
0.123322003 0.061675999 0.000000000
0.183257997 0.061218001 0.000000000
0.242096007 0.060699001 0.000000000
0.300049007 0.059997998 0.000000000
0.358092993 0.059448000 0.000000000
0.415436000 0.058837999 0.000000000
0.469695985 0.057647999 0.000000000
0.519409001 0.056152001 0.000000000
0.565429986 0.054962002 0.000000000
0.607971013 0.053771999 0.000000000
0.647490978 0.053314000 0.000000000
0.682250977 0.053314000 0.000000000
0.707732975 0.053374998 0.000000000
0.729705989 0.054016002 0.000000000
0.749450982 0.055328000 0.000000000
0.000000000 0.128142998 0.000000000
0.063873000 0.127838001 0.000000000
0.125487998 0.125762999 0.000000000
0.185454994 0.123962000 0.000000000
0.244170994 0.122437000 0.000000000
0.303191990 0.121703997 0.000000000
0.361815989 0.121094003 0.000000000
0.418457001 0.119934000 0.000000000
0.471038997 0.117858998 0.000000000
0.519927979 0.115570001 0.000000000
0.565155029 0.112915002 0.000000000
0.607056022 0.110198997 0.000000000
0.646057010 0.107787997 0.000000000
0.680664003 0.105742998 0.000000000
0.705901980 0.104004003 0.000000000
0.727721989 0.102264002 0.000000000
0.746856987 0.102325000 0.000000000
0.000000000 0.193176001 0.000000000
0.062896997 0.193389997 0.000000000
0.127258003 0.191039994 0.000000000
0.188262999 0.188232005 0.000000000
0.247803003 0.185852006 0.000000000
0.306670994 0.184174001 0.000000000
0.364960015 0.182586998 0.000000000
0.420197010 0.180144995 0.000000000
0.471527010 0.176848993 0.000000000
0.519348025 0.173034996 0.000000000
0.563507020 0.168883994 0.000000000
0.604767025 0.164764002 0.000000000
0.643401980 0.160889000 0.000000000
0.678008974 0.157104000 0.000000000
0.703429997 0.153441995 0.000000000
0.724487007 0.150023997 0.000000000
0.742583990 0.148285002 0.000000000
0.000000000 0.265807986 0.000000000
0.060821999 0.268554986 0.000000000
0.131134003 0.265807986 0.000000000
0.195313007 0.260863990 0.000000000
0.255187988 0.255371004 0.000000000
0.313477010 0.250853986 0.000000000
0.370514005 0.247040004 0.000000000
0.424315989 0.242370993 0.000000000
0.474213004 0.236938000 0.000000000
0.520659983 0.231140003 0.000000000
0.563660026 0.225127995 0.000000000
0.603637993 0.219086006 0.000000000
0.641112983 0.213318005 0.000000000
0.675231993 0.207976997 0.000000000
0.700896978 0.202788994 0.000000000
0.720885992 0.197601005 0.000000000
0.737976015 0.194275007 0.000000000
0.000000000 0.334868997 0.000000000
0.050354000 0.340698004 0.000000000
0.129639000 0.337981999 0.000000000
0.197723001 0.332123011 0.000000000
0.259460002 0.325042993 0.000000000
0.317932010 0.318024009 0.000000000
0.373901010 0.311401010 0.000000000
0.426818997 0.304412991 0.000000000
0.475739002 0.296783000 0.000000000
0.521088004 0.288726985 0.000000000
0.562897027 0.280609012 0.000000000
0.601776004 0.272644013 0.000000000
0.638427973 0.265136987 0.000000000
0.671875000 0.257934988 0.000000000
0.698302984 0.250977010 0.000000000
0.717072010 0.244170994 0.000000000
0.733124018 0.239258006 0.000000000
0.000000000 0.402373999 0.000000000
0.042144999 0.409424007 0.000000000
0.124695003 0.407135010 0.000000000
0.196289003 0.401062012 0.000000000
0.260161996 0.393126994 0.000000000
0.319611013 0.384429991 0.000000000
0.375548989 0.375609994 0.000000000
0.428223014 0.366699010 0.000000000
0.476898015 0.356963992 0.000000000
0.521362007 0.346587986 0.000000000
0.562377989 0.336212009 0.000000000
0.600372016 0.326110989 0.000000000
0.635955989 0.316558987 0.000000000
0.668731987 0.307372987 0.000000000
0.696166992 0.298644990 0.000000000
0.713317990 0.290497005 0.000000000
0.728148997 0.283661008 0.000000000
0.000000000 0.463714987 0.000000000
0.038146999 0.470519990 0.000000000
0.115906000 0.468780994 0.000000000
0.190154999 0.463317990 0.000000000
0.256195009 0.455597013 0.000000000
0.316895008 0.446594000 0.000000000
0.373504996 0.436890006 0.000000000
0.426665992 0.426696986 0.000000000
0.475951999 0.415863007 0.000000000
0.520294011 0.403595001 0.000000000
0.560393989 0.390868992 0.000000000
0.597869992 0.378753990 0.000000000
0.632812977 0.367278993 0.000000000
0.665069997 0.356018007 0.000000000
0.692902029 0.345061988 0.000000000
0.709351003 0.334746987 0.000000000
0.722716987 0.326294005 0.000000000
0.000000000 0.518218994 0.000000000
0.035156000 0.524138987 0.000000000
0.103577003 0.523041010 0.000000000
0.180510998 0.518432975 0.000000000
0.248535007 0.511475027 0.000000000
0.309937000 0.502776980 0.000000000
0.367278993 0.492888987 0.000000000
0.420929015 0.482300013 0.000000000
0.471161008 0.471161008 0.000000000
0.517302990 0.459075987 0.000000000
0.558197021 0.445250988 0.000000000
0.594940007 0.430907995 0.000000000
0.629271984 0.417479992 0.000000000
0.660979986 0.404388011 0.000000000
0.688843012 0.391418010 0.000000000
0.706054986 0.378937006 0.000000000
0.717499018 0.368865997 0.000000000
0.000000000 0.568114996 0.000000000
0.032134999 0.573150992 0.000000000
0.086487003 0.572449028 0.000000000
0.168518007 0.568359017 0.000000000
0.238952994 0.562224984 0.000000000
0.300963998 0.554046988 0.000000000
0.358612001 0.544341981 0.000000000
0.412414998 0.533508003 0.000000000
0.462707996 0.521911979 0.000000000
0.509949028 0.509887993 0.000000000
0.553130984 0.496856987 0.000000000
0.590942025 0.481934011 0.000000000
0.624634027 0.466430992 0.000000000
0.655700982 0.451476991 0.000000000
0.682770014 0.436127007 0.000000000
0.701996028 0.420623988 0.000000000
0.711791992 0.408508003 0.000000000
0.000000000 0.614440978 0.000000000
0.029877000 0.618317008 0.000000000
0.067809999 0.617706001 0.000000000
0.155273005 0.614287972 0.000000000
0.228485003 0.608825982 0.000000000
0.291016012 0.601500988 0.000000000
0.348877013 0.592284977 0.000000000
0.402801991 0.581511974 0.000000000
0.453155994 0.569702029 0.000000000
0.500060976 0.557007015 0.000000000
0.544098020 0.544128001 0.000000000
0.584625006 0.530487001 0.000000000
0.619536996 0.514679015 0.000000000
0.650116026 0.497803003 0.000000000
0.676452994 0.480224997 0.000000000
0.697417974 0.461365014 0.000000000
0.706390023 0.448058993 0.000000000
0.000000000 0.656189024 0.000000000
0.026854999 0.659546018 0.000000000
0.053649999 0.658813000 0.000000000
0.140778005 0.656127989 0.000000000
0.216248006 0.651305974 0.000000000
0.279724002 0.644653022 0.000000000
0.337799013 0.636078000 0.000000000
0.391876012 0.625671029 0.000000000
0.442290992 0.613922000 0.000000000
0.489226997 0.601135015 0.000000000
0.532927990 0.587523997 0.000000000
0.573882997 0.573822021 0.000000000
0.611603022 0.559539974 0.000000000
0.643280029 0.542419016 0.000000000
0.669768989 0.523406982 0.000000000
0.690643013 0.503081977 0.000000000
0.701752007 0.488281012 0.000000000
0.000000000 0.693268001 0.000000000
0.023071000 0.697417974 0.000000000
0.043304000 0.695770025 0.000000000
0.124541998 0.693359017 0.000000000
0.201874003 0.689330995 0.000000000
0.267089993 0.683562994 0.000000000
0.325713992 0.675781012 0.000000000
0.379577994 0.665557981 0.000000000
0.429259986 0.653380990 0.000000000
0.475403011 0.639892995 0.000000000
0.518585026 0.625762999 0.000000000
0.559113026 0.611481011 0.000000000
0.597351015 0.597411990 0.000000000
0.632140994 0.582427979 0.000000000
0.659119010 0.562775016 0.000000000
0.679718018 0.540526986 0.000000000
0.695739985 0.522888005 0.000000000
0.000000000 0.731383979 0.000000000
0.020020001 0.733672976 0.000000000
0.037597999 0.731658995 0.000000000
0.104094997 0.729430974 0.000000000
0.184937000 0.725432992 0.000000000
0.253448009 0.719878972 0.000000000
0.313109994 0.712921023 0.000000000
0.367798001 0.703857005 0.000000000
0.418181986 0.692809999 0.000000000
0.464965999 0.680206001 0.000000000
0.508331001 0.666351020 0.000000000
0.548705995 0.651610970 0.000000000
0.586273015 0.636565983 0.000000000
0.621276975 0.621338010 0.000000000
0.652557015 0.604705989 0.000000000
0.675629020 0.583343983 0.000000000
0.692412972 0.565796018 0.000000000
0.000000000 0.758942008 0.000000000
0.016968001 0.760284007 0.000000000
0.032928001 0.758179009 0.000000000
0.064331003 0.757140994 0.000000000
0.156403005 0.754607975 0.000000000
0.234038994 0.749755979 0.000000000
0.294768989 0.742736995 0.000000000
0.349548012 0.733429015 0.000000000
0.399444997 0.721862972 0.000000000
0.445618004 0.708862007 0.000000000
0.488922000 0.694945991 0.000000000
0.529784977 0.680908024 0.000000000
0.568023980 0.666442990 0.000000000
0.603148997 0.651184022 0.000000000
0.634186029 0.634216011 0.000000000
0.661346018 0.615630984 0.000000000
0.685760021 0.597442985 0.000000000
0.000000000 0.800171018 0.000000000
0.013885000 0.803528011 0.000000000
0.024444999 0.802245975 0.000000000
0.091888003 0.799713016 0.000000000
0.168120995 0.795013011 0.000000000
0.233367994 0.788573980 0.000000000
0.291137993 0.780762017 0.000000000
0.344603986 0.771393001 0.000000000
0.393981993 0.760406017 0.000000000
0.439758003 0.747833014 0.000000000
0.482360989 0.734099984 0.000000000
0.522400022 0.719482005 0.000000000
0.560028017 0.704528987 0.000000000
0.595031977 0.689148009 0.000000000
0.626923025 0.672942996 0.000000000
0.655517995 0.655578971 0.000000000
0.682922006 0.640320003 0.000000000
0.000000000 0.825103998 0.000000000
0.010864000 0.827148020 0.000000000
0.019226000 0.825927973 0.000000000
0.053771999 0.824768007 0.000000000
0.144042999 0.821411014 0.000000000
0.219146997 0.815825999 0.000000000
0.277801991 0.808288991 0.000000000
0.331238002 0.799072027 0.000000000
0.380156994 0.788055003 0.000000000
0.425110012 0.775542974 0.000000000
0.467438012 0.761901975 0.000000000
0.507354975 0.747497976 0.000000000
0.544768989 0.732483029 0.000000000
0.579315007 0.716705024 0.000000000
0.610747993 0.700164974 0.000000000
0.639343023 0.682860970 0.000000000
0.665709972 0.665832996 0.000000000
0.000793000 0.000793000 0.060729999
0.063323997 0.000793000 0.063323997
0.125426993 0.000000000 0.062804997
0.186249003 0.000000000 0.061675999
0.244598001 0.000000000 0.060547002
0.302338004 0.000000000 0.058990002
0.360107005 0.000000000 0.057831001
0.417205989 0.000000000 0.056641001
0.470946997 0.000000000 0.055481002
0.520232975 0.000000000 0.054290999
0.566039979 0.000000000 0.053070001
0.608458996 0.000000000 0.052062999
0.648070991 0.000000000 0.052062999
0.684051991 0.000000000 0.052184999
0.710968018 0.000000000 0.052795000
0.733582020 0.000061000 0.053955000
0.754059017 0.000061000 0.055236999
0.002319000 0.063354000 0.063354000
0.063354000 0.063354000 0.063354000
0.125824004 0.058350001 0.058410998
0.185729995 0.056458000 0.056519002
0.244048998 0.055236999 0.054779001
0.300994992 0.054016002 0.052917000
0.358855993 0.052338000 0.051453002
0.415497005 0.050446000 0.049773999
0.468932986 0.049132999 0.047791000
0.518280029 0.047180001 0.046082001
0.564025998 0.045807000 0.044403002
0.606476009 0.044464000 0.042541999
0.646606028 0.043090999 0.040894002
0.682677984 0.041687001 0.039429002
0.710052013 0.040375002 0.037262000
0.732544005 0.038787998 0.035675000
0.753296018 0.037354000 0.034210000
0.000061000 0.129700005 0.062866002
0.059570000 0.130523995 0.058929000
0.126647994 0.126953006 0.054779001
0.187195003 0.123291001 0.052825999
0.245391995 0.121063001 0.051543999
0.303986013 0.119965002 0.050262000
0.361847013 0.119110003 0.049011000
0.417602986 0.117493004 0.047088999
0.469788015 0.115355998 0.045685001
0.518341005 0.112853996 0.043639999
0.563538015 0.110321000 0.042206001
0.605377018 0.107574001 0.040008999
0.644958019 0.105071999 0.038483001
0.680939019 0.102569997 0.036377002
0.708159983 0.100341998 0.034697998
0.730682015 0.097747996 0.032501001
0.751098990 0.096588001 0.030913999
0.000000000 0.193480998 0.059540000
0.054809999 0.194977000 0.054108001
0.126221001 0.192443997 0.051514000
0.188933998 0.188721001 0.050262000
0.248077005 0.185637996 0.049500000
0.306488007 0.183197007 0.048186999
0.363952994 0.181273997 0.046997000
0.418457001 0.178558007 0.045685001
0.469420999 0.175139993 0.044066999
0.516906977 0.171325997 0.042633001
0.561218023 0.167328000 0.040741000
0.602478027 0.163299993 0.039276000
0.641601980 0.159514993 0.037323002
0.677215993 0.155670002 0.035491999
0.704680979 0.151732996 0.033996999
0.726135015 0.148010001 0.031799000
0.746155024 0.145659998 0.030212000
0.000000000 0.265563995 0.051819000
0.050995000 0.268584996 0.050232001
0.128539994 0.265868992 0.048218001
0.194243997 0.260497987 0.047516000
0.254424989 0.254577994 0.046875000
0.312500000 0.249724999 0.046204001
0.369019002 0.245422006 0.044922002
0.422545999 0.240661994 0.043701001
0.472167999 0.235137999 0.042144999
0.518341005 0.229308993 0.040679999
0.561218023 0.223480001 0.039246000
0.601226985 0.217682004 0.037689000
0.639038026 0.212097004 0.035828002
0.673828006 0.206879005 0.034271002
0.701294005 0.201842993 0.032471001
0.722106993 0.196777001 0.030944999
0.740906000 0.193023995 0.028839000
0.000000000 0.334838986 0.045653999
0.045715000 0.340056986 0.045653999
0.126555994 0.337615997 0.044861000
0.196014002 0.331634998 0.044769000
0.258392006 0.324218988 0.044128001
0.316772014 0.316864014 0.043457001
0.372559011 0.309814006 0.042725001
0.424988002 0.302551001 0.041260000
0.473693997 0.294829994 0.039917000
0.518616021 0.286774009 0.038605001
0.560486019 0.278748006 0.037415002
0.599395990 0.271026999 0.035889000
0.636260986 0.263794005 0.034302000
0.670197010 0.256713986 0.032623000
0.697844982 0.249786004 0.030913999
0.716796994 0.242919996 0.029418999
0.734161019 0.238463998 0.027892999
0.000000000 0.402343988 0.041962001
0.041870002 0.408690989 0.041901000
0.121063001 0.406798989 0.041962001
0.194092005 0.400817990 0.042022999
0.258971989 0.392791986 0.041320998
0.318695009 0.383850008 0.040557999
0.374725014 0.374817014 0.039825000
0.427307010 0.365601003 0.038605001
0.475585997 0.355560005 0.037445001
0.519774973 0.345032007 0.036316000
0.560546994 0.334656000 0.035156000
0.598479986 0.324645996 0.033599999
0.634154975 0.315246999 0.032042999
0.667297006 0.306304991 0.030853000
0.695434988 0.297728986 0.029327000
0.712830007 0.289734006 0.027832000
0.728057981 0.283356011 0.025818000
0.000000000 0.463744998 0.039032001
0.038879000 0.470122993 0.039000999
0.111481003 0.468750000 0.039032001
0.187621996 0.463348001 0.039032001
0.254913002 0.455626994 0.038300000
0.315979004 0.446350008 0.037567001
0.372803003 0.436340004 0.036773998
0.425781012 0.425781012 0.035980001
0.474792004 0.414550990 0.035186999
0.518890023 0.402130008 0.033752002
0.558898985 0.389373988 0.032867000
0.596313000 0.377319008 0.031342000
0.631377995 0.365996987 0.029998999
0.663788021 0.355042011 0.028534001
0.691771984 0.344054997 0.027344000
0.708832026 0.333526999 0.025818000
0.722198009 0.325744987 0.024352999
0.000000000 0.518676996 0.035980001
0.035889000 0.524567008 0.035980001
0.098693997 0.523864985 0.035980001
0.178161994 0.519164979 0.035980001
0.247620001 0.512206972 0.035248000
0.309540004 0.503265023 0.034515001
0.367004007 0.493102998 0.033966001
0.420592993 0.482178003 0.032928001
0.470642000 0.470672995 0.032134999
0.516417980 0.458160013 0.031342000
0.557097971 0.444121987 0.029906999
0.593842030 0.429809988 0.029022001
0.628234982 0.416473001 0.027496001
0.660064995 0.403533995 0.026550001
0.687927008 0.390625000 0.025177000
0.705688000 0.377990991 0.023590000
0.717284977 0.368683010 0.022095000
0.000000000 0.568726003 0.032958999
0.032867000 0.574280024 0.032928001
0.082001001 0.573853016 0.032928001
0.166869998 0.569763005 0.032288000
0.238617003 0.563538015 0.032196000
0.300963998 0.555114985 0.031433001
0.358704001 0.545104980 0.030913999
0.412506014 0.533874989 0.030151000
0.462677002 0.521973014 0.029114000
0.509582996 0.509491026 0.028320000
0.552550972 0.496246010 0.027557001
0.590240002 0.481200993 0.026520001
0.624023020 0.465728998 0.025238000
0.655059993 0.450805992 0.023894999
0.681914985 0.435393989 0.022857999
0.701476991 0.420134991 0.021331999
0.711914003 0.408996999 0.019805999
0.000000000 0.615143001 0.029906999
0.029877000 0.619812012 0.029906999
0.065886997 0.619445980 0.029877000
0.154845998 0.616028011 0.029175000
0.228760004 0.610442996 0.029114000
0.291411996 0.602844000 0.028380999
0.349303991 0.593262017 0.027832000
0.403014988 0.582091987 0.027161000
0.453063995 0.569793999 0.026427999
0.499756008 0.556824028 0.025665000
0.543700993 0.543731987 0.024506001
0.584197998 0.530028999 0.023712000
0.619080007 0.514159977 0.022705000
0.649596989 0.497314006 0.021392999
0.675659001 0.479492009 0.020508001
0.697052002 0.460967988 0.019073000
0.706573009 0.448729992 0.017548000
0.000000000 0.657745004 0.026854999
0.026854999 0.661620975 0.026854999
0.054290999 0.661346018 0.026123000
0.142609000 0.658599973 0.026123000
0.217590004 0.653503001 0.026062001
0.280945003 0.646606028 0.025330000
0.338959008 0.637726009 0.024780000
0.392791986 0.626984000 0.024292000
0.442901999 0.614838004 0.023743000
0.489470989 0.601562977 0.022857999
0.532958984 0.587646008 0.021942001
0.573760986 0.573700011 0.020691000
0.611450016 0.559387028 0.019928001
0.643158019 0.542267025 0.018982001
0.669708014 0.523375988 0.017609000
0.691009998 0.503325999 0.016754000
0.702148020 0.489594012 0.015228000
0.000000000 0.695708990 0.023071000
0.023071000 0.699768007 0.023071000
0.043120999 0.699218988 0.023071000
0.128997996 0.696959972 0.023071000
0.205413997 0.692382991 0.022826999
0.269196004 0.685851991 0.022278000
0.327118009 0.677367985 0.021545000
0.380524009 0.666747987 0.021484001
0.429962009 0.654266000 0.020691000
0.475921988 0.640442014 0.019958001
0.518890023 0.626160026 0.019165000
0.559418023 0.611815989 0.018340999
0.597534001 0.597625971 0.017395001
0.632140994 0.582396984 0.016052000
0.658966005 0.562622011 0.015289000
0.679871023 0.540619016 0.013763000
0.696013987 0.524016976 0.012970000
0.000000000 0.733916998 0.020020001
0.020020001 0.736359000 0.020020001
0.037354000 0.735503972 0.020020001
0.113403000 0.733429015 0.020020001
0.191925004 0.729247987 0.019226000
0.257537991 0.723174989 0.019226000
0.316009998 0.715484977 0.018494001
0.369812012 0.705688000 0.018433001
0.419463992 0.694031000 0.017639000
0.465728998 0.680939019 0.016907001
0.508849978 0.666809022 0.016113000
0.548950016 0.651916981 0.015320000
0.586547971 0.636870980 0.014526000
0.621643007 0.621643007 0.013641000
0.653046012 0.605163991 0.012268000
0.676514030 0.584167004 0.011475000
0.692870975 0.567627013 0.010101000
0.000000000 0.761413991 0.016968001
0.016968001 0.764526010 0.016968001
0.032134999 0.763336003 0.016968001
0.081726000 0.762206972 0.016968001
0.166991994 0.758728027 0.016174000
0.239014000 0.753051996 0.016174000
0.298065007 0.745239019 0.015442000
0.351776004 0.735320985 0.014923000
0.401001006 0.723357975 0.014648000
0.446808010 0.710021973 0.013855000
0.489989996 0.696075022 0.013062000
0.530731022 0.681824028 0.012329000
0.568755984 0.667297006 0.011536000
0.603546023 0.651642025 0.010742000
0.634338021 0.634398997 0.009857000
0.661590993 0.615966976 0.008423000
0.685851991 0.598174989 0.007629000
0.000000000 0.801940978 0.013885000
0.013885000 0.804931998 0.013123000
0.024352999 0.804108024 0.013123000
0.106109999 0.801544011 0.013123000
0.179413006 0.796905994 0.013123000
0.240386993 0.790557981 0.013062000
0.296204001 0.782531977 0.012360000
0.348145008 0.772858024 0.011871000
0.396239996 0.761413991 0.011566000
0.441009998 0.748444021 0.010803000
0.483123988 0.734405994 0.010071000
0.522827029 0.719666004 0.009277000
0.560364008 0.704680979 0.008484000
0.595367014 0.689391971 0.007690000
0.627258003 0.673187017 0.006897000
0.656036019 0.656127989 0.006104000
0.683166981 0.641570985 0.004639000
0.000000000 0.826323986 0.010864000
0.010864000 0.828917980 0.010864000
0.018279999 0.828155994 0.010101000
0.081084996 0.826507986 0.010101000
0.159363002 0.822632015 0.010071000
0.225159004 0.816649973 0.009521000
0.281403005 0.808807015 0.009308000
0.333557010 0.799377024 0.008514000
0.381682992 0.788361013 0.008514000
0.426299989 0.775847971 0.007751000
0.468353003 0.762176991 0.006989000
0.508208990 0.747771978 0.006195000
0.545409977 0.732666016 0.005432000
0.579680979 0.716796994 0.004669000
0.610870004 0.700226009 0.003876000
0.639403999 0.682953000 0.003113000
0.665832996 0.665893972 0.002319000
0.003052000 0.003052000 0.127563000
0.065582000 0.004547000 0.129363999
0.130706996 0.003845000 0.130706996
0.194031000 0.000153000 0.129363999
0.254364014 0.000000000 0.127013996
0.312774986 0.000000000 0.124603003
0.370819002 0.000000000 0.122345001
0.427276999 0.000000000 0.119934000
0.479889005 0.000000000 0.117371000
0.528656006 0.000000000 0.115111999
0.573913991 0.000000000 0.112609997
0.615966976 0.000000000 0.110413000
0.655578971 0.000000000 0.108521000
0.691771984 0.000000000 0.107116997
0.719452024 0.000000000 0.106140003
0.742583990 0.000000000 0.105132997
0.764129996 0.000000000 0.104858004
0.006104000 0.065582000 0.129639000
0.066132002 0.066071004 0.131104007
0.131104007 0.064392000 0.131011993
0.193817005 0.056061000 0.128113002
0.253509998 0.053252999 0.125121996
0.311432004 0.051543999 0.122893997
0.369170994 0.050140001 0.120911002
0.425139993 0.048401002 0.118529998
0.477631003 0.046386998 0.116118997
0.526184022 0.044677999 0.113463998
0.571289003 0.042938001 0.110900998
0.613770008 0.040833000 0.108489998
0.653716981 0.039276000 0.106049001
0.690216005 0.037200999 0.103577003
0.718200982 0.035583001 0.101043999
0.740997016 0.033325002 0.098784998
0.763062000 0.031799000 0.097594999
0.008362000 0.133698002 0.133606002
0.065613002 0.134552002 0.133849993
0.132232994 0.132293999 0.131805003
0.195313007 0.128021002 0.128021002
0.256653011 0.123259999 0.123535000
0.316803008 0.116576999 0.116393998
0.374451011 0.106749997 0.106201001
0.428925008 0.100432999 0.099335000
0.480042011 0.096832000 0.095490001
0.527924001 0.093474999 0.092285000
0.572479010 0.090271004 0.089019999
0.614287972 0.086914003 0.085205004
0.653687000 0.083893001 0.081696004
0.690002024 0.080475003 0.078460999
0.718109012 0.077118002 0.074767999
0.740997016 0.074248999 0.071227998
0.763062000 0.071289003 0.068176001
0.002472000 0.200591996 0.131743997
0.054962002 0.202057004 0.131560996
0.129210994 0.200348005 0.129455999
0.196044996 0.196259007 0.125061005
0.258056998 0.190856993 0.119048998
0.317932010 0.185058996 0.107268997
0.374846995 0.179107994 0.095458999
0.428314000 0.174133003 0.089722000
0.478118986 0.169586003 0.086914003
0.524994016 0.165465996 0.084137000
0.569122016 0.161590993 0.081238002
0.610596001 0.157317996 0.078033000
0.649872005 0.152924001 0.074707001
0.685669005 0.148681998 0.070862003
0.713867009 0.144287005 0.067230001
0.735747993 0.140258998 0.063933998
0.757293999 0.137511998 0.060089000
0.000000000 0.272278011 0.128356993
0.048156999 0.275573999 0.129333004
0.126433998 0.274199992 0.126190007
0.197570994 0.268554986 0.121428996
0.261047006 0.261168987 0.109650001
0.320129007 0.253601015 0.095458999
0.376251012 0.246978998 0.087890998
0.428986013 0.240875006 0.084991001
0.478179991 0.234679997 0.082764000
0.524138987 0.228637993 0.080565996
0.567200005 0.222564995 0.078125000
0.607635021 0.216521993 0.075255997
0.646057010 0.210723996 0.071869001
0.681640983 0.205261007 0.068451002
0.710114002 0.199890003 0.065125003
0.731445014 0.194793999 0.061340000
