public/lut/114.cube
TITLE "17x17x17 Adobe/IRIDAS cube 3D LUT exported with GrossGrade v0.2.2 (beta) 64 bit"
DOMAIN_MIN 0 0 0
DOMAIN_MAX 1 1 1
LUT_3D_SIZE 5
0.000000000 0.000000000 0.000000000
0.242431998 0.000000000 0.000000000
0.471161008 0.000000000 0.000000000
0.649078012 0.000000000 0.000000000
0.750518978 0.004730000 0.000000000
0.000000000 0.265807986 0.000000000
0.255187988 0.255371004 0.000000000
0.474213004 0.236938000 0.000000000
0.641112983 0.213318005 0.000000000
0.737976015 0.194275007 0.000000000
0.000000000 0.518218994 0.000000000
0.248535007 0.511475027 0.000000000
0.471161008 0.471161008 0.000000000
0.629271984 0.417479992 0.000000000
0.717499018 0.368865997 0.000000000
0.000000000 0.693268001 0.000000000
0.201874003 0.689330995 0.000000000
0.429259986 0.653380990 0.000000000
0.597351015 0.597411990 0.000000000
0.695739985 0.522888005 0.000000000
0.000000000 0.825103998 0.000000000
0.144042999 0.821411014 0.000000000
0.380156994 0.788055003 0.000000000
0.544768989 0.732483029 0.000000000
0.665709972 0.665832996 0.000000000
0.009277000 0.009277000 0.264954001
0.272552013 0.009857000 0.272552013
0.515380979 0.000000000 0.255829006
0.691101015 0.000000000 0.232758000
0.810576975 0.000000000 0.217285007
0.021484001 0.287598014 0.287384003
0.281677008 0.281738013 0.281920999
0.515929997 0.244323999 0.243134007
0.693817019 0.179260001 0.180724993
0.807494998 0.130980998 0.126708999
0.000000000 0.541199028 0.249573007
0.245331004 0.541625977 0.245697007
0.493651986 0.493712991 0.191559002
0.664336979 0.430144995 0.101043999
0.758544981 0.378203988 0.088500999
0.000000000 0.712372005 0.206939995
0.176575005 0.720641971 0.177460000
0.438629001 0.683197021 0.099792004
0.615508974 0.615630984 0.068512000
0.707153022 0.529724002 0.050841998
0.000000000 0.838164985 0.161438003
0.059905998 0.849609017 0.070496000
0.383331001 0.816895008 0.030944999
0.562958002 0.761536002 0.022278000
0.686249018 0.686309993 0.007904000
0.033904999 0.033904999 0.552338004
0.289368004 0.047210999 0.566406012
0.567077994 0.054290999 0.566895008
0.776549995 0.000000000 0.515471995
0.908966005 0.000000000 0.478118986
0.058777001 0.285950005 0.584228992
0.289581001 0.290008992 0.592010021
0.574401975 0.278777987 0.574096978
0.780640006 0.207976997 0.512481987
0.929108024 0.183715999 0.472137004
0.088225998 0.583159983 0.583037972
0.279754996 0.585846007 0.585968018
0.560516000 0.560851991 0.560851991
0.760895014 0.518523991 0.518218994
0.917663991 0.435364008 0.435822010
0.048553001 0.791809022 0.528106987
0.287292004 0.789916992 0.534453988
0.511932015 0.763244987 0.512054026
0.713867009 0.713837028 0.443634003
0.868744016 0.602539003 0.156311005
0.000000000 0.932860970 0.468964010
0.164459005 0.944611013 0.456878990
0.431823999 0.928101003 0.432159007
0.640320003 0.903747976 0.309906006
0.813934028 0.814055979 0.013031000
0.109771997 0.109771997 0.798828006
0.326537997 0.124603003 0.807799995
0.567107975 0.142792001 0.822754025
0.812224984 0.157897994 0.812134027
0.986938000 0.005127000 0.766906977
0.145142004 0.331054986 0.821471989
0.336914003 0.336791992 0.827971995
0.573273003 0.334228992 0.832854986
0.813690007 0.330321997 0.813538015
0.989684999 0.173553005 0.761169016
0.171295002 0.557953000 0.838347971
0.312438995 0.564606011 0.844208002
0.573913991 0.573760986 0.826569021
0.804625988 0.566588998 0.804351985
0.982056022 0.459899992 0.734619021
0.238922000 0.810119987 0.810271978
0.342101991 0.815856993 0.815979004
0.558471978 0.799468994 0.799651980
0.771179020 0.771453977 0.771820009
0.954346001 0.690796018 0.690491021
0.288787991 1.000000000 0.768249989
0.383240014 0.999939024 0.771637022
0.552643001 0.988403022 0.763641000
0.728119016 0.969940007 0.728057981
0.947601020 0.947692990 0.527130008
0.213715002 0.213715002 0.999877989
0.415008992 0.235779002 0.999877989
0.622986019 0.288666010 0.999877989
0.815612972 0.350800008 0.999939024
0.999877989 0.375580013 0.999877989
0.271178991 0.438170999 0.999877989
0.449371010 0.449340999 0.999877989
0.638213992 0.477203012 0.999877989
0.819885015 0.508453012 0.999939024
0.999877989 0.498077005 0.999817014
0.387450993 0.655059993 0.999939024
0.523651004 0.660674989 0.999939024
0.671752989 0.671661019 0.999939024
0.829528987 0.678313971 0.999939024
0.996825993 0.646851003 0.996765018
0.503754020 0.824676991 0.999939024
0.590210021 0.824981987 0.999939024
0.682739019 0.827606022 0.999939024
0.826111019 0.825866997 0.999512017
0.987761974 0.819611013 0.987731993
0.712249994 0.999939024 0.999939024
0.749602973 0.999939024 0.999939024
0.808960021 0.999786019 0.999786019
0.895721018 0.995788991 0.995788991
0.993834972 0.993834972 0.993773997
