public/lut/115.cube
TITLE "17x17x17 Adobe/IRIDAS cube 3D LUT exported with GrossGrade v0.2.2 (beta) 64 bit"
DOMAIN_MIN 0 0 0
DOMAIN_MAX 1 1 1
LUT_3D_SIZE 5
0.000000000 0.043274000 0.097534001
0.224273995 0.000000000 0.056519002
0.512817025 0.000000000 0.045104999
0.765685976 0.000000000 0.043274000
0.985656977 0.000000000 0.046905998
0.056519002 0.303680003 0.130889997
0.250793010 0.250977010 0.082520001
0.534942985 0.231964007 0.059997998
0.786194026 0.226531997 0.032928001
0.989562988 0.227814004 0.000000000
0.074157998 0.572570980 0.144927993
0.267365009 0.519531012 0.101685002
0.555603027 0.492493004 0.086060002
0.803680003 0.482573986 0.083801001
0.999481022 0.482147008 0.073853001
0.128082007 0.837859988 0.174316004
0.280059993 0.787598014 0.135741994
0.569549978 0.760406017 0.139374003
0.817474008 0.745757997 0.165770993
1.000000000 0.744018972 0.259032995
0.377746999 1.000000000 0.387299001
0.413239002 1.000000000 0.364165992
0.598999023 1.000000000 0.329528987
0.827575982 0.998627007 0.321624994
1.000000000 0.984802008 0.450011998
0.000000000 0.047424000 0.268249989
0.223358005 0.000000000 0.232269004
0.514403999 0.000000000 0.226348996
0.768494010 0.000000000 0.225615993
0.984161019 0.000000000 0.228973001
0.019714000 0.295441002 0.304839998
0.248749003 0.248840004 0.258300990
0.536377013 0.234771997 0.244323999
0.789184988 0.229828000 0.239471003
0.990752995 0.221375003 0.231475994
0.066344999 0.566375971 0.325866997
0.267883003 0.516906977 0.277770996
0.557129025 0.494354010 0.259948999
0.806671023 0.486084014 0.254456013
0.998871028 0.485352010 0.251098990
0.130859002 0.834960997 0.341125011
0.283538997 0.786804020 0.293029994
0.572234988 0.762085021 0.281311005
0.820617974 0.749083996 0.286926001
1.000000000 0.748229980 0.334778011
0.374846995 1.000000000 0.452300996
0.422363013 1.000000000 0.426544011
0.605651975 1.000000000 0.399811000
0.831237972 0.999786019 0.395507991
1.000000000 0.989135981 0.490233988
0.000000000 0.050018001 0.464783013
0.222075999 0.000000000 0.427367985
0.509459972 0.000000000 0.427215993
0.765075982 0.000000000 0.430388987
0.978972971 0.000000000 0.435241997
0.000000000 0.286406994 0.496825993
0.241881996 0.241576999 0.454650998
0.530762017 0.231841996 0.447205007
0.786499023 0.225281000 0.446381003
0.987761974 0.207488999 0.444458008
0.040587999 0.550598025 0.527068973
0.261078000 0.504088998 0.480681986
0.550903022 0.488922000 0.465636998
0.803497016 0.483704001 0.460388005
0.995513976 0.481902987 0.458160013
0.132446006 0.821166992 0.545257986
0.281524986 0.774932981 0.498290986
0.568085015 0.755614996 0.483002007
0.818023980 0.746796012 0.479736000
1.000000000 0.747619987 0.492431998
0.365723014 1.000000000 0.588042974
0.422057986 1.000000000 0.555786014
0.605499029 1.000000000 0.536804020
0.831511974 0.999419987 0.535797000
1.000000000 0.991638005 0.593567014
0.000000000 0.051697001 0.678070009
0.222197995 0.000000000 0.639281988
0.503784001 0.000000000 0.639252007
0.757843018 0.000000000 0.646453977
0.970580995 0.000000000 0.654114008
0.000000000 0.282745004 0.705048025
0.234283000 0.233673006 0.665557981
0.523223996 0.220428005 0.662047982
0.780884027 0.199219003 0.665984988
0.984282970 0.121155001 0.668549001
0.000000000 0.535645008 0.735961974
0.249755993 0.490478992 0.692322016
0.540466011 0.478729010 0.681976020
0.796447992 0.473082989 0.680419981
0.991760015 0.463898003 0.680236995
0.113555998 0.803802013 0.759949028
0.272217005 0.758301020 0.714294016
0.558257997 0.744080007 0.700255990
0.810791016 0.739257991 0.695526004
0.999481022 0.739349008 0.695250988
0.340941995 1.000000000 0.773101985
0.408264011 1.000000000 0.735382020
0.595734000 0.999877989 0.722564995
0.828460991 0.994750977 0.725403011
1.000000000 0.993010998 0.751770020
0.000000000 0.051697001 0.903687000
0.222106993 0.000000000 0.863677979
0.500060976 0.000000000 0.862456977
0.750275016 0.000000000 0.870880008
0.961364985 0.000000000 0.881165028
0.000000000 0.281127989 0.927124023
0.184540004 0.195251003 0.896973014
0.510132015 0.142242000 0.894257009
0.772430003 0.000000000 0.901000977
0.971619010 0.000000000 0.903778017
0.000000000 0.525635004 0.954590023
0.190368995 0.472595006 0.920714974
0.522338986 0.456818014 0.913666010
0.786101997 0.434906006 0.917968988
0.991364002 0.381316990 0.924163997
0.000000000 0.786925972 0.982666016
0.218596995 0.742156982 0.942291021
0.536255002 0.729156017 0.931029975
0.797484994 0.721648991 0.929778993
0.997559011 0.707122982 0.931334972
0.250519007 1.000000000 0.992981017
0.359436005 0.999877989 0.950195014
0.579010010 0.993317008 0.940734982
0.819611013 0.990417004 0.938628972
1.000000000 0.993286014 0.945403993
