public/lut/115.cube
TITLE "17x17x17 Adobe/IRIDAS cube 3D LUT exported with GrossGrade v0.2.2 (beta) 64 bit"
DOMAIN_MIN 0 0 0
DOMAIN_MAX 1 1 1
LUT_3D_SIZE 17
0.000000000 0.043274000 0.097534001
0.000000000 0.036469001 0.089722000
0.038361002 0.003357000 0.072205000
0.136444002 0.000000000 0.062560998
0.224273995 0.000000000 0.056519002
0.302184999 0.000000000 0.052094001
0.375488013 0.000000000 0.049224999
0.445587009 0.000000000 0.046905998
0.512817025 0.000000000 0.045104999
0.578369021 0.000000000 0.044434000
0.642059028 0.000000000 0.043731999
0.704406977 0.000000000 0.043274000
0.765685976 0.000000000 0.043274000
0.825713992 0.000000000 0.044006001
0.884917974 0.000000000 0.044739000
0.942627013 0.000000000 0.045502000
0.985656977 0.000000000 0.046905998
0.013885000 0.106017999 0.108429000
0.012238000 0.098601997 0.101074003
0.048401002 0.078491002 0.081482001
0.144347996 0.065521002 0.068236999
0.231781006 0.056853998 0.059631001
0.309264988 0.051086001 0.052917000
0.382324010 0.046264999 0.048553001
0.452271014 0.042693999 0.045044001
0.519562006 0.039032001 0.041443001
0.584930003 0.035583001 0.037567001
0.648742974 0.029175000 0.031555001
0.711151004 0.016845999 0.021331999
0.772338986 0.005188000 0.013855000
0.832274973 0.005920000 0.014679000
0.891479015 0.005920000 0.014679000
0.948975027 0.005920000 0.014679000
0.986388981 0.006653000 0.014679000
0.036377002 0.170990005 0.117156997
0.034697998 0.163268998 0.109679997
0.060394000 0.143463001 0.090392999
0.151672006 0.130005002 0.076416001
0.238067999 0.121184997 0.067016996
0.315246999 0.115387000 0.060120001
0.388031006 0.111144997 0.055176001
0.457457989 0.108062997 0.051056001
0.524596989 0.105682001 0.047667999
0.589965999 0.103606999 0.044128001
0.653747976 0.101379000 0.039246000
0.716278017 0.098328002 0.027069001
0.777374029 0.095427997 0.007782000
0.837219000 0.095581003 0.000305000
0.896484017 0.095946997 0.000977000
0.953643978 0.096709996 0.000977000
0.986968994 0.097107001 0.000977000
0.049132999 0.236938000 0.124908000
0.047821000 0.229094997 0.117523000
0.070435002 0.208862007 0.098601997
0.158875003 0.194793999 0.084899999
0.244781002 0.185760006 0.074920997
0.321411014 0.179198995 0.067505002
0.393707007 0.174713001 0.061737001
0.462891012 0.171416998 0.057464998
0.529724002 0.169066995 0.053741001
0.594726980 0.167419001 0.050476000
0.658294976 0.166137993 0.046082001
0.720611989 0.164948002 0.038238999
0.781799018 0.163605005 0.020781999
0.841766000 0.163239002 0.000000000
0.900847971 0.163756996 0.000000000
0.957854986 0.164428994 0.000000000
0.988007009 0.165314004 0.000000000
0.056519002 0.303680003 0.130889997
0.055633999 0.295836985 0.123535000
0.077941999 0.275391012 0.105255000
0.165314004 0.260863990 0.092224002
0.250793010 0.250977010 0.082520001
0.327484012 0.243561000 0.074280001
0.399475008 0.238312006 0.068389997
0.468475014 0.234619007 0.064025998
0.534942985 0.231964007 0.059997998
0.599700987 0.230103001 0.056701999
0.663025022 0.228760004 0.052673001
0.725127995 0.227660999 0.047332998
0.786194026 0.226531997 0.032928001
0.846161008 0.225739002 0.005707000
0.905211985 0.226165995 0.000000000
0.961853027 0.226836994 0.000000000
0.989562988 0.227814004 0.000000000
0.061859000 0.370880008 0.135619998
0.060608000 0.362823009 0.128325999
0.083466001 0.342438012 0.110321000
0.170379996 0.327789009 0.097686999
0.256287009 0.317382991 0.088408999
0.333312988 0.309264988 0.080688000
0.405333996 0.303283989 0.074584998
0.474059999 0.298859000 0.069977000
0.540374994 0.295623988 0.066253997
0.604857981 0.293457001 0.062775001
0.667937994 0.291869998 0.059448000
0.729767025 0.290771008 0.055206001
0.790526986 0.289947987 0.046691999
0.850463986 0.289063007 0.026062001
0.909636974 0.288879007 0.000000000
0.965942025 0.289458990 0.000000000
0.991668999 0.290405005 0.000000000
0.065796003 0.438109994 0.138946995
0.064575002 0.430206001 0.131926998
0.087494001 0.409667999 0.113922000
0.174408004 0.395049989 0.102020003
0.260834008 0.384460002 0.093474999
0.338440001 0.375977010 0.086577997
0.410766989 0.369293004 0.080536000
0.479553014 0.364226997 0.076018997
0.545776010 0.360413015 0.072296001
0.610137999 0.357665986 0.069182999
0.672913015 0.355773985 0.066467002
0.734435976 0.354492009 0.063293003
0.794951975 0.353516012 0.058655001
0.854614019 0.352813989 0.047882002
0.913788021 0.352324992 0.021576000
0.970367014 0.352416992 0.000000000
0.994324028 0.353302002 0.000000000
0.069550000 0.505340993 0.141937003
0.068389997 0.497498006 0.134856999
0.090942003 0.476958990 0.117004000
0.177521005 0.462433010 0.105377004
0.264465004 0.451934993 0.097594999
0.342682004 0.443206996 0.091309004
0.415648997 0.436127007 0.085814998
0.484649986 0.430449992 0.081757002
0.550903022 0.426025003 0.078704998
0.615143001 0.422820985 0.076568998
0.677794993 0.420502007 0.074584998
0.739104986 0.418823004 0.072875999
0.799377024 0.417755008 0.070464998
0.858794987 0.417053014 0.065398999
0.917815983 0.416565001 0.054565001
0.974425972 0.416260004 0.027161000
0.997344971 0.416900992 0.020416001
0.074157998 0.572570980 0.144927993
0.072815001 0.564697027 0.137878001
0.094452001 0.544250011 0.119994998
0.180267006 0.529937983 0.108948000
0.267365009 0.519531012 0.101685002
0.346251994 0.510833979 0.096008003
0.419678003 0.503448009 0.091430999
0.489104986 0.497314006 0.088225998
0.555603027 0.492493004 0.086060002
0.619934022 0.488739014 0.084747002
0.682494998 0.485962003 0.084259003
0.743622005 0.483916998 0.084259003
0.803680003 0.482573986 0.083801001
0.862854004 0.481842011 0.082305998
0.921570003 0.481323004 0.078827001
0.977904975 0.481139988 0.071533002
0.999481022 0.482147008 0.073853001
0.081084996 0.639617980 0.148651004
0.079406999 0.631744027 0.141417995
0.099030003 0.611359000 0.123687997
0.183166996 0.597259998 0.112884998
0.270020008 0.587096989 0.106322996
0.349242985 0.578460991 0.101623997
0.423096001 0.570953012 0.097992003
0.492920011 0.564544976 0.095764004
0.559783995 0.559356987 0.094910003
0.624267995 0.555206001 0.094879001
0.686797976 0.551971018 0.095825002
0.747833014 0.549651980 0.097594999
0.807770014 0.548003972 0.099518001
0.866668999 0.547028005 0.101012997
0.925109982 0.546509027 0.101501003
0.980956972 0.546416998 0.101989999
1.000000000 0.548614979 0.130676001
0.091735996 0.706268013 0.153931007
0.089813001 0.698485970 0.146667004
0.105803996 0.678192019 0.128967002
0.186615005 0.664276004 0.118408002
0.272552013 0.654388011 0.112640001
0.351898015 0.645965993 0.108948000
0.426025003 0.638489008 0.106567003
0.496306986 0.632049978 0.105651997
0.563445985 0.626525998 0.105988003
0.628051996 0.622039974 0.107726999
0.690674007 0.618469000 0.110504001
0.751648009 0.615752995 0.113891996
0.811432004 0.613830984 0.117919996
0.870148003 0.612609982 0.122405998
0.928252995 0.611999989 0.126007006
0.983642995 0.611938000 0.131652996
1.000000000 0.614777029 0.178101003
0.107147001 0.772460997 0.161804006
0.104796998 0.764770985 0.154845998
0.116210997 0.744597971 0.137085006
0.191620007 0.730956972 0.127167001
0.275635004 0.721283019 0.122161999
0.354613990 0.713135004 0.119323999
0.428833008 0.705749989 0.118102998
0.499237001 0.699310005 0.118835002
0.566559017 0.693633974 0.120575003
0.631377995 0.688934028 0.123687997
0.694122016 0.685088992 0.128325999
0.755096018 0.682067990 0.133727998
0.814697027 0.679871023 0.139800996
0.873138011 0.678406000 0.146667004
0.930999994 0.677612007 0.153290004
0.985778987 0.677520990 0.162872002
1.000000000 0.679901004 0.218933001
0.128082007 0.837859988 0.174316004
0.124847002 0.830231011 0.167174995
0.131377995 0.810364008 0.149566993
0.199340999 0.796967030 0.139983997
0.280059993 0.787598014 0.135741994
0.357971013 0.779663026 0.134124994
0.431885004 0.772552013 0.134064004
0.502228022 0.766083002 0.136078000
0.569549978 0.760406017 0.139374003
0.634398997 0.755554020 0.144134998
0.697174013 0.751495004 0.150238007
0.758117974 0.748229980 0.157471001
0.817474008 0.745757997 0.165770993
0.875671029 0.744049013 0.174805000
0.933104992 0.743041992 0.184235007
0.987487972 0.742859006 0.197387993
1.000000000 0.744018972 0.259032995
0.153503001 0.902588010 0.191284001
0.149932995 0.894958019 0.184386998
0.152404994 0.875244021 0.167603001
0.211120993 0.862182975 0.158325002
0.286864996 0.853057981 0.154785007
0.362639993 0.845398009 0.154113993
0.435608000 0.838469982 0.155333996
0.505523980 0.832153022 0.158263996
0.572692990 0.826476991 0.163115993
0.637359977 0.821533024 0.169312000
0.699981987 0.817322016 0.176971003
0.760742009 0.813843012 0.186004996
0.819945991 0.811187983 0.196259007
0.877716005 0.809234977 0.207610995
0.934723020 0.808075011 0.219726995
0.988372982 0.807555974 0.236328006
1.000000000 0.807159007 0.300476015
0.193664998 0.963684022 0.222717002
0.186890006 0.957031012 0.213378996
0.179138005 0.939208984 0.191376001
0.227142006 0.926514030 0.181976005
0.296539009 0.917632997 0.179076999
0.369414985 0.910187006 0.178955004
0.440735012 0.903473020 0.181427002
0.509827018 0.897247016 0.185791001
0.576385021 0.891601980 0.191894993
0.640747011 0.886565983 0.199615002
0.702942014 0.882140994 0.208862007
0.763366997 0.878479004 0.219726995
0.822205007 0.875580013 0.232024997
0.879455984 0.873382986 0.245757997
0.935791016 0.871978998 0.260773003
0.988646984 0.871185005 0.280090004
1.000000000 0.868804991 0.344817996
0.303436011 1.000000000 0.317932010
0.277832001 1.000000000 0.292755008
0.223784998 0.997101009 0.232635006
0.255585015 0.986815989 0.219146997
0.316040009 0.978484988 0.216521993
0.382813007 0.971619010 0.216553003
0.450439006 0.965453982 0.218994007
0.517090023 0.959685981 0.223663002
0.582062006 0.954375982 0.230194002
0.645264030 0.949523985 0.238525003
0.706726015 0.945250988 0.248535007
0.766448975 0.941588998 0.260253996
0.824523985 0.938507020 0.274078012
0.881103992 0.936034977 0.290405005
0.936461985 0.934265018 0.308501989
0.988219976 0.933075011 0.331634998
1.000000000 0.928557992 0.393676996
0.377746999 1.000000000 0.387299001
0.377716005 1.000000000 0.385986000
0.379456013 1.000000000 0.383118004
0.392670006 1.000000000 0.377808005
0.413239002 1.000000000 0.364165992
0.447784007 1.000000000 0.352385998
0.493102998 1.000000000 0.343445003
0.544372976 1.000000000 0.335938007
0.598999023 1.000000000 0.329528987
0.655578971 0.999969006 0.324402004
0.712890983 0.999939024 0.320250988
0.770537972 0.999846995 0.317229986
0.827575982 0.998627007 0.321624994
0.883086979 0.995513976 0.342224002
0.937134027 0.993255973 0.363433987
0.987396002 0.991302013 0.391083002
1.000000000 0.984802008 0.450011998
0.000000000 0.044006001 0.136139005
0.000000000 0.036529999 0.127899006
0.038451999 0.003357000 0.111786000
0.136139005 0.000000000 0.103087999
0.224701002 0.000000000 0.097809002
0.303070009 0.000000000 0.094177000
0.376372993 0.000000000 0.090880997
0.446532995 0.000000000 0.088776000
0.514129996 0.000000000 0.087311000
0.579497993 0.000000000 0.086212002
0.643371999 0.000000000 0.085754000
0.705688000 0.000000000 0.085754000
0.766997993 0.000000000 0.085754000
0.826934993 0.000000000 0.086181998
0.886260986 0.000000000 0.086700000
0.943877995 0.000000000 0.087554999
0.985565007 0.000000000 0.088867001
0.000061000 0.104613997 0.147460997
0.000000000 0.097809002 0.140411004
0.044098001 0.077087000 0.122070000
0.144347996 0.064879999 0.109710999
0.232178003 0.056853998 0.102539003
0.310303003 0.051605001 0.097473003
0.383361995 0.047180001 0.094116002
0.453278005 0.043731999 0.091247998
0.520690978 0.040557999 0.089354999
0.586090028 0.037445001 0.087219000
0.650084972 0.031433001 0.085235998
0.712523997 0.018433001 0.082976997
0.773742974 0.003296000 0.081298999
0.833739996 0.000000000 0.080536000
0.893096983 0.000000000 0.081511997
0.950317025 0.000000000 0.082549997
0.986266971 0.000000000 0.083953999
0.025390999 0.169861004 0.156982005
0.024444999 0.162292004 0.149414003
0.057220001 0.142883003 0.129943997
0.151855007 0.129973993 0.117279001
0.238892004 0.121978998 0.109099999
0.316161990 0.116272002 0.103515998
0.388884991 0.112213001 0.099243000
0.458617985 0.109222002 0.096344002
0.525817990 0.107086003 0.094054997
0.591247976 0.105103001 0.092193998
0.654906988 0.102904998 0.090117998
0.717346013 0.099609002 0.087219000
0.778778017 0.095581003 0.082580999
0.839172006 0.090790004 0.076599002
0.899078012 0.083587997 0.065307997
0.956879020 0.071106002 0.040709998
0.989014030 0.065673999 0.012512000
0.042725001 0.235992000 0.164764002
0.041870002 0.228332996 0.157074004
0.068634003 0.208496004 0.137603998
0.158813000 0.194977000 0.124420002
0.245269999 0.186370999 0.115753002
0.322082996 0.180084005 0.109131001
0.394562006 0.175629005 0.104675002
0.463928014 0.172667995 0.101410002
0.530914009 0.170441002 0.098876998
0.596038997 0.168761998 0.096709996
0.659606993 0.167511001 0.094512999
0.721924007 0.166290000 0.091766000
0.783173025 0.164764002 0.087433003
0.843474984 0.162444994 0.080444001
0.903380990 0.158538997 0.069335997
0.961090028 0.152312994 0.046631001
0.990417004 0.149139002 0.014038000
0.052094001 0.302794993 0.170867994
0.051300000 0.294952005 0.163482994
0.076782003 0.274962991 0.144072995
0.165465996 0.261200011 0.130919993
0.251372993 0.251556009 0.121826001
0.328247011 0.244476005 0.114807002
0.400420994 0.239531994 0.109802000
0.469451994 0.235900998 0.106078997
0.536101997 0.233245999 0.103271000
0.600983024 0.231415004 0.100983001
0.664336979 0.230103001 0.098755002
0.726409972 0.229003996 0.096344002
0.787536979 0.227997005 0.092499003
0.847625971 0.226653993 0.085845999
0.907410026 0.224884003 0.076293997
0.964905024 0.222259998 0.058533002
0.991638005 0.221038997 0.041290000
0.058777001 0.370117009 0.175842002
0.058044001 0.362365991 0.168303996
0.082611002 0.342132986 0.149260998
0.170807004 0.328063995 0.136230007
0.256958008 0.317992985 0.127196997
0.334136993 0.310241997 0.120361000
0.406372011 0.304443002 0.115020998
0.475158989 0.300110012 0.110808998
0.541534007 0.296967000 0.107879996
0.606140018 0.294739008 0.105498999
0.669219971 0.293242991 0.103271000
0.731109977 0.292145014 0.100830004
0.791900992 0.291321009 0.097626001
0.851806998 0.290374994 0.092285000
0.911346018 0.289245993 0.083159998
0.968596995 0.287871987 0.069397002
0.993194997 0.287598014 0.060059000
0.063568003 0.437500000 0.179718003
0.062346999 0.429839998 0.172179997
0.087067001 0.409575999 0.153198004
0.175017998 0.395294011 0.140349999
0.261626989 0.385039985 0.131775007
0.339354992 0.376769990 0.125030994
0.411835015 0.370361000 0.119507000
0.480621010 0.365417004 0.115355998
0.546967030 0.361663997 0.112365998
0.611298025 0.359008998 0.109924003
0.674193978 0.357147008 0.108032003
0.735778987 0.355865002 0.105988003
0.796356022 0.354918987 0.103455000
0.855988026 0.354187012 0.099518001
0.915283024 0.353484988 0.092133000
0.972259998 0.352661014 0.080627002
0.995117009 0.352905005 0.075072996
0.067962997 0.505034983 0.182831004
0.066742003 0.497283995 0.175384998
0.090880997 0.477081001 0.156280994
0.178314000 0.462830007 0.143921003
0.265320003 0.452544987 0.135619998
0.343688995 0.444061011 0.129059002
0.416626006 0.437103003 0.123901002
0.485718012 0.431519002 0.119903997
0.552062988 0.427246004 0.117095999
0.616364002 0.424071997 0.114928998
0.679046988 0.421813995 0.113525003
0.740417004 0.420197010 0.112029999
0.800719976 0.419158995 0.110596001
0.860167980 0.418457001 0.107849002
0.919250011 0.417968988 0.103240997
0.975861013 0.417479992 0.094818003
0.997466981 0.417908013 0.090607002
0.072906002 0.572479010 0.185637996
0.071777001 0.564666986 0.178039998
0.094604000 0.544434011 0.158996999
0.181305006 0.530333996 0.146880999
0.268433005 0.520172000 0.139037997
0.347321004 0.511658013 0.132935002
0.420745999 0.504424989 0.128234997
0.490233988 0.498412997 0.124695003
0.556792974 0.493651986 0.122222997
0.621155024 0.490020990 0.120757997
0.683745980 0.487273991 0.119903997
0.744965017 0.485352010 0.119415000
0.805023015 0.483978003 0.119080000
0.864197016 0.483215004 0.118194997
0.922942996 0.482726991 0.115997002
0.979309022 0.482544005 0.112029999
0.999390006 0.483581990 0.115172997
0.080627002 0.639648020 0.188659996
0.078918003 0.631896973 0.181182995
0.099578999 0.611663997 0.161956996
0.184174001 0.597809017 0.150023997
0.271117985 0.587768972 0.142792001
0.350371987 0.579285026 0.137328997
0.424255013 0.571991026 0.133209005
0.494141012 0.565734982 0.130401999
0.560974002 0.560576975 0.128754005
0.625458002 0.556487978 0.127991006
0.688109994 0.553345025 0.128082007
0.749176025 0.551024973 0.128845006
0.809081972 0.549438000 0.129943997
0.868041992 0.548461974 0.131042004
0.926482975 0.547882020 0.131439000
0.982330024 0.547851980 0.131775007
1.000000000 0.549987972 0.152495995
0.091735996 0.706450999 0.192871004
0.089813001 0.698729992 0.185181007
0.106536999 0.678650022 0.165955007
0.187804997 0.664947987 0.154358000
0.273743004 0.655151010 0.147460997
0.353087991 0.646851003 0.142821997
0.427276999 0.639464974 0.139617994
0.497498006 0.633117974 0.137633994
0.564635992 0.627716005 0.136840999
0.629242003 0.623291016 0.137360007
0.691924989 0.619781017 0.138854995
0.753051996 0.617156982 0.141051993
0.812775016 0.615234017 0.143829003
0.871460021 0.614044011 0.147217005
0.929687977 0.613403022 0.150023997
0.984984994 0.613372982 0.154754996
1.000000000 0.616240978 0.193694994
0.107758000 0.772736013 0.199065998
0.105132997 0.765075982 0.191437006
0.117187999 0.745177984 0.172028005
0.192931995 0.731658995 0.160613999
0.276885986 0.722075999 0.154296994
0.355865002 0.713989019 0.150420994
0.430083990 0.706726015 0.148163006
0.500518978 0.700378001 0.147339001
0.567840993 0.694823980 0.147857994
0.632598996 0.690155029 0.149749994
0.695374012 0.686371028 0.152649000
0.756408989 0.683411002 0.156708002
0.816009998 0.681244016 0.161498994
0.874481022 0.679840028 0.167206004
0.932343006 0.679046988 0.172637999
0.987151980 0.678955019 0.181182995
1.000000000 0.681366026 0.231049001
0.128692999 0.838317990 0.208648995
0.125487998 0.830718994 0.200836003
0.132598996 0.811004996 0.181457996
0.200806007 0.797760010 0.170379996
0.281464010 0.788513005 0.164673001
0.359313995 0.780609012 0.161681995
0.433104992 0.773528993 0.160460994
0.503539979 0.767211974 0.160918996
0.570831001 0.761596978 0.162933007
0.635680974 0.756775022 0.166320994
0.698424995 0.752716005 0.170807004
0.759369016 0.749541998 0.176726997
0.818848014 0.747130990 0.183715999
0.876984000 0.745453000 0.191650003
0.934508979 0.744536996 0.200042993
0.988770008 0.744292974 0.211974993
1.000000000 0.745544016 0.268860012
0.154510006 0.903137028 0.222075999
0.150757000 0.895537972 0.214386001
0.153687000 0.875945985 0.195618004
0.212523997 0.863007009 0.184845001
0.288300008 0.854004025 0.179778993
0.364104986 0.846374989 0.177672997
0.437041998 0.839507997 0.177612007
0.506927013 0.833252013 0.179381996
0.574065983 0.827666998 0.182769999
0.638701975 0.822722971 0.187713996
0.701294005 0.818512022 0.194122002
0.762054026 0.815124989 0.202025995
0.821289003 0.812500000 0.211060002
0.879059017 0.810546994 0.221466005
0.936034977 0.809448004 0.232604995
0.989684999 0.808990002 0.247986004
1.000000000 0.808593988 0.308319002
0.195160002 0.964172006 0.248627007
0.188446000 0.957580984 0.238922000
0.180634007 0.939971983 0.215240002
0.228668004 0.927398980 0.204284996
0.298218012 0.918609977 0.199982002
0.370941013 0.911224008 0.198761001
0.442290992 0.904510021 0.199920997
0.511260986 0.898315012 0.203033000
0.577789009 0.892700016 0.207976997
0.642120004 0.887755990 0.214629993
0.704346001 0.883422971 0.222870007
0.764739990 0.879760981 0.232787997
0.823485970 0.876830995 0.244293004
0.880737007 0.874695003 0.257171988
0.937134027 0.873351991 0.271483988
0.989898980 0.872528017 0.290192008
1.000000000 0.870239019 0.351379007
0.306609988 1.000000000 0.334778011
0.281096995 1.000000000 0.310638011
0.225127995 0.997771978 0.251525998
0.256989002 0.987640023 0.236968994
0.317871004 0.979369998 0.233337000
0.384490997 0.972625971 0.232483000
0.452086985 0.966431022 0.234008998
0.518646002 0.960693002 0.237700999
0.583588004 0.955443978 0.243407995
0.646758974 0.950653017 0.250824004
0.708130002 0.946411014 0.260161996
0.767822027 0.942749023 0.271149009
0.825927973 0.939728022 0.284240991
0.882416010 0.937286019 0.299865991
0.937804997 0.935576975 0.317351997
0.989502013 0.934325993 0.339599997
1.000000000 0.929961979 0.399688989
0.377472013 1.000000000 0.396575987
0.377258003 1.000000000 0.394591987
0.379180998 1.000000000 0.390197992
0.395264000 1.000000000 0.386748999
0.416595012 1.000000000 0.373993009
0.451018989 1.000000000 0.362488002
0.496033013 1.000000000 0.353942990
0.547028005 1.000000000 0.347075999
0.601409972 1.000000000 0.341369987
0.657500982 1.000000000 0.336517006
0.714568973 0.999939024 0.333068997
0.771942019 0.999969006 0.330536008
0.828827024 0.999359012 0.332672000
0.884369016 0.996734977 0.349640012
0.938416004 0.994445980 0.371643007
0.988646984 0.992492974 0.398162991
1.000000000 0.986114979 0.454955995
0.000000000 0.045471001 0.179047003
0.000000000 0.038787998 0.171355993
0.038451999 0.003448000 0.152373999
0.136291996 0.000000000 0.145598993
0.224854007 0.000000000 0.141571000
0.303283989 0.000000000 0.138274997
0.376922995 0.000000000 0.135651007
0.447144002 0.000000000 0.133606002
0.514679015 0.000000000 0.132018998
0.580231011 0.000000000 0.130980998
0.644257009 0.000000000 0.130523995
0.706695974 0.000000000 0.130371004
0.767883003 0.000000000 0.130646005
0.827942014 0.000000000 0.130951002
0.887328982 0.000000000 0.131592005
0.944916010 0.000000000 0.132477000
0.985260010 0.000000000 0.133635998
0.000000000 0.104248002 0.188721001
0.000000000 0.097046003 0.181457996
0.039184999 0.074738003 0.164794996
0.142792001 0.062652998 0.153748006
0.232238993 0.055695001 0.147156000
0.310454994 0.050964002 0.143004999
0.383697987 0.046997000 0.139832005
0.453857005 0.044188999 0.137482002
0.521484017 0.041290000 0.135741994
0.586853027 0.037505999 0.134338006
0.651000977 0.031493999 0.132873997
0.713469982 0.018982001 0.131714001
0.774658024 0.003113000 0.131104007
0.834716976 0.000000000 0.130919993
0.894134998 0.000000000 0.131592005
0.951323986 0.000000000 0.132538006
0.986052990 0.000000000 0.133514002
0.000397000 0.168060005 0.199036002
0.000092000 0.160613999 0.191467002
0.051270001 0.141174003 0.172545999
0.150603995 0.128754005 0.160583004
0.238617003 0.121674001 0.153381005
0.316284001 0.116333000 0.148376003
0.389313012 0.112761997 0.145019993
0.459015012 0.109985001 0.142303005
0.526489019 0.108032003 0.140380993
0.592072010 0.106140003 0.138824001
0.655884027 0.103850998 0.137450993
0.718322992 0.100676998 0.135924995
0.779754996 0.096283004 0.133698002
0.840270996 0.091003001 0.130646005
0.900237978 0.082947001 0.125304997
0.958099008 0.069518998 0.116149999
0.989349008 0.057495002 0.108612001
0.030517999 0.234070003 0.207367003
0.029572001 0.226531997 0.199920997
0.064575002 0.206879005 0.180267006
0.157837003 0.194183007 0.167632997
0.244843006 0.186157003 0.159606993
0.322234988 0.180450007 0.154021993
0.394957989 0.176422000 0.149872005
0.464477986 0.173462003 0.146880999
0.531494021 0.171478003 0.144775003
0.596801996 0.169799998 0.143004999
0.660369992 0.168427005 0.141541004
0.722838998 0.167328000 0.139862001
0.784179986 0.165648997 0.137633994
0.844542980 0.163115993 0.134369001
0.904479980 0.158875003 0.128539994
0.962279975 0.151916996 0.118804999
0.990356028 0.147339001 0.111052997
0.045898002 0.300933987 0.214232996
0.045104999 0.293273985 0.206572995
0.073821999 0.273499012 0.187041998
0.164734006 0.260161996 0.174071997
0.251190007 0.251221001 0.165497005
0.328429997 0.244843006 0.159363002
0.400696009 0.240051001 0.154602006
0.469940007 0.236663997 0.151336998
0.536773980 0.234191999 0.148743004
0.601715028 0.232421994 0.146911994
0.665130973 0.231110007 0.145325005
0.727294981 0.230041996 0.143524006
0.788483024 0.229003996 0.141571000
0.848694026 0.227660999 0.138611004
0.908478022 0.225676998 0.133239999
0.966063976 0.222655997 0.124939002
