public/lut/116.cube
TITLE "17x17x17 Adobe/IRIDAS cube 3D LUT exported with GrossGrade v0.2.2 (beta) 64 bit"
DOMAIN_MIN 0 0 0
DOMAIN_MAX 1 1 1
LUT_3D_SIZE 5
0.000000000 0.013428000 0.075684004
0.158263996 0.002777000 0.077514999
0.408385992 0.054595999 0.112213001
0.649016976 0.118988000 0.175231993
0.863341987 0.173553005 0.238800004
0.048645001 0.240539998 0.109252997
0.197205007 0.237029999 0.105286002
0.462188989 0.229156002 0.123657003
0.719910026 0.236205995 0.168090999
0.951111019 0.249878004 0.206847996
0.065369003 0.515106022 0.134948999
0.238525003 0.518005013 0.143738002
0.517486989 0.502776980 0.133759007
0.771820009 0.499329001 0.180724993
0.992461979 0.506653011 0.196167007
0.107024997 0.795653999 0.183502004
0.292418987 0.797667980 0.198914006
0.568175972 0.780395985 0.196686000
0.824523985 0.766022027 0.211669996
0.997619987 0.765990973 0.299102992
0.359070003 1.000000000 0.392609000
0.440032989 1.000000000 0.393371999
0.632233024 1.000000000 0.358245999
0.864226997 0.988586009 0.327789009
1.000000000 0.973450005 0.451202005
0.001587000 0.018921001 0.218323007
0.161621004 0.001587000 0.220520005
0.424591005 0.024231000 0.220580995
0.664062977 0.100005999 0.247954994
0.877288997 0.160644993 0.295502007
0.010254000 0.237151995 0.259032995
0.195160002 0.239471003 0.246978998
0.467101991 0.237091005 0.254729986
0.716063976 0.256377995 0.288726985
0.947661996 0.273499012 0.325378001
0.058044001 0.515532970 0.295226991
0.236145005 0.520843983 0.289855987
0.522063971 0.509154975 0.286255002
0.776122987 0.508971989 0.310485989
0.990813971 0.514526010 0.327881008
0.110840000 0.797515988 0.342072010
0.288482994 0.801056027 0.337280005
0.575103998 0.784241021 0.339843988
0.828887999 0.771911979 0.339935005
0.997559011 0.771728992 0.391541004
0.374785990 1.000000000 0.486176014
0.452300996 1.000000000 0.486023009
0.638489008 1.000000000 0.459960997
0.867981017 0.991210997 0.433349997
1.000000000 0.978209972 0.516052008
0.003540000 0.025238000 0.392609000
0.161926001 0.003174000 0.392791986
0.429230005 0.003174000 0.392365009
0.679778993 0.052490000 0.397675008
0.895905018 0.121734999 0.422271997
0.005920000 0.232635006 0.429809988
0.195984006 0.235808998 0.426726997
0.473022014 0.234954998 0.430175990
0.726471007 0.250153005 0.450378001
0.964995980 0.250122011 0.477844000
0.038635001 0.505981028 0.481566995
0.240814000 0.512359977 0.482697010
0.516692996 0.512390018 0.443085015
0.771027029 0.515289009 0.477081001
0.984344006 0.516570985 0.511749029
0.116943002 0.788878977 0.533568978
0.293487996 0.793182015 0.531768978
0.578400016 0.780487001 0.515717030
0.825989008 0.773101985 0.509216011
0.997283995 0.772307992 0.541930974
0.367706001 1.000000000 0.620148003
0.452026010 1.000000000 0.620270014
0.637817025 1.000000000 0.604004025
0.867492974 0.989745975 0.586516976
1.000000000 0.980804026 0.631042004
0.008087000 0.033142000 0.571929991
0.164306998 0.007904000 0.571929991
0.425781012 0.011627000 0.570861995
0.685424984 0.013611000 0.576812983
0.909301996 0.070923001 0.592773020
0.011627000 0.234313995 0.607451975
0.195618004 0.235839993 0.607421994
0.470580995 0.234741002 0.614929020
0.741180003 0.226806998 0.627929986
0.968872011 0.203612998 0.650084972
0.008667000 0.498351991 0.664153993
0.238769993 0.505768001 0.666900992
0.516510010 0.507111013 0.650023997
0.785278022 0.506226003 0.656157970
0.987213016 0.503692985 0.690703988
0.110198997 0.778687000 0.722716987
0.295684993 0.783325016 0.723297000
0.567718983 0.777221978 0.690551996
0.818145990 0.773773015 0.669341981
0.994750977 0.767913997 0.719054997
0.343719006 1.000000000 0.784179986
0.437103003 1.000000000 0.782257020
0.631348014 0.999267995 0.769134998
0.866057992 0.987182975 0.759307981
1.000000000 0.982879996 0.777252018
0.014191000 0.044739000 0.733672976
0.168792993 0.013428000 0.734221995
0.427428991 0.016174000 0.733246028
0.686461985 0.010254000 0.742401004
0.916565001 0.032349002 0.757080019
0.017364999 0.240234002 0.770142019
0.187316999 0.231383994 0.775909007
0.470734000 0.223601997 0.785309017
0.744872987 0.177551001 0.802338004
0.978271008 0.021088000 0.818328977
0.024048001 0.498322010 0.825073004
0.227417007 0.503174007 0.832947016
0.513458014 0.503234982 0.824187994
0.786406994 0.494536996 0.834807992
0.990783989 0.470642000 0.859009027
0.014404000 0.773590028 0.890960991
0.279083014 0.778687000 0.893127024
0.549651980 0.773804009 0.879577994
0.825622976 0.761963010 0.873444021
0.996948004 0.753814995 0.884643972
0.297545999 0.999634027 0.943695009
0.409240991 0.999724984 0.940765023
0.626128972 0.997955024 0.929901004
0.865417004 0.987244010 0.919434011
1.000000000 0.985535026 0.922791004
