public/lut/116.cube
TITLE "17x17x17 Adobe/IRIDAS cube 3D LUT exported with GrossGrade v0.2.2 (beta) 64 bit"
DOMAIN_MIN 0 0 0
DOMAIN_MAX 1 1 1
LUT_3D_SIZE 17
0.000000000 0.013428000 0.075684004
0.000000000 0.011932000 0.076691002
0.041595001 0.001099000 0.075226001
0.099914998 0.000641000 0.076964997
0.158263996 0.002777000 0.077514999
0.219054997 0.009521000 0.081055000
0.281342000 0.020904999 0.087890998
0.344909996 0.036926001 0.098907001
0.408385992 0.054595999 0.112213001
0.471893013 0.072327003 0.127379999
0.533752024 0.089019999 0.143279999
0.592957020 0.104584001 0.159454003
0.649016976 0.118988000 0.175231993
0.702971995 0.132781997 0.191039994
0.756470025 0.146605998 0.206970006
0.810028017 0.160217002 0.222900003
0.863341987 0.173553005 0.238800004
0.000000000 0.065307997 0.087250002
0.000000000 0.064208999 0.085968003
0.047637999 0.063446000 0.080565996
0.107758000 0.061707001 0.079498000
0.165648997 0.060729999 0.081757002
0.225464001 0.062194999 0.086425997
0.288269013 0.066405997 0.094054997
0.351624012 0.073608004 0.104278997
0.415374994 0.083007999 0.117004000
0.479247987 0.093872003 0.131377995
0.541594982 0.104950003 0.146851003
0.601104975 0.114288002 0.162169993
0.657898009 0.123138003 0.177704006
0.712523997 0.136657998 0.193511993
0.766510010 0.148894995 0.209594995
0.820679009 0.162597999 0.225676998
0.874724984 0.176635996 0.242035002
0.025116000 0.121276997 0.095306002
0.024871999 0.120880000 0.094481997
0.059723001 0.119658999 0.089050002
0.115570001 0.118408002 0.086669996
0.173797995 0.117064998 0.088287003
0.236388996 0.115143001 0.091614000
0.302673012 0.113555998 0.095764004
0.369659007 0.113251001 0.102050997
0.436859012 0.114014000 0.110413000
0.502471983 0.117858998 0.122253001
0.564758003 0.125670999 0.137878001
0.623778999 0.135924995 0.154967993
0.680114985 0.146697998 0.171387002
0.734772027 0.157654002 0.187103003
0.789184988 0.167754993 0.201720998
0.844604015 0.176300004 0.214141995
0.901794016 0.181945994 0.220245004
0.039763998 0.179413006 0.102356002
0.038879000 0.178772002 0.101958998
0.070251003 0.178101003 0.098021999
0.126770005 0.176392004 0.097717002
0.186249003 0.174713001 0.095611997
0.248535007 0.172484994 0.097655997
0.314574987 0.170196995 0.102202997
0.381897002 0.168549001 0.108489998
0.449553996 0.168029994 0.116791002
0.517059028 0.168823004 0.126739994
0.582427979 0.171295002 0.138396993
0.644989014 0.175049007 0.150726005
0.704802990 0.179993004 0.163176998
0.762359977 0.185120001 0.175049007
0.819365978 0.189910993 0.186249003
0.876708984 0.194031000 0.196441993
0.933715999 0.197570994 0.203766003
0.048645001 0.240539998 0.109252997
0.048889000 0.240509003 0.109283000
0.079193003 0.240112007 0.105957001
0.136657998 0.238769993 0.107574001
0.197205007 0.237029999 0.105286002
0.261352986 0.234375000 0.102477998
0.327544987 0.231812000 0.106872998
0.394562006 0.230041996 0.114868000
0.462188989 0.229156002 0.123657003
0.529877007 0.229340002 0.133727998
0.595947027 0.230437994 0.144684002
0.659484982 0.232787997 0.156371996
0.719910026 0.236205995 0.168090999
0.778137028 0.239960000 0.179473996
0.835723996 0.243865997 0.190276995
0.893554986 0.247406006 0.200133994
0.951111019 0.249878004 0.206847996
0.055176001 0.305267006 0.114928998
0.055481002 0.305907995 0.115264997
0.086823002 0.306335002 0.112792999
0.145659998 0.305510998 0.116241001
0.207305998 0.303986013 0.114868000
0.272949010 0.301391989 0.111663997
0.341156006 0.298186988 0.109985001
0.408538997 0.295807004 0.117095999
0.475829989 0.294494987 0.127899006
0.543242991 0.293976009 0.138824001
0.609099984 0.294678003 0.150420994
0.672302008 0.296752989 0.162627995
0.732513011 0.299834996 0.174529999
0.790526986 0.303436011 0.185608000
0.847899973 0.307098001 0.196044996
0.905487001 0.310333014 0.205078006
0.963042974 0.312835991 0.212006003
0.059418000 0.373443991 0.120575003
0.059905998 0.374633998 0.121765003
0.093872003 0.375640988 0.119507000
0.154694006 0.375335991 0.124512002
0.217316002 0.374329001 0.124297999
0.283843994 0.371796012 0.121184997
0.353576988 0.368133992 0.117981002
0.422728986 0.365020990 0.118408002
0.490173012 0.362731993 0.127716005
0.556976020 0.361481011 0.141234994
0.622559011 0.361389011 0.153381005
0.685393989 0.362518013 0.164794996
0.745299995 0.364838004 0.176117003
0.803040028 0.367949992 0.187012002
0.860046029 0.371277004 0.197510004
0.917510986 0.374390006 0.206481993
0.976257026 0.375977010 0.209351003
0.062560998 0.443664998 0.127288997
0.064392000 0.445403993 0.128997996
0.101623997 0.446837991 0.126892000
0.164306998 0.446837991 0.133423001
0.228027001 0.446105987 0.134064004
0.295073986 0.443542004 0.131194994
0.365355998 0.439635992 0.128204003
0.435730010 0.435638011 0.125396997
0.504547000 0.432312012 0.127410993
0.571380973 0.430175990 0.139099002
0.636169016 0.429199010 0.154296994
0.698729992 0.429625988 0.166443005
0.758544981 0.431304991 0.176909998
0.816039979 0.433990002 0.188232005
0.872833014 0.437256008 0.199432001
0.929871023 0.440185994 0.208251998
0.987061024 0.439696997 0.196502998
0.065369003 0.515106022 0.134948999
0.069518998 0.517150998 0.136687994
0.109894000 0.518585026 0.134673998
0.174529999 0.518768013 0.142425999
0.238525003 0.518005013 0.143738002
0.305907995 0.515289009 0.141479000
0.376587003 0.511229992 0.138062000
0.447418004 0.506805003 0.135651007
0.517486989 0.502776980 0.133759007
0.585570991 0.499695003 0.137725994
0.650421023 0.498077005 0.151824996
0.712341011 0.498016000 0.168243006
0.771820009 0.499329001 0.180724993
0.829192996 0.501648009 0.192077994
0.885742009 0.504486024 0.203795999
0.942017019 0.507202029 0.213257000
0.992461979 0.506653011 0.196167007
0.069945998 0.586791992 0.143555000
0.076782003 0.588837028 0.145202994
0.119048998 0.590179026 0.142730996
0.184937000 0.590270996 0.151641995
0.248932004 0.589478016 0.153595001
0.316437006 0.586853027 0.151978001
0.387542993 0.582764030 0.148803994
0.458678991 0.578247011 0.146636993
0.529266000 0.573853016 0.145538002
0.598662972 0.570128977 0.144745007
0.664734006 0.567780018 0.150818005
0.726440012 0.567200005 0.167357996
0.784973025 0.568085015 0.184906006
0.841674984 0.569916010 0.198730007
0.897827029 0.572265983 0.211211994
0.953155994 0.574645996 0.222229004
0.994476020 0.575531006 0.216431007
0.077393003 0.657745004 0.153381005
0.086944997 0.659606993 0.154907003
0.130096003 0.660919011 0.152344003
0.196777001 0.661010981 0.162567005
0.260650992 0.660338998 0.165222004
0.328033000 0.657867014 0.164276004
0.399230987 0.653838992 0.162201002
0.470703006 0.649291992 0.159759998
0.541351020 0.644713998 0.159484997
0.611052990 0.640502989 0.159759998
0.678101003 0.637299001 0.160309002
0.740508974 0.635895014 0.168670997
0.798552990 0.636169016 0.186920002
0.854034007 0.637450993 0.205688000
0.909301996 0.639252007 0.221313000
0.963074028 0.641265988 0.236145005
0.995697021 0.642395020 0.242919996
0.089507997 0.727356017 0.166290000
0.102173001 0.729309022 0.167694002
0.145019993 0.730651975 0.165131003
0.211792007 0.730742991 0.176941007
0.275054991 0.730103016 0.180144995
0.341675013 0.727630973 0.179718003
0.412537009 0.723510981 0.178558007
0.483826011 0.718780994 0.176360995
0.554291010 0.713958979 0.175872996
0.623627007 0.709258974 0.178069994
0.690643013 0.705443978 0.180053994
0.753692985 0.703064024 0.182403997
0.812072992 0.702422976 0.192383006
0.866943002 0.702971995 0.211577997
0.920836985 0.704070985 0.231018007
0.973662972 0.705353022 0.246154994
0.996703982 0.705932975 0.270630002
0.107024997 0.795653999 0.183502004
0.122864000 0.797484994 0.184723005
0.164581001 0.798676014 0.182159007
0.230529994 0.798492014 0.195373997
0.292418987 0.797667980 0.198914006
0.357879996 0.794983029 0.198853001
0.427612007 0.790648997 0.198211998
0.498230010 0.785614014 0.197327003
0.568175972 0.780395985 0.196686000
0.636963010 0.775237978 0.198516995
0.703217030 0.770843983 0.203063995
0.765929997 0.767731011 0.207213998
0.824523985 0.766022027 0.211669996
0.879424989 0.765655994 0.223450005
0.932830989 0.765960991 0.241515994
0.986359000 0.765869021 0.247406006
0.997619987 0.765990973 0.299102992
0.131011993 0.861724973 0.205170006
0.149077997 0.863250971 0.206055000
0.188964993 0.864104986 0.203400001
0.253174007 0.863463998 0.217896000
0.312988013 0.862213016 0.221801996
0.376433998 0.859282970 0.221984997
0.444579989 0.854583979 0.221709996
0.513885021 0.849182010 0.221558005
0.582885981 0.843445003 0.221191004
0.650757015 0.837768972 0.223021999
0.716063976 0.832732975 0.228302002
0.777801991 0.828887999 0.235016003
0.835784972 0.826447010 0.241607994
0.890564024 0.825195014 0.248900995
0.943938971 0.824615002 0.260834008
0.995911002 0.823578000 0.271544993
0.998718023 0.822479010 0.326965004
0.160034001 0.925293028 0.229889005
0.178527996 0.926392019 0.229949996
0.216491997 0.926697016 0.227997005
0.277191013 0.925476015 0.241973996
0.334259003 0.923766971 0.245605007
0.395476997 0.920319021 0.245728001
0.462433010 0.915069997 0.247070000
0.530333996 0.909119010 0.248260006
0.597931027 0.902863026 0.249298006
0.664703012 0.896575987 0.251617014
0.728942990 0.890990973 0.257111013
0.789611995 0.886596978 0.265471995
0.846526980 0.883453012 0.274596989
0.900481999 0.881500006 0.283600003
0.953002989 0.880005002 0.295531988
1.000000000 0.877044976 0.327820003
1.000000000 0.875609994 0.356566995
0.201262996 0.983307004 0.263550013
0.215636998 0.984039009 0.260895014
0.250396997 0.983672976 0.261229992
0.298767000 0.982726991 0.266052008
0.351776004 0.980742991 0.266784996
0.411011010 0.977051020 0.264281988
0.480316013 0.970978022 0.275054991
0.548340023 0.964507997 0.282103986
0.613463998 0.958252013 0.282745004
0.678528011 0.951843023 0.284424007
0.741393983 0.945922971 0.288848996
0.800659001 0.940979004 0.298065007
0.856383979 0.937317014 0.309478998
0.909453988 0.934783995 0.319793999
0.960601985 0.932525992 0.331542999
1.000000000 0.927155018 0.390868992
1.000000000 0.925963998 0.404143989
0.359070003 1.000000000 0.392609000
0.368530005 1.000000000 0.393738002
0.384795994 1.000000000 0.393860012
0.409087986 1.000000000 0.394562006
0.440032989 1.000000000 0.393371999
0.478271008 1.000000000 0.388671994
0.524138987 1.000000000 0.381072998
0.575775027 1.000000000 0.370696992
0.632233024 1.000000000 0.358245999
0.691101015 1.000000000 0.336944997
0.750182986 0.998291016 0.315459996
0.808228016 0.993010998 0.313659996
0.864226997 0.988586009 0.327789009
0.917235970 0.985442996 0.338806003
0.967315972 0.982239008 0.358765006
1.000000000 0.974731028 0.444976985
1.000000000 0.973450005 0.451202005
0.000000000 0.014923000 0.108093001
0.000000000 0.013458000 0.108429000
0.042266998 0.001190000 0.106261998
0.101104997 0.000000000 0.109589003
0.160827994 0.001373000 0.109741002
0.222381994 0.005859000 0.109985001
0.285889000 0.016205000 0.113525003
0.349182010 0.031158000 0.120636001
0.412598014 0.049377002 0.130676001
0.475647002 0.068176001 0.142883003
0.537322998 0.085570998 0.156829998
0.596405029 0.101958998 0.171478003
0.652221978 0.116668999 0.186187997
0.706116021 0.130951002 0.201202005
0.759491026 0.144713998 0.216370001
0.812958002 0.158751994 0.231720001
0.866271973 0.172424003 0.247437000
0.000000000 0.065307997 0.118346997
0.000000000 0.064727999 0.117675997
0.046997000 0.061919998 0.114409998
0.107697003 0.060577001 0.113617003
0.167328000 0.059448000 0.114257999
0.228119001 0.060943998 0.116791002
0.290679991 0.065277003 0.121276997
0.354218006 0.072815001 0.128754005
0.418090999 0.082488999 0.138916001
0.481842011 0.093414001 0.150603995
0.544281006 0.104888998 0.164093003
0.604247987 0.113678001 0.177460000
0.661590993 0.120513998 0.190093994
0.716187000 0.134398997 0.205321997
0.770264030 0.146514997 0.220367000
0.824280024 0.160613999 0.235930994
0.878325999 0.174621999 0.251801014
0.011475000 0.121246003 0.128447995
0.010559000 0.120575003 0.127868995
0.058258001 0.119323999 0.124512002
0.114960000 0.119873002 0.110168003
0.175537005 0.117737003 0.116333000
0.237976000 0.116028003 0.121184997
0.302581996 0.116241001 0.125609994
0.367004007 0.119019002 0.132813007
0.431061000 0.124206997 0.142761007
0.494843006 0.131560996 0.154999003
0.557343006 0.140686005 0.168700993
0.617249012 0.150298998 0.183044001
0.674530029 0.160338998 0.197510004
0.729797006 0.170837000 0.211884007
0.784453988 0.180999994 0.226043999
0.839600027 0.190642998 0.239929006
0.894500971 0.198882997 0.252869010
0.033721998 0.179596007 0.136748999
0.032867000 0.178740993 0.135894999
0.069945998 0.177886993 0.132751003
0.127625003 0.177276999 0.126922995
0.186523005 0.175963998 0.125854000
0.248657003 0.174408004 0.129028007
0.314911008 0.172667995 0.132629007
0.382293999 0.171783000 0.137725994
0.449768007 0.171996996 0.144713998
0.516937017 0.173462003 0.153136998
0.582764030 0.176055998 0.163085997
0.645630002 0.179778993 0.173705995
0.705383003 0.185028002 0.185303003
0.762085021 0.191437006 0.198028997
0.817656994 0.198882997 0.211211994
0.872344971 0.207580999 0.225707993
0.926880002 0.215393007 0.239258006
0.045715000 0.240814000 0.143004999
0.045593001 0.240752995 0.142943993
0.079467997 0.240569994 0.140411004
0.137328997 0.239501998 0.138396993
0.198273003 0.238312006 0.137145996
0.261992991 0.236205995 0.135651007
0.328429997 0.234099999 0.138794005
0.395812988 0.232512996 0.144713998
0.463806003 0.231689006 0.151398003
0.531708002 0.231812000 0.159484997
0.598114014 0.233032003 0.168792993
0.661652029 0.235321000 0.178893998
0.722198009 0.238892004 0.189575002
0.780273020 0.243010998 0.200623006
0.837463021 0.247498006 0.211517006
0.894622982 0.251953006 0.222351000
0.951629996 0.255492985 0.231781006
0.052611999 0.305786014 0.148651004
0.052948002 0.306549013 0.149352998
0.087158002 0.307007015 0.147460997
0.146331996 0.306609988 0.147339001
0.209044993 0.305359006 0.147522002
0.274657995 0.303070009 0.145233005
0.342528999 0.300384998 0.143738002
0.409911990 0.298278987 0.148926005
0.477416992 0.297089010 0.157288000
0.545013011 0.296813995 0.166045994
0.611114979 0.297637999 0.175780997
0.674315989 0.299529999 0.186249003
0.734588981 0.302612007 0.196990997
0.792725027 0.306243986 0.207733005
0.849976003 0.309814006 0.217925996
0.907593012 0.312958002 0.227631003
0.964661002 0.315917999 0.237517998
0.057250999 0.374237001 0.154907003
0.058472000 0.375640988 0.156128004
0.094848998 0.376617014 0.154877007
0.155457005 0.376769990 0.156188995
0.219574004 0.375670999 0.157379001
0.286101997 0.373443991 0.155182004
0.355437994 0.370117009 0.152039006
0.424376994 0.367339998 0.152282998
0.491881996 0.365386993 0.159392998
0.558867991 0.364226997 0.169952005
0.624359012 0.364165992 0.180206001
0.687102973 0.365386993 0.191039994
0.746887028 0.367888987 0.201965004
0.804534972 0.371033013 0.212920994
0.861481011 0.374541998 0.223755002
0.918914974 0.377716005 0.233092993
0.978882015 0.377196997 0.229736000
0.060821999 0.444793999 0.162414998
0.063842997 0.446624994 0.164093003
0.102721997 0.448029011 0.163025007
0.165252998 0.448334008 0.165252998
0.230346993 0.447510004 0.167541996
0.297515988 0.445129007 0.165497005
0.367523015 0.441527992 0.162384003
0.437682986 0.437804997 0.159575999
0.506348014 0.434722990 0.161041006
0.573180974 0.432678014 0.170287997
0.638031006 0.431854010 0.182708994
0.700348020 0.432494998 0.194397002
0.759796023 0.434448004 0.206084996
0.817077994 0.437285990 0.217712000
0.873718023 0.440643013 0.229156002
0.930634022 0.443664998 0.238525003
0.988281012 0.441193014 0.220000997
0.064514004 0.516479015 0.170837000
0.069489002 0.518494010 0.172516003
0.111542001 0.519958019 0.171387002
0.175506994 0.520294011 0.174683005
0.241027996 0.519317985 0.177276999
0.308562994 0.516906977 0.175963998
0.378876001 0.513000011 0.172454998
0.449492991 0.508819997 0.169769004
0.519439995 0.505034983 0.167815998
0.587463021 0.502166986 0.170867994
0.652374029 0.500671029 0.182343006
0.714232981 0.500792980 0.196502998
0.773223996 0.502258003 0.209411994
0.830200016 0.504822016 0.222167999
0.886443973 0.507781982 0.234650001
0.942534983 0.510619998 0.244507000
0.992156982 0.509276986 0.223205999
0.069122002 0.588257015 0.179564998
0.077239998 0.590210021 0.181182995
0.120819002 0.591521978 0.179778993
0.185852006 0.591826975 0.184082001
0.251648009 0.590911984 0.187255993
0.319274992 0.588409007 0.186432004
0.389954001 0.584473014 0.183105007
0.460907012 0.580169976 0.180756003
0.531432986 0.576049984 0.179198995
0.600768983 0.572479010 0.178039998
0.666747987 0.570312977 0.183074996
0.728424013 0.569763005 0.196686000
0.786835015 0.570708990 0.212189004
0.843200982 0.572722971 0.226318002
0.898833990 0.575195014 0.240172997
0.953734994 0.577789009 0.251953006
0.994476020 0.577820003 0.239655003
0.077087000 0.659179986 0.189575002
0.088196002 0.661041021 0.191009998
0.132172003 0.662383974 0.189362004
0.197876006 0.662658989 0.194763005
0.263550013 0.661864996 0.198669001
0.331023991 0.659484982 0.198394999
0.401733011 0.655547976 0.196167007
0.473022014 0.651184022 0.193419993
0.543578982 0.646758974 0.192291006
0.613189995 0.642731011 0.192108005
0.680145025 0.639708996 0.192168996
0.742492974 0.638275027 0.199096993
0.800507009 0.638580024 0.214416996
0.855956972 0.639922976 0.230927005
0.910919011 0.641785026 0.246154994
0.964752018 0.643676996 0.258635998
0.995697021 0.644531012 0.263518989
0.089934997 0.728851020 0.202148005
0.103759997 0.730835021 0.203491002
0.147460997 0.732177973 0.201874003
0.212981999 0.732391000 0.208648995
0.277985007 0.731567025 0.213012993
0.344817996 0.729125977 0.213103995
0.415131003 0.725098014 0.211548001
0.486205995 0.720551014 0.209167004
0.556518972 0.715851009 0.207825005
0.625762999 0.711304009 0.209014997
0.692656994 0.707611024 0.210082993
0.755675972 0.705322027 0.211792007
0.813934028 0.704650998 0.220305994
0.868622005 0.705200016 0.237000003
0.922791004 0.706299007 0.253417999
0.976624012 0.707091987 0.262084991
0.996703982 0.707976997 0.289245993
0.108124003 0.797150016 0.218566999
0.124816999 0.798919976 0.219817996
0.167266995 0.800078988 0.218170002
0.231781006 0.800018013 0.225951999
0.295441002 0.799041986 0.230774000
0.360962003 0.796416998 0.231078997
0.430328012 0.792174995 0.229919001
0.500609994 0.787231028 0.228485003
0.570374012 0.782135010 0.227173001
0.639038026 0.777038991 0.227905005
0.705138981 0.772705019 0.231170997
0.767731011 0.769653022 0.234313995
0.826263011 0.768005013 0.237884998
0.880981028 0.767638981 0.248260006
0.934418023 0.767943978 0.264313012
0.988434017 0.767669976 0.269775003
0.997619987 0.767853022 0.316009998
0.132781997 0.863159001 0.238922000
0.151458994 0.864624023 0.239898995
0.191588998 0.865417004 0.237914994
0.254577994 0.864898980 0.247100994
0.316040009 0.863463998 0.252227992
0.379577994 0.860503972 0.252685994
0.447326988 0.855895996 0.251922995
0.516234994 0.850555003 0.250977010
0.584960997 0.844910026 0.249878004
0.652679026 0.839325011 0.250609994
0.717864990 0.834380984 0.254424989
0.779479980 0.830596983 0.259734988
0.837341011 0.828185976 0.265320003
0.892090023 0.826964974 0.271636993
0.945281982 0.826354980 0.283142000
0.997253001 0.825164974 0.295531988
0.998718023 0.824218988 0.342528999
0.161987007 0.926544011 0.261931986
0.181305006 0.927550972 0.262268007
0.218750000 0.927856028 0.260315001
0.278503001 0.926757991 0.269867003
0.337157995 0.924866021 0.274628013
0.398559988 0.921356022 0.274993986
0.464417011 0.916289985 0.274170011
0.532317996 0.910338998 0.275054991
0.600005984 0.904114008 0.275909007
0.666504025 0.897918999 0.277007997
0.730620980 0.892395020 0.281006008
0.791137993 0.888031006 0.288147002
0.847931027 0.884979010 0.296050996
0.901854992 0.883026004 0.303528011
0.954253972 0.881560981 0.314422995
1.000000000 0.878174007 0.352600008
1.000000000 0.877228022 0.371215999
0.203979000 0.984282970 0.293334991
0.218505993 0.984893978 0.291473001
0.253448009 0.984497011 0.291779011
0.299712986 0.983703971 0.294097990
0.353789985 0.981598020 0.295745999
0.413666010 0.977844000 0.294739008
0.477753013 0.972747982 0.290710002
0.547424018 0.966033995 0.299652010
0.615813971 0.959137022 0.307922006
0.680328012 0.952942014 0.307983011
0.743010998 0.947112978 0.311188012
0.802124023 0.942229986 0.318695009
0.857819021 0.938628972 0.329254001
0.910919011 0.936187983 0.336456001
0.962249994 0.934143007 0.337554991
1.000000000 0.928650022 0.405487001
1.000000000 0.927520990 0.416931003
0.363891989 1.000000000 0.411864996
0.373230010 1.000000000 0.412871987
0.389342993 1.000000000 0.412903011
0.413239002 1.000000000 0.413543999
0.443877995 1.000000000 0.412353992
0.481781006 1.000000000 0.408172995
0.527161002 1.000000000 0.400878996
0.578552008 1.000000000 0.391510010
0.634398997 1.000000000 0.379608005
0.693817019 1.000000000 0.364502013
0.752838016 0.998627007 0.345061988
0.809601009 0.994109988 0.335570991
0.865570009 0.989684999 0.348785013
0.918549001 0.986572027 0.358855993
0.968414009 0.983398020 0.377350003
1.000000000 0.976013005 0.458007991
1.000000000 0.974976003 0.462981999
0.000793000 0.016449001 0.143555000
0.000000000 0.015045000 0.141083002
0.043731999 0.001953000 0.141815007
0.100555003 0.000641000 0.143096998
0.161743000 0.000793000 0.143859997
0.225127995 0.003021000 0.143981993
0.289458990 0.010345000 0.144501001
0.353302002 0.023712000 0.147980005
0.416779011 0.042389002 0.154816002
0.479645014 0.062378000 0.164185002
0.541046023 0.080627002 0.175659001
0.599945009 0.097717002 0.188384995
0.655852973 0.113007002 0.201629996
0.709716976 0.127625003 0.215485007
0.762878001 0.141724005 0.229583994
0.816375971 0.156005993 0.244170994
0.869567990 0.169921994 0.259186000
0.000732000 0.066344999 0.152099997
0.000000000 0.065277003 0.150757000
0.044403002 0.060180999 0.150145993
0.106536999 0.058867998 0.149749994
0.169128001 0.057190001 0.149231002
0.230895996 0.057739001 0.150238007
0.293761998 0.062652998 0.152893007
0.357055992 0.070770003 0.157897994
0.420776010 0.080871999 0.165344000
0.484344006 0.092133000 0.174896002
0.546935976 0.103790000 0.185852006
0.607544005 0.111694001 0.196502998
0.665497005 0.117095999 0.207153007
0.719971001 0.131347999 0.221160993
0.774200022 0.142975003 0.234558001
0.828217030 0.157654002 0.249573007
0.882080019 0.171905994 0.264679015
0.000092000 0.120636001 0.163573995
0.000000000 0.119658999 0.162476003
0.055633999 0.118377998 0.159637004
0.115539998 0.118285999 0.153656006
0.177855998 0.116729997 0.152924001
0.240906000 0.115264997 0.155396000
0.304657012 0.116118997 0.158843994
0.368591011 0.119690001 0.164368004
0.432494998 0.125549003 0.172119007
0.496367991 0.133148000 0.181915000
0.559174001 0.141997993 0.193329006
0.619445980 0.151458994 0.205596998
0.676819026 0.161041006 0.218262002
0.732330024 0.171508998 0.231506005
0.787200987 0.181457996 0.244719997
0.842194021 0.191101000 0.258179009
0.897063971 0.199370995 0.271178991
0.023499001 0.178558007 0.172241002
0.023224000 0.177886993 0.171753004
0.068695001 0.177429006 0.169312000
0.126862004 0.177398995 0.161163002
0.183990002 0.177764997 0.156951994
0.246948004 0.176330999 0.161468998
0.314269990 0.174805000 0.165557995
0.382201999 0.174376994 0.169646993
0.449645996 0.175231993 0.175506994
0.516174018 0.177886993 0.183594003
0.580260992 0.182861000 0.194000006
0.640807986 0.190033004 0.206359997
0.697997987 0.198791996 0.219788000
0.753418028 0.207947001 0.233398005
0.808257997 0.217071995 0.247040004
0.863281012 0.226013005 0.260650992
0.917999029 0.233978003 0.273712009
0.039733998 0.240051001 0.179718003
0.040252998 0.240051001 0.179688007
0.078979000 0.240112007 0.177979007
0.134705007 0.240386993 0.171387002
0.198333994 0.239135996 0.170502007
0.261871010 0.237792999 0.170196995
0.327942014 0.236237004 0.173157007
0.395965993 0.235107005 0.177672997
0.464293987 0.234558001 0.183074996
0.532410026 0.235045999 0.190001994
0.598541021 0.236816004 0.198302999
0.661620975 0.240081996 0.207764000
0.721619010 0.244385004 0.218079001
0.779448986 0.249175996 0.228668004
0.836609006 0.254027992 0.239135996
0.894043028 0.258423001 0.249207005
