public/lut/117.cube
TITLE "17x17x17 Adobe/IRIDAS cube 3D LUT exported with GrossGrade v0.2.2 (beta) 64 bit"
DOMAIN_MIN 0 0 0
DOMAIN_MAX 1 1 1
LUT_3D_SIZE 17
0.028380999 0.000000000 0.036285002
0.023651000 0.000000000 0.039429002
0.037749998 0.000000000 0.039246000
0.074097000 0.001434000 0.037078999
0.111602999 0.005920000 0.039429002
0.163818002 0.018250000 0.025116000
0.217133000 0.035278000 0.025635000
0.274383992 0.051543999 0.037262000
0.343596995 0.066192999 0.049988002
0.418945014 0.080565996 0.062896997
0.491210997 0.093993999 0.074584998
0.557250977 0.107086003 0.085114002
0.616028011 0.119171001 0.095306002
0.668976009 0.129883006 0.105407998
0.716338992 0.138854995 0.115355998
0.758819997 0.145721003 0.125792995
0.802672982 0.151794001 0.137725994
0.014282000 0.033264000 0.038543999
0.014191000 0.037932999 0.037903000
0.044098001 0.040222000 0.039368000
0.082153000 0.041687001 0.035828002
0.123931997 0.043884002 0.013702000
0.167998999 0.050934002 0.011322000
0.217804000 0.060821999 0.020996001
0.277099997 0.071898997 0.033080999
0.346190989 0.083649002 0.046569999
0.419647008 0.095611997 0.059691999
0.490631014 0.107239000 0.071533002
0.556457996 0.119110003 0.082396999
0.615875006 0.129822001 0.093231000
0.669219971 0.139679000 0.103455000
0.715911984 0.147797003 0.113586001
0.757965028 0.153778002 0.123962000
0.802245975 0.159546003 0.136291996
0.027802000 0.076720998 0.044464000
0.027679000 0.078217000 0.041625999
0.052246001 0.077820003 0.037964001
0.093079001 0.079742000 0.029755000
0.135253996 0.082396999 0.008484000
0.179381996 0.086700000 0.007141000
0.230072007 0.093231000 0.016571000
0.291473001 0.101318002 0.028687000
0.360596001 0.111052997 0.042603001
0.431641012 0.120544001 0.056090999
0.500487983 0.130066007 0.068389997
0.563934028 0.139679000 0.079620004
0.621124029 0.148528993 0.090057001
0.673003972 0.156891003 0.100524999
0.719208002 0.163482994 0.111206003
0.760895014 0.168427005 0.121703997
0.803680003 0.173247993 0.134002998
0.038176998 0.118346997 0.055603001
0.038727000 0.119903997 0.053649999
0.064484000 0.118102998 0.049865998
0.101287998 0.115906000 0.037994001
0.146118000 0.118988000 0.007965000
0.193176001 0.123718001 0.004791000
0.247131005 0.130737007 0.012177000
0.308380008 0.137999997 0.023010001
0.374267995 0.144896999 0.036316000
0.441832989 0.151764005 0.049743999
0.508026004 0.159363002 0.062469002
0.569611013 0.167052999 0.073853001
0.625976980 0.174408004 0.085205004
0.676819026 0.180999994 0.095856003
0.721648991 0.185852006 0.106688999
0.762328982 0.189392000 0.117798001
0.804931998 0.193085000 0.130156994
0.046875000 0.171936005 0.066620000
0.061310001 0.174743995 0.065642998
0.089233004 0.172362998 0.061707001
0.124724999 0.167969003 0.050934002
0.166534007 0.164825007 0.030548001
0.216582999 0.167603001 0.008575000
0.270752013 0.172394007 0.008667000
0.330291986 0.178192005 0.018890001
0.395172000 0.185363993 0.030365000
0.461028993 0.191955999 0.043427002
0.523590028 0.197265998 0.055573002
0.581695974 0.202666998 0.067474000
0.635132015 0.207825005 0.078856997
0.683960021 0.212463006 0.090149000
0.727844000 0.215790004 0.101318002
0.767486989 0.217499003 0.112792999
0.807677984 0.219542995 0.125061005
0.071502998 0.229065001 0.075530998
0.091614000 0.234833002 0.073363997
0.117248997 0.231292993 0.068268001
0.150390998 0.225005999 0.058837999
0.188933998 0.217865005 0.045134999
0.234558001 0.212707996 0.017487001
0.289673001 0.214812994 0.008118000
0.349182010 0.219482005 0.014984000
0.411713004 0.225005999 0.025085000
0.475739002 0.231658995 0.036559999
0.537169993 0.238495007 0.048370000
0.593689024 0.244080007 0.059570000
0.645020008 0.247040004 0.071442001
0.691924989 0.249695003 0.083038002
0.733947992 0.251038015 0.094452001
0.771911979 0.250885010 0.106109999
0.810974002 0.251587003 0.118957996
0.105590999 0.292968988 0.078612998
0.126464993 0.302307010 0.075745001
0.149260998 0.297302008 0.070189998
0.179901004 0.289000988 0.061981000
0.216613993 0.279358000 0.049561001
0.258484006 0.269470006 0.029663000
0.308501989 0.263152987 0.006500000
0.367675990 0.264800996 0.008270000
0.429688007 0.269501001 0.021210000
0.491454989 0.274811000 0.031280998
0.551270008 0.281342000 0.041931000
0.606505990 0.287658989 0.052795000
0.656677008 0.291992009 0.063812003
0.701934993 0.293761998 0.075470001
0.742523015 0.292968988 0.087127998
0.779266000 0.290771008 0.099151999
0.815856993 0.289245993 0.111815996
0.140778005 0.358215004 0.077362001
0.160827994 0.368927002 0.074920997
0.181152001 0.363494992 0.069916002
0.209442005 0.354369998 0.062194999
0.245116994 0.344359994 0.050507002
0.286163002 0.333617985 0.037170000
0.332367003 0.322571009 0.018097000
0.386108011 0.316253990 0.005066000
0.446411014 0.317748994 0.012756000
0.506591976 0.322052002 0.026611000
0.563507020 0.326537997 0.036559999
0.617371023 0.332152992 0.046753000
0.667083979 0.337769002 0.057007000
0.711669981 0.340454012 0.067993000
0.751160026 0.339783013 0.079346001
0.786194026 0.335357994 0.091187000
0.821013987 0.331604004 0.104004003
0.176300004 0.423218012 0.074676998
0.194457993 0.433441013 0.072144002
0.212555006 0.428528011 0.067780003
0.238769993 0.420044005 0.060913000
0.272949010 0.410338998 0.051024999
0.313140988 0.399811000 0.041168001
0.358489990 0.388823986 0.031250000
0.407990009 0.377959996 0.015045000
0.462920994 0.372130990 0.005920000
0.521575987 0.373961985 0.016663000
0.577606022 0.378113002 0.031158000
0.629333019 0.381927013 0.041168001
0.677612007 0.386200011 0.051024999
0.721526980 0.389281988 0.061492998
0.760437012 0.388884991 0.072235003
0.794739008 0.384795994 0.083557002
0.828490973 0.380463004 0.096100003
0.213135004 0.490601003 0.069824003
0.229523003 0.499480993 0.067718998
0.245697007 0.494872987 0.064148001
0.270020008 0.487488002 0.058745999
0.302673012 0.478789985 0.052002002
0.341796994 0.469330013 0.045807000
0.386292011 0.459197998 0.039124001
0.434448004 0.448516995 0.029114000
0.484894007 0.438109994 0.013214000
0.538115978 0.432343006 0.006653000
0.591674984 0.433014005 0.020203000
0.641387999 0.435364008 0.035797000
0.688292980 0.438293010 0.045685001
0.731231987 0.440369010 0.055481002
0.769011974 0.438538015 0.065978996
0.802520990 0.434264988 0.076995999
0.835114002 0.430144995 0.088653997
0.252319008 0.560088992 0.065215997
0.266418010 0.566497982 0.064300999
0.281158000 0.562317014 0.061951000
0.303894013 0.556273997 0.058745999
0.335144013 0.549286008 0.055573002
0.373259991 0.541411996 0.051514000
0.416565001 0.532836974 0.046783000
0.463501006 0.523468018 0.040222000
0.512176991 0.513244987 0.029387999
0.561034977 0.503081977 0.012360000
0.609099984 0.495667011 0.007690000
0.655578971 0.493256003 0.023314999
0.699554026 0.493438989 0.039611999
0.741455019 0.494262993 0.050354000
0.778228998 0.491425008 0.060394000
0.810302973 0.484984994 0.070862003
0.842132986 0.479979992 0.081878997
0.291473001 0.626708984 0.065978996
0.303039998 0.630370975 0.065978996
0.316803008 0.626953006 0.065125003
0.338135004 0.622313976 0.063904002
0.367644995 0.616820991 0.061737001
0.404235989 0.610442996 0.058990002
0.445800990 0.603455007 0.055114999
0.491180003 0.595611989 0.050415002
0.538726985 0.587158024 0.044188999
0.586516976 0.578002989 0.031738002
0.632934988 0.568207026 0.012878000
0.675659001 0.558898985 0.007843000
0.714478016 0.552338004 0.027802000
0.752838016 0.549530029 0.044739000
0.789000988 0.546325982 0.055481002
0.820648015 0.539093018 0.065857001
0.851867974 0.532989979 0.076201998
0.328002989 0.686096013 0.073242001
0.338348001 0.688872993 0.073638998
0.350281000 0.685424984 0.072815001
0.369904011 0.681487978 0.071716003
0.397918999 0.677582026 0.070251003
0.433104992 0.672973990 0.068145998
0.473022014 0.667267025 0.065430000
0.516022027 0.660338998 0.061248999
0.560729980 0.652221978 0.056488000
0.605956972 0.643463016 0.049773999
0.651122987 0.634612978 0.035370000
0.694823980 0.625609994 0.012177000
0.733520985 0.615570009 0.008270000
0.765900016 0.605163991 0.032776002
0.797882020 0.598174989 0.049072001
0.828094006 0.590117991 0.060364000
0.858672976 0.583374023 0.070800997
0.365051001 0.744292974 0.083770998
0.373535007 0.745360970 0.083770998
0.384521008 0.742340028 0.082976997
0.402832001 0.738892019 0.082092002
0.428864002 0.735351980 0.081055000
0.462067008 0.731476009 0.079773001
0.500854015 0.727081001 0.077881001
0.542937994 0.721893013 0.074951001
0.586760998 0.715851009 0.071135998
0.631133974 0.708832026 0.065642998
0.674926996 0.701018989 0.058166999
0.717651010 0.692809999 0.038483001
0.757996023 0.683898985 0.007629000
0.790832996 0.671570003 0.011963000
0.815612972 0.656250000 0.039124001
0.841948986 0.645264030 0.054809999
0.871613026 0.638366997 0.066436999
0.393860012 0.790588021 0.095642000
0.401306003 0.790802002 0.096069001
0.411529988 0.788208008 0.095337003
0.429076999 0.785736024 0.094543003
0.454436988 0.783385992 0.093993999
0.486144990 0.780395985 0.093170002
0.523163021 0.776398003 0.091674998
0.563171029 0.771300972 0.089507997
0.604583979 0.765289009 0.086243004
0.646758974 0.758635998 0.081511997
0.689055979 0.751648009 0.075103998
0.730773985 0.744843006 0.065582000
0.771270990 0.737976015 0.042908002
0.808013976 0.729583979 0.006104000
0.835388005 0.715179026 0.017242000
0.854767025 0.696228027 0.045258000
0.879302979 0.685364008 0.059723001
0.429412991 0.843322992 0.114684999
0.438201994 0.845031977 0.115722999
0.448424995 0.843109012 0.115355998
0.464843988 0.840393007 0.114409998
0.488128990 0.837189019 0.113707997
0.517548025 0.833588004 0.112700999
0.552612007 0.829468012 0.111633003
0.591491997 0.824706972 0.109894000
0.632233024 0.819335997 0.107178003
0.672607005 0.813598990 0.103302002
0.711853027 0.807372987 0.097778000
0.750397027 0.800750971 0.090117998
0.788543999 0.794098020 0.077758998
0.826018989 0.787231028 0.050140001
0.860778987 0.778809011 0.001526000
0.884369016 0.762817025 0.026031001
0.902161002 0.744385004 0.052094001
0.453460991 0.883239985 0.134520993
0.460785002 0.884186029 0.135376006
0.470153987 0.882628977 0.134827003
0.485596001 0.880707026 0.134520993
0.507538021 0.878632009 0.134215996
0.535094976 0.875945985 0.133698002
0.567565978 0.872588992 0.132813007
0.603820980 0.868499994 0.131775007
0.642364979 0.863646984 0.129973993
0.681731999 0.858489990 0.126770005
0.721252024 0.853179991 0.122559004
0.760985970 0.847899973 0.116547003
0.799956977 0.842559993 0.107147001
0.838012993 0.837067008 0.091187000
0.875335991 0.831299007 0.058228001
0.909820974 0.823975027 0.000244000
0.931731999 0.808502018 0.035491999
0.001190000 0.019378999 0.085662998
0.000244000 0.018616000 0.082184002
0.028290000 0.016295999 0.077575997
0.077454001 0.011719000 0.069610998
0.118652001 0.027557001 0.068359002
0.159209996 0.044677999 0.068755999
0.216491997 0.051178001 0.055481002
0.282043010 0.064300999 0.042815998
0.349395990 0.083038002 0.045226999
0.419373006 0.099609002 0.056793001
0.488220006 0.112334996 0.069031000
0.552460015 0.122985996 0.080504999
0.611419976 0.132781997 0.091582999
0.664978027 0.141326994 0.102020003
0.712830007 0.148346007 0.112609997
0.755797982 0.153778002 0.123259999
0.798552990 0.158080995 0.135436997
0.008606000 0.044647001 0.083405003
0.010071000 0.046783000 0.083861999
0.032958999 0.050719999 0.082549997
0.079406999 0.052643001 0.075684004
0.121032998 0.057434000 0.071442001
0.169983000 0.061432000 0.065459996
0.223784998 0.067107998 0.054138001
0.284363002 0.079590000 0.041870002
0.351043999 0.095794998 0.042358000
0.419921994 0.110656999 0.054320998
0.488463998 0.122955002 0.066895001
0.552856028 0.133056998 0.078612998
0.612091005 0.142180994 0.089599997
0.665374994 0.149932995 0.100128002
0.712005973 0.156250000 0.110840000
0.753875971 0.160735995 0.121367998
0.797455013 0.165069997 0.133698002
0.026276000 0.084105998 0.089019999
0.026276000 0.085479997 0.088592999
0.046326000 0.086029001 0.085235998
0.093781002 0.085693002 0.079833999
0.136139005 0.088287003 0.072540000
0.182190001 0.091430999 0.066040002
0.236450002 0.096923999 0.059540000
0.297728986 0.106049001 0.044342000
0.362946004 0.117858998 0.039673001
0.430756003 0.130156994 0.051757999
0.498169005 0.141295999 0.064148001
0.560882986 0.150940001 0.076049998
0.618194997 0.158935994 0.086914003
0.670440972 0.165863007 0.098082997
0.717101991 0.171355993 0.108764999
0.759002984 0.175171003 0.119781002
0.801146984 0.178527996 0.131926998
0.036681999 0.123778999 0.094481997
0.036559999 0.125336006 0.093718998
0.058929000 0.124206997 0.089203000
0.102141999 0.121123999 0.081786998
0.147765994 0.123383000 0.072600998
0.195251003 0.127379999 0.067016996
0.248840004 0.132935002 0.062896997
0.309296012 0.138916001 0.043884002
0.373259991 0.146514997 0.035004001
0.438659996 0.155762002 0.046082001
0.504395008 0.165527001 0.058807001
0.566771984 0.175049007 0.071106002
0.623444021 0.182556003 0.082457997
0.674468994 0.188262999 0.093474999
0.719115973 0.192139000 0.104461998
0.759674013 0.194457993 0.115539998
0.802062988 0.197235003 0.128325999
0.045502000 0.178161994 0.101929002
0.056304999 0.181244001 0.101195998
0.086150996 0.178467005 0.095856003
0.125487998 0.172759995 0.088744998
0.167419001 0.168427005 0.076752000
0.216461003 0.169861004 0.065978996
0.269165009 0.173430994 0.061646000
0.328491002 0.177764997 0.041198999
0.392212003 0.184203997 0.029266000
0.456238002 0.191528007 0.040070001
0.519134998 0.198699996 0.053162001
0.578552008 0.206664994 0.065246999
0.633270025 0.214081004 0.076812997
0.682555974 0.218445003 0.088348001
0.726500988 0.221008003 0.099792004
0.766417980 0.222259998 0.111298002
0.806549013 0.223450005 0.123962000
0.064331003 0.234283000 0.105071999
0.084686004 0.239746004 0.103302002
0.115447998 0.235199004 0.101104997
0.150023997 0.228455007 0.093108997
0.188782007 0.220734000 0.080963001
0.234221995 0.214721993 0.065398999
0.287384003 0.215607002 0.056334998
0.345946997 0.218933001 0.035858002
0.407348990 0.223267004 0.024383999
0.469727010 0.229340002 0.033234000
0.531310976 0.236420006 0.046356000
0.589478016 0.243895993 0.058563001
0.642883003 0.250366002 0.070129000
0.690581977 0.254364014 0.081298999
0.732451975 0.255005002 0.093079001
0.770447016 0.254211009 0.105011001
0.809937000 0.254424989 0.117950000
0.100860998 0.296660990 0.106841996
0.122832999 0.304962009 0.106170997
0.147522002 0.299683005 0.102539003
0.178650007 0.291473001 0.094420999
0.215911999 0.281830013 0.082976997
0.258118004 0.271605998 0.067534998
0.307770014 0.264679015 0.049773999
0.365936011 0.265381008 0.027496001
0.426726997 0.268981993 0.019226000
0.487273991 0.273315012 0.028748000
0.546599984 0.279204994 0.040497001
0.602478027 0.285827994 0.052338000
0.654388011 0.292510986 0.063049003
0.701323986 0.297333002 0.074309997
0.741943002 0.296447992 0.086243004
0.778809011 0.293884009 0.098389000
0.815918028 0.292023003 0.111115001
0.139129996 0.360839993 0.105803996
0.159241006 0.370941013 0.105224997
0.179473996 0.365783989 0.100281000
0.208159998 0.356873006 0.092772998
0.244170994 0.346587986 0.082336001
0.285338998 0.335693002 0.068572998
0.331604004 0.324248999 0.049346998
0.384521008 0.316956013 0.018494001
0.443664998 0.317321986 0.010590000
0.503081977 0.320861995 0.024750000
0.559844971 0.324921012 0.035675000
0.614135981 0.330383003 0.046264999
0.664916992 0.336760998 0.056549001
0.710846007 0.341980010 0.067443997
0.750671029 0.342316002 0.078856997
0.785705984 0.337646008 0.090759002
0.821411014 0.334044993 0.103638001
0.175109997 0.426331013 0.101929002
0.193480998 0.436737001 0.100768998
0.211823002 0.431975991 0.096496999
0.238372996 0.423644990 0.089844003
0.272949010 0.413818002 0.080413997
0.313293010 0.403136998 0.067107998
0.358521014 0.391815007 0.050110001
0.407653987 0.380187988 0.021149000
0.461852998 0.373138011 0.004486000
0.519409001 0.373778999 0.014923000
0.574950993 0.377166986 0.030456999
0.626984000 0.380768001 0.040955000
0.675934017 0.385192990 0.051024999
0.720734000 0.389313012 0.061310001
0.760284007 0.390929997 0.071716003
0.794586003 0.386626989 0.083313003
0.829101980 0.382750988 0.095917001
0.212615997 0.494049013 0.096283004
0.229674995 0.503814995 0.095490001
0.246215999 0.499785990 0.091461003
0.270691007 0.492309988 0.085266002
0.303649992 0.483489990 0.076201998
0.342804015 0.473724008 0.063629001
0.387053996 0.463043004 0.047791000
0.434967011 0.451691002 0.031250000
0.484955013 0.440246999 0.012573000
0.537445009 0.433411002 0.005768000
0.590393007 0.433135986 0.019714000
0.640015006 0.435027987 0.035521999
0.687134027 0.437804997 0.045531999
0.730590999 0.440063000 0.055481002
0.769226015 0.440154999 0.065825999
0.803040028 0.435974002 0.076691002
0.836273015 0.432372987 0.088379003
0.252074987 0.563354015 0.088104002
0.267089993 0.571135998 0.087250002
0.282103986 0.567656994 0.083770998
0.304993004 0.561554015 0.077606000
0.336333990 0.554413021 0.068908997
0.374298006 0.546112001 0.058777001
0.417205989 0.536682010 0.048248000
0.463622987 0.526427984 0.040070001
0.511749029 0.515320003 0.028870000
0.560271978 0.504302979 0.013123000
0.608336985 0.496398985 0.007385000
0.654632986 0.493499994 0.023010001
0.698822021 0.493438989 0.039611999
0.740997016 0.494170994 0.050354000
0.778258979 0.492401004 0.060394000
0.810729980 0.486420006 0.070862003
0.843352973 0.481902987 0.081878997
0.291442990 0.630554020 0.077849999
0.304046988 0.635528982 0.077362001
0.318053991 0.632750988 0.074646004
0.339599997 0.628143013 0.069701999
0.369109988 0.622344971 0.064331003
0.405579001 0.615601003 0.058837999
0.447144002 0.608031988 0.054809999
0.492278993 0.599487007 0.050354000
0.539246023 0.590148985 0.044495001
0.586516976 0.580109000 0.032776002
0.632690012 0.569580019 0.013641000
0.675293028 0.559723020 0.007843000
0.714142025 0.552825987 0.027802000
0.752776980 0.549926996 0.044128001
0.789581001 0.547393978 0.055481002
0.821594000 0.540709972 0.065857001
0.853362978 0.534973025 0.076691002
0.327666998 0.689635992 0.072998002
0.338836998 0.693390012 0.072998002
0.351471007 0.690886974 0.072173998
0.371490002 0.687041998 0.071167000
0.399352998 0.682677984 0.070160002
0.433990002 0.677245975 0.068634003
0.473450005 0.670714974 0.065948002
0.516052008 0.663025022 0.061859000
0.560608029 0.654358029 0.056976002
0.605713010 0.645172000 0.050415002
0.650909007 0.636047006 0.036132999
0.694916010 0.626891971 0.012970000
0.733551025 0.616424978 0.007751000
0.765900016 0.605742991 0.032776002
0.798278987 0.598937988 0.049072001
0.828827024 0.591187000 0.060364000
0.859862983 0.584990978 0.070800997
0.364531994 0.747313976 0.083832003
0.373748988 0.748992980 0.084289998
0.385284007 0.746674001 0.083832003
0.404053003 0.743469000 0.082976997
0.430236995 0.739989996 0.082092002
0.463225991 0.735747993 0.080719002
0.501891971 0.730865002 0.078827001
0.543671012 0.725067019 0.075745001
0.586974978 0.718291998 0.071746998
0.631012022 0.710601985 0.066192999
0.674468994 0.702301025 0.058594000
0.717315972 0.693755984 0.039214998
0.758026004 0.684692025 0.008392000
0.791289985 0.672424018 0.011963000
0.816406012 0.657317996 0.039124001
0.843047976 0.646667004 0.054809999
0.872955024 0.640044987 0.066436999
0.392699987 0.792999029 0.096465997
0.401336998 0.794403017 0.096923999
0.412261993 0.792541981 0.096527003
0.429993004 0.790069997 0.096038997
0.455109000 0.787292004 0.095245004
0.486449987 0.783721983 0.094085999
0.523101985 0.779143989 0.092864998
0.562958002 0.773559988 0.090363003
0.604247987 0.767120004 0.086669996
0.646453977 0.760192990 0.082030997
0.689025998 0.753174007 0.075591996
0.731018007 0.746124029 0.066253997
0.771820009 0.739104986 0.043639999
0.808838010 0.730499029 0.006104000
0.836028993 0.715851009 0.017242000
0.855286002 0.696869016 0.045258000
0.880096018 0.686309993 0.060242001
0.427581996 0.845031977 0.115355998
0.436706990 0.846953988 0.116668999
0.447234988 0.845336974 0.116057999
0.463836998 0.842773020 0.115417004
0.487212986 0.839661002 0.114745997
0.516997993 0.835968018 0.113707997
0.552062988 0.831695974 0.112700999
0.590880990 0.826629996 0.110748000
0.631317019 0.820953012 0.107910000
0.672272027 0.814666986 0.103698999
0.712372005 0.808075011 0.098174997
0.750854015 0.801330984 0.090240002
0.788909972 0.794646978 0.077849999
0.826447010 0.787841976 0.050170999
0.861298025 0.779388011 0.001526000
0.885070980 0.763580024 0.026031001
0.903075993 0.745330989 0.052094001
0.451873988 0.884643972 0.135101005
0.460083008 0.886017025 0.136230007
0.470764011 0.884705007 0.135956004
0.486510992 0.882721007 0.135436997
0.508239985 0.880370975 0.135101005
0.535645008 0.877471983 0.134520993
0.567992985 0.873839974 0.133698002
0.604004025 0.869476020 0.132355005
0.642516971 0.864471018 0.130280003
0.681945980 0.859192014 0.127379999
0.721526980 0.853911996 0.123168997
0.761169016 0.848572016 0.117064998
0.800171018 0.843109012 0.107605003
0.838164985 0.837494016 0.091614000
0.875304997 0.831604004 0.058837999
0.909882009 0.824158013 0.000244000
0.931885004 0.808776975 0.035491999
0.000702000 0.047272000 0.139069006
0.000000000 0.037354000 0.137450993
0.008484000 0.036377002 0.137207001
0.072936997 0.029663000 0.125030994
0.126525998 0.024536001 0.112548999
0.168243006 0.035980001 0.106536999
0.215393007 0.058166999 0.107666001
0.270020008 0.077972002 0.111542001
0.331299007 0.093262002 0.114899002
0.406554997 0.100647002 0.111450002
0.488922000 0.104858004 0.097136997
0.557434022 0.118073002 0.083466001
0.613129020 0.137360007 0.086731002
0.666534007 0.152985007 0.097961001
0.714783013 0.163451999 0.109741002
0.757233024 0.166686997 0.121063001
0.799561024 0.168549001 0.133635998
0.008484000 0.067749001 0.136078000
0.004639000 0.065613002 0.136353001
0.015320000 0.062500000 0.134673998
0.075897001 0.060180999 0.123870999
0.126678005 0.060150001 0.115264997
0.170807004 0.067932002 0.113036998
0.219391003 0.079681002 0.112976000
0.273223996 0.092316002 0.113495000
0.339783013 0.100922003 0.111481003
0.418121010 0.105590999 0.105011001
0.492859006 0.113098003 0.093262002
0.556549013 0.128234997 0.082122996
0.613494992 0.145934999 0.085022002
0.666442990 0.160460994 0.096344002
0.713867009 0.170227006 0.107970998
0.755249023 0.172851995 0.119080000
0.798430979 0.174866006 0.131897002
0.024048001 0.098693997 0.140471995
0.023102000 0.098632999 0.139403999
0.035186999 0.096436001 0.136902004
0.088134997 0.095245004 0.131683007
0.136536002 0.096344002 0.123322003
0.182677999 0.100158997 0.120056003
0.234650001 0.105742998 0.117523000
0.297484994 0.109894000 0.110931002
0.367096007 0.114776999 0.104492001
0.436066002 0.122405998 0.100768998
0.501525998 0.132995993 0.092377000
0.562469006 0.146393001 0.080596998
0.618377984 0.161559999 0.082764000
0.671265006 0.174529999 0.094420999
0.718932986 0.183899000 0.106170997
0.760650992 0.186340004 0.117737003
0.802338004 0.187775001 0.130401999
0.035156000 0.131865993 0.137786999
0.034210000 0.134032995 0.139832005
0.052795000 0.134002998 0.138396993
0.100585997 0.131194994 0.131989002
0.151427999 0.130614996 0.126129001
0.199950993 0.133514002 0.120544001
0.253113002 0.136565998 0.114776999
0.312866002 0.139708996 0.107818998
0.376282007 0.144317999 0.102081001
0.440490991 0.151215002 0.099609002
0.504822016 0.160034001 0.090178996
0.566771984 0.170898005 0.075499997
0.623046994 0.183502004 0.078339003
0.674804986 0.194457993 0.090576001
0.720825016 0.202637002 0.102508999
0.761260986 0.204467997 0.113770001
0.803161979 0.205413997 0.126800999
0.042785998 0.184937000 0.147339001
0.050354000 0.188721001 0.148711994
0.080048002 0.186462000 0.144530997
0.123931997 0.180847004 0.135894999
0.169861004 0.174926996 0.126372993
0.218536004 0.174438000 0.118469000
0.271239996 0.176666006 0.112640001
0.329163015 0.179961994 0.106841996
0.391144007 0.184448004 0.101623997
0.454436988 0.189453006 0.098419003
0.517638981 0.195221007 0.086029001
0.577820003 0.203033000 0.069397002
0.631958008 0.213165000 0.072815001
0.682617009 0.222106993 0.085570998
0.728026986 0.229278997 0.098236002
0.767974973 0.230957001 0.109771997
