public/lut/117.cube
TITLE "17x17x17 Adobe/IRIDAS cube 3D LUT exported with GrossGrade v0.2.2 (beta) 64 bit"
DOMAIN_MIN 0 0 0
DOMAIN_MAX 1 1 1
LUT_3D_SIZE 5
0.028380999 0.000000000 0.036285002
0.111602999 0.005920000 0.039429002
0.343596995 0.066192999 0.049988002
0.616028011 0.119171001 0.095306002
0.802672982 0.151794001 0.137725994
0.046875000 0.171936005 0.066620000
0.166534007 0.164825007 0.030548001
0.395172000 0.185363993 0.030365000
0.635132015 0.207825005 0.078856997
0.807677984 0.219542995 0.125061005
0.176300004 0.423218012 0.074676998
0.272949010 0.410338998 0.051024999
0.462920994 0.372130990 0.005920000
0.677612007 0.386200011 0.051024999
0.828490973 0.380463004 0.096100003
0.328002989 0.686096013 0.073242001
0.397918999 0.677582026 0.070251003
0.560729980 0.652221978 0.056488000
0.733520985 0.615570009 0.008270000
0.858672976 0.583374023 0.070800997
0.453460991 0.883239985 0.134520993
0.507538021 0.878632009 0.134215996
0.642364979 0.863646984 0.129973993
0.799956977 0.842559993 0.107147001
0.931731999 0.808502018 0.035491999
0.000793000 0.099091001 0.261382997
0.109283000 0.076508000 0.245148003
0.349303991 0.084930003 0.205138996
0.579833984 0.157989994 0.214935005
0.811034977 0.159821004 0.128814995
0.036865000 0.213683993 0.266846001
0.168427005 0.198853001 0.257140994
0.385223001 0.198547006 0.224547997
0.636536002 0.211364999 0.198273003
0.813872993 0.229919001 0.117737003
0.162292004 0.432556003 0.256408989
0.266968012 0.424225003 0.244568005
0.459899992 0.385619998 0.197173998
0.672393978 0.394439995 0.172913000
0.830963016 0.390868992 0.088073999
0.321135998 0.690093994 0.228240997
0.390228003 0.685576975 0.215575993
0.551330984 0.659331977 0.164977998
0.731049001 0.622986019 0.062164001
0.862518013 0.589568973 0.071044996
0.418303996 0.889526010 0.135986000
0.479828000 0.884979010 0.136565998
0.631377995 0.867919981 0.132323995
0.798766971 0.845794976 0.109985001
0.933013976 0.810455024 0.034697998
0.006317000 0.229980007 0.573150992
0.000000000 0.194214001 0.567260981
0.359497011 0.177123994 0.521239996
0.619385004 0.174529999 0.465759009
0.790192008 0.262511998 0.470367014
0.033507999 0.305510998 0.552520990
0.070525996 0.296416998 0.555846989
0.384155005 0.254608005 0.514252007
0.631042004 0.254332989 0.473174989
0.798247993 0.324829012 0.482483000
0.085814998 0.476379007 0.551392019
0.216124997 0.470580995 0.547272027
0.475189000 0.430999994 0.514679015
0.665648997 0.446868986 0.498504996
0.831237972 0.431457996 0.447905988
0.323760986 0.683715999 0.539947987
0.385284007 0.682097971 0.534119010
0.547119021 0.664611995 0.503966987
0.720794976 0.640349984 0.442047000
0.862640023 0.613586009 0.347900003
0.400146008 0.880614996 0.443603992
0.454865009 0.878570974 0.429381996
0.596496999 0.870055974 0.366912991
0.777405024 0.854247987 0.192260996
0.936249018 0.816009998 0.032745000
0.035094999 0.369964987 0.770020008
0.031738002 0.363128990 0.768371999
0.245422006 0.316772014 0.766479015
0.589232981 0.334167004 0.738708019
0.802825987 0.352661014 0.723541021
0.046172999 0.421631008 0.763580024
0.053284001 0.420868009 0.764648020
0.283264011 0.374633998 0.766448975
0.605651975 0.391846001 0.737945974
0.805969000 0.405517995 0.724762022
0.065094002 0.542815983 0.758911014
0.144988999 0.540221989 0.757416010
0.389007986 0.527465999 0.755432010
0.648986995 0.517302990 0.736176014
0.820250988 0.525023997 0.727263987
0.274749994 0.706543028 0.766510010
0.339203000 0.704955995 0.765778005
0.499817014 0.693877995 0.759674013
0.735596001 0.665009022 0.736663997
0.851348996 0.681304991 0.733794987
0.551726997 0.858184993 0.786987007
0.584351003 0.857513011 0.785492003
0.667693973 0.853332996 0.775847971
0.784729004 0.846405029 0.730346978
0.913543999 0.832062006 0.626372993
0.301117003 0.630707026 0.912627995
0.369354010 0.634491026 0.911132991
0.462493986 0.613312006 0.910645008
0.643218994 0.608520985 0.893554986
0.805969000 0.617034972 0.888366997
0.307372987 0.648864985 0.912383974
0.374083996 0.651610970 0.910979986
0.497130990 0.642731011 0.910247982
0.653228998 0.629729986 0.895385981
0.810913026 0.635895014 0.889159977
0.271210015 0.694640994 0.915161014
0.335052013 0.694244027 0.914276004
0.531005979 0.699921012 0.911346018
0.672729015 0.680145025 0.900054991
0.825378001 0.684356987 0.892028987
0.401733011 0.787018001 0.919188976
0.431549013 0.784606993 0.918731987
0.522490978 0.775757015 0.916747987
0.706511974 0.764586985 0.907042980
0.851471007 0.758728027 0.898070991
0.643311024 0.879395008 0.921203971
0.658630013 0.878875971 0.920502007
0.707336009 0.876984000 0.918395996
0.785431027 0.872130990 0.914794981
0.895874023 0.856750011 0.906647027
