public/lut/118.cube
TITLE "17x17x17 Adobe/IRIDAS cube 3D LUT exported with GrossGrade v0.2.2 (beta) 64 bit"
DOMAIN_MIN 0 0 0
DOMAIN_MAX 1 1 1
LUT_3D_SIZE 5
0.020508001 0.000000000 0.017364999
0.087006003 0.000000000 0.018921001
0.288300008 0.055877998 0.000000000
0.556976020 0.098540999 0.000000000
0.758606017 0.122711003 0.000000000
0.035094999 0.166961998 0.034302000
0.130371004 0.159881994 0.017548000
0.336760998 0.177643001 0.000000000
0.577789009 0.193726003 0.000000000
0.764862001 0.198699996 0.000000000
0.138549998 0.428162009 0.039032001
0.220917001 0.414306998 0.025635000
0.395873994 0.373535007 0.000000000
0.621703982 0.385253996 0.000000000
0.788330019 0.374817014 0.000000000
0.269775003 0.690307975 0.038238999
0.333739996 0.682739019 0.036072001
0.491973996 0.659636974 0.028595001
0.672272027 0.625092030 0.000000000
0.818359017 0.591552973 0.000000000
0.386321992 0.854430974 0.081023999
0.438933998 0.850708008 0.080536000
0.575591981 0.838805974 0.076903999
0.743927002 0.822021008 0.060028002
0.870422006 0.794768989 0.000000000
0.000793000 0.095886000 0.208038002
0.084624998 0.073729999 0.190368995
0.290221989 0.080779999 0.147735998
0.518280029 0.144684002 0.151732996
0.767913997 0.131286994 0.000000000
0.027984999 0.208556995 0.214141995
0.132323995 0.193604007 0.203734994
0.326263011 0.191405997 0.165160999
0.578765988 0.197753996 0.119537003
0.771973014 0.209685996 0.000000000
0.127105996 0.438080013 0.202758998
0.215698004 0.429168999 0.189910993
0.392731011 0.387970001 0.138274997
0.615723014 0.394409001 0.017151000
0.790984988 0.386229992 0.000000000
0.263641000 0.694031000 0.172545999
0.326629996 0.689880013 0.158935994
0.482452005 0.666106999 0.108795002
0.669463992 0.632171988 0.009857000
0.822327018 0.597687006 0.000000000
0.352874994 0.859130979 0.082305998
0.411742985 0.855773985 0.082428001
0.564148009 0.842224002 0.079223998
0.742614985 0.824676991 0.061797999
0.870940983 0.796447992 0.000000000
0.004730000 0.224792004 0.538513005
0.000000000 0.188964993 0.532288015
0.298247993 0.172150001 0.484679997
0.551787972 0.169646993 0.426696986
0.734588981 0.256835997 0.431641012
0.025055001 0.302704006 0.517028987
0.053771999 0.293121010 0.520599008
0.321105987 0.249969006 0.477539003
0.563750982 0.249755993 0.434509009
0.744292974 0.321350008 0.444000006
0.066040002 0.484528005 0.515960991
0.172150001 0.478302002 0.511658013
0.407288015 0.436432004 0.477844000
0.603241026 0.452026010 0.459656000
0.787810981 0.431670994 0.400909007
0.265899986 0.688232005 0.504088998
0.322052002 0.686767995 0.498046994
0.478302002 0.670929015 0.466735989
0.658325016 0.648528993 0.401428014
0.821471989 0.621245980 0.264221013
0.335723996 0.852234006 0.403441995
0.387634009 0.850708008 0.388458014
0.528289974 0.843963981 0.321503013
0.719452024 0.831511974 0.139434993
0.872344971 0.800934017 0.000000000
0.026427999 0.371277004 0.739777029
0.023864999 0.363952994 0.738007009
0.197020993 0.314635992 0.735961974
0.520812988 0.332976997 0.707976997
0.746948004 0.352753013 0.692474008
0.034882002 0.426391989 0.733124018
0.040130999 0.425689995 0.734192014
0.230103001 0.376221001 0.736083984
0.537627995 0.394623011 0.707244992
0.750580013 0.409271002 0.693726003
0.049316000 0.553345025 0.728424013
0.112915002 0.550659001 0.726836979
0.325531006 0.537627995 0.724762022
0.582549989 0.527130008 0.705291986
0.766174018 0.535064995 0.696349978
0.222564995 0.708557010 0.736145020
0.279938012 0.707274973 0.735413015
0.431396008 0.697356999 0.729125977
0.674286008 0.671356022 0.705841005
0.802215993 0.685393989 0.702515006
0.482818991 0.834685981 0.757018983
0.515869021 0.834106028 0.755432010
0.602111995 0.830841005 0.745666981
0.727294981 0.825133979 0.699492991
0.860229015 0.813812017 0.589721978
0.245757997 0.639648020 0.880523980
0.307404011 0.643158019 0.879364014
0.394989014 0.623016000 0.878997982
0.576538026 0.618408024 0.863922000
0.750427008 0.626648009 0.858947992
0.251311988 0.656585991 0.880340993
0.311583996 0.659088016 0.879211009
0.428710997 0.650847971 0.878661990
0.586944997 0.638611019 0.865570009
0.755950987 0.644500971 0.859893978
0.219451994 0.698059022 0.882812977
0.276154011 0.697661996 0.882049978
0.462157995 0.702727973 0.879577994
0.607421994 0.685088992 0.869690001
0.771790028 0.688843012 0.862304986
0.337433010 0.776947021 0.886138976
0.365417004 0.775116026 0.885712028
0.453734994 0.767760992 0.884033024
0.643218994 0.758270025 0.875854015
0.800293028 0.753479004 0.867919981
0.576599002 0.851257026 0.887817025
0.592559993 0.850890994 0.887145996
0.644073009 0.849425972 0.885559022
0.728088021 0.845489979 0.882445991
0.846496999 0.833343983 0.875518978
