public/lut/118.cube
TITLE "17x17x17 Adobe/IRIDAS cube 3D LUT exported with GrossGrade v0.2.2 (beta) 64 bit"
DOMAIN_MIN 0 0 0
DOMAIN_MAX 1 1 1
LUT_3D_SIZE 17
0.020508001 0.000000000 0.017364999
0.016571000 0.000000000 0.018097000
0.028687000 0.000092000 0.019714000
0.056366000 0.000000000 0.017364999
0.087006003 0.000000000 0.018921001
0.130005002 0.008026000 0.000000000
0.175995007 0.028960999 0.000000000
0.225768998 0.043853998 0.000000000
0.288300008 0.055877998 0.000000000
0.359039009 0.067718998 0.000000000
0.429565012 0.078247003 0.000000000
0.496093988 0.088653997 0.000000000
0.556976020 0.098540999 0.000000000
0.612976015 0.107207999 0.000000000
0.664124012 0.114136003 0.000000000
0.710448980 0.118804999 0.000000000
0.758606017 0.122711003 0.000000000
0.010345000 0.031738002 0.018921001
0.010986000 0.037108999 0.018921001
0.032958999 0.038787998 0.019714000
0.063446000 0.040100001 0.013275000
0.097107001 0.040160999 0.000061000
0.134032995 0.046905998 0.000000000
0.176392004 0.056000002 0.000000000
0.228485003 0.065338001 0.000000000
0.291168004 0.075011998 0.000000000
0.359833002 0.084014997 0.000000000
0.429168999 0.093231000 0.000000000
0.495667011 0.102325000 0.000000000
0.557036996 0.110992000 0.000000000
0.613403022 0.118500002 0.000000000
0.663543999 0.124541998 0.000000000
0.709351003 0.128296003 0.000000000
0.758331001 0.131926998 0.000000000
0.020904999 0.073821999 0.021973001
0.020752000 0.075347997 0.020447001
0.039917000 0.075499997 0.018921001
0.071716003 0.077331997 0.015961001
0.106109999 0.079285003 0.000000000
0.143401995 0.082732998 0.000000000
0.187133998 0.088287003 0.000000000
0.241515994 0.095000997 0.000000000
0.304625988 0.102600001 0.000000000
0.371825993 0.109924003 0.000000000
0.439330995 0.117156997 0.000000000
0.503386974 0.124329001 0.000000000
0.562713981 0.131134003 0.000000000
0.617401004 0.137299001 0.000000000
0.667267025 0.142029002 0.000000000
0.712677002 0.144805998 0.000000000
0.759887993 0.147490993 0.000000000
0.028870000 0.114380002 0.028076001
0.028687000 0.116272002 0.027222000
0.049011000 0.114136003 0.024901999
0.077575997 0.112213001 0.019073000
0.113891996 0.115082003 0.003357000
0.154236004 0.119507000 0.000000000
0.201446995 0.125549003 0.000000000
0.256348014 0.131439000 0.000000000
0.317200005 0.136810005 0.000000000
0.381805003 0.142058998 0.000000000
0.446898997 0.147490993 0.000000000
0.509459972 0.153107002 0.000000000
0.567902029 0.158660993 0.000000000
0.621825993 0.163207993 0.000000000
0.670197010 0.166443005 0.000000000
0.714478016 0.167907998 0.000000000
0.761382997 0.169799998 0.000000000
0.035094999 0.166961998 0.034302000
0.046661001 0.169983000 0.033569001
0.068207003 0.167389005 0.031250000
0.096527003 0.163115993 0.025878999
0.130371004 0.159881994 0.017548000
0.172637999 0.162719995 0.000000000
0.221221998 0.166991994 0.000000000
0.275909007 0.171721995 0.000000000
0.336760998 0.177643001 0.000000000
0.400269002 0.182708994 0.000000000
0.462707996 0.186432004 0.000000000
0.521973014 0.190063000 0.000000000
0.577789009 0.193726003 0.000000000
0.629791021 0.196715996 0.000000000
0.677062988 0.198333994 0.000000000
0.720611989 0.198424995 0.000000000
0.764862001 0.198699996 0.000000000
0.054168999 0.223938003 0.039184999
0.070160002 0.229889005 0.038391002
0.090515003 0.226256996 0.035339002
0.117339998 0.219849005 0.030029001
0.149109006 0.212555006 0.022614000
0.187653005 0.207764000 0.007904000
0.236480996 0.209747002 0.000000000
0.292113990 0.213683993 0.000000000
0.351776004 0.217987001 0.000000000
0.414458990 0.223480001 0.000000000
0.476287991 0.229094997 0.000000000
0.534362972 0.233245999 0.000000000
0.588286996 0.234894007 0.000000000
0.638489008 0.236145005 0.000000000
0.684051991 0.236053005 0.000000000
0.725708008 0.234436005 0.000000000
0.768921018 0.233582005 0.000000000
0.081115998 0.289703012 0.041016001
0.097930998 0.299468994 0.039489999
0.116425000 0.294281006 0.036377002
0.141724005 0.285492003 0.031555001
0.172484994 0.275512993 0.024750000
0.208313003 0.265258998 0.016510000
0.252350003 0.258789003 0.000000000
0.307433993 0.260345012 0.000000000
0.367980987 0.264313012 0.000000000
0.429504007 0.268523991 0.000000000
0.490143001 0.274017006 0.000000000
0.547515988 0.279480010 0.000000000
0.600646973 0.282745004 0.000000000
0.649231017 0.283264011 0.000000000
0.693450987 0.281127989 0.000000000
0.733794987 0.277496010 0.000000000
0.774474978 0.274475008 0.000000000
0.109375000 0.358550996 0.040557999
0.125824004 0.370025992 0.038970999
0.142609000 0.364318997 0.036377002
0.166411996 0.354553014 0.031830002
0.196777001 0.343842000 0.025635000
0.232544005 0.332489014 0.018279999
0.273589998 0.320923001 0.013214000
0.322845012 0.314025998 0.000000000
0.381897002 0.315337986 0.000000000
0.443237007 0.318969995 0.000000000
0.501830995 0.322539985 0.000000000
0.558197021 0.327423006 0.000000000
0.611236989 0.332336009 0.000000000
0.659546018 0.334044993 0.000000000
0.702697992 0.332183987 0.000000000
0.741455019 0.326384991 0.000000000
0.780304015 0.320984006 0.000000000
0.138549998 0.428162009 0.039032001
0.153687000 0.439025998 0.037475999
0.169036999 0.433777004 0.034790002
0.191345006 0.424744010 0.031036001
0.220917001 0.414306998 0.025635000
0.256500006 0.403106987 0.020599000
0.297394007 0.391418010 0.015594000
0.343017995 0.379790992 0.011780000
0.395873994 0.373535007 0.000000000
0.455688000 0.375122011 0.000000000
0.514832020 0.378571004 0.000000000
0.569885015 0.381653011 0.000000000
0.621703982 0.385253996 0.000000000
0.669586003 0.387603998 0.000000000
0.712432981 0.386047006 0.000000000
0.750609994 0.380614996 0.000000000
0.788330019 0.374817014 0.000000000
0.169524997 0.499390006 0.035918999
0.183471993 0.508697987 0.035156000
0.197356999 0.503966987 0.032867000
0.218413994 0.496093988 0.029755000
0.247131005 0.487029999 0.026215000
0.282195985 0.476929009 0.022675000
0.322937012 0.466338992 0.019409001
0.368256003 0.455017000 0.015594000
0.416595012 0.443939000 0.004791000
0.469603986 0.437866002 0.000000000
0.526398003 0.438293010 0.000000000
0.580688000 0.439940989 0.000000000
0.631958008 0.442108005 0.000000000
0.678955019 0.443419993 0.000000000
0.721068978 0.440459996 0.000000000
0.758635998 0.434967011 0.000000000
0.795166016 0.429504007 0.000000000
0.203094006 0.570648015 0.033142000
0.215178996 0.576996028 0.032837000
0.228240997 0.572968006 0.031555001
0.248199001 0.566833019 0.029633000
0.276183993 0.559723020 0.028076001
0.310943991 0.551849008 0.025787000
0.351226985 0.543060005 0.023468001
0.395996004 0.533356011 0.019866999
0.443511993 0.522858024 0.016754000
0.492096007 0.512268007 0.002960000
0.541656017 0.504760981 0.000000000
0.592224002 0.502075016 0.000000000
0.641663015 0.501403987 0.000000000
0.688628972 0.501465023 0.000000000
0.730041981 0.497498006 0.000000000
0.766143978 0.489867985 0.000000000
0.802338004 0.483734012 0.000000000
0.237213001 0.635864019 0.033356000
0.247498006 0.639281988 0.034148999
0.259795994 0.636107981 0.033356000
0.278869987 0.631682992 0.032593001
0.305756003 0.626403987 0.031433001
0.339599997 0.620208979 0.029906999
0.378937006 0.613463998 0.027832000
0.422852010 0.605926991 0.025269000
0.469817996 0.597656012 0.021790000
0.518096983 0.588684022 0.018279999
0.565674007 0.578917980 0.003204000
0.610747993 0.569640994 0.000000000
0.654236019 0.562865973 0.000000000
0.698485970 0.559356987 0.000000000
0.740112007 0.555266976 0.000000000
0.776305974 0.546997011 0.000000000
0.812102973 0.539978027 0.000000000
0.269775003 0.690307975 0.038238999
0.279053003 0.692870975 0.038238999
0.289916992 0.689818978 0.037567001
0.307770014 0.686278999 0.037262000
0.333739996 0.682739019 0.036072001
0.366912991 0.678557992 0.035094999
0.405120999 0.673370004 0.033507999
0.447234988 0.667083979 0.031158000
0.491973996 0.659636974 0.028595001
0.538025022 0.651427984 0.024689000
0.584716976 0.643096983 0.020020001
0.630645990 0.634643972 0.002380000
0.672272027 0.625092030 0.000000000
0.709411979 0.615020990 0.000000000
0.747130990 0.607788026 0.000000000
0.782867014 0.598999023 0.000000000
0.818359017 0.591552973 0.000000000
0.303344995 0.741393983 0.044280998
0.311127007 0.742218018 0.044280998
0.321258992 0.739562988 0.044280998
0.338196009 0.736693978 0.043549001
0.362731993 0.733520985 0.042785998
0.394562006 0.730315983 0.042052999
0.432280988 0.726409972 0.040955000
0.474059999 0.721893013 0.038940001
0.518401980 0.716796994 0.036956999
0.563995004 0.710632026 0.033661000
0.609619021 0.703796029 0.029175000
0.654968023 0.696502984 0.022064000
0.698302984 0.688445985 0.000000000
0.734467030 0.677429020 0.000000000
0.763549984 0.663299978 0.000000000
0.795409977 0.652770996 0.000000000
0.830871999 0.645476997 0.000000000
0.329986989 0.779968023 0.052094001
0.336883992 0.780121028 0.052094001
0.346466005 0.778015018 0.052002002
0.363068014 0.776000977 0.051422000
0.387268007 0.774138987 0.050781000
0.417937994 0.771637022 0.050292999
0.454407007 0.768249989 0.049408000
0.494414985 0.764007986 0.048248000
0.536620975 0.759002984 0.046172999
0.580200016 0.753265023 0.043304000
0.624602973 0.747437000 0.039246000
0.669158995 0.741791010 0.033661000
0.712707996 0.735870004 0.024536001
0.752746999 0.728606999 0.000000000
0.783447027 0.716156006 0.000000000
0.806824028 0.699463010 0.000000000
0.836273015 0.689148009 0.000000000
0.363373011 0.822692990 0.065369003
0.371764988 0.824065983 0.065917999
0.381439000 0.822570980 0.065917999
0.397278011 0.820403993 0.065369003
0.419921994 0.817840993 0.064788997
0.448821992 0.815002024 0.063842997
0.483794987 0.811645985 0.063079998
0.523193002 0.807739019 0.061919998
0.565033019 0.803435981 0.059845001
0.607330024 0.798828006 0.057190001
0.648956001 0.793700993 0.053467002
0.690246999 0.788299978 0.048156999
0.731476009 0.782867014 0.040955000
0.772430003 0.777283013 0.024994001
0.810760021 0.770264030 0.000000000
0.836914003 0.757018983 0.000000000
0.854369998 0.741180003 0.000000000
0.386321992 0.854430974 0.081023999
0.393279999 0.855041981 0.081482001
0.402435005 0.853820980 0.081055000
0.417358011 0.852509022 0.081023999
0.438933998 0.850708008 0.080536000
0.466187000 0.848694026 0.080200002
0.498870999 0.846099973 0.079590000
0.535767019 0.842711985 0.078612998
0.575591981 0.838805974 0.076903999
0.616973996 0.834807992 0.074738003
0.658966005 0.830718994 0.071381003
0.701416016 0.826294005 0.066803001
0.743927002 0.822021008 0.060028002
0.785736024 0.817780018 0.049957000
0.826171994 0.813109994 0.026306000
0.857361019 0.807190001 0.000000000
0.870422006 0.794768989 0.000000000
0.001038000 0.019317999 0.045593001
0.000183000 0.018585000 0.043488000
0.021392999 0.015594000 0.039978001
0.059052002 0.010895000 0.035980001
0.092926003 0.025024001 0.034393001
0.126587003 0.040863000 0.033569001
0.175200999 0.045898002 0.007935000
0.232666001 0.057128999 0.000000000
0.293976009 0.074340999 0.000000000
0.359679997 0.088440001 0.000000000
0.426970989 0.098968998 0.000000000
0.491576999 0.107116997 0.000000000
0.552367985 0.114501998 0.000000000
0.608734012 0.120513998 0.000000000
0.660309017 0.125487998 0.000000000
0.706969976 0.128571004 0.000000000
0.753966987 0.130431995 0.000000000
0.006317000 0.043212999 0.044250000
0.007751000 0.045348998 0.044220001
0.024536001 0.048797999 0.043517999
0.061400998 0.050781000 0.038391002
0.094910003 0.054535002 0.034302000
0.135528997 0.057861000 0.029175000
0.181395993 0.062224999 0.001984000
0.235045999 0.073090002 0.000000000
0.295563012 0.087341003 0.000000000
0.360534996 0.100220002 0.000000000
0.427184999 0.110077001 0.000000000
0.492065012 0.117827997 0.000000000
0.553130984 0.124603003 0.000000000
0.609314024 0.130096003 0.000000000
0.659546018 0.134460002 0.000000000
0.705016971 0.136536002 0.000000000
0.753174007 0.138579994 0.000000000
0.019378999 0.080994003 0.047637999
0.019317999 0.082367003 0.047028001
0.034545999 0.082520001 0.044983000
0.071869001 0.083068997 0.042114001
0.106780998 0.085631996 0.031555001
0.145476997 0.087433003 0.023499001
0.192505002 0.091797002 0.000153000
0.246978998 0.099547997 0.000000000
0.306701988 0.109650001 0.000000000
0.370849997 0.119903997 0.000000000
0.436951011 0.129028007 0.000000000
0.500365973 0.136565998 0.000000000
0.559661984 0.142364994 0.000000000
0.615050972 0.147217005 0.000000000
0.665192008 0.150786996 0.000000000
0.710875988 0.152404994 0.000000000
0.757140994 0.153687000 0.000000000
0.027984999 0.119690001 0.051086001
0.027252000 0.121795997 0.050995000
0.044891000 0.120361000 0.047791000
0.078368999 0.116974004 0.043060001
0.114990003 0.119292997 0.039733998
0.155913994 0.123076998 0.002563000
0.202849999 0.127625003 0.000000000
0.257476985 0.132568002 0.000000000
0.316314995 0.138611004 0.000000000
0.378601015 0.146088004 0.000000000
0.443450987 0.154266000 0.000000000
0.506531000 0.161773995 0.000000000
0.565521002 0.167419001 0.000000000
0.619507015 0.171112001 0.000000000
0.667786002 0.173279002 0.000000000
0.711731017 0.173675999 0.000000000
0.758179009 0.174591005 0.000000000
0.034148999 0.173096001 0.056549001
0.042725001 0.176300004 0.055573002
0.065948002 0.173462003 0.052368000
0.097167999 0.167998999 0.047759999
0.131255999 0.163665995 0.041260000
0.172454998 0.164825007 0.027039001
0.219666004 0.167998999 0.000000000
0.274260998 0.171387002 0.000000000
0.333954006 0.176422000 0.000000000
0.395691007 0.182403997 0.000000000
0.458191007 0.188049003 0.000000000
0.518799007 0.194457993 0.000000000
0.575958014 0.200316995 0.000000000
0.628386974 0.203063995 0.000000000
0.675841987 0.203979000 0.000000000
0.719421029 0.203491002 0.000000000
0.763763011 0.203063995 0.000000000
0.048920002 0.229186997 0.058258001
0.064606003 0.234801993 0.057037000
0.089142002 0.230132997 0.055663999
0.117095999 0.223358005 0.050170999
0.148986995 0.215485007 0.042603001
0.187286004 0.209472999 0.038238999
0.234375000 0.210418999 0.000000000
0.289063007 0.213103995 0.000000000
0.347687006 0.216308996 0.000000000
0.408600003 0.221283004 0.000000000
0.470245004 0.227051005 0.000000000
0.530089974 0.233245999 0.000000000
0.586181998 0.238495007 0.000000000
0.637145996 0.241180003 0.000000000
0.682494998 0.240355998 0.000000000
0.723999023 0.238037005 0.000000000
0.767700016 0.236571997 0.000000000
0.077483997 0.293549001 0.059845001
0.095215000 0.302367985 0.059234999
0.115051001 0.296875000 0.056549001
0.140655994 0.288147002 0.050964002
0.171905994 0.278014988 0.043884002
0.207916006 0.267426014 0.036132999
0.251677990 0.260405988 0.016571000
0.305756003 0.260895014 0.000000000
0.364960015 0.263823986 0.000000000
0.425292999 0.267028987 0.000000000
0.485413015 0.272002995 0.000000000
0.543304026 0.277648985 0.000000000
0.598205984 0.283416986 0.000000000
0.648621023 0.287230998 0.000000000
0.692902029 0.285003990 0.000000000
0.733276010 0.280945003 0.000000000
0.774384022 0.277527004 0.000000000
0.108124003 0.361449987 0.059142999
0.124603003 0.372253001 0.058533002
0.141387999 0.366730005 0.054962002
0.165252998 0.357116997 0.050200999
0.196014002 0.346251994 0.043427002
0.231903002 0.334656000 0.035034001
0.272857994 0.322571009 0.028930999
0.321381003 0.314819008 0.000000000
0.379211009 0.314911008 0.000000000
0.439696997 0.317719012 0.000000000
0.498138011 0.320861995 0.000000000
0.554840028 0.325592011 0.000000000
0.608887017 0.331268013 0.000000000
0.658661008 0.335723996 0.000000000
0.702270985 0.335022002 0.000000000
0.740966976 0.328949004 0.000000000
0.780487001 0.323668987 0.000000000
0.137848005 0.431427002 0.056152001
0.152924001 0.442505002 0.055511001
0.168457001 0.437530994 0.052460000
0.191009998 0.428588986 0.048186999
0.220946997 0.418029994 0.042174999
0.256653011 0.406646997 0.034453999
0.297423989 0.394531012 0.024536001
0.342743009 0.382171988 0.016998000
0.394775003 0.374664009 0.000000000
0.453368992 0.374938995 0.000000000
0.512023985 0.377716005 0.000000000
0.567505002 0.380585015 0.000000000
0.619872987 0.384124994 0.000000000
0.668671012 0.387573004 0.000000000
0.712158024 0.388397008 0.000000000
0.750365973 0.382660002 0.000000000
0.789000988 0.377350003 0.000000000
0.169098005 0.502991021 0.052368000
0.183562994 0.513275027 0.051727001
0.197753996 0.509033024 0.049132999
0.219086006 0.501281977 0.045348998
0.248016000 0.492004007 0.039917000
0.283080995 0.481628001 0.032439999
0.323668987 0.470427990 0.023804000
0.368622005 0.458373994 0.015930001
0.416626006 0.446289003 0.005066000
0.468993992 0.438995004 0.000000000
0.524932981 0.438416004 0.000000000
0.579132020 0.439666986 0.000000000
0.630797982 0.441619992 0.000000000
0.678375006 0.443053991 0.000000000
0.721038997 0.442229986 0.000000000
0.759094000 0.436829001 0.000000000
0.796630979 0.431914985 0.000000000
0.202788994 0.573913991 0.047180001
0.215790004 0.581726015 0.046753000
0.229065001 0.578247011 0.044403002
0.249267995 0.572174013 0.040405001
0.277283013 0.565002024 0.035645001
0.311829001 0.556580007 0.029724000
0.351806998 0.546997011 0.023651000
0.396026999 0.536437988 0.019774999
0.443053991 0.525023997 0.016693000
0.491425008 0.513641000 0.003632000
0.540771008 0.505370975 0.000000000
0.591216981 0.502228022 0.000000000
0.640929997 0.501465023 0.000000000
0.688140988 0.501343012 0.000000000
0.729979992 0.498443991 0.000000000
0.766632020 0.491302013 0.000000000
0.803650022 0.485626012 0.000000000
0.237213001 0.639557004 0.040801998
0.248291001 0.644134998 0.040314000
0.260863990 0.641541004 0.038787998
0.280272990 0.637115002 0.035980001
0.307036996 0.631682992 0.032683998
0.340941995 0.625304997 0.029816000
0.380219012 0.617981017 0.027557001
0.423920006 0.609740973 0.025238000
0.470367014 0.600615978 0.022125000
0.518065989 0.590758979 0.018524000
0.565398991 0.580322027 0.004150000
0.610320985 0.570465028 0.000000000
0.653747976 0.563354015 0.000000000
0.698455989 0.559813976 0.000000000
0.740875006 0.556366026 0.000000000
0.777312994 0.548645020 0.000000000
0.813476980 0.542023003 0.000000000
0.269501001 0.693512022 0.037964001
0.279540986 0.696898997 0.037964001
0.290984988 0.694640994 0.037415002
0.309264988 0.691161990 0.036621001
0.335052013 0.687346995 0.036224000
0.367767006 0.682525992 0.035278000
0.405609012 0.676604986 0.033752002
0.447356999 0.669525027 0.031677000
0.491820991 0.661530018 0.028595001
0.537720025 0.653046012 0.025146000
0.584563971 0.644531012 0.020203000
0.630707026 0.635895014 0.003052000
0.672302008 0.625916004 0.000000000
0.709290028 0.615601003 0.000000000
0.747406006 0.608489990 0.000000000
0.783630013 0.600098014 0.000000000
0.819518983 0.593109012 0.000000000
0.302855998 0.743804991 0.044403002
0.311278999 0.745177984 0.044952001
0.321960002 0.743317008 0.044280998
0.339446992 0.740570009 0.044220001
0.364104986 0.737549007 0.043549001
0.395630002 0.733947992 0.042419001
0.433380008 0.729797006 0.041290000
0.474792004 0.724762022 0.039429002
0.518523991 0.718780994 0.037108999
0.563812017 0.712127984 0.033996999
0.609221995 0.704802990 0.029327000
0.654694021 0.697327018 0.022064000
0.698455989 0.689301014 0.000000000
0.734955013 0.678192019 0.000000000
0.764464974 0.664398015 0.000000000
0.796387017 0.653900027 0.000000000
0.832367003 0.646942019 0.000000000
0.328887999 0.781982005 0.052673001
0.336914003 0.783111989 0.052765001
0.347137004 0.781677008 0.052765001
0.363891989 0.779541016 0.052094001
0.387847990 0.777252018 0.051543999
0.418213010 0.774353027 0.050934002
0.454346001 0.770599008 0.050078999
0.494170994 0.765869021 0.048645001
0.536194026 0.760437012 0.046264999
0.579895020 0.754639030 0.043304000
0.624602973 0.748749018 0.039519999
0.669250011 0.742766976 0.033813000
0.713195980 0.736663997 0.024536001
0.753784001 0.729278982 0.000000000
0.784119010 0.716614008 0.000000000
0.807312012 0.699950993 0.000000000
0.836944997 0.690033019 0.000000000
0.361541986 0.824158013 0.065917999
0.370209008 0.825562000 0.066986002
0.380279988 0.824432015 0.066467002
0.396239996 0.822265983 0.065917999
0.419005990 0.819854975 0.065369003
0.448181003 0.816864014 0.064788997
0.483092993 0.813476980 0.063842997
0.522490978 0.809356987 0.062500000
0.564177990 0.804718018 0.060454998
0.606994987 0.799744010 0.057464998
0.649474978 0.794250011 0.053679999
0.690674007 0.788788021 0.048675999
0.731872976 0.783356011 0.040955000
0.772827029 0.777740002 0.025085000
0.811156988 0.770752013 0.000000000
0.837799013 0.757628977 0.000000000
0.855103016 0.742065012 0.000000000
0.384734988 0.855560005 0.081482001
0.392670006 0.856536984 0.082396999
0.403046012 0.855499029 0.081969999
0.418303996 0.853911996 0.081940003
0.439574987 0.852111995 0.081482001
0.466766000 0.849883974 0.081023999
0.499206990 0.847015023 0.080200002
0.535979986 0.843474984 0.079285003
0.575836003 0.839600027 0.077393003
0.617187977 0.835448980 0.075195000
0.659271002 0.831206977 0.071716003
0.701812983 0.826964974 0.067322001
0.744109988 0.822661996 0.060424998
0.785827994 0.818114996 0.049957000
0.826171994 0.813385010 0.027100001
0.857451975 0.807555974 0.000000000
0.870482981 0.794951975 0.000000000
0.000702000 0.045226999 0.084595002
0.000702000 0.036559999 0.083770998
0.006195000 0.034912001 0.083282001
0.055054002 0.028870000 0.072844997
0.097900003 0.023743000 0.063750997
0.132964998 0.033752002 0.059113000
0.173645005 0.053528000 0.057647999
0.222046003 0.072173998 0.056701999
0.277007997 0.085785002 0.054625999
0.347351015 0.090453997 0.046386998
0.427399009 0.090942003 0.007111000
0.496490002 0.101104997 0.000000000
0.554198980 0.119292997 0.000000000
0.610625982 0.133606002 0.000000000
0.662415028 0.142242000 0.000000000
0.708862007 0.143250003 0.000000000
0.755156994 0.142455995 0.000000000
0.006165000 0.065552004 0.082824998
0.003143000 0.063385002 0.082794003
0.011475000 0.060242001 0.081573002
0.057921998 0.058380000 0.072754003
0.098601997 0.057891998 0.065430000
0.135619998 0.064788997 0.063049003
0.177398995 0.074982002 0.059661999
0.224426001 0.086273000 0.056182999
0.285003990 0.093231000 0.050292999
0.358489990 0.095031999 0.037262000
0.431243986 0.099457003 0.002777000
0.495635986 0.112396002 0.000000000
0.554718018 0.128754005 0.000000000
0.610687017 0.141632006 0.000000000
0.661652029 0.149719000 0.000000000
0.706695974 0.150177002 0.000000000
0.754181027 0.149902001 0.000000000
0.017852999 0.095519997 0.085937999
0.017700000 0.095215000 0.085143998
0.026123000 0.093627997 0.083405003
0.067505002 0.092009999 0.078766003
0.106628001 0.092772998 0.070129000
0.145598993 0.096344002 0.066161998
0.190979004 0.100647002 0.060424998
0.246765003 0.103455000 0.050751001
0.310364008 0.106415004 0.039763998
0.375732005 0.111786000 0.025787000
0.440185994 0.120238997 0.000000000
0.501801014 0.131775007 0.000000000
0.559997976 0.145293996 0.000000000
0.615906000 0.156525001 0.000000000
0.667235970 0.164306998 0.000000000
0.712859988 0.164885998 0.000000000
0.758606017 0.163971007 0.000000000
0.026458999 0.127868995 0.083587997
0.025635000 0.129943997 0.085570998
0.039917000 0.129851997 0.084289998
0.077118002 0.126739994 0.078644000
0.118408002 0.126647994 0.074615002
0.159729004 0.128997996 0.061767999
0.206634998 0.131317005 0.051422000
0.260315001 0.133118004 0.042084001
0.318939000 0.136169001 0.033172999
0.380279988 0.141509995 0.005219000
0.443695009 0.148285002 0.000000000
0.506470025 0.157409996 0.000000000
0.564971983 0.168365002 0.000000000
0.619843006 0.177855998 0.000000000
0.669403017 0.184357002 0.000000000
0.713593006 0.184661999 0.000000000
0.759552002 0.183623999 0.000000000
0.032042999 0.179810002 0.091918997
0.037689000 0.183623999 0.093200997
0.061188001 0.181427002 0.089630000
0.095917001 0.175872996 0.082092002
0.133239999 0.169861004 0.074432001
0.174225003 0.169495001 0.067230001
0.221558005 0.171173006 0.045653999
0.274933010 0.173645005 0.031463999
0.332886010 0.176818997 0.004944000
0.393738002 0.180327997 0.000000000
0.456573009 0.184508994 0.000000000
0.518005013 0.190764993 0.000000000
0.574615002 0.199340999 0.000000000
0.628386974 0.207062006 0.000000000
0.677398980 0.212830007 0.000000000
0.721313000 0.212981999 0.000000000
