public/lut/119.cube
TITLE "17x17x17 Adobe/IRIDAS cube 3D LUT exported with GrossGrade v0.2.2 (beta) 64 bit"
DOMAIN_MIN 0 0 0
DOMAIN_MAX 1 1 1
LUT_3D_SIZE 5
0.018158000 0.000000000 0.023651000
0.163299993 0.003540000 0.025055001
0.401428014 0.041747998 0.031952001
0.665404975 0.075165004 0.060302999
0.875854015 0.095917001 0.086975001
0.026427999 0.201354995 0.045104999
0.195403993 0.197113007 0.020508001
0.433288991 0.209900007 0.020691000
0.676880002 0.224335000 0.050841998
0.878601015 0.231933996 0.079712003
0.101837002 0.453583002 0.043639999
0.258789003 0.445221007 0.031342000
0.473845989 0.420807004 0.010651000
0.703125000 0.429473996 0.035675000
0.891327024 0.426207989 0.062804997
0.196441993 0.711304009 0.042144999
0.333710015 0.706116021 0.041382000
0.533936024 0.689666986 0.037842002
0.736176014 0.667052984 0.020691000
0.909515023 0.646148980 0.050354000
0.282379001 0.924315989 0.083343998
0.408477992 0.919128001 0.085968003
0.589935005 0.902100027 0.093231000
0.786072016 0.872437000 0.093627997
0.932281017 0.823547006 0.061646000
0.000000000 0.062927000 0.252746999
0.156066999 0.048797999 0.254364014
0.401183993 0.056212999 0.222106993
0.636505008 0.102996998 0.230164006
0.881286979 0.100585997 0.174713001
0.017364999 0.227691993 0.260192990
0.182343006 0.223021999 0.248535007
0.411713004 0.223876998 0.238006994
0.668914974 0.231506005 0.222321004
0.882843018 0.238129005 0.168335006
0.091918997 0.458954006 0.260924995
0.238738999 0.456757009 0.256621987
0.459717005 0.432953000 0.221038997
0.695281982 0.436767995 0.206879005
0.892943978 0.432617009 0.151703000
0.166808993 0.717559993 0.226685002
0.312988013 0.713562012 0.224030003
0.520630002 0.695648015 0.198974997
0.733582020 0.672088981 0.143646002
0.911773980 0.649872005 0.143035993
0.260161996 0.927917004 0.167998999
0.389800996 0.922851980 0.166931003
0.581664979 0.904601991 0.160644993
0.785094976 0.874359012 0.140655994
0.933075011 0.824554026 0.078368999
0.000000000 0.145873994 0.537047982
0.091063999 0.123504996 0.531799018
0.398131996 0.114288002 0.526244998
0.657042980 0.116547003 0.479218006
0.859070003 0.172974005 0.484070003
0.009460000 0.285827994 0.530457020
0.127045006 0.280669987 0.531280994
0.399901986 0.259521008 0.526854992
0.659119010 0.261200011 0.486663997
0.860413015 0.307709008 0.493561000
0.042755000 0.486328006 0.532073975
0.212311000 0.484833002 0.528533995
0.411255002 0.478484988 0.502197027
0.661224008 0.481079012 0.514953971
0.876038015 0.471282989 0.477295011
0.179839998 0.711090028 0.533721983
0.306914985 0.710753977 0.534759998
0.471709996 0.706206977 0.523621023
0.699859977 0.692412972 0.465606987
0.901703000 0.670319021 0.414947987
0.245605007 0.920013011 0.487976015
0.348266989 0.918242991 0.463286996
0.519286990 0.908325016 0.388123006
0.762603998 0.880280018 0.248352006
0.935181022 0.827301025 0.088287003
0.000214000 0.234283000 0.757934988
0.092560001 0.229919001 0.756317019
0.321837991 0.208313003 0.740050972
0.621796012 0.217987001 0.755309999
0.861266971 0.232849002 0.737456977
0.009460000 0.359313995 0.755402029
0.109252997 0.358978003 0.755950987
0.342346013 0.338104010 0.741486013
0.623474002 0.349976003 0.757874012
0.861205995 0.359833002 0.740540028
0.027222000 0.527953982 0.754395008
0.171265006 0.527252018 0.752440989
0.397826999 0.526854992 0.741424978
0.622802973 0.529052973 0.762450993
0.863861024 0.529266000 0.748169005
0.150023997 0.725403011 0.760101020
0.278687000 0.725463986 0.759338021
0.455536008 0.722564995 0.753325999
0.638366997 0.725220025 0.738189995
0.857483029 0.724762022 0.761565983
0.343291998 0.903900027 0.783936024
0.442627013 0.901458979 0.785278022
0.571869016 0.892700016 0.787841976
0.687592030 0.883422971 0.766327024
0.886291981 0.849395990 0.606841981
0.164642006 0.400359988 0.939239979
0.295013011 0.404327005 0.936249018
0.437804997 0.395264000 0.930694997
0.624907970 0.399749994 0.922729015
0.829864979 0.407837003 0.934418023
0.168090999 0.504791021 0.939635992
0.297852010 0.508117974 0.936859012
0.456696004 0.507111013 0.930603027
0.631072998 0.505340993 0.926575005
0.833953977 0.511963010 0.934997976
0.148468003 0.625244021 0.943572998
0.277191013 0.626221001 0.941742003
0.475890994 0.634734988 0.933990002
0.642059028 0.627686024 0.935516000
0.846252024 0.632750988 0.937255979
0.220154002 0.776854992 0.946776986
0.329894990 0.775909007 0.945922971
0.471527010 0.772369027 0.943114996
0.667479992 0.770202994 0.944031000
0.859833002 0.769286990 0.938812017
0.396759003 0.918823004 0.947205007
0.481963992 0.916442990 0.945374012
0.597809017 0.909424007 0.939697027
0.723999023 0.896393001 0.929015994
0.834716976 0.874695003 0.909210026
