public/lut/119.cube
TITLE "17x17x17 Adobe/IRIDAS cube 3D LUT exported with GrossGrade v0.2.2 (beta) 64 bit"
DOMAIN_MIN 0 0 0
DOMAIN_MAX 1 1 1
LUT_3D_SIZE 17
0.018158000 0.000000000 0.023651000
0.036010999 0.000000000 0.023712000
0.068970002 0.000000000 0.023743000
0.116637997 0.000793000 0.023010001
0.163299993 0.003540000 0.025055001
0.219208002 0.011627000 0.015961001
0.275848001 0.022461001 0.015961001
0.334991008 0.032867000 0.023743000
0.401428014 0.041747998 0.031952001
0.472014993 0.050841998 0.039673001
0.540466011 0.059326001 0.047424000
0.605225027 0.067443997 0.054047000
0.665404975 0.075165004 0.060302999
0.721801996 0.081817999 0.066528000
0.774994016 0.087554999 0.073334001
0.824981987 0.091826998 0.079681002
0.875854015 0.095917001 0.086975001
0.007202000 0.045318998 0.024383999
0.031158000 0.047394000 0.024383999
0.065002002 0.050719999 0.026031001
0.117126003 0.050903000 0.023956001
0.170287997 0.051330999 0.009064000
0.221801996 0.055450000 0.007538000
0.276062012 0.061432000 0.013641000
0.336517006 0.068604000 0.021088000
0.403046012 0.076049998 0.029602000
0.472290009 0.083526999 0.037811000
0.540130973 0.091095001 0.045593001
0.604674995 0.098389000 0.052338000
0.665314019 0.105469003 0.059142999
0.722015023 0.111511000 0.065430000
0.774567008 0.116333000 0.071808003
0.824432015 0.120300002 0.078308001
0.875397027 0.124146000 0.086089998
0.014587000 0.095123000 0.029785000
0.037903000 0.095946997 0.028229000
0.073028997 0.096802004 0.023743000
0.125487998 0.097717002 0.019958001
0.177368000 0.098663002 0.005707000
0.228760004 0.101166002 0.005035000
0.283630013 0.105315998 0.011230000
0.345459014 0.110535003 0.018767999
0.412140012 0.116576999 0.027588001
0.479858011 0.122620001 0.035828002
0.546112001 0.128692999 0.043427002
0.609099984 0.134673998 0.050781000
0.668335021 0.140349999 0.057372998
0.724182010 0.145568997 0.063781999
0.776703000 0.149963006 0.070281997
0.826233029 0.152862996 0.077271000
0.876343012 0.155913994 0.084778003
0.020996001 0.144592002 0.037415002
0.044617001 0.145142004 0.036681999
0.079375997 0.145385996 0.030486999
0.129851997 0.143646002 0.024444999
0.183807001 0.145080999 0.006561000
0.237151995 0.147705004 0.003540000
0.294250011 0.152129993 0.009003000
0.355926991 0.156920999 0.015656000
0.420349002 0.161163002 0.024200000
0.485992014 0.165648997 0.032379001
0.550719976 0.170502007 0.040160999
0.612609982 0.175322995 0.047455002
0.671265006 0.180084005 0.054382000
0.726500988 0.184143007 0.061035000
0.777953982 0.187255993 0.067780003
0.826964974 0.189513996 0.074890003
0.876984000 0.191955999 0.082488999
0.026427999 0.201354995 0.045104999
0.057190001 0.203125000 0.045685001
0.094971001 0.202971995 0.037659001
0.143188000 0.199768007 0.032042999
0.195403993 0.197113007 0.020508001
0.251282007 0.198699996 0.006958000
0.308838010 0.201629996 0.007202000
0.369475991 0.205321997 0.013489000
0.433288991 0.209900007 0.020691000
0.497803003 0.214141995 0.028839000
0.560333014 0.217528999 0.036285002
0.620055974 0.220886007 0.043579001
0.676880002 0.224335000 0.050841998
0.730895996 0.227325007 0.057921998
0.781768978 0.229369998 0.064879999
0.830169976 0.230529994 0.071960002
0.878601015 0.231933996 0.079712003
0.039000999 0.260742009 0.051483002
0.071350001 0.265350014 0.045288000
0.112213001 0.263152987 0.040955000
0.158417001 0.259094000 0.036316000
0.208618000 0.253845006 0.029266000
0.261810005 0.250548989 0.013611000
0.320160002 0.251861989 0.007629000
0.381042004 0.254669011 0.011932000
0.443511993 0.258087009 0.018127000
0.506896973 0.262268007 0.025390999
0.568695009 0.266754001 0.032379001
0.627440989 0.270354986 0.039368000
0.682892025 0.272246987 0.046448000
0.735747993 0.273986995 0.053771999
0.785552979 0.274901986 0.061066002
0.832916021 0.274841011 0.068328999
0.880645990 0.275359988 0.075989000
0.056396000 0.325226009 0.048370000
0.092468001 0.331299007 0.044555999
0.132538006 0.327850014 0.041870002
0.176635996 0.322539985 0.037842002
0.225342005 0.316040009 0.031342000
0.276641995 0.309570014 0.020904999
0.331268013 0.305510998 0.007477000
0.391907007 0.306488007 0.008667000
0.454528987 0.309448004 0.016845999
0.516570985 0.312653005 0.022766000
0.577453971 0.316895008 0.029266000
0.635375977 0.320953012 0.035491999
0.690246999 0.323760986 0.042419001
0.741943002 0.324860007 0.049194001
0.790802002 0.324463010 0.056885000
0.837341011 0.323181003 0.063965000
0.883544981 0.322266012 0.071960002
0.077972002 0.389679015 0.045471001
0.115662001 0.396239996 0.044066999
0.152924001 0.392670006 0.041870002
0.195038006 0.386963010 0.037354000
0.242370993 0.380340993 0.031952001
0.293426991 0.373198986 0.024840999
0.346190989 0.366118997 0.014282000
0.402770996 0.362244010 0.008331000
0.464264005 0.363189995 0.012909000
0.525757015 0.365783989 0.020752000
0.584900022 0.368591011 0.026306000
0.642090023 0.372162014 0.032379001
0.696654975 0.375793010 0.038605001
0.747986019 0.377501994 0.045318998
0.796172976 0.377196997 0.052490000
0.841614008 0.374511987 0.059905998
0.886780024 0.372191995 0.067474000
0.101837002 0.453583002 0.043639999
0.137207001 0.459899992 0.042571999
0.172791004 0.456726015 0.040314000
0.213286996 0.451415986 0.036559999
0.258789003 0.445221007 0.031342000
0.309235007 0.438201994 0.026916999
0.362304986 0.431061000 0.021973001
0.416473001 0.424286008 0.014038000
0.473845989 0.420807004 0.010651000
0.534393013 0.421905994 0.016814999
0.593414009 0.424407989 0.024658000
0.649414003 0.426726997 0.030060001
0.703125000 0.429473996 0.035675000
0.754149973 0.431488007 0.041655999
0.801909983 0.431243986 0.048553001
0.846893013 0.428802013 0.055358998
0.891327024 0.426207989 0.062804997
0.125792995 0.519104004 0.040649001
0.159606993 0.524536014 0.039886001
0.193694994 0.521697998 0.037597999
0.232604995 0.516968012 0.034515001
0.276488990 0.511658013 0.031738002
0.325989008 0.505280018 0.028991999
0.378906012 0.498627007 0.026215000
0.433075011 0.491791010 0.021880999
0.487578988 0.485413015 0.014496000
0.543853998 0.482024997 0.012970000
0.601471007 0.482360989 0.020660000
0.656615973 0.483673006 0.028107001
0.709595025 0.485534996 0.033325002
0.760070980 0.486786008 0.039368000
0.807190001 0.485686988 0.045318998
0.851776004 0.483153999 0.051514000
0.895416021 0.480560005 0.058745999
0.150543004 0.585753977 0.037567001
0.182708994 0.589783013 0.037108999
0.215667993 0.587219000 0.036285002
0.253387004 0.583405018 0.034363002
0.296050996 0.579192996 0.033417001
0.344269007 0.574096978 0.031830002
0.396636993 0.568359017 0.030273000
0.450744987 0.562164009 0.027740000
0.504912972 0.555694997 0.022980001
0.558318973 0.549561024 0.015961001
0.611541986 0.545197010 0.015564000
0.664734006 0.543518007 0.024292000
0.716309011 0.543518007 0.031647000
0.766296029 0.544005990 0.037078999
0.812865973 0.542235970 0.042693999
0.856536984 0.538268983 0.048797999
0.899779975 0.535156012 0.055328000
0.174560994 0.650786996 0.038086001
0.205109000 0.653075993 0.038086001
0.237213001 0.651000977 0.038086001
0.273925990 0.648132026 0.037323002
0.315643013 0.644774973 0.036529999
0.362060994 0.640778005 0.035735998
0.413177013 0.636078000 0.034942999
0.466858000 0.630919993 0.033172999
0.521179020 0.625397027 0.030853000
0.574738026 0.619719982 0.025726000
0.626525998 0.613892019 0.018828999
0.676544011 0.608246028 0.018646000
0.725036979 0.603972971 0.028229000
0.773070991 0.602081001 0.035553001
0.819396973 0.600005984 0.040955000
0.862823009 0.595489979 0.046264999
0.905914009 0.591858029 0.052581999
0.196441993 0.711304009 0.042144999
0.226105005 0.713074028 0.042144999
0.257171988 0.710906982 0.042144999
0.292876989 0.708527029 0.041962001
0.333710015 0.706116021 0.041382000
0.378661990 0.703369021 0.040863000
0.428314000 0.699706972 0.040619001
0.480803996 0.695068002 0.039581001
0.533936024 0.689666986 0.037842002
0.586700022 0.684051991 0.034942999
0.638518989 0.678528011 0.028991999
0.688721001 0.673187017 0.020416001
0.736176014 0.667052984 0.020691000
0.780700982 0.660492003 0.031647000
0.824768007 0.656096995 0.038635001
0.867492974 0.651093006 0.044098001
0.909515023 0.646148980 0.050354000
0.218291998 0.771117985 0.048553001
0.246917993 0.771790028 0.048553001
0.277283013 0.769896984 0.048553001
0.312256008 0.767760992 0.047851998
0.352050990 0.765594006 0.047851998
0.396057010 0.763275027 0.047272000
0.444092005 0.760590017 0.047272000
0.495604992 0.757140994 0.047150001
0.548798025 0.753051996 0.046204001
0.601500988 0.748504996 0.044098001
0.653137028 0.743469000 0.040375002
0.703460991 0.738494992 0.031585999
0.751648009 0.733184993 0.018646000
0.795593023 0.725310981 0.025238000
0.834930003 0.714812994 0.036469001
0.874481022 0.706634998 0.043549001
0.912810981 0.697632015 0.051819000
0.234833002 0.823455989 0.055236999
0.262755990 0.823607981 0.055877998
0.292786002 0.822082996 0.055328000
0.327331990 0.820496023 0.055236999
0.366699010 0.819091976 0.055236999
0.410034001 0.817322016 0.055236999
0.456450999 0.814880013 0.055236999
0.506165028 0.811737001 0.055236999
0.558013976 0.807648003 0.054595999
0.610137999 0.803040028 0.053130999
0.661590993 0.798278987 0.050597999
0.711944997 0.793640018 0.046569999
0.760590017 0.788757026 0.037170000
0.806151986 0.781067014 0.021819999
0.844512999 0.766723990 0.032349002
0.875335991 0.747650027 0.046448000
0.906708002 0.733276010 0.055725001
0.255645990 0.879822016 0.067016996
0.284271002 0.880859017 0.068085000
0.314392000 0.879669011 0.067596003
0.348235995 0.877960026 0.067596003
0.386566013 0.875916004 0.067596003
0.428833008 0.873627007 0.067596003
0.474456996 0.871033013 0.067626998
0.522521973 0.868164003 0.067169003
0.574005008 0.863952994 0.067962997
0.626923025 0.858124018 0.068816997
0.678070009 0.851073980 0.068847999
0.727263987 0.843231022 0.067078002
0.774384022 0.834778011 0.063049003
0.819091976 0.825927973 0.050048999
0.859833002 0.815307975 0.024506001
0.890625000 0.797607005 0.046264999
0.914581001 0.776427984 0.060516000
0.282379001 0.924315989 0.083343998
0.308838010 0.924804986 0.083801001
0.337615997 0.923370004 0.084259003
0.370788991 0.921477973 0.085083000
0.408477992 0.919128001 0.085968003
0.449921012 0.916167974 0.087402001
0.494475991 0.912322998 0.088988997
0.541442990 0.907684028 0.091124997
0.589935005 0.902100027 0.093231000
0.640075982 0.895569026 0.095275998
0.690581977 0.888306022 0.096465997
0.739440978 0.880645990 0.096313000
0.786072016 0.872437000 0.093627997
0.830016971 0.863646984 0.085998997
0.871002018 0.854462028 0.067107998
0.907684028 0.843322992 0.033386000
0.932281017 0.823547006 0.061646000
0.000977000 0.013123000 0.076110996
0.023406999 0.011627000 0.072783999
0.062073000 0.010864000 0.074646004
0.116637997 0.008514000 0.067322001
0.165770993 0.018738000 0.066497996
0.213898003 0.029755000 0.067016996
0.274138987 0.033721998 0.058929000
0.339446992 0.041016001 0.050934002
0.405304015 0.052490000 0.052094001
0.472229004 0.062500000 0.059540000
0.538666010 0.070952997 0.067443997
0.602081001 0.077637002 0.074432001
0.662292004 0.083678998 0.081450999
0.719330013 0.089263998 0.088134997
0.772736013 0.093810998 0.094512999
0.823090017 0.097075999 0.101256996
0.873169005 0.099854000 0.108612001
0.004730000 0.051483002 0.074767999
0.028687000 0.052765001 0.074707001
0.062775001 0.055847000 0.072906002
0.113586001 0.058196999 0.072296001
0.164581001 0.061584000 0.069762997
0.219176993 0.064056002 0.065948002
0.277954012 0.066711001 0.058655001
0.340820014 0.073853001 0.050507002
0.406127989 0.083557002 0.050811999
0.472472996 0.092987001 0.058044001
0.538604975 0.100768998 0.065825999
0.602385998 0.107055999 0.073394999
0.662750006 0.112946004 0.080169998
0.719512999 0.117950000 0.086914003
0.772216976 0.121886998 0.093627997
0.821898997 0.124724999 0.100097999
0.872466981 0.127533004 0.107879996
0.013123000 0.099822998 0.079040997
0.036316000 0.100616001 0.079040997
0.070679002 0.101043999 0.076660000
0.115417004 0.103973001 0.075226001
0.170837000 0.104584001 0.070831001
0.226531997 0.105834998 0.066497996
0.285827994 0.108581997 0.062224999
0.349121004 0.113646999 0.051910002
0.413574010 0.120757997 0.049132999
0.479155988 0.128571004 0.056549001
0.544556022 0.135681003 0.064423002
0.607268989 0.141784996 0.071716003
0.666472971 0.146911994 0.078795999
0.722534001 0.151306003 0.085631996
0.775237978 0.154785007 0.092437997
0.824950993 0.157104000 0.099274002
0.874695003 0.159332007 0.106780998
0.019470001 0.147797003 0.083221003
0.042541999 0.149048001 0.083159998
0.079314999 0.148314998 0.081359997
0.122345001 0.148864999 0.075928003
0.178893998 0.149414003 0.070312999
0.235045999 0.151153997 0.067322001
0.293579012 0.154266000 0.064758003
0.356261998 0.157592997 0.052184999
0.419891000 0.162079006 0.046448000
0.483978003 0.168120995 0.053467002
0.548430979 0.174285993 0.061432000
0.610778987 0.180419996 0.069122002
0.669646978 0.185058996 0.075957999
0.725005984 0.188690007 0.083007999
0.776520014 0.191254005 0.089996003
0.825317025 0.192718998 0.096923999
0.875153005 0.194549993 0.104644999
0.024109000 0.205230996 0.089203000
0.054108001 0.207305998 0.089233004
0.095367000 0.205779999 0.088806003
0.138396993 0.204041004 0.079375997
0.192017004 0.200653002 0.072815001
0.248504996 0.201019004 0.067199998
0.306122005 0.202880993 0.064392000
0.367920011 0.205292001 0.050629001
0.431549013 0.209076002 0.043609999
0.494964987 0.213836998 0.050170999
0.557555974 0.218353003 0.058410998
0.618041992 0.223510996 0.065917999
0.675781012 0.228088006 0.072998002
0.729919016 0.230957001 0.080139004
0.780945003 0.232758000 0.087067001
0.829406977 0.233458996 0.094512999
0.877929986 0.234313995 0.102050997
0.035889000 0.263794005 0.092834003
0.072052002 0.267150998 0.094391003
0.107451998 0.266173989 0.086852998
0.153564006 0.262176991 0.080536000
0.205626994 0.256621987 0.075011998
0.259398997 0.252411008 0.067047000
0.317229986 0.252716005 0.061767999
0.378479004 0.254424989 0.047974002
0.440917999 0.256958008 0.040801998
0.503265023 0.260834008 0.046813998
0.565093994 0.265471995 0.054260001
0.624786019 0.270141989 0.062103000
0.681702018 0.274199992 0.069243997
0.734984994 0.276917011 0.076355003
0.784636974 0.277312994 0.083466001
0.831848025 0.276854992 0.090607002
0.879912972 0.277130008 0.098693997
0.055328000 0.326873988 0.094573997
0.088561997 0.333099008 0.090057001
0.125976995 0.330444008 0.084564000
0.172211006 0.325011998 0.080779999
0.222167999 0.318268001 0.075714000
0.274352998 0.311309993 0.067657001
0.329407007 0.306885004 0.058288999
0.390320003 0.307036996 0.044617001
0.452758998 0.309051991 0.038483001
0.514069021 0.311829001 0.044342000
0.574554026 0.315551996 0.051543999
0.632903993 0.319793999 0.058440998
0.688781977 0.324036002 0.065307997
0.741638005 0.327118009 0.072356999
0.790466011 0.326660007 0.079314999
0.836974978 0.325103998 0.087035999
0.883575022 0.323974997 0.095000997
0.074432001 0.391631991 0.088592999
0.108978003 0.398528993 0.085114002
0.147948995 0.394897014 0.083282001
0.191437006 0.389160007 0.079650998
0.239288002 0.382384986 0.074738003
0.291168004 0.374877989 0.067749001
0.344603986 0.367431998 0.057739001
0.401520014 0.362884998 0.039825000
0.462585002 0.362884998 0.035186999
0.523559988 0.364989996 0.042969000
0.582642019 0.367615014 0.049316000
0.640075982 0.371062994 0.055388998
0.695250988 0.375122011 0.061767999
0.747466981 0.378448009 0.068328999
0.795867980 0.378722996 0.075378001
0.841309011 0.375977010 0.082549997
0.886963010 0.373688012 0.090607002
0.096740998 0.456360012 0.083038002
0.133178994 0.462707996 0.083282001
0.169433996 0.459594995 0.081055000
0.210571006 0.454254001 0.077789001
0.256621987 0.447937012 0.072967999
0.307891995 0.440643013 0.066223003
0.361602992 0.433014005 0.056731999
0.416137993 0.425659001 0.041138001
0.473174989 0.421447992 0.032958999
0.533020020 0.421783000 0.039184999
0.591766000 0.423828006 0.047699001
0.647979975 0.426086009 0.053314000
0.702086985 0.428833008 0.059021000
0.753632009 0.431457996 0.065186001
0.801849008 0.432556003 0.071625002
0.846801996 0.429931998 0.078368999
0.891723990 0.427612007 0.086121000
0.122680999 0.521697998 0.080352999
0.157012999 0.527770996 0.079865001
0.191588998 0.525207996 0.078002997
0.231140003 0.520447016 0.074646004
0.275604010 0.514984012 0.069701999
0.325592011 0.508331001 0.063323997
0.378998011 0.501128972 0.054931998
0.433349997 0.493743986 0.046142999
0.487639993 0.486786008 0.037597999
0.543488026 0.482665986 0.035675000
0.600646973 0.482452005 0.043701001
0.655762017 0.483489990 0.051360998
0.708922982 0.485228986 0.056731999
0.759705007 0.486633003 0.062469002
0.807403982 0.486786008 0.068480998
0.851958990 0.484192014 0.074920997
0.896179020 0.482055992 0.082061999
0.148285002 0.588195980 0.075378001
0.181182995 0.593047976 0.074920997
0.214569002 0.590851009 0.072936997
0.252777010 0.586974978 0.069426998
0.296050996 0.582520008 0.064758003
0.344482005 0.577086985 0.059753001
0.396789998 0.570770025 0.054474000
0.450774997 0.564055979 0.050659001
0.504669011 0.557067990 0.046356000
0.557860970 0.550384998 0.039978001
0.611052990 0.545624018 0.038849000
0.664153993 0.543700993 0.047058001
0.715880990 0.543549001 0.054839998
0.765960991 0.543914974 0.060302999
0.812927008 0.542877018 0.065796003
0.856781006 0.539124012 0.071929999
0.900574028 0.536437988 0.078521997
0.173737004 0.653411984 0.068695001
0.204803005 0.656463981 0.068359002
0.237426996 0.654694021 0.066803001
0.274506003 0.651732981 0.064452998
0.316437006 0.648223996 0.061248999
0.362823009 0.644011974 0.059326001
0.413971007 0.639038026 0.057953000
0.467467993 0.633391976 0.056609999
0.521515012 0.627288997 0.054138001
0.574768007 0.621002018 0.049316000
0.626434028 0.614715993 0.042693999
0.676299989 0.608734012 0.041779000
0.724792004 0.604278982 0.051116999
0.773041010 0.602294981 0.058410998
0.819793999 0.600646973 0.064148001
0.863463998 0.596526980 0.069550000
0.906859994 0.593109012 0.075928003
0.196106002 0.713531017 0.065398999
0.226439998 0.715880990 0.065459996
0.257903993 0.714325011 0.065063000
0.293884009 0.711944997 0.064879999
0.334625006 0.709258974 0.064484000
0.379242003 0.706085026 0.064484000
0.428557992 0.701843023 0.063933998
0.480713010 0.696716011 0.063231997
0.533752024 0.691039979 0.061370999
0.586486995 0.685088992 0.058288999
0.638427973 0.679443002 0.052643001
0.688721001 0.673981011 0.044220001
0.736236989 0.667632997 0.043761998
0.780669987 0.660889030 0.055206001
0.824981987 0.656615973 0.061951000
0.867888987 0.651794016 0.067566000
0.910309017 0.647156000 0.073608004
0.217925996 0.773010015 0.071960002
0.246917993 0.774109006 0.072052002
0.277709991 0.772583008 0.071960002
0.312866002 0.770630002 0.071960002
0.352782995 0.768494010 0.071563996
0.396728992 0.765960991 0.071471997
0.444579989 0.762938976 0.071442001
0.495911002 0.759186029 0.070952997
0.548798025 0.754607975 0.069733001
0.601348996 0.749572992 0.067596003
0.652893007 0.744292974 0.064208999
0.703247011 0.739104986 0.055603001
0.751677990 0.733703971 0.043274000
0.795836985 0.725830019 0.048583999
0.835448980 0.715515018 0.059540000
0.875213981 0.707520008 0.066315003
0.913695991 0.698669016 0.072632000
0.233887002 0.825012028 0.079437003
0.262603998 0.825866997 0.079529002
0.293090999 0.824706972 0.079498000
0.327758998 0.823212028 0.079437003
0.366943002 0.821502984 0.079437003
0.410126001 0.819365978 0.079437003
0.456450999 0.816619992 0.079040997
0.505919993 0.813080013 0.078948997
0.557648003 0.808776975 0.078308001
0.609893978 0.804015994 0.076874003
0.661499023 0.799163997 0.074309997
0.712067008 0.794434011 0.070251003
0.760985970 0.789458990 0.059845001
0.806702018 0.781615973 0.043182001
0.844878972 0.767120004 0.051757999
0.875732005 0.748108029 0.063721001
0.907288015 0.733947992 0.071319997
0.254332989 0.880890012 0.090728998
0.283264011 0.882080019 0.091553003
0.313477010 0.881012022 0.091582999
0.347564995 0.879424989 0.091187000
0.385895014 0.877440989 0.091187000
0.428314000 0.875122011 0.091187000
0.474059999 0.872437000 0.091187000
0.522033989 0.869385004 0.090942003
0.573333979 0.864960015 0.091003001
0.626648009 0.858794987 0.090820000
0.678345025 0.851471007 0.089417003
0.727630973 0.843536019 0.086273000
0.774719000 0.835114002 0.080658004
0.819365978 0.826263011 0.065825999
0.860198975 0.815674007 0.038910002
0.891234994 0.798247993 0.057831001
0.915314019 0.777161002 0.070800997
0.281372011 0.925231993 0.104919001
0.308380008 0.926024973 0.105651997
0.338043004 0.924744010 0.105988003
0.371367991 0.922760010 0.106049001
0.408904999 0.920319021 0.106780998
0.450195014 0.917145014 0.107422002
0.494780988 0.913177013 0.108276002
0.541565001 0.908356011 0.109222002
0.589995980 0.902679026 0.110290997
0.640197992 0.896117985 0.111023001
0.690765023 0.888885021 0.111236997
0.739562988 0.881103992 0.109618999
0.786194026 0.872833014 0.105469003
0.830138981 0.864014030 0.096344002
0.871002018 0.854645014 0.075622998
0.907775998 0.843414009 0.039459001
0.932372987 0.823729992 0.065582000
0.000000000 0.030151000 0.131714001
0.023102000 0.024139000 0.129730001
0.050232001 0.023254000 0.128845006
0.113280997 0.019470001 0.126739994
0.170196995 0.017242000 0.117614999
0.220154002 0.024536001 0.113586001
0.272094995 0.037964001 0.114745997
0.328978986 0.050934002 0.117614999
0.390197992 0.060883000 0.120056003
0.461333990 0.065002002 0.117950000
0.538085997 0.066771999 0.108489998
0.605408013 0.074371003 0.099792004
0.663695991 0.086333998 0.101685002
0.720275998 0.096527003 0.108916998
0.773804009 0.103271000 0.116272002
0.824005008 0.105103001 0.123443998
0.873778999 0.106536999 0.131104007
0.003845000 0.066132002 0.130646005
0.024840999 0.065094002 0.131409004
0.053925000 0.062987998 0.128784001
0.111389004 0.062408000 0.128754005
0.167754993 0.062927000 0.120940998
0.219299003 0.068604000 0.118346997
0.272704989 0.075653002 0.118500002
0.329558998 0.083740003 0.119323999
0.395020008 0.089325003 0.118408002
0.468506008 0.091461003 0.114136003
0.540497005 0.095275998 0.106261998
0.604735970 0.103912003 0.098999001
0.663788021 0.115143001 0.100922003
0.720245004 0.124420002 0.108153999
0.773163021 0.130614996 0.115234002
0.822570980 0.132323995 0.122161999
0.872986019 0.133789003 0.130218998
0.012329000 0.108978003 0.134064004
0.034790002 0.109008998 0.133819997
0.064971998 0.108032003 0.131835997
0.114899002 0.109710999 0.126099005
0.169066995 0.110168003 0.126739994
0.223418996 0.112732001 0.124785997
0.280120999 0.116210997 0.122253001
0.343353003 0.118835002 0.118500002
0.411193997 0.121521004 0.114655003
0.479584008 0.125366002 0.111846998
0.545958996 0.130980998 0.105742998
0.608520985 0.138885006 0.097870000
0.666747987 0.148528993 0.099426001
0.723174989 0.156646997 0.107055999
0.776367009 0.162719995 0.114501998
0.825866997 0.164336994 0.121521004
0.875335991 0.165282995 0.129302993
0.017212000 0.153167993 0.133118004
0.039641999 0.154633000 0.134460002
0.075011998 0.154845998 0.133910999
0.122955002 0.154479995 0.130280003
0.168975994 0.157288000 0.128204003
0.228820994 0.158050999 0.124877997
0.290313989 0.158996999 0.121551998
0.352692008 0.160492003 0.117279001
0.417328000 0.162810996 0.113342002
0.482910007 0.166320994 0.111206003
0.548370004 0.170990005 0.104461998
0.611083984 0.177521005 0.095183998
0.669616997 0.185546994 0.097136997
0.725281000 0.192596003 0.104584001
0.777435005 0.197723001 0.112213001
0.826171994 0.199004993 0.119292997
0.875823975 0.199768007 0.127196997
0.021880999 0.209685996 0.139800996
0.049805000 0.212097004 0.140717000
0.091063999 0.211028993 0.139191002
0.138306007 0.208191007 0.138091996
0.183289006 0.207092002 0.130096003
0.242126003 0.206207007 0.123443998
0.302551001 0.206604004 0.120269999
0.363586009 0.208405003 0.116791002
0.427367985 0.210723996 0.113280997
0.492096007 0.213226005 0.110535003
0.556334972 0.216370001 0.101989999
0.617828012 0.221129999 0.091522001
0.674987972 0.227477998 0.093902998
0.730010986 0.233275995 0.101958998
0.781921029 0.237822995 0.109741002
0.830413997 0.238983005 0.116974004
