public/lut/12.cube
TITLE "17x17x17 Adobe/IRIDAS cube 3D LUT exported with GrossGrade v0.2.2 (beta) 64 bit"
DOMAIN_MIN 0 0 0
DOMAIN_MAX 1 1 1
LUT_3D_SIZE 17
0.036274001 0.041758999 0.043264002
0.046618499 0.043958686 0.043264002
0.066597253 0.044737998 0.038837124
0.093564942 0.048163123 0.036421940
0.124989495 0.051519498 0.033514250
0.158086315 0.054093748 0.030754000
0.189673766 0.056586001 0.027107500
0.221104145 0.058053002 0.023558935
0.249812007 0.059868000 0.020897498
0.277226388 0.061312813 0.018580813
0.304365873 0.061861999 0.016264124
0.330941051 0.061643001 0.013159438
0.355194271 0.062806003 0.011631750
0.374576718 0.064521000 0.011829000
0.389820367 0.064449996 0.011927502
0.401499897 0.062190495 0.012617000
0.406816006 0.059868000 0.012617000
0.043864623 0.056499127 0.050219625
0.054562185 0.060118373 0.054090314
0.079317376 0.062938377 0.048292313
0.115340754 0.066261001 0.042562187
0.153921947 0.070980750 0.038147688
0.193565696 0.074963056 0.032726251
0.231350765 0.078329630 0.028142123
0.267279178 0.080846690 0.023509623
0.300316125 0.083353497 0.019320000
0.329779834 0.085996874 0.016264124
0.357334018 0.087364063 0.013159376
0.383268178 0.087972812 0.010054062
0.405732930 0.089200556 0.008920562
0.423901975 0.090069562 0.009512251
0.440151662 0.089935251 0.010300312
0.450906545 0.086894125 0.011040000
0.452257484 0.081994310 0.011829000
0.046891998 0.075462751 0.054854125
0.055955440 0.078840181 0.058392189
0.090773255 0.088585123 0.060832374
0.131332517 0.093357377 0.053445622
0.180134371 0.100070506 0.046978373
0.227278426 0.105043881 0.040407624
0.270731658 0.109670371 0.034204621
0.313306808 0.113532066 0.027206184
0.350798905 0.117108375 0.021587498
0.381785065 0.120454811 0.018383687
0.410329640 0.122142501 0.014588499
0.437906802 0.122287057 0.009906249
0.463574380 0.122266874 0.006407501
0.481142223 0.122495055 0.007343564
0.494948745 0.120924003 0.007984500
0.507250071 0.117966875 0.008772626
0.508647859 0.111516498 0.009561500
0.044142436 0.095047571 0.059039377
0.051556621 0.099200256 0.059679437
0.085766509 0.111961879 0.062696628
0.146174997 0.125919387 0.068212315
0.197639450 0.133184642 0.062976383
0.256666869 0.140667275 0.053600691
0.308389753 0.147726133 0.045589563
0.354676425 0.153107449 0.038295314
0.395716816 0.157168955 0.030951438
0.430410564 0.160865322 0.026023190
0.461279690 0.163381696 0.021686066
0.489394754 0.163487136 0.015869815
0.516367257 0.162498519 0.010202126
0.540737152 0.159993649 0.005224124
0.555764079 0.157049134 0.005667937
0.566908181 0.152546450 0.006506001
0.567186415 0.145025879 0.007244937
0.037457250 0.111845002 0.060314998
0.044272624 0.115873814 0.060389187
0.081137247 0.133863509 0.067577377
0.143463075 0.157542124 0.062804632
0.214676261 0.172711000 0.079086743
0.275043696 0.180645883 0.073027372
0.336180747 0.189840764 0.063656621
0.391072154 0.197233200 0.054281432
0.436148018 0.201989248 0.045446500
0.472960562 0.205680564 0.038886502
0.506552994 0.209417760 0.034697127
0.538078666 0.211019993 0.028240876
0.567077756 0.209584504 0.020108750
0.592718661 0.205578253 0.012962054
0.617257893 0.198975623 0.005717245
0.631782353 0.192196637 0.003943000
0.630178750 0.182108998 0.005520000
0.033366561 0.127032995 0.059868000
0.037901126 0.131064683 0.058205254
0.070005998 0.150827885 0.066166252
0.129358381 0.179882377 0.061895687
0.212868690 0.207068741 0.069125749
0.290950686 0.223701939 0.089369871
0.352974355 0.231477052 0.083616622
0.413448453 0.240204692 0.073380299
0.468696117 0.248225808 0.064505190
0.510264516 0.253045559 0.056913499
0.545314133 0.256774485 0.050787497
0.579103291 0.259147257 0.044348188
0.612474144 0.259529829 0.037013561
0.641335666 0.255846113 0.028191555
0.665797710 0.247376502 0.018728491
0.689372063 0.238546297 0.010448929
0.699053228 0.224269748 0.003696437
0.032331999 0.141644388 0.059266999
0.034894310 0.144915506 0.056820001
0.059205748 0.167484373 0.063380376
0.120166883 0.199019462 0.062547624
0.204680756 0.232752264 0.057200998
0.296241909 0.258454502 0.075441368
0.367631912 0.273918390 0.098013379
0.427929997 0.282394528 0.094659559
0.485666275 0.289958388 0.084643126
0.538167536 0.297693342 0.077406064
0.578609228 0.302899271 0.071226254
0.613606274 0.305395395 0.064488009
0.647466362 0.305753648 0.057324380
0.680638433 0.304117590 0.049926560
0.709743261 0.296949029 0.039016750
0.733628154 0.286851943 0.028832061
0.750526249 0.272502542 0.020010006
0.032331999 0.157556817 0.059868000
0.034598436 0.159810185 0.056858689
0.054411124 0.183959633 0.061165437
0.111800753 0.216264009 0.064022496
0.197966442 0.257198125 0.049565062
0.300167054 0.287617743 0.061634306
0.386183381 0.310936004 0.085693620
0.444143951 0.323398441 0.108269565
0.500083506 0.330003142 0.105139822
0.552208662 0.335348785 0.096705385
0.600601017 0.342929393 0.091753252
0.641226590 0.348725230 0.087299503
0.675346434 0.349841833 0.080314018
0.708531678 0.347991168 0.071538001
0.743741751 0.343170524 0.062835135
0.772318542 0.333525300 0.052527566
0.790758014 0.318548292 0.041313075
0.033119999 0.172959000 0.060166001
0.034598436 0.174511626 0.056273688
0.051732123 0.199251771 0.060314372
0.102252133 0.230402127 0.064590752
0.186405003 0.276097476 0.051500998
0.300733358 0.312900990 0.051210374
0.404355884 0.341845989 0.072340503
0.466338903 0.358233958 0.095816001
0.516198993 0.368681520 0.117221504
0.566085398 0.374523818 0.116712190
0.613236606 0.378713012 0.110013887
0.658537507 0.385787010 0.106468439
0.698750734 0.391875744 0.104326248
0.733977318 0.391771197 0.097636312
0.770073593 0.386118770 0.086589620
0.804836929 0.379176438 0.078910500
0.826277494 0.360541016 0.066138014
0.033909000 0.186518252 0.060463998
0.034647752 0.187649131 0.056585688
0.048866190 0.212923869 0.059792876
0.096315205 0.244902268 0.064094432
0.178949311 0.291908681 0.053619999
0.292658746 0.334746122 0.045364626
0.410748959 0.367374569 0.064235821
0.490819156 0.390248299 0.088452064
0.540261269 0.401975095 0.109941751
0.582143009 0.409658045 0.127017125
0.625799835 0.414042622 0.126658991
0.670125484 0.418755740 0.123042688
0.714006424 0.426278442 0.123261370
0.755709052 0.432366729 0.123676427
0.793031335 0.428086758 0.112763293
0.828274250 0.418075562 0.099261127
0.857949078 0.402106375 0.094907813
0.034697000 0.199080989 0.061861999
0.035436690 0.198908314 0.057129186
0.047571752 0.224520117 0.060016375
0.094995826 0.260356516 0.064626001
0.175927505 0.306893378 0.054660376
0.286945999 0.353488564 0.040702626
0.407495022 0.388483256 0.059144758
0.509083450 0.417243540 0.086903445
0.566804469 0.432207227 0.107765123
0.607318938 0.440437049 0.125128999
0.641398609 0.446278036 0.139408618
0.680966794 0.450903565 0.139659375
0.724049747 0.455729008 0.137536243
0.767644942 0.463350117 0.141116366
0.813137293 0.468653619 0.141062990
0.850110054 0.459459186 0.126669481
0.884645402 0.447396249 0.131959498
0.035732251 0.212887317 0.064130500
0.036224753 0.211592495 0.059529625
0.047571752 0.237184927 0.060982000
0.095082507 0.275400609 0.065992564
0.176374182 0.322228193 0.056184936
0.287973434 0.371870250 0.038886562
0.407382697 0.408228189 0.055911697
0.515868545 0.439086050 0.084870204
0.588994563 0.459646195 0.111067824
0.633104801 0.469834417 0.129679620
0.667533398 0.475911796 0.142924443
0.694754422 0.479891300 0.151389867
0.732553482 0.483608454 0.150345430
0.777803302 0.491244733 0.153422311
0.827430964 0.502482176 0.162682936
0.869305611 0.502533555 0.159117669
0.904593468 0.495926052 0.176763251
0.037062999 0.226642013 0.067441747
0.037062999 0.225498736 0.062659122
0.048961002 0.249448493 0.062804624
0.093405955 0.287477195 0.067678124
0.177455753 0.336805761 0.061756250
0.293034494 0.389398068 0.038685687
0.412451893 0.426874131 0.054159008
0.515120387 0.457593977 0.082497641
0.601975262 0.484308481 0.116315261
0.656076074 0.497893929 0.138000697
0.691552639 0.505484402 0.151867881
0.719235182 0.509380102 0.158093497
0.745148778 0.512823284 0.164130002
0.786890149 0.519834280 0.166893393
0.836378932 0.528564572 0.172039762
0.882790506 0.541983783 0.187409699
0.921885490 0.548922777 0.229518265
0.038787942 0.240974203 0.070730068
0.038787942 0.238434896 0.065467380
0.050997876 0.262541175 0.065609626
0.094656713 0.300994664 0.071054757
0.181765571 0.352291852 0.067754321
0.299347937 0.407272577 0.043801568
0.417767584 0.446826845 0.057759386
0.519195437 0.478363216 0.086290210
0.607812166 0.506444812 0.120541960
0.673426390 0.525727093 0.147997200
0.713041723 0.535410881 0.164130956
0.743410110 0.541772842 0.175280318
0.770841122 0.544824123 0.179298505
0.796564043 0.546789527 0.179850832
0.842933595 0.554512382 0.181700841
0.890361190 0.570580959 0.198547900
0.933911026 0.598032951 0.273622811
0.042702131 0.260369152 0.074789628
0.042702131 0.259067923 0.070794947
0.054433629 0.278485030 0.069532007
0.100567468 0.318000019 0.076532006
0.186384261 0.367489010 0.072799377
0.302681327 0.424106538 0.051330011
0.418748409 0.466811538 0.063074395
0.523481250 0.500879765 0.093850218
0.615210831 0.530045033 0.128741130
0.683360696 0.552315772 0.156370133
0.731007993 0.566775799 0.178129509
0.765854061 0.576476455 0.195340648
0.795834720 0.581192017 0.200158417
0.825319529 0.582493365 0.196251273
0.852171898 0.584657550 0.195425645
0.896992266 0.598399341 0.206282094
0.942701876 0.645701408 0.313093781
0.051889047 0.288452357 0.079102017
0.051889047 0.287280351 0.076228335
0.062884361 0.299187124 0.072589457
0.111479744 0.337538809 0.082409702
0.193963349 0.384893656 0.078813024
0.304117590 0.442143053 0.060627781
0.420238525 0.487907469 0.068640657
0.524571002 0.523694336 0.100372538
0.611398220 0.553448737 0.135056779
0.684618533 0.578596413 0.167677969
0.746389925 0.600215554 0.194489107
0.786269605 0.612502813 0.209330350
0.820140839 0.622394502 0.222094074
0.850776613 0.626755178 0.222963601
0.879805267 0.627323329 0.216680601
0.905720174 0.629240513 0.214634806
0.947222650 0.690362573 0.350158960
0.369502008 0.504468977 0.253995001
0.370986193 0.505225599 0.253995001
0.378181875 0.509095609 0.254873365
0.394786626 0.518074691 0.258962244
0.426038742 0.535781503 0.271516502
0.464584440 0.556943417 0.286099434
0.509834170 0.580781221 0.305133492
0.558968484 0.605253816 0.333491653
0.614233017 0.632763982 0.367302537
0.670352101 0.661233842 0.398954183
0.723686218 0.685238361 0.420658499
0.770102262 0.698967874 0.418531567
0.817648768 0.713600993 0.416316241
0.865223467 0.728027225 0.408748955
0.901503146 0.737448096 0.407857239
0.926961184 0.745370626 0.425461590
0.943166018 0.757125974 0.464760005
0.035535250 0.044004999 0.050219625
0.044551812 0.044692185 0.051517189
0.063252993 0.044783309 0.050261624
0.089937694 0.046803124 0.046711560
0.120282501 0.049497999 0.043308876
0.151983008 0.052181751 0.040263437
0.182205632 0.054295000 0.036421999
0.213047206 0.055960499 0.033267997
0.241700754 0.057129502 0.030162875
0.267920107 0.057746001 0.027452124
0.293767452 0.057822749 0.024790687
0.318581432 0.056625001 0.021685874
0.342139393 0.055607248 0.018580874
0.363771290 0.055131752 0.015672436
0.379698753 0.054374561 0.014835061
0.389338791 0.052427433 0.014933688
0.391089380 0.050431624 0.014933688
0.040167749 0.055325374 0.060712997
0.054604936 0.065768562 0.066840179
0.083297938 0.068980813 0.064822316
0.122951396 0.070940003 0.055475622
0.162576944 0.074109189 0.049020439
0.204349011 0.077381067 0.043442063
0.243503571 0.080221057 0.037950378
0.278001368 0.082658812 0.034056626
0.309793323 0.084044874 0.030162875
0.339524508 0.085381187 0.026269626
0.365393192 0.087145187 0.023953000
0.389360309 0.087865375 0.021636624
0.412688196 0.086339936 0.017545624
0.431500584 0.083392747 0.013356687
0.442443371 0.081622384 0.012617000
0.449525595 0.078795627 0.012666316
0.447357386 0.073387809 0.013406000
0.046091251 0.076888002 0.067358747
0.054809876 0.084713183 0.070052937
0.092417248 0.097046249 0.078052811
0.138551384 0.100525245 0.067452058
0.190031752 0.105614185 0.059585374
0.239148125 0.109345123 0.051789500
0.283734858 0.112802126 0.044721127
0.324145108 0.116397880 0.039280932
0.359594494 0.118495189 0.033859499
0.389464617 0.119291566 0.029226501
0.416470289 0.120930061 0.025382124
0.441854358 0.121408254 0.021587312
0.466176838 0.119633436 0.016708061
0.485079944 0.115107238 0.011582436
0.495828450 0.110899255 0.010300312
0.502725542 0.107340440 0.011089313
0.501785278 0.101018682 0.011089313
0.043264002 0.097979009 0.070519194
0.046977937 0.102273323 0.068080746
0.077855125 0.113648258 0.074553996
0.147277951 0.133770645 0.081827439
0.205229640 0.140728086 0.075485818
0.265203983 0.146991566 0.065412380
0.319396228 0.152738452 0.057104688
0.363763154 0.157264382 0.050234623
0.403210729 0.160219371 0.042725626
0.438164383 0.161568001 0.035239253
0.467738628 0.163008139 0.030655690
0.493016303 0.162571400 0.025727315
0.518331647 0.159566820 0.018531375
0.541581213 0.154193640 0.010497872
0.556452274 0.147783130 0.007195625
0.562326610 0.142602772 0.008674000
0.562103510 0.136411145 0.008772626
0.038196940 0.118057191 0.073634252
0.040456880 0.119418629 0.069195941
0.071374565 0.133863449 0.073288865
0.133588195 0.159200370 0.074811123
0.217484891 0.179404557 0.092340618
0.281244010 0.186725259 0.085678935
0.344352126 0.194916084 0.075791053
0.397977352 0.201749951 0.067746937
0.442014754 0.205271438 0.058844749
0.478807807 0.206497386 0.049713310
0.511875033 0.209219128 0.043922313
0.541630447 0.210209936 0.038048752
0.568975687 0.207487375 0.029473063
0.593393445 0.200364381 0.018284928
0.616510570 0.191240549 0.007984057
0.626655996 0.182593703 0.005667937
0.625711441 0.173307702 0.006456750
0.034647752 0.135071442 0.073345438
0.035633691 0.135736749 0.068385437
0.058993749 0.150067002 0.070262060
0.118968070 0.178555012 0.074688494
0.203228578 0.209305063 0.077038758
0.292349458 0.230147496 0.102195881
0.357618660 0.237194553 0.096790500
0.417720169 0.245039821 0.086960442
0.472572893 0.252485514 0.079146937
0.514921606 0.255442619 0.069249809
0.549151063 0.257405311 0.061298560
0.581609368 0.258662432 0.054535873
0.614263237 0.258195698 0.046441749
0.642498672 0.252262741 0.034549490
0.665930271 0.241378784 0.021143865
0.686999559 0.229037493 0.009906491
0.695033431 0.216034010 0.004435437
0.033317309 0.150246501 0.072186001
0.034105942 0.150330871 0.067023814
0.049934439 0.165355891 0.067641437
0.109151259 0.195342347 0.073802866
0.191085562 0.232305124 0.065108180
0.287649393 0.260807753 0.083864555
0.368841380 0.279456794 0.110469252
0.430328816 0.287370414 0.108750433
0.487804055 0.294338375 0.099067882
0.540444613 0.301072210 0.090983562
0.581258357 0.305184573 0.083662137
0.615468085 0.306123078 0.075772315
0.648602128 0.305395633 0.066467322
0.682032883 0.302596271 0.056959931
0.710381866 0.293561608 0.043338556
0.731861711 0.278694093 0.027797375
0.748538136 0.265000790 0.018728506
0.033810437 0.167172387 0.073504493
0.033859689 0.165654436 0.067059815
0.047130752 0.180221066 0.065571934
0.100429505 0.212600395 0.073161185
0.185190141 0.255171120 0.061445057
0.287646830 0.287348360 0.069179058
0.380567700 0.313263148 0.095696501
0.444864154 0.327271342 0.120476313
0.501017988 0.333678037 0.118536562
0.553293049 0.338792771 0.109880947
0.601984560 0.345978022 0.104505941
0.642449081 0.350500613 0.098612197
0.677026927 0.350658774 0.089277700
0.710122287 0.347982675 0.079410940
0.745627284 0.341861337 0.067902490
0.771858156 0.327690065 0.051826004
0.789415359 0.311149836 0.040551074
0.034303002 0.183142319 0.074204057
0.034647752 0.180853009 0.067095496
0.045123626 0.194697261 0.064445436
0.090859637 0.227055877 0.071019441
0.173600003 0.272278041 0.064252935
0.287562132 0.312104046 0.057988681
0.393629372 0.341992855 0.080165565
0.463556767 0.360937893 0.106347263
0.516475022 0.372161776 0.129125938
0.566419125 0.377508402 0.128253937
0.613571048 0.381383896 0.121423818
0.659145951 0.387781590 0.116807006
0.700230479 0.393495917 0.112908185
0.735644042 0.392417282 0.104470059
0.771552086 0.385975838 0.091697425
0.806241512 0.375737339 0.078880496
0.825235844 0.355310619 0.065848507
0.035042189 0.196821511 0.073763870
0.035042189 0.194644377 0.067643806
0.043481503 0.208274752 0.063985445
0.085767202 0.241822004 0.069564313
0.166246936 0.287408352 0.066357121
0.279263854 0.333776444 0.053636938
0.397932291 0.367119521 0.072630636
0.485788405 0.392185748 0.098617822
0.538697839 0.404527962 0.120512567
0.581401348 0.412351608 0.137696058
0.625617743 0.416449159 0.137130633
0.670205832 0.420409471 0.132180318
0.715002835 0.427530050 0.130969122
0.756705225 0.433202326 0.129891247
0.794252932 0.428301543 0.117648050
0.829648793 0.416594177 0.100994803
0.857863605 0.399319559 0.095636189
0.035781503 0.208735377 0.073987499
0.035486002 0.206213564 0.068222247
0.043062437 0.219361559 0.063664064
0.084599011 0.256829053 0.069763064
0.164573520 0.302149713 0.066316873
0.275872856 0.352755427 0.049999688
0.395278871 0.388199329 0.067920707
0.501710474 0.418495506 0.097023696
0.564296365 0.434632570 0.118231811
0.605141699 0.442763269 0.134961873
0.640334964 0.448595434 0.148621991
0.680741608 0.452412367 0.147394866
0.723919630 0.456174314 0.143659115
0.768451810 0.463964641 0.146268949
0.814272404 0.469278753 0.145521864
0.851206243 0.459633231 0.129969671
0.884871662 0.447526991 0.136001125
0.037013687 0.220912248 0.075001746
0.036274001 0.217296943 0.069334693
0.044221438 0.231286690 0.064233944
0.084336385 0.270522684 0.070457757
0.166572124 0.318066359 0.068232685
0.279689133 0.371081203 0.047708496
0.396819025 0.407624036 0.064352199
0.505085170 0.438890398 0.093921199
0.585775614 0.461623132 0.121098630
0.631077170 0.471818686 0.138696760
0.665380478 0.477627248 0.150917381
0.693519235 0.481217444 0.157973871
0.731949151 0.484517485 0.155875504
0.778349578 0.492108047 0.158500180
0.828418612 0.503149569 0.166546941
0.869872570 0.502880931 0.162228614
0.904786229 0.496812880 0.180930868
0.037260249 0.232083812 0.076467872
0.037260249 0.229441941 0.071188129
0.045627750 0.243693680 0.065047570
0.084481083 0.283460349 0.071739018
0.168693498 0.333040982 0.072440811
0.285226077 0.388182938 0.047531623
0.402785689 0.426166415 0.061313756
0.504653573 0.456907183 0.089783952
0.596596837 0.484988391 0.124026380
0.654003561 0.499551624 0.146112576
0.689562261 0.507050693 0.158729315
0.717854619 0.510894954 0.164382085
0.744351327 0.514325976 0.169941321
0.786931336 0.520449996 0.170786187
0.836964309 0.528982937 0.175052196
0.883401155 0.542616248 0.190381318
0.922151208 0.549573720 0.232284635
0.039527442 0.246913016 0.078946128
0.040167753 0.245859087 0.074663065
0.047277506 0.256203413 0.066892132
0.087608702 0.297845662 0.074371941
0.173484072 0.348559588 0.076961443
0.292593658 0.405877113 0.052281879
0.409751058 0.446323305 0.063552327
0.510165930 0.477700025 0.092415586
0.601880074 0.506630003 0.126889706
0.670287788 0.526873887 0.154563308
0.711418629 0.536806345 0.170262828
0.742179871 0.543259561 0.181038946
0.769917130 0.546083033 0.184082016
0.796311140 0.547635317 0.183007881
0.843330562 0.555238187 0.184196964
0.890988767 0.571302354 0.200804964
0.934026718 0.598380566 0.274788618
0.042702135 0.265018672 0.081416324
0.044230692 0.265174508 0.078311324
0.051959753 0.274666637 0.072000824
0.095061526 0.315408170 0.078882575
0.179807335 0.363953978 0.079667807
0.294789821 0.421909213 0.059014134
0.413143963 0.466661930 0.068735458
0.518675029 0.501142502 0.100125894
0.608671129 0.529944956 0.134350017
0.678457260 0.552602232 0.162177891
0.729162514 0.567972660 0.183213204
0.764766634 0.577641368 0.199733272
0.795097947 0.582385719 0.204007596
0.824934244 0.583572090 0.199436709
0.852292120 0.585325778 0.197547704
0.897470117 0.598812401 0.207532838
0.942801595 0.646111548 0.314226538
0.051967930 0.291490197 0.084115766
0.053882748 0.291663080 0.081450649
0.061173119 0.296211064 0.073711589
0.107106559 0.335604548 0.084107764
0.188754424 0.381979614 0.084165387
0.297311038 0.439981163 0.066908345
0.414633691 0.487454772 0.073174782
0.520853758 0.523965776 0.105369858
0.606948793 0.553503454 0.139968842
0.680252314 0.578708768 0.172298089
0.743592441 0.600812495 0.199171603
0.785133064 0.613459587 0.213087589
0.819479883 0.623350620 0.225078970
0.850400329 0.627610624 0.225561798
0.879946887 0.628161013 0.218542606
0.906072438 0.629664421 0.215493560
0.947193563 0.690572202 0.350861877
0.369886011 0.505046904 0.255886555
0.371189117 0.505742550 0.255886555
0.378251493 0.509345591 0.256433308
0.394079655 0.517885804 0.259876192
0.425719947 0.535882175 0.272852302
0.463781387 0.556839585 0.287092179
0.509115994 0.580841899 0.306170821
0.558231294 0.605298698 0.334156632
0.613792658 0.633048296 0.368471324
0.669929504 0.661473036 0.400043249
0.723178923 0.685447514 0.421542555
0.769735992 0.699413776 0.420021474
0.817226887 0.713937640 0.417733073
0.865002334 0.728362918 0.410034835
0.901385188 0.737878859 0.409162670
0.926868498 0.745666802 0.426463842
0.943108022 0.757246852 0.465207487
0.032430500 0.044737998 0.059564374
0.041660689 0.045372374 0.060680624
0.058196001 0.048118751 0.062438753
0.084277816 0.049497128 0.064013876
0.119530126 0.050092749 0.059630875
0.152572945 0.052797314 0.055831876
0.185785383 0.055330247 0.052252751
0.218001768 0.057168189 0.048279185
0.246622026 0.058357500 0.045269247
0.272564381 0.058926687 0.042358749
0.298443377 0.058964502 0.039034251
0.322975904 0.057168189 0.034746565
0.345479012 0.056586001 0.031641874
0.366582602 0.056117501 0.028437871
0.384505123 0.054052871 0.024642747
0.397712201 0.050305557 0.020897625
0.401320875 0.047683250 0.018728875
0.037063003 0.057123002 0.072474375
0.048758939 0.066250131 0.081501685
0.073705442 0.069977373 0.084251188
0.112519830 0.068980813 0.078010380
0.155374750 0.072339810 0.070004307
0.195742115 0.075052314 0.062995002
0.233288258 0.077625811 0.056638438
0.267517895 0.079413369 0.051453561
0.298737228 0.080070995 0.046561688
0.326643556 0.080103181 0.041879751
0.352571130 0.081052631 0.038492382
0.376272887 0.081377186 0.034352437
0.397552997 0.078933492 0.029719062
0.415693849 0.074995860 0.024396246
0.430136919 0.070125304 0.019073308
0.437073052 0.066125751 0.015672499
0.432201684 0.061563000 0.014983000
0.040896874 0.076260999 0.088904247
0.056457501 0.090232439 0.101167060
0.085677125 0.104999125 0.105969504
0.137875080 0.114130072 0.106450245
0.190957010 0.117191009 0.093975127
0.239583313 0.119880751 0.083441496
0.285321891 0.122798502 0.075843744
0.326341718 0.125332057 0.068465121
0.361607909 0.128086120 0.063250124
0.391281933 0.129156321 0.058411125
0.418057382 0.128486499 0.052706122
0.443193823 0.126758501 0.046007063
0.466344774 0.124204874 0.039717123
0.484883964 0.118902430 0.031887870
0.499738246 0.109361365 0.022671366
0.504723549 0.097915620 0.014736560
0.499649107 0.090774752 0.014194000
0.044646375 0.106915444 0.104474753
0.050300937 0.110653132 0.100206561
0.077458933 0.126563817 0.105267696
0.141604319 0.149557754 0.122994937
0.209476441 0.156581640 0.112599134
0.269116610 0.161288440 0.100593187
0.323822588 0.165932149 0.091341436
0.368647218 0.168680817 0.083049685
0.406685948 0.171033636 0.076295197
0.440314978 0.172581956 0.069500692
0.469774365 0.171966642 0.061876506
0.495253593 0.168262258 0.053292561
0.518446028 0.163938642 0.044990249
0.541566968 0.157462075 0.034352053
0.558784842 0.145318374 0.022424990
0.562982917 0.130720317 0.013208809
0.557251334 0.121893384 0.011878249
0.043356627 0.133032754 0.113802001
0.047546998 0.135591388 0.108351998
0.063786253 0.141894117 0.097897746
0.111671075 0.161425993 0.108073629
0.212773502 0.193323508 0.125721246
0.284454048 0.200708866 0.118806310
0.347243130 0.208226621 0.108818620
0.402016163 0.214293301 0.101859942
0.444981992 0.217676252 0.095029250
0.480465651 0.218629315 0.086098187
0.513338208 0.218424618 0.076127999
0.543467760 0.215589687 0.065263808
0.570119023 0.210128248 0.054532748
0.592865586 0.201000050 0.041653365
0.614741981 0.187692732 0.025136113
0.624536872 0.169219941 0.010645682
