public/lut/12.cube
TITLE "17x17x17 Adobe/IRIDAS cube 3D LUT exported with GrossGrade v0.2.2 (beta) 64 bit"
DOMAIN_MIN 0 0 0
DOMAIN_MAX 1 1 1
LUT_3D_SIZE 5
0.036274001 0.041758999 0.043264002
0.124989495 0.051519498 0.033514250
0.249812007 0.059868000 0.020897498
0.355194271 0.062806003 0.011631750
0.406816006 0.059868000 0.012617000
0.037457250 0.111845002 0.060314998
0.214676261 0.172711000 0.079086743
0.436148018 0.201989248 0.045446500
0.567077756 0.209584504 0.020108750
0.630178750 0.182108998 0.005520000
0.033119999 0.172959000 0.060166001
0.186405003 0.276097476 0.051500998
0.516198993 0.368681520 0.117221504
0.698750734 0.391875744 0.104326248
0.826277494 0.360541016 0.066138014
0.037062999 0.226642013 0.067441747
0.177455753 0.336805761 0.061756250
0.601975262 0.484308481 0.116315261
0.745148778 0.512823284 0.164130002
0.921885490 0.548922777 0.229518265
0.369502008 0.504468977 0.253995001
0.426038742 0.535781503 0.271516502
0.614233017 0.632763982 0.367302537
0.817648768 0.713600993 0.416316241
0.943166018 0.757125974 0.464760005
0.033909000 0.052838251 0.095582753
0.103171751 0.058963500 0.099106506
0.254637748 0.061349500 0.094022743
0.359018743 0.060759999 0.077110499
0.417350739 0.049497999 0.051650502
0.043264002 0.134607002 0.170998007
0.189585760 0.227915496 0.218838513
0.437991798 0.256074727 0.196924001
0.563944221 0.239970744 0.150806248
0.625404775 0.162004754 0.055541754
0.046175752 0.264580250 0.245053515
0.139888749 0.289626241 0.189514756
0.516006947 0.424357235 0.269392997
0.697962761 0.431861788 0.245761514
0.824789524 0.341942519 0.116240263
0.058789499 0.333361238 0.244383752
0.129796252 0.334972769 0.169544756
0.527517796 0.505569756 0.253896773
0.737669945 0.542169452 0.265075743
0.923989534 0.556900501 0.267573267
0.396301240 0.528255463 0.317200989
0.420220494 0.540379286 0.306650013
0.602083206 0.638262510 0.390796512
0.808076560 0.722566545 0.449479520
0.940267742 0.763610005 0.487325013
0.035486002 0.077393010 0.175000012
0.078812502 0.069197997 0.162845254
0.217727005 0.086961500 0.181766510
0.355114520 0.080531001 0.189874500
0.435653001 0.058043502 0.162391007
0.038640000 0.150312006 0.243935496
0.131580010 0.251232028 0.311545253
0.379851997 0.291713774 0.340569735
0.541656256 0.260250270 0.301275253
0.603057027 0.160991490 0.193712264
0.045459501 0.247042507 0.320580006
0.214628264 0.385607481 0.401437491
0.480141521 0.490973532 0.444842517
0.665701270 0.492631525 0.430744231
0.804005027 0.373900026 0.275882006
0.116676010 0.417037487 0.430484235
0.291746736 0.487936229 0.442788780
0.506974995 0.561222494 0.465263784
0.712189317 0.616416693 0.485207736
0.914700747 0.592897058 0.400279760
0.462840021 0.603612006 0.489891529
0.490398765 0.610326231 0.486428022
0.575857997 0.656687498 0.489151537
0.774755538 0.748298526 0.549369454
0.930514455 0.788581491 0.577530503
0.038640000 0.117400005 0.251767993
0.061164752 0.090028003 0.212054506
0.207302272 0.116543509 0.243520513
0.333959520 0.115697756 0.257847011
0.429567277 0.094978005 0.257436275
0.040020000 0.179690748 0.306146502
0.098745748 0.269611001 0.361195505
0.309021235 0.302750230 0.381548524
0.496060014 0.296977252 0.397733241
0.558469772 0.181640759 0.326138258
0.043634500 0.249860257 0.357822776
0.167910770 0.384238005 0.436305523
0.453106016 0.501755774 0.508414984
0.627364278 0.521729946 0.540045977
0.772305012 0.403115541 0.441036999
0.067567758 0.352299511 0.426151246
0.284647495 0.494202971 0.507353306
0.544787765 0.606184006 0.586529016
0.669206023 0.662230074 0.606836796
0.883080959 0.628928483 0.576108575
0.527687550 0.669160247 0.620058239
0.566732526 0.686758518 0.630564988
0.647781968 0.728973269 0.662329495
0.748488545 0.781395018 0.669817984
0.914965749 0.820482969 0.719539762
0.040994000 0.157458007 0.313454002
0.048797004 0.115095496 0.261972249
0.181161508 0.140875503 0.284098983
0.334656239 0.171878502 0.323641002
0.418053001 0.124646001 0.306937993
0.041758999 0.208298743 0.353458494
0.056294754 0.253959507 0.382948726
0.198353261 0.263489515 0.382999510
0.359234005 0.213786989 0.358416259
0.419369996 0.124004997 0.307506979
0.045100499 0.266220003 0.395310998
0.080519252 0.344859779 0.446027756
0.353244543 0.477119505 0.531039000
0.524260998 0.500649750 0.560430765
0.712311506 0.428731501 0.554412484
0.059861001 0.345775247 0.447704494
0.146531776 0.434874505 0.502183020
0.482910514 0.587473273 0.610436022
0.638502002 0.660022497 0.685111761
0.841478527 0.641709805 0.713600755
0.159716994 0.489722013 0.536374986
0.550518990 0.684444785 0.678527772
0.673708498 0.752264977 0.742246509
0.778798759 0.810915768 0.800219774
0.907211006 0.852227986 0.833190978
