public/lut/120.cube
TITLE "17x17x17 Adobe/IRIDAS cube 3D LUT exported with GrossGrade v0.2.2 (beta) 64 bit"
DOMAIN_MIN 0 0 0
DOMAIN_MAX 1 1 1
LUT_3D_SIZE 17
0.008667000 0.016571000 0.026031001
0.059540000 0.000153000 0.008972000
0.115264997 0.015961001 0.000183000
0.175262004 0.027161000 0.000641000
0.227385998 0.038635001 0.001373000
0.272644013 0.050841998 0.002380000
0.315154999 0.062286001 0.003937000
0.356750011 0.074065998 0.005951000
0.398346007 0.086273000 0.009460000
0.440154999 0.098693997 0.012970000
0.482329994 0.112457000 0.016845999
0.524994016 0.127593994 0.022583000
0.568817019 0.144287005 0.029572001
0.613952994 0.162597999 0.037354000
0.660797000 0.182465002 0.044280998
0.707244992 0.203979000 0.054443002
0.748656988 0.223633006 0.063965000
0.019531000 0.051056001 0.042969000
0.053040002 0.050903000 0.032196000
0.103058003 0.049713001 0.001495000
0.158080995 0.053497002 0.000000000
0.213043004 0.061767999 0.001434000
0.264099002 0.072754003 0.002106000
0.311859012 0.084899999 0.003693000
0.358123988 0.097259998 0.006744000
0.403656006 0.109802000 0.009857000
0.448181003 0.122374997 0.013306000
0.491912991 0.135681003 0.018371999
0.535431027 0.149872005 0.024109000
0.579497993 0.165009007 0.030548001
0.624724984 0.181548998 0.038300000
0.670349002 0.199828997 0.046478000
0.715911984 0.219451994 0.056304999
0.754944026 0.236908004 0.065094002
0.032745000 0.089599997 0.064361997
0.051879998 0.092133000 0.057464998
0.094879001 0.093627997 0.039641999
0.151215002 0.094420999 0.003387000
0.206542999 0.097870000 0.000000000
0.260742009 0.105865002 0.002380000
0.312500000 0.116149999 0.004425000
0.362365991 0.127838001 0.006744000
0.410674989 0.139954001 0.010254000
0.457336009 0.152099997 0.014435000
0.502471983 0.164642006 0.019135000
0.547179997 0.177886993 0.024932999
0.592010021 0.191710994 0.031952001
0.637054026 0.206726000 0.039092999
0.681580007 0.223389000 0.048553001
0.726409972 0.241364002 0.058136001
0.763091981 0.256592005 0.066223003
0.044891000 0.130401999 0.086731002
0.056763001 0.134186000 0.081848003
0.090880997 0.136748999 0.075011998
0.144196004 0.143188000 0.047485001
0.208191007 0.149109006 0.004730000
0.265350014 0.152740002 0.000549000
0.318480998 0.158875003 0.004730000
0.369933993 0.167664006 0.007385000
0.419494987 0.177826002 0.011047000
0.467406988 0.188599005 0.015686000
0.514099002 0.199950993 0.020293999
0.559997976 0.211669996 0.026123000
0.605377018 0.224151999 0.032928001
0.649689019 0.237762004 0.041290000
0.694365978 0.252837986 0.050567999
0.738739014 0.268981993 0.059997998
0.773621023 0.282135010 0.067322001
0.054931998 0.172211006 0.108062997
0.064819001 0.177215993 0.105071999
0.089019999 0.183685005 0.098174997
0.136322007 0.189667001 0.088959001
0.203612998 0.200499997 0.053467002
0.273070991 0.210571006 0.007446000
0.330841005 0.214782998 0.000977000
0.382201999 0.218811005 0.007538000
0.432067990 0.225219995 0.011444000
0.480621010 0.233367994 0.016113000
0.528015018 0.242310002 0.020508001
0.574127018 0.252074987 0.026764000
0.619202018 0.263000011 0.035889000
0.663421988 0.274993986 0.044220001
0.708007991 0.288239002 0.052673001
0.752228022 0.302338004 0.061615001
0.786224008 0.313109994 0.067870997
0.063812003 0.215545997 0.128937006
0.072815001 0.220092997 0.127105996
0.091370001 0.228698999 0.121338002
0.139312997 0.237549007 0.121582001
0.196624994 0.247649997 0.102692001
0.270904988 0.262481987 0.058318999
0.341095001 0.275177002 0.009613000
0.397704989 0.279998988 0.002472000
0.447692990 0.282501012 0.010895000
0.496215999 0.286774009 0.015137000
0.543549001 0.292786002 0.021392999
0.589600027 0.300078988 0.029418999
0.634582996 0.308623999 0.037659001
0.678955019 0.318450987 0.046356000
0.723297000 0.329589993 0.054535002
0.768828988 0.340240002 0.060759999
0.805328012 0.347167999 0.065825999
0.070983998 0.258942008 0.147674993
0.080109000 0.262908995 0.147064000
0.096984997 0.272186011 0.144196004
0.133972004 0.285461009 0.138977006
0.194457993 0.297271997 0.136230007
0.264892995 0.308715999 0.114044003
0.342101991 0.326599002 0.061797999
0.409790009 0.341309011 0.011841000
0.464477986 0.346985012 0.003540000
0.513184011 0.348511010 0.014893000
0.560150027 0.350951999 0.022980001
0.606383979 0.355437994 0.031250000
0.651580989 0.361267000 0.038451999
0.696654975 0.368286014 0.045990001
0.743713021 0.375366002 0.051697001
0.790709972 0.382171988 0.056731999
0.827697992 0.386992991 0.062073000
0.077483997 0.303436011 0.166106999
0.088013001 0.306885004 0.166260004
0.103942998 0.315856993 0.165344000
0.130431995 0.331726015 0.157257006
0.198578000 0.345946997 0.166686997
0.265381008 0.359131008 0.154571995
0.338530988 0.372406006 0.123901002
0.413879007 0.392334014 0.065398999
0.477508992 0.408782989 0.012421000
0.530304015 0.414885998 0.005280000
0.578460991 0.415894002 0.019714000
0.625487983 0.416718006 0.027222000
0.672455013 0.419342011 0.033752002
0.719390988 0.422760010 0.039978001
0.767853022 0.426391989 0.045226999
0.814758003 0.430298001 0.052368000
0.851013005 0.433685005 0.058318999
0.084259003 0.349395990 0.184783995
0.095886000 0.352539003 0.185303003
0.111969002 0.361176014 0.185791001
0.135315001 0.377624989 0.180481002
0.195984006 0.395415992 0.186523005
0.267913997 0.412261993 0.186004996
0.340178996 0.424347013 0.169952005
0.415374994 0.438995004 0.133452997
0.486267000 0.460907012 0.066771999
0.546172976 0.477753013 0.010895000
0.598389030 0.483581990 0.005035000
0.647614002 0.483521014 0.019012000
0.695708990 0.482300013 0.025238000
0.744202018 0.482452005 0.031585999
0.792603016 0.483521014 0.040130999
0.838715017 0.484984994 0.049408000
0.874541998 0.486510992 0.053649999
0.091826998 0.396575987 0.203125000
0.104523003 0.399841011 0.204132006
0.120819002 0.408080995 0.205750003
0.143310994 0.424560994 0.203521997
0.185271993 0.447234988 0.194793999
0.270873994 0.464661002 0.213683993
0.348479986 0.479645014 0.207855001
0.420379996 0.491210997 0.185303003
0.493865997 0.507874012 0.142730996
0.559966981 0.531096995 0.068145998
0.616913021 0.547302008 0.008362000
0.668671012 0.552093983 0.004089000
0.718017995 0.550293028 0.017242000
0.766906977 0.547546029 0.024994001
0.815429986 0.545684993 0.034667999
0.861205995 0.544739008 0.041260000
0.896606028 0.544372976 0.044891000
0.099335000 0.443877995 0.220122993
0.113219999 0.447784007 0.221924007
0.130309999 0.455902010 0.224243000
0.152252004 0.472351015 0.223450005
0.181976005 0.497772008 0.207030997
0.275786996 0.516296029 0.236938000
0.357513011 0.532500982 0.243805006
0.427733988 0.545531988 0.227691993
0.502228022 0.557587028 0.205718994
0.572052002 0.577392995 0.153687000
0.633026004 0.601715028 0.068939000
0.686218023 0.616210997 0.007202000
0.737244010 0.619476020 0.004059000
0.787047982 0.616333008 0.017242000
0.836028993 0.612030029 0.024261000
0.881744027 0.608672976 0.029175000
0.917052984 0.606505990 0.034118999
0.106628001 0.490020990 0.234679997
0.122040004 0.494751006 0.236938000
0.139923006 0.503356993 0.239868000
0.161773995 0.519653022 0.241180003
0.190459996 0.545226991 0.229857996
0.275299013 0.567047000 0.253693014
0.361694008 0.583710015 0.271789998
0.435303003 0.596313000 0.266692996
0.509582996 0.608031988 0.252746999
0.582336009 0.623444021 0.225676998
0.647247016 0.646210015 0.162536994
0.702911019 0.671020985 0.069305003
0.753844976 0.683990002 0.004639000
0.804749012 0.685851991 0.002869000
0.854797006 0.681334972 0.012970000
0.901031017 0.676024973 0.019928001
0.936767995 0.672240973 0.026306000
0.114501998 0.534088016 0.247771993
0.130889997 0.539611995 0.251190007
0.149963006 0.548492014 0.255585015
0.172362998 0.564423025 0.261382997
0.201171994 0.589416981 0.259674013
0.265502989 0.615294993 0.264557004
0.360137999 0.631713986 0.291718006
0.442139000 0.643036008 0.299347013
0.514343023 0.654632986 0.289124012
0.588409007 0.668488026 0.275635004
0.656952024 0.686767995 0.241576999
0.716674984 0.711791992 0.167206004
0.769104004 0.737731993 0.068512000
0.820374012 0.750182986 0.005676000
0.871551991 0.750823975 0.002380000
0.918731987 0.745575011 0.011932000
0.955291986 0.740723014 0.016571000
0.123504996 0.576080024 0.266205013
0.141083002 0.581939995 0.271912009
0.160797000 0.590789974 0.278930992
0.182799995 0.606049001 0.285308987
0.211060002 0.629729986 0.286406994
0.254974008 0.658051014 0.276459008
0.354889005 0.674713016 0.309509009
0.444335997 0.685822010 0.325989008
0.513916016 0.696686029 0.318298012
0.587189019 0.709106028 0.310698986
0.657317996 0.724518001 0.293792993
0.721099973 0.743896008 0.253235012
0.778320014 0.771942019 0.172974005
0.832732975 0.800598025 0.076537997
0.886565983 0.814484000 0.005951000
0.935302973 0.815703988 0.000641000
0.971771002 0.811309993 0.005859000
0.134307995 0.618439019 0.289490014
0.152161002 0.624359012 0.295013011
0.171905994 0.632690012 0.301849008
0.193206996 0.646515012 0.308288991
0.219420999 0.667937994 0.310638011
0.255524009 0.694854975 0.301025003
0.345672995 0.713257015 0.325958014
0.434540004 0.725158989 0.345611989
0.504455984 0.735077024 0.343506008
0.575378001 0.745025992 0.338714987
0.645294011 0.757934988 0.329773009
0.711578012 0.773070991 0.309020996
0.773528993 0.793609977 0.264313012
0.834015012 0.827971995 0.181731999
0.894286990 0.862061024 0.094085999
0.948729992 0.879822016 0.008026000
0.986815989 0.884064019 0.000000000
0.148926005 0.665679991 0.318848014
0.166290000 0.670958996 0.323729992
0.184937000 0.678345025 0.329620004
0.205292001 0.690093994 0.334960997
0.229003996 0.707885981 0.336760998
0.260742009 0.730713010 0.331757009
0.316619992 0.752106011 0.329865009
0.404662997 0.764069021 0.354369998
0.485381991 0.771637022 0.369414985
0.550567985 0.779541016 0.364014000
0.619354010 0.788025022 0.359497011
0.686523020 0.799408019 0.348845989
0.751861989 0.814453006 0.326476991
0.817139030 0.838104010 0.282775998
0.886810005 0.882659972 0.203400001
0.952515006 0.923950016 0.132903993
0.998992980 0.948485970 0.004333000
0.168457001 0.717377007 0.355957001
0.184723005 0.721801996 0.359679997
0.202240005 0.728057981 0.363739014
0.220458999 0.737456977 0.367065012
0.241332993 0.750854015 0.367828012
0.267578006 0.768401980 0.364989996
0.300751001 0.787841976 0.356292993
0.366088986 0.801819026 0.365723014
0.447205007 0.809174001 0.384582996
0.518523991 0.813628972 0.389923006
0.583710015 0.817382991 0.386108011
0.649872005 0.822937012 0.384063989
0.717773020 0.834075987 0.377014011
0.789276004 0.852447987 0.356323004
0.863586009 0.882233024 0.311798006
0.943603992 0.939971983 0.224121004
0.999145985 0.978577018 0.098328002
0.007141000 0.016571000 0.043731999
0.060577001 0.000977000 0.032867000
0.121428996 0.000092000 0.022095000
0.182677999 0.012024000 0.004578000
0.235717997 0.031342000 0.000732000
0.281798989 0.048064999 0.002075000
0.323486000 0.060759999 0.004395000
0.364014000 0.072021000 0.006744000
0.404083014 0.082915999 0.009857000
0.444611013 0.092101999 0.013702000
0.485808998 0.102660999 0.017151000
0.527984977 0.114563003 0.022583000
0.572601020 0.126159996 0.030517999
0.617554009 0.146118000 0.038727000
0.663726985 0.167786002 0.045104999
0.709838986 0.190887004 0.055695001
0.751495004 0.212249994 0.064514004
0.020264000 0.055450000 0.067047000
0.053649999 0.055298001 0.054993000
0.107666001 0.049621999 0.037597999
0.166260004 0.049529999 0.003540000
0.220763996 0.059813999 0.000000000
0.271789998 0.072662003 0.002319000
0.319182992 0.084930003 0.003876000
0.364776999 0.097351000 0.006714000
0.408904999 0.109314002 0.009796000
0.452057004 0.121123999 0.013702000
0.494507015 0.133514002 0.017883001
0.536742985 0.147217005 0.024109000
0.579895020 0.162018001 0.031097000
0.624328971 0.178284004 0.038300000
0.669525027 0.196441993 0.046386998
0.714721978 0.216095001 0.056304999
0.753997982 0.233855993 0.065033004
0.035004001 0.096496999 0.091766000
0.053711001 0.097717002 0.082672000
0.096954003 0.097626001 0.068512000
0.156463996 0.097503997 0.042663999
0.214019999 0.098357998 0.005920000
0.268065989 0.106109999 0.000000000
0.319243997 0.117126003 0.003540000
0.368317008 0.128447995 0.005859000
0.415802002 0.140105993 0.009369000
0.461059988 0.151764005 0.014008000
0.505127013 0.163879007 0.019073000
0.548705995 0.176635996 0.025635000
0.592589974 0.190185994 0.031952001
0.636992991 0.205109000 0.039092999
0.681151986 0.221558005 0.048553001
0.725585997 0.239226997 0.058136001
0.762512028 0.254577994 0.066132002
0.047637999 0.138916001 0.116028003
0.059174001 0.140625000 0.108856000
0.089813001 0.143004999 0.097075999
0.146271005 0.147826999 0.078979000
0.212555006 0.152862996 0.049957000
0.271393001 0.154694006 0.012848000
0.324829012 0.160278007 0.001129000
0.375580013 0.168975994 0.004883000
0.424315989 0.178864002 0.010101000
0.471374989 0.189087003 0.014740000
0.517150998 0.199890003 0.019774999
0.562224984 0.211151004 0.025665000
0.606688976 0.223144993 0.032867000
0.650635004 0.236725003 0.041290000
0.694580019 0.251372993 0.050567999
0.738556027 0.267334014 0.060454998
0.773253977 0.280456990 0.067749001
0.058014002 0.181885004 0.138885006
0.067047000 0.184174001 0.133910999
0.090088002 0.189117000 0.124695003
0.138977006 0.193572998 0.115691997
0.205566004 0.204375997 0.089996003
0.276030988 0.214081004 0.056212999
0.335480005 0.217345998 0.030060001
0.387145996 0.220397994 0.012360000
0.436675996 0.226439998 0.008881000
0.484436005 0.233948007 0.014679000
0.531219006 0.242614999 0.019805999
0.576721013 0.252074987 0.026672000
0.621002018 0.262573004 0.035828002
0.664734006 0.274383992 0.044220001
0.708800972 0.287322998 0.052673001
0.752471983 0.301147014 0.062194999
0.786194026 0.311859012 0.067962997
0.066588998 0.225127995 0.160400003
0.075622998 0.227142006 0.156829998
0.094116002 0.233550996 0.150573999
0.132689998 0.242370993 0.139679000
0.195098996 0.250885010 0.127991006
0.271759003 0.265442014 0.097778000
0.343079001 0.277954012 0.064819001
0.400786996 0.281951994 0.040436000
0.451294005 0.283538997 0.020354999
0.499664009 0.287322998 0.013062000
0.546447992 0.292968988 0.020416001
0.592041016 0.300049007 0.029510001
0.636505008 0.308380008 0.038208000
0.680450022 0.318053991 0.046356000
0.724273980 0.328857005 0.054901000
0.769409001 0.339293987 0.061278999
0.805419981 0.346069008 0.065825999
0.074859999 0.269104004 0.180634007
0.084045000 0.270507991 0.178192005
0.100128002 0.276825011 0.174163997
0.129973993 0.289214998 0.162842005
0.194518998 0.299010992 0.162750006
0.264252007 0.310516000 0.142303005
0.341338992 0.328491002 0.103882000
0.410706013 0.342987001 0.069518998
0.466430992 0.347961009 0.043639999
0.515655994 0.348845989 0.023560001
0.562560976 0.350982994 0.020354999
0.608429015 0.355255008 0.030029001
0.653351009 0.361023009 0.038391002
0.698059022 0.367859006 0.046448000
0.744812012 0.374785990 0.051879998
0.791382015 0.381377995 0.056793001
0.828032970 0.386016995 0.062042002
0.082428001 0.313872993 0.200408995
0.092620999 0.314727992 0.198699996
0.107758000 0.320556998 0.196289003
0.132323995 0.333893001 0.188446000
0.189971998 0.348419011 0.184661999
0.260253996 0.360320985 0.177672997
0.335693002 0.373046994 0.152740002
0.412322998 0.393065989 0.109160997
0.477905005 0.409575999 0.070800997
0.531708002 0.415282995 0.038422000
0.580322027 0.415863007 0.018921001
0.627166986 0.416442990 0.024932999
0.673888981 0.418945014 0.033080999
0.720673025 0.422423989 0.040587999
0.768981993 0.425963998 0.045226999
0.815521002 0.429717988 0.052703999
0.851500988 0.432953000 0.058563001
0.090576001 0.359894007 0.219879001
0.101531997 0.360747993 0.218596995
0.116608001 0.365996987 0.217590004
0.138641000 0.379272014 0.213073999
0.179870993 0.398101985 0.200683996
0.260437012 0.412353992 0.208618000
0.336304009 0.423736989 0.197082996
0.410645008 0.438629001 0.162719995
0.484192014 0.460570991 0.113678001
0.546356022 0.477874994 0.065338001
0.599578977 0.483734012 0.027100001
0.648895025 0.483336985 0.012726000
0.696959972 0.481963992 0.024689000
0.745299995 0.482147008 0.031830002
0.793549001 0.483153999 0.040222000
0.839478016 0.484589010 0.049408000
0.875092030 0.486023009 0.054290999
0.098846003 0.406890988 0.238983005
0.110992000 0.408080995 0.238372996
0.126525998 0.413239002 0.238159001
0.147094995 0.426055998 0.235992000
0.177093998 0.447266012 0.221558005
0.260955989 0.463654011 0.234801993
0.341187000 0.478455007 0.232178003
0.413085997 0.490112007 0.211792007
0.488617003 0.506560981 0.174163997
0.558104992 0.530273020 0.117766999
0.617156982 0.547240973 0.059723001
0.669708014 0.552184999 0.016754000
0.719025016 0.550231993 0.012878000
0.767791986 0.547455013 0.025330000
0.816223025 0.545502007 0.034667999
0.861846983 0.544463992 0.041992001
0.897216976 0.544098020 0.045288000
0.107299998 0.453765988 0.256743997
0.120575003 0.455688000 0.256897002
0.136565998 0.461028993 0.257568002
0.156494007 0.473571986 0.256469995
0.183654994 0.495209008 0.244903997
0.253295988 0.516174018 0.247253001
0.341675013 0.531554997 0.260773003
0.419586003 0.544098020 0.254332989
0.494080007 0.556396008 0.231933996
0.567596018 0.576018989 0.188201994
0.631958008 0.601135015 0.120819002
0.686981022 0.616546988 0.053100999
0.738250971 0.619872987 0.007294000
0.787750006 0.616424978 0.015472000
0.836638987 0.612030029 0.024261000
0.882263005 0.608520985 0.029663000
0.917572021 0.606353998 0.034118999
0.115509003 0.499298006 0.270934999
0.130005002 0.502135992 0.272002995
0.146851003 0.507965028 0.273956001
0.166778997 0.520476997 0.274749994
0.193237007 0.542023003 0.268554986
0.241515994 0.567505002 0.258361995
0.339538991 0.582427979 0.286682010
0.426665992 0.594542980 0.294524997
0.499298006 0.607513011 0.277435005
0.575684011 0.622588992 0.252869010
0.644653022 0.645507991 0.200256005
0.703002989 0.671082020 0.118285999
0.755005002 0.684601009 0.036865000
0.805603027 0.686218023 0.000977000
0.855225027 0.681427002 0.013519000
0.901458979 0.675963998 0.019928001
0.937224984 0.672210991 0.026306000
0.123749003 0.542267025 0.284087986
0.139374003 0.546082020 0.286316007
0.157166004 0.552398980 0.290100008
0.177338004 0.564728022 0.294739008
0.203400001 0.585753977 0.296081990
0.241424993 0.612793028 0.284332007
0.338988990 0.629517019 0.311309993
0.429901004 0.641753972 0.325531006
0.502471983 0.654663026 0.314545006
0.580109000 0.668518007 0.300536990
0.652984977 0.686797976 0.270141989
0.716094971 0.712096989 0.208771005
0.770111024 0.738556027 0.116210997
0.821807981 0.751038015 0.018279999
0.872192025 0.751160026 0.001740000
0.919067025 0.745604992 0.011932000
0.955688000 0.740723014 0.016754000
0.132629007 0.582854986 0.303191990
0.148926005 0.587249994 0.307036996
0.167266995 0.593903005 0.311890006
0.187500000 0.605865002 0.317229986
0.212585002 0.625945985 0.319824010
0.247986004 0.652465999 0.312561005
0.327971995 0.673370004 0.323639005
0.422302008 0.686156988 0.343201011
0.502838016 0.696898997 0.345580995
0.578094006 0.709838986 0.335601985
0.652190983 0.725250006 0.319976985
0.719910026 0.745148003 0.283203006
0.779448986 0.773315012 0.214049995
0.834197998 0.801819026 0.123047002
0.887908995 0.815429986 0.011536000
0.935851991 0.816039979 0.000000000
0.972136974 0.811432004 0.005859000
0.142517000 0.623992980 0.324187994
0.159424007 0.628356993 0.328155994
0.177704006 0.634856999 0.333220989
0.197601005 0.645965993 0.338654011
0.221129999 0.664184988 0.342009991
0.253814995 0.688690007 0.337920994
0.309722990 0.712890983 0.330994010
0.406006008 0.725983024 0.355560005
0.495483011 0.734802008 0.371612996
0.566039979 0.746062994 0.363617003
0.639434993 0.759033024 0.354431003
0.708984017 0.774627984 0.335570991
0.773711979 0.795502007 0.295105010
0.835388005 0.829620004 0.221771002
0.895447016 0.863129020 0.136016995
0.949738026 0.880675972 0.008575000
0.987151980 0.884276986 0.000000000
0.155853003 0.669830024 0.351990014
0.172058001 0.673736989 0.355468988
0.189850003 0.679534972 0.359710991
0.208862007 0.689025998 0.364165992
0.230743006 0.704041004 0.366851985
0.259521008 0.724762022 0.364257991
0.299683005 0.747771978 0.353455007
0.384705007 0.762145996 0.371948004
0.473632991 0.770874023 0.391234994
0.542357981 0.779784977 0.388671994
0.612335026 0.788878977 0.383423001
0.681702018 0.800507009 0.373474002
0.749054015 0.815918028 0.353118986
0.815979004 0.839752018 0.313659996
0.886658013 0.883880973 0.240997002
0.952789009 0.924835026 0.165527001
0.999297976 0.948943973 0.004700000
0.174133003 0.720153987 0.386413991
0.189484000 0.723541021 0.388823986
0.205688000 0.728302002 0.391510010
0.223235995 0.735687017 0.394134998
0.242981002 0.746918023 0.395325005
0.267058998 0.762512028 0.393126994
0.298797995 0.781127989 0.386840999
0.342711985 0.799163997 0.376648009
0.425415009 0.808135986 0.395354986
0.512603998 0.812072992 0.415161014
0.575500011 0.817412972 0.409179986
0.642731011 0.823212028 0.407103986
0.711028993 0.834411979 0.401428014
0.783234000 0.852904975 0.383819997
0.859772027 0.883148015 0.343048006
0.942565978 0.941009998 0.259429991
0.999328971 0.979187012 0.138457999
0.000305000 0.016663000 0.066132002
0.061675999 0.000977000 0.056793001
0.124297999 0.000000000 0.045196999
0.191039994 0.001678000 0.034302000
0.250182986 0.004425000 0.025513001
0.301239014 0.007233000 0.017395001
0.346985012 0.009949000 0.012512000
0.388976991 0.015289000 0.010742000
0.428618997 0.025420999 0.011230000
0.466980010 0.041533999 0.014343000
0.505554020 0.062286001 0.019012000
0.545044005 0.083495997 0.025543001
0.586181998 0.105347000 0.032837000
0.628692985 0.128356993 0.040497001
0.672942996 0.152649000 0.047759999
0.718017995 0.177398995 0.057495002
0.759216011 0.200165004 0.066680998
0.020203000 0.059601001 0.092589997
0.054260001 0.058318999 0.081817999
0.109833002 0.052795000 0.066161998
0.172271997 0.045623999 0.041473001
0.230682001 0.047516000 0.014832000
0.282927990 0.059905998 0.005371000
0.330260992 0.073761001 0.008423000
0.374572992 0.086212002 0.014496000
0.417084008 0.097442999 0.019774999
0.458007991 0.108245999 0.024383999
0.499419987 0.116364002 0.025177000
0.541930974 0.123259999 0.024750000
0.584502995 0.136322007 0.032134999
0.630218983 0.151093006 0.040465999
0.675200999 0.171021000 0.047851998
0.720580995 0.191925004 0.058136001
0.760406017 0.211639002 0.066680998
0.035767000 0.104431003 0.120636001
0.053771999 0.103058003 0.109985001
0.097015001 0.101104997 0.091553003
0.155913994 0.100432999 0.077941999
0.217590004 0.100341998 0.059204001
0.274811000 0.105469003 0.046112001
0.326965004 0.114960000 0.041106999
0.375580013 0.125792995 0.040130999
0.421844006 0.136444002 0.041290000
0.466217011 0.146544993 0.038391002
0.509369016 0.156463996 0.033325002
0.552031994 0.166686997 0.031036001
0.595031977 0.178955004 0.029358000
0.638733029 0.193847999 0.038208000
0.682036996 0.211151004 0.048553001
0.725861013 0.228911996 0.058715999
0.762938976 0.244415000 0.066680998
0.049713001 0.148834005 0.147400007
0.061981000 0.147094995 0.137970001
0.091003001 0.147797003 0.123383000
0.146056995 0.151061997 0.109833002
0.213501006 0.156799003 0.094146997
0.274230987 0.159026995 0.077881001
0.329163015 0.163513005 0.066863999
0.380676001 0.170745999 0.061797999
0.429320991 0.179138005 0.059386998
0.476074010 0.187653005 0.057128999
0.521637022 0.196106002 0.048737001
0.566406012 0.205109000 0.036804002
0.610291004 0.215973005 0.032623000
0.653137028 0.229431003 0.038940001
0.696166992 0.244476005 0.050476000
0.739349008 0.260497987 0.060516000
0.774047971 0.273589998 0.068236999
0.061400998 0.191925004 0.171082005
0.070679002 0.191345006 0.164123997
0.092193998 0.194000006 0.153624997
0.135833994 0.198486000 0.138274997
0.204224005 0.208191007 0.123138003
0.276917011 0.218291998 0.105926998
0.336944997 0.221375003 0.091674998
0.389708996 0.224030003 0.081573002
0.439911008 0.228973001 0.075011998
0.488251001 0.235076994 0.070831001
0.535216987 0.241698995 0.064148001
0.581023991 0.248717993 0.051575001
0.625397027 0.257537991 0.039032001
0.668395996 0.268707007 0.041687001
0.711456001 0.281708002 0.052338000
0.754607975 0.295623988 0.062378000
