public/lut/120.cube
TITLE "17x17x17 Adobe/IRIDAS cube 3D LUT exported with GrossGrade v0.2.2 (beta) 64 bit"
DOMAIN_MIN 0 0 0
DOMAIN_MAX 1 1 1
LUT_3D_SIZE 5
0.008667000 0.016571000 0.026031001
0.227385998 0.038635001 0.001373000
0.398346007 0.086273000 0.009460000
0.568817019 0.144287005 0.029572001
0.748656988 0.223633006 0.063965000
0.054931998 0.172211006 0.108062997
0.203612998 0.200499997 0.053467002
0.432067990 0.225219995 0.011444000
0.619202018 0.263000011 0.035889000
0.786224008 0.313109994 0.067870997
0.084259003 0.349395990 0.184783995
0.195984006 0.395415992 0.186523005
0.486267000 0.460907012 0.066771999
0.695708990 0.482300013 0.025238000
0.874541998 0.486510992 0.053649999
0.114501998 0.534088016 0.247771993
0.201171994 0.589416981 0.259674013
0.514343023 0.654632986 0.289124012
0.769104004 0.737731993 0.068512000
0.955291986 0.740723014 0.016571000
0.168457001 0.717377007 0.355957001
0.241332993 0.750854015 0.367828012
0.447205007 0.809174001 0.384582996
0.717773020 0.834075987 0.377014011
0.999145985 0.978577018 0.098328002
0.000793000 0.024840999 0.114380002
0.259795994 0.002380000 0.072082996
0.449187994 0.026611000 0.063781999
0.611877024 0.041382000 0.074340999
0.789520025 0.147125006 0.073273003
0.068908997 0.210448995 0.231566995
0.193451002 0.209076002 0.174866006
0.440429986 0.238585994 0.168578997
0.623474002 0.263915986 0.164825007
0.794677973 0.272278011 0.100158997
0.113251001 0.381897002 0.315582007
0.176880002 0.397002995 0.297271997
0.468872011 0.463135004 0.243957996
0.700806022 0.484436005 0.214294001
0.894104004 0.470275998 0.098999001
0.154174998 0.559325993 0.386047006
0.217133000 0.579742014 0.393036008
0.450378001 0.656219006 0.383758992
0.767426014 0.739715993 0.287414998
0.969635010 0.741393983 0.105896004
0.192534998 0.728484988 0.473540992
0.251525998 0.739531994 0.475739002
0.377074987 0.802031994 0.454070985
0.692322016 0.834595025 0.472900003
0.999359012 0.980530024 0.302765012
0.006714000 0.051697001 0.220032007
0.259552002 0.003754000 0.156920999
0.456726015 0.080536000 0.151366994
0.593445003 0.098876998 0.121123999
0.780182004 0.078368999 0.207213998
0.093718998 0.234619007 0.330994010
0.164977998 0.208679006 0.270415992
0.431609988 0.241301998 0.205535993
0.607879996 0.279662997 0.208496004
0.837432981 0.208648995 0.195952997
0.141295999 0.392426014 0.412993997
0.189941004 0.402465999 0.412750006
0.419860989 0.451415986 0.342438012
0.685424984 0.490936011 0.400207996
0.919158995 0.451842993 0.386779994
0.194701999 0.569733024 0.501343012
0.253448009 0.587005973 0.516083002
0.365752995 0.652710021 0.491486013
0.748871028 0.733489990 0.493651986
0.986052990 0.735320985 0.459502995
0.222687006 0.737213016 0.581206977
0.272857994 0.739562988 0.580260992
0.365265012 0.785064995 0.573242009
0.675018013 0.836516976 0.571776986
0.997039974 0.979125977 0.536835015
0.020111000 0.065490998 0.298920006
0.277862996 0.007111000 0.238738999
0.461578012 0.089813001 0.227477998
0.587737978 0.111144997 0.237854004
0.715331972 0.156371996 0.143188000
0.122772001 0.255492985 0.419494987
0.158050999 0.201934993 0.343048006
0.417663991 0.213653997 0.267791986
0.632416010 0.256682992 0.237946004
0.706664979 0.323944002 0.225067005
0.177704006 0.401214987 0.490691990
0.211760998 0.396117985 0.481323004
0.355376989 0.429168999 0.401275992
0.654174984 0.461730987 0.345703006
0.797820985 0.460815012 0.339507997
0.224151999 0.579132020 0.597289979
0.273162991 0.604735970 0.621215999
0.352753013 0.643036008 0.623718023
0.703217030 0.715820014 0.575562000
0.970794976 0.714843988 0.672637999
0.262511998 0.755523980 0.690765023
0.309540004 0.763244987 0.695221007
0.375916004 0.779326975 0.695953012
0.599792004 0.852263987 0.666472971
0.988129020 0.964049995 0.720947027
0.067322001 0.121399000 0.410461009
0.307280988 0.057372998 0.319397002
0.482513011 0.106597997 0.309386998
0.611176014 0.127563000 0.287750006
0.697632015 0.161223993 0.660004020
0.159514993 0.283477992 0.506408989
0.173247993 0.207519993 0.410492003
0.413239002 0.207702994 0.342438012
0.638091981 0.240601003 0.282103986
0.771393001 0.291534007 0.682465017
0.216491997 0.419829994 0.570281982
0.220214993 0.377380013 0.529358029
0.321227998 0.367217988 0.457397014
0.611388981 0.415771008 0.359436005
0.862273991 0.472229004 0.731109977
0.260223001 0.578278005 0.666411996
0.289947987 0.570922971 0.657410026
0.332794011 0.570801020 0.644043028
0.623901010 0.643554986 0.546844006
0.938750982 0.698242009 0.752166986
0.288910002 0.759582996 0.778747976
0.332213998 0.776580989 0.788055003
0.389373988 0.792145014 0.795257986
0.508208990 0.842682004 0.808593988
0.957825005 0.964783013 0.794768989
