public/lut/121.cube
TITLE "17x17x17 Adobe/IRIDAS cube 3D LUT exported with GrossGrade v0.2.2 (beta) 64 bit"
DOMAIN_MIN 0 0 0
DOMAIN_MAX 1 1 1
LUT_3D_SIZE 17
0.007904000 0.014984000 0.024444999
0.058867998 0.018036000 0.018250000
0.125000000 0.022675000 0.009674000
0.192993000 0.028076001 0.001099000
0.251648009 0.034302000 0.000000000
0.302399009 0.039978001 0.000000000
0.350861013 0.044464000 0.000000000
0.399719000 0.047272000 0.000000000
0.448974997 0.048308998 0.000000000
0.499175996 0.047974002 0.000000000
0.550140023 0.046172999 0.000000000
0.602783024 0.043761998 0.000000000
0.657378972 0.041565001 0.000000000
0.714385986 0.039276000 0.000000000
0.773926020 0.036956999 0.000000000
0.835479975 0.034697998 0.000000000
0.891112983 0.033142000 0.000000000
0.009399000 0.045593001 0.038391002
0.049042001 0.049042001 0.028320000
0.105163999 0.052917000 0.016754000
0.169586003 0.057250999 0.002899000
0.231415004 0.061981000 0.000000000
0.289214998 0.068787001 0.000000000
0.344054997 0.075043000 0.000000000
0.398101985 0.080719002 0.000000000
0.451842993 0.084960997 0.000000000
0.505096018 0.087341003 0.000000000
0.558228016 0.088408999 0.000000000
0.612121999 0.088379003 0.000000000
0.667419016 0.087921001 0.000000000
0.724425972 0.087311000 0.000000000
0.783568978 0.086456001 0.000000000
0.844237983 0.085602000 0.000000000
0.896973014 0.084259003 0.000000000
0.012512000 0.080719002 0.056793001
0.042052999 0.083526999 0.048462000
0.089142002 0.088653997 0.031555001
0.151244998 0.094756998 0.008545000
0.215607002 0.099518001 0.000702000
0.277893007 0.105407998 0.000000000
0.337951988 0.112640001 0.000000000
0.396423012 0.119384997 0.000000000
0.453734994 0.125244007 0.000000000
0.509827018 0.129333004 0.000000000
0.565338016 0.131835997 0.000000000
0.620880008 0.133727998 0.000000000
0.677062988 0.134856999 0.000000000
0.734344006 0.135681003 0.000000000
0.793273985 0.136139005 0.000000000
0.853241026 0.136382997 0.000000000
0.903351009 0.136353001 0.000000000
0.016418001 0.116668999 0.075714000
0.039733998 0.119965002 0.069762997
0.076233000 0.124054000 0.058410998
0.133667007 0.133667007 0.029327000
0.204101995 0.145172000 0.003143000
0.270781994 0.151916996 0.000000000
0.333588004 0.157562003 0.000000000
0.394805998 0.163910002 0.000000000
0.454315007 0.169921994 0.000000000
0.512695014 0.174743995 0.000000000
0.570190012 0.178497002 0.000000000
0.627258003 0.181488007 0.000000000
0.684601009 0.183777004 0.000000000
0.742736995 0.185577005 0.000000000
0.802184999 0.186980993 0.000000000
0.862335026 0.187987998 0.000000000
0.910156012 0.188750997 0.000000000
0.023071000 0.151855007 0.094360001
0.041931000 0.156066999 0.090545997
0.071594000 0.162201002 0.083557002
0.118561000 0.170745999 0.066467002
0.188324004 0.186278999 0.021698000
0.264191002 0.202087000 0.001465000
0.331818014 0.209868997 0.000000000
0.393828988 0.214812994 0.000000000
0.454528987 0.219909996 0.000000000
0.514312983 0.224639997 0.000000000
0.573455989 0.228851005 0.000000000
0.631989002 0.232329994 0.000000000
0.690581977 0.235351995 0.000000000
0.749512017 0.237914994 0.000000000
0.809448004 0.240051001 0.000000000
0.869994998 0.242096007 0.000000000
0.916046023 0.243439004 0.000000000
0.029479999 0.187775001 0.113128997
0.047485001 0.192017004 0.111359000
0.071869001 0.199432001 0.107299998
0.111846998 0.210143998 0.097046003
0.172699004 0.223267004 0.071350001
0.251403987 0.243652001 0.010315000
0.328155994 0.261810005 0.000000000
0.394531012 0.270781994 0.000092000
0.455626994 0.274962991 0.000000000
0.516052008 0.279143989 0.000000000
0.576141000 0.283234000 0.000000000
0.635833979 0.286864996 0.000000000
0.695526004 0.290039003 0.000000000
0.755432010 0.292968988 0.000000000
0.815948009 0.295745999 0.000000000
0.876190007 0.298096001 0.000000000
0.921599984 0.299957007 0.000000000
0.038543999 0.223876998 0.131592005
0.054504000 0.227356002 0.131469995
0.075745001 0.235291004 0.130096003
0.109985001 0.248169005 0.123199001
0.164153993 0.263092011 0.109467000
0.237029999 0.279816002 0.068908997
0.318787009 0.303649992 0.009674000
0.393371999 0.323700011 0.000000000
0.458160013 0.333617985 0.000092000
0.518921018 0.337859988 0.000000000
0.579223990 0.341277987 0.000000000
0.639679015 0.344848990 0.000000000
0.700133979 0.348082989 0.000000000
0.760802984 0.351043999 0.000000000
0.821838021 0.353882015 0.000000000
0.881591976 0.356415004 0.000000000
0.927062988 0.358429015 0.000000000
0.047759999 0.260437012 0.150635004
0.063202001 0.263489008 0.151306003
0.082275003 0.271270990 0.151978001
0.111602999 0.285308987 0.149139002
0.159912005 0.303496987 0.138977006
0.228027001 0.320923001 0.120728001
0.307830989 0.340117991 0.069945998
0.388031006 0.366057992 0.010498000
0.459259003 0.387634009 0.000000000
0.522765994 0.398375988 0.000000000
0.583527029 0.402832001 0.000000000
0.643950999 0.405669987 0.000000000
0.704742014 0.408751994 0.000000000
0.765960991 0.411651999 0.000000000
0.827422976 0.414368004 0.000000000
0.886718988 0.416839987 0.000000000
0.932403982 0.418761998 0.000000000
0.057739001 0.298218012 0.171112001
0.073090002 0.301239014 0.172333002
0.091063999 0.308746010 0.174591005
0.116729997 0.323058993 0.174621999
0.158660993 0.343079001 0.168823004
0.222595006 0.364441007 0.154724002
0.300751001 0.382660002 0.129943997
0.382324010 0.404143989 0.065825999
0.458465993 0.431731999 0.007111000
0.525786996 0.453705013 0.000000000
0.588074028 0.464783013 0.000000000
0.648864985 0.469298989 0.000000000
0.709685981 0.471619010 0.000000000
0.771117985 0.474303991 0.000000000
0.832732975 0.476806998 0.000000000
0.891692996 0.479065001 0.000000000
0.937439024 0.480834991 0.000000000
0.068480998 0.337523997 0.192534998
0.083770998 0.340636998 0.194640994
0.101287998 0.348053008 0.198151007
0.124573000 0.362518013 0.200286999
0.161346003 0.383727998 0.197265998
0.219604000 0.407256991 0.187500000
0.296600014 0.428741008 0.170867994
0.379547000 0.447510004 0.133452997
0.458557010 0.471161008 0.055176001
0.529266000 0.499756008 0.000702000
0.592682004 0.521362007 0.000000000
0.653716981 0.532135010 0.000000000
0.714721978 0.536162972 0.000000000
0.776215017 0.538483024 0.000000000
0.838012993 0.540679991 0.000000000
0.896697998 0.542755008 0.000000000
0.942322016 0.544219971 0.000000000
0.079681002 0.377350003 0.214447007
0.095031999 0.380950987 0.217224002
0.112457000 0.388702005 0.221709996
0.134307995 0.403106987 0.225525007
0.167297006 0.425262004 0.224151999
0.220367000 0.450623006 0.216613993
0.294342011 0.473632991 0.204437003
0.378235012 0.493561000 0.187041998
0.460541010 0.513823986 0.131042004
0.534911990 0.540099978 0.038665999
0.599883974 0.569335997 0.000000000
0.659424007 0.589630008 0.000000000
0.719757020 0.599822998 0.000000000
0.781189024 0.603667974 0.000000000
0.843109012 0.605651975 0.000000000
0.901520014 0.607361019 0.000000000
0.947052002 0.608642995 0.000000000
0.090392999 0.416534007 0.234954998
0.105957001 0.421173006 0.238708004
0.123687997 0.429199010 0.244110003
0.145050004 0.443816990 0.248992994
0.175322995 0.466430992 0.248840004
0.224304006 0.493256003 0.241973996
0.294739008 0.517395020 0.232086003
0.377685994 0.537627995 0.219849005
0.462006003 0.557617009 0.201019004
0.540771008 0.580932975 0.124756001
0.609557986 0.609650016 0.018738000
0.668853998 0.639159977 0.000000000
0.726288021 0.658385992 0.000244000
0.786499023 0.667937994 0.000000000
0.847992003 0.671234012 0.000000000
0.906403005 0.672667980 0.000000000
0.952086985 0.673859000 0.000000000
0.100189000 0.454284996 0.253417999
0.116425000 0.459717005 0.258269995
0.134552002 0.468261987 0.264221013
0.155425996 0.482971013 0.269591987
0.183777004 0.505707026 0.270233005
0.229034007 0.533141971 0.263763011
0.295868009 0.558257997 0.254332989
0.376830995 0.578705013 0.245666996
0.461243004 0.598450005 0.233032003
0.542450011 0.620818973 0.207519993
0.616150022 0.646484017 0.121826001
0.679382026 0.676849008 0.006836000
0.735565007 0.707549989 0.000000000
0.793518007 0.727020025 0.000153000
0.854125977 0.736083984 0.000000000
0.912047982 0.738861024 0.000000000
0.957794011 0.740020990 0.000000000
0.110168003 0.490967005 0.270386010
0.126708999 0.496825993 0.275543004
0.144653007 0.505585015 0.281920999
0.164948002 0.519867003 0.287689000
0.191254005 0.541900992 0.288666010
0.232056007 0.569060981 0.282532007
0.293915004 0.594910026 0.273041010
0.371704012 0.615906000 0.265136987
0.454894990 0.634856999 0.257568002
0.536437988 0.656127989 0.241913006
0.613098025 0.679871023 0.203795999
0.681914985 0.706328988 0.112792999
0.742401004 0.739655018 0.001617000
0.800689995 0.773742974 0.000000000
0.861633003 0.795379996 0.000000000
0.919372976 0.805054009 0.000000000
0.964110970 0.807434022 0.000000000
0.120117001 0.528503001 0.288147002
0.136627004 0.534575999 0.293152004
0.154633000 0.542937994 0.299194008
0.173797995 0.556334972 0.304657012
0.197661996 0.576354980 0.305907995
0.233032003 0.601898015 0.300262004
0.287384003 0.627471983 0.290526986
0.358826011 0.648895025 0.282103986
0.438538015 0.667205989 0.275817990
0.518828988 0.686065972 0.266846001
0.596283019 0.707702994 0.246703997
0.668823004 0.731049001 0.194610998
0.735747993 0.758666992 0.093964003
0.799835026 0.798828006 0.000580000
0.864898980 0.839294016 0.000000000
0.926299989 0.865082026 0.000000000
0.971038997 0.876281977 0.000000000
0.132355005 0.571259022 0.310393989
0.148285002 0.576843023 0.314758003
0.165252998 0.584563971 0.319763005
0.183411002 0.596190989 0.324218988
0.204742000 0.613312006 0.325011998
0.234038994 0.635406017 0.319793999
0.277709991 0.658813000 0.310211003
0.337677002 0.679749012 0.300597996
0.409729004 0.697205007 0.293334991
0.487029999 0.713409007 0.286835015
0.563934028 0.730988026 0.276154011
0.638184011 0.751281977 0.253661990
0.709900022 0.774596989 0.196655005
0.781096995 0.805999994 0.086425997
0.855590999 0.857635021 0.000793000
0.926909983 0.906615973 0.000000000
0.977325022 0.936890006 0.000000000
0.146179006 0.619659007 0.338257015
0.161651999 0.624602973 0.341491997
0.177551001 0.631226003 0.344909996
0.193939000 0.640747011 0.347229004
0.212769002 0.654143989 0.346801996
0.236237004 0.671477973 0.341980010
0.267975003 0.691101015 0.332976997
0.312682986 0.710236013 0.322082996
0.373046994 0.726746023 0.312346995
0.445098996 0.740387022 0.305572987
0.520416021 0.752991021 0.300812006
0.594817996 0.767822027 0.293487996
0.670409977 0.788208008 0.274993986
0.749207020 0.815643013 0.222900003
0.830658019 0.854552984 0.105590999
0.917357981 0.921721995 0.000000000
0.978209972 0.967406988 0.000000000
0.008667000 0.015778000 0.043609999
0.060028002 0.018828999 0.035309002
0.128571004 0.024994001 0.026031001
0.198853001 0.031830002 0.014496000
0.258942008 0.038940001 0.002960000
0.310974002 0.045593001 0.000000000
0.359497011 0.050659001 0.000000000
0.407135010 0.053252999 0.000000000
0.454955995 0.053528000 0.000000000
0.503479004 0.051971000 0.000000000
0.552825987 0.049316000 0.000000000
0.604065001 0.046631001 0.000000000
0.657410026 0.043030001 0.000000000
0.713562012 0.040038999 0.000000000
0.772460997 0.036956999 0.000000000
0.833557010 0.034637000 0.000000000
0.889526010 0.033142000 0.000000000
0.010956000 0.049683001 0.064758003
0.050354000 0.051697001 0.055573002
0.107330002 0.055481002 0.042938001
0.173247993 0.060242001 0.028441999
0.237091005 0.066253997 0.012329000
0.295502007 0.073059000 0.001343000
0.350524992 0.080139004 0.000000000
0.403930992 0.085449003 0.000000000
0.456268013 0.089080997 0.000000000
0.508270025 0.090759002 0.000000000
0.560150027 0.090972997 0.000000000
0.612823009 0.090515003 0.000000000
0.667052984 0.089203000 0.000000000
0.723357975 0.088196002 0.000000000
0.781859994 0.086944997 0.000000000
0.842284977 0.085998997 0.000000000
0.895325005 0.084686004 0.000000000
0.014832000 0.087462999 0.086212002
0.044250000 0.089080997 0.077545002
0.090880997 0.092437997 0.063231997
0.154053003 0.098328002 0.043884002
0.219574004 0.103240997 0.023956001
0.282745004 0.109283000 0.004730000
0.343140006 0.116455004 0.000000000
0.401336998 0.122924998 0.000000000
0.457672000 0.128021002 0.000000000
0.512755990 0.131714001 0.000000000
0.567169011 0.134032995 0.000000000
0.621581972 0.135468006 0.000000000
0.676819026 0.136016995 0.000000000
0.733489990 0.136504993 0.000000000
0.791869998 0.136993006 0.000000000
0.851624012 0.136962995 0.000000000
0.901825011 0.136627004 0.000000000
0.020172000 0.124420002 0.106780998
0.042725001 0.126190007 0.099335000
0.078185998 0.129210994 0.088287003
0.135741994 0.137695000 0.067139000
0.206696004 0.148620993 0.038910002
0.274078012 0.155182004 0.012756000
0.337554991 0.160950005 0.000397000
0.398773015 0.167297006 0.000000000
0.457794011 0.172637999 0.000000000
0.515564024 0.177001998 0.000000000
0.572265983 0.180236995 0.000000000
0.628661990 0.182799995 0.000000000
0.685364008 0.184631005 0.000000000
0.742859006 0.186066002 0.000000000
0.801849008 0.187408000 0.000000000
0.861359000 0.188384995 0.000000000
0.909026980 0.188964993 0.000000000
0.027100001 0.160918996 0.126892000
0.045531999 0.162842005 0.121521004
0.073546998 0.167328000 0.113251001
0.119629003 0.174743995 0.098601997
0.189575002 0.189422995 0.068176001
0.266387999 0.205047995 0.025330000
0.334381014 0.212615997 0.001587000
0.396697998 0.217407003 0.000000000
0.457489014 0.222321004 0.000000000
0.517059028 0.226653993 0.000000000
0.575744987 0.230254993 0.000000000
0.633789003 0.233398005 0.000000000
0.691864014 0.236083999 0.000000000
0.750244021 0.238342002 0.000000000
0.809692025 0.240326002 0.000000000
0.869719982 0.242004007 0.000000000
0.915526986 0.243042007 0.000000000
0.035431001 0.197144002 0.146210000
0.051330999 0.198822007 0.142638996
0.074524000 0.204375997 0.137024000
0.112640001 0.213593006 0.126800999
0.172362998 0.226227000 0.106964000
0.251677990 0.246277004 0.061951000
0.329528987 0.264099002 0.010315000
0.396331996 0.272522002 0.000000000
0.457672000 0.276611000 0.000000000
0.518036008 0.280517995 0.000000000
0.578125000 0.284301996 0.000000000
0.637664974 0.287566990 0.000000000
0.697052002 0.290618986 0.000000000
0.756438971 0.293334991 0.000000000
0.816437006 0.295836985 0.000000000
0.876160026 0.297973990 0.000000000
0.921387017 0.299591005 0.000000000
0.044983000 0.233642995 0.165314004
0.059204001 0.234741002 0.162993997
0.079131998 0.240447998 0.159729004
0.111023001 0.251433998 0.152893007
0.162933007 0.265442014 0.139648005
0.235045999 0.281738013 0.112853996
0.318114996 0.305175990 0.047729000
0.394073009 0.324950993 0.003052000
0.459351003 0.334564000 0.000000000
0.520294011 0.338562012 0.000000000
0.580627024 0.341827005 0.000000000
0.641112983 0.345214993 0.000000000
0.701385021 0.348297000 0.000000000
0.761810005 0.351195991 0.000000000
0.822479010 0.353882015 0.000000000
0.881744027 0.356231987 0.000000000
0.926971018 0.358123988 0.000000000
0.054320998 0.270476997 0.184937000
0.068480998 0.271483988 0.183471993
0.086150996 0.276641995 0.182190001
0.112946004 0.288300008 0.178497002
0.158234000 0.304809988 0.168700993
0.224059999 0.321716011 0.152404994
0.304199010 0.340698004 0.113495000
0.386505008 0.366546988 0.032928001
0.459412009 0.388092011 0.000000000
0.523375988 0.398589998 0.000000000
0.584380984 0.402985007 0.000000000
0.644896984 0.405730993 0.000000000
0.705688000 0.408843994 0.000000000
0.766753972 0.411651999 0.000000000
0.828032970 0.414337009 0.000000000
0.886963010 0.416747987 0.000000000
0.932372987 0.418518007 0.000000000
0.064696997 0.308746010 0.205750003
0.078735001 0.309753001 0.205047995
0.095458999 0.314484000 0.205230996
0.118500002 0.326018989 0.203979000
0.156859994 0.343872011 0.197906002
0.217133000 0.364136010 0.184661999
0.294097990 0.382140994 0.165588006
0.377350003 0.403412014 0.106659003
0.456450999 0.431122005 0.020781999
0.525757015 0.453552008 0.000000000
0.588500977 0.464751989 0.000793000
0.649414003 0.469208002 0.000000000
0.710265994 0.471587986 0.000000000
0.771637022 0.474242985 0.000000000
0.833190978 0.476776004 0.000000000
0.891937017 0.479003996 0.000000000
0.937560976 0.480713010 0.000000000
0.075378001 0.348082989 0.227539003
0.089507997 0.349456996 0.227691993
0.105957001 0.354187012 0.229034007
0.126770005 0.365509003 0.229674995
0.159575999 0.384003013 0.226379007
0.213073999 0.406158000 0.216919005
0.287200987 0.427428991 0.200745001
0.370757997 0.445984006 0.176452994
0.453186005 0.469574004 0.101166002
0.527557015 0.498778999 0.013153000
0.592711985 0.521148980 0.000000000
0.654021978 0.532042980 0.000336000
0.715026975 0.536101997 0.000000000
0.776580989 0.538452029 0.000000000
0.838286996 0.540679991 0.000000000
0.896820009 0.542693973 0.000000000
0.942382991 0.544188976 0.000000000
0.086516999 0.387816995 0.249175996
0.100739002 0.389739990 0.250182986
0.117095999 0.394957989 0.252593994
0.136993006 0.406067014 0.254913002
0.165955007 0.425078988 0.253601015
0.213286996 0.448639005 0.246337995
0.282683998 0.471527010 0.234405994
0.366210997 0.491851985 0.217010006
0.451691002 0.512023985 0.182219997
0.530517995 0.538483024 0.094939999
0.598877013 0.568726003 0.006805000
0.659851015 0.589752018 0.000000000
0.720031977 0.599915028 0.000000000
0.781432986 0.603699028 0.000000000
0.843200982 0.605651975 0.000000000
0.901580989 0.607299984 0.000000000
0.947143972 0.608612001 0.000000000
0.096954003 0.426544011 0.269134998
0.111877002 0.429473996 0.271270990
0.128356993 0.435180992 0.274688989
0.147797003 0.446594000 0.278380990
0.174408004 0.465759009 0.278412014
0.216949001 0.490355998 0.272644013
0.281432986 0.514648020 0.262878001
0.362823009 0.535827994 0.250580013
0.450103998 0.556213021 0.232116997
0.533690989 0.579528987 0.181548998
0.607056022 0.608794987 0.077026002
0.669067025 0.639159977 0.000000000
0.726898015 0.658783019 0.000000000
0.786773980 0.668151975 0.000000000
0.848114014 0.671294987 0.000000000
0.906463981 0.672667980 0.000000000
0.952148020 0.673828006 0.000000000
0.106597997 0.463593006 0.286895990
0.122222997 0.467438012 0.290008992
0.139160007 0.473724008 0.294220001
0.158263996 0.485228986 0.298736989
0.183074996 0.504424989 0.299926996
0.221771002 0.529663026 0.295073986
0.281646997 0.555114985 0.286163002
0.360015988 0.577026010 0.276854992
0.446990997 0.597564995 0.264526010
0.533294976 0.620055974 0.243895993
0.612091005 0.646148980 0.166991994
0.679108024 0.677277029 0.038879000
0.736603022 0.708434999 0.000000000
0.794341981 0.727539003 0.000214000
0.854369998 0.736205995 0.000000000
0.912140012 0.738861024 0.000000000
0.957854986 0.739989996 0.000000000
0.115722999 0.499083996 0.302733988
0.131560996 0.503601015 0.306365997
0.148681998 0.510315001 0.311188012
0.167632997 0.521820009 0.316253990
0.190979004 0.540436029 0.318145990
0.225830004 0.565276980 0.314025998
0.280548006 0.591338992 0.305359006
0.354674995 0.614166021 0.296936005
0.439666986 0.634429991 0.289000988
0.525940001 0.656067014 0.274657995
0.607635021 0.680176020 0.247374997
0.680724978 0.707489014 0.157532007
0.743866026 0.741271973 0.009064000
0.802398980 0.775054991 0.000000000
0.862426996 0.795989990 0.000092000
0.919525027 0.805206001 0.000000000
0.964110970 0.807403982 0.000000000
0.125244007 0.535645008 0.319061011
0.141083002 0.540314019 0.322968006
0.157928005 0.546905994 0.327605993
0.176452994 0.557770014 0.332489014
0.198028997 0.575043023 0.334625006
0.228698999 0.598267019 0.330871999
0.276398003 0.623749018 0.322448999
0.343658000 0.646880984 0.313811988
0.423828006 0.666778982 0.306975991
0.507903993 0.686371028 0.298552990
0.589690983 0.708405018 0.280730993
0.666137993 0.732451975 0.244019002
0.736114979 0.760680974 0.151244998
0.801575005 0.800659001 0.001984000
0.866240978 0.840546012 0.000000000
0.926726997 0.865570009 0.000061000
0.971130013 0.876312017 0.000000000
0.136414006 0.577301025 0.340301991
0.151672006 0.581511974 0.343506008
0.168060005 0.587677002 0.347290009
0.185363993 0.597106993 0.351134986
0.205200002 0.611815989 0.352600008
0.231445000 0.631896973 0.349121004
0.270415992 0.654877007 0.340820014
0.326355010 0.676971018 0.331238002
0.397307992 0.696075022 0.323547006
0.476166010 0.713379025 0.317169011
0.555939019 0.731445014 0.308014005
0.632934988 0.752106011 0.288543999
0.707062006 0.775969982 0.247406006
0.780059993 0.807648003 0.154174998
0.855742991 0.859009027 0.001343000
0.927398980 0.907622993 0.000000000
0.977509022 0.937255979 0.000000000
0.148803994 0.624419987 0.366486013
0.163818002 0.628174007 0.368773997
0.179076999 0.633391976 0.371246010
0.195343003 0.641174018 0.373259991
0.213378996 0.652405024 0.373290986
0.235259995 0.667877018 0.369567990
0.264373988 0.686676025 0.361633003
0.305694997 0.706359982 0.351166010
0.363341987 0.724182010 0.341277987
0.434540004 0.739287972 0.334533989
0.510712028 0.752776980 0.330413997
0.586456001 0.767760992 0.325103998
0.662903011 0.788055003 0.310730010
0.742859006 0.815674007 0.272002995
0.826874018 0.855163991 0.175629005
0.916442990 0.922791004 0.000000000
0.978515983 0.968140006 0.000000000
0.009460000 0.017364999 0.066588998
0.060637999 0.019653000 0.057556000
0.131194994 0.025726000 0.048553001
0.203979000 0.034942999 0.036072001
0.267089993 0.044707999 0.027892999
0.320495993 0.053436000 0.022217000
0.369049013 0.059113000 0.017151000
0.415587991 0.061340000 0.009918000
0.461486995 0.060821999 0.002655000
0.507874012 0.058440998 0.000000000
0.555724978 0.054839998 0.000000000
0.605468988 0.050446000 0.000000000
0.657500982 0.046356000 0.000000000
0.712646008 0.042266998 0.000000000
0.770721018 0.039246000 0.000000000
0.831299007 0.036132999 0.000000000
0.887695014 0.033904999 0.000000000
0.012482000 0.054687999 0.091705002
0.051605001 0.055388998 0.081359997
0.108733997 0.058410998 0.069214001
0.176025003 0.063598998 0.055573002
0.242004007 0.070525996 0.043457001
0.302123994 0.078735001 0.033325002
0.357360989 0.086060002 0.024139000
0.409790009 0.091674998 0.014374000
0.460875988 0.094727002 0.004517000
0.511291981 0.095673002 0.000000000
0.561676025 0.095031999 0.000000000
0.613159001 0.093658000 0.000000000
0.666472971 0.091980003 0.000000000
0.721862972 0.090301998 0.000000000
0.779784977 0.088623002 0.000000000
0.839630008 0.087279998 0.000000000
0.893249989 0.085570998 0.000000000
0.017852999 0.094818003 0.116393998
0.046326000 0.094116002 0.105713002
0.090942003 0.095337003 0.092224002
0.154053003 0.100616001 0.079314999
0.222075999 0.106536999 0.066161998
0.286987007 0.113372996 0.051910002
0.347808987 0.120911002 0.037932999
0.405456990 0.127441004 0.023224000
0.460999012 0.132355005 0.008179000
0.514984012 0.135376006 0.000000000
0.568297982 0.137237996 0.000000000
0.621643007 0.137999997 0.000000000
0.675994992 0.138183996 0.000000000
0.731903017 0.138428003 0.000000000
0.789734006 0.138396993 0.000000000
0.849030018 0.138091996 0.000000000
0.899841011 0.137756005 0.000000000
0.024689000 0.133026004 0.138579994
0.045623999 0.132477000 0.129333004
0.079193003 0.133606002 0.117371000
0.135498002 0.140717000 0.102050997
0.207488999 0.151458994 0.086852998
0.276367009 0.158629999 0.070556998
0.340546012 0.164734006 0.053406000
0.401885986 0.170807004 0.034942999
0.460723996 0.175872996 0.014435000
0.517853022 0.179656997 0.000336000
0.573943973 0.182494998 0.000000000
0.629577994 0.184508994 0.000000000
0.685424984 0.185912997 0.000000000
0.742218018 0.187255993 0.000000000
0.800414979 0.188416004 0.000000000
0.859375000 0.189208999 0.000000000
0.907135010 0.189575002 0.000000000
0.032349002 0.170012996 0.159149006
0.049469002 0.169616997 0.152161002
0.075195000 0.172211006 0.142853007
0.119690001 0.178680003 0.129210994
0.189117000 0.192993000 0.109650001
0.266997993 0.208221003 0.087677002
0.335693002 0.215667993 0.067870997
0.398589998 0.220367000 0.046753000
0.459564000 0.225067005 0.021088000
0.519073009 0.229065001 0.001282000
0.577484012 0.232299998 0.000000000
0.635101020 0.234924003 0.000000000
0.692627013 0.237274006 0.000000000
0.750518978 0.239135996 0.000000000
0.809418023 0.240844995 0.000000000
0.869018972 0.242278993 0.000000000
