public/lut/121.cube
TITLE "17x17x17 Adobe/IRIDAS cube 3D LUT exported with GrossGrade v0.2.2 (beta) 64 bit"
DOMAIN_MIN 0 0 0
DOMAIN_MAX 1 1 1
LUT_3D_SIZE 5
0.007904000 0.014984000 0.024444999
0.251648009 0.034302000 0.000000000
0.448974997 0.048308998 0.000000000
0.657378972 0.041565001 0.000000000
0.891112983 0.033142000 0.000000000
0.023071000 0.151855007 0.094360001
0.188324004 0.186278999 0.021698000
0.454528987 0.219909996 0.000000000
0.690581977 0.235351995 0.000000000
0.916046023 0.243439004 0.000000000
0.057739001 0.298218012 0.171112001
0.158660993 0.343079001 0.168823004
0.458465993 0.431731999 0.007111000
0.709685981 0.471619010 0.000000000
0.937439024 0.480834991 0.000000000
0.100189000 0.454284996 0.253417999
0.183777004 0.505707026 0.270233005
0.461243004 0.598450005 0.233032003
0.735565007 0.707549989 0.000000000
0.957794011 0.740020990 0.000000000
0.146179006 0.619659007 0.338257015
0.212769002 0.654143989 0.346801996
0.373046994 0.726746023 0.312346995
0.670409977 0.788208008 0.274993986
0.978209972 0.967406988 0.000000000
0.012634000 0.023254000 0.118285999
0.273589998 0.049988002 0.078217000
0.472716987 0.083678998 0.086364999
0.654724002 0.062224999 0.097900003
0.881500006 0.042144999 0.073638998
0.043793000 0.187804997 0.222289994
0.175963998 0.193085000 0.172119007
0.460570991 0.230437994 0.160675004
0.690734982 0.241180003 0.130797997
0.909851015 0.245514005 0.091063999
0.081696004 0.333130002 0.300049007
0.151549995 0.347411990 0.288116008
0.440124989 0.431519002 0.221496999
0.711822987 0.472748011 0.156646997
0.936767995 0.481261998 0.101593003
0.123259999 0.485473990 0.379272014
0.187896997 0.506072998 0.388274997
0.394989014 0.594025016 0.360107005
0.734772027 0.709625006 0.179230005
0.958069026 0.740082026 0.023864999
0.156311005 0.638916016 0.449126989
0.216308996 0.651978016 0.452576011
0.338683993 0.716674984 0.429535002
0.641846001 0.787536979 0.406006008
0.979645014 0.970000982 0.000000000
0.025635000 0.047607001 0.233002007
0.269347996 0.049316000 0.170349002
0.475432992 0.104919001 0.176330999
0.622406006 0.127318993 0.166808993
0.831664979 0.099486999 0.278320014
0.065063000 0.212890998 0.337036014
0.152069002 0.191254005 0.272704989
0.448516995 0.231506005 0.210906997
0.664641976 0.259705007 0.205475003
0.870177984 0.261229992 0.321532995
0.097930998 0.349730998 0.405701011
0.158112004 0.359283000 0.405791998
0.384490997 0.416106999 0.358123988
0.706023991 0.469940007 0.420715004
0.978393972 0.449187994 0.426941007
0.139892995 0.503997982 0.488494992
0.204467997 0.522736013 0.505463004
0.330444008 0.585632026 0.491699010
0.719237983 0.703125000 0.470093012
0.988861024 0.733703971 0.405364990
0.167724997 0.656463981 0.554625988
0.224976003 0.660919011 0.555634022
0.319550008 0.707885981 0.547515988
0.615020990 0.791199028 0.521270990
0.986176014 0.974120975 0.269836009
0.040619001 0.055420000 0.327300996
0.285064995 0.054260001 0.257445991
0.477355987 0.108062997 0.256226003
0.610870004 0.132568002 0.281127989
0.752318978 0.182494998 0.219909996
0.084595002 0.232452005 0.445313007
0.145050004 0.184906006 0.359833002
0.411864996 0.213318005 0.290648997
0.654663026 0.258513987 0.283722013
0.788421988 0.298218012 0.224579006
0.113525003 0.362304986 0.506470025
0.164368004 0.358123988 0.497283995
0.330871999 0.390228003 0.437103003
0.673400998 0.442108005 0.357208014
0.840911984 0.454010010 0.360015988
0.155150995 0.520659983 0.593810976
0.218200997 0.546082020 0.617278993
0.304657012 0.584228992 0.615234017
0.665619016 0.682648003 0.574036002
0.973601997 0.718291998 0.674835026
0.184265003 0.682617009 0.664062977
0.242248997 0.692291021 0.669799984
0.315948009 0.711456001 0.673065007
0.551239014 0.799773991 0.645569026
0.979674995 0.958130002 0.634979010
0.071075000 0.100708000 0.464325011
0.315124989 0.068236999 0.345703006
0.496277004 0.116210997 0.343903005
0.632385015 0.147034004 0.335907012
0.730468988 0.162444994 0.750122011
0.107147001 0.256500006 0.558898985
0.158813000 0.187836006 0.444489002
0.411987007 0.203125000 0.368010998
0.643890023 0.253387004 0.337401986
0.789276004 0.322937012 0.768616021
0.133026004 0.381621987 0.614684999
0.164856002 0.343048006 0.567780018
0.295471013 0.336425990 0.483489990
0.632598996 0.394012004 0.393799007
0.870392025 0.491668999 0.806334972
0.166778997 0.525421023 0.686890006
0.216003001 0.519286990 0.679229975
0.276793987 0.520049989 0.664031982
0.576996028 0.606109977 0.595153987
0.941649973 0.700866997 0.773041010
0.197968006 0.693786979 0.761870980
0.257598996 0.711760998 0.770111024
0.327454001 0.729614019 0.777557015
0.440764993 0.787688971 0.793182015
0.945739985 0.957520008 0.731293023
