public/lut/122.cube
TITLE "17x17x17 Adobe/IRIDAS cube 3D LUT exported with GrossGrade v0.2.2 (beta) 64 bit"
DOMAIN_MIN 0 0 0
DOMAIN_MAX 1 1 1
LUT_3D_SIZE 5
0.000000000 0.000000000 0.000000000
0.159271002 0.000000000 0.000000000
0.377532989 0.000000000 0.000000000
0.580565989 0.000000000 0.000000000
0.774505973 0.000000000 0.000000000
0.000000000 0.210418999 0.000000000
0.140717000 0.212830007 0.000000000
0.366851985 0.215178996 0.000000000
0.576569021 0.217742994 0.000000000
0.778747976 0.221160993 0.000000000
0.000000000 0.435180992 0.000000000
0.116333000 0.442474008 0.000000000
0.350555003 0.450073004 0.000000000
0.563049018 0.453063995 0.000000000
0.751128972 0.442047000 0.000000000
0.000000000 0.656737983 0.000000000
0.089722000 0.664520025 0.000000000
0.321594000 0.653869987 0.000000000
0.527984977 0.647400022 0.000000000
0.720000982 0.645354986 0.000000000
0.000000000 0.845763981 0.001587000
0.065277003 0.839600027 0.000214000
0.301941007 0.839049995 0.000000000
0.514526010 0.842559993 0.000000000
0.714354992 0.851562977 0.000000000
0.028991999 0.028991999 0.233521000
0.168945000 0.028991999 0.233521000
0.388733000 0.003357000 0.229889005
0.593322992 0.000000000 0.230927005
0.790802002 0.000000000 0.236145005
0.022491001 0.224213004 0.236816004
0.151398003 0.227782995 0.242126003
0.381042004 0.227965996 0.244873002
0.594268978 0.229126006 0.250304997
0.802155018 0.230194002 0.258087009
0.000000000 0.453491002 0.246520996
0.119629003 0.463135004 0.256072998
0.366149992 0.471558005 0.267058998
0.579010010 0.467101991 0.263915986
0.774353027 0.458130002 0.251159996
0.000000000 0.681273997 0.271728992
0.084351003 0.683228016 0.270446986
0.338073999 0.677062988 0.262816995
0.553802013 0.675018013 0.256408989
0.758056998 0.677703977 0.243835002
0.000000000 0.869597971 0.273773015
0.011230000 0.872466981 0.266663015
0.320190012 0.881012022 0.257629007
0.547820985 0.893341005 0.247711003
0.767273009 0.912627995 0.181427002
0.039825000 0.039825000 0.467009991
0.173645005 0.041016001 0.471282989
0.400359988 0.035889000 0.469330013
0.611298025 0.024048001 0.468414009
0.812897027 0.000000000 0.472595006
0.040619001 0.237243995 0.476958990
0.161438003 0.242614999 0.486205995
0.395752013 0.245148003 0.491180003
0.615082026 0.247437000 0.496612996
0.824401975 0.247954994 0.504088998
0.034697998 0.477631003 0.489684999
0.140655994 0.488617003 0.504211009
0.382934988 0.495543987 0.515442014
0.598937988 0.487549007 0.508026004
0.800261974 0.481720001 0.501221001
0.003540000 0.713074028 0.515349984
0.107391000 0.709685981 0.513122976
0.360686988 0.707611024 0.511353016
0.583770990 0.708984017 0.511565983
0.795624018 0.715270996 0.512268007
0.000000000 0.905089974 0.514190972
0.031158000 0.913543999 0.517273009
0.352416992 0.925994992 0.523284972
0.588104010 0.943695009 0.529205024
0.818023980 0.969452024 0.522063971
0.050689999 0.050689999 0.684813976
0.176758006 0.053314000 0.692718983
0.407135010 0.057434000 0.694945991
0.625153005 0.066040002 0.695770025
0.832489014 0.074401997 0.700073004
0.057128999 0.249878004 0.701721013
0.171599999 0.257019013 0.715057015
0.406219006 0.263641000 0.724059999
0.632354975 0.271454006 0.732116997
0.841125011 0.274260998 0.732757986
0.072082996 0.498596013 0.720763981
0.167389005 0.511687994 0.740172982
0.398559988 0.516234994 0.748444021
0.619049013 0.511229992 0.741180003
0.826996028 0.510833979 0.738036990
0.094848998 0.737761974 0.744781017
0.162201002 0.736145020 0.745392025
0.389221013 0.738341987 0.748596013
0.615783989 0.744629025 0.754088998
0.835632026 0.754729986 0.763091981
0.044250000 0.942260981 0.747559011
0.144226000 0.954468012 0.758971989
0.395844012 0.970734000 0.773346007
0.633270025 0.992736995 0.790404975
0.870392025 0.998596013 0.806273997
0.080536000 0.080536000 0.888854980
0.193909004 0.087279998 0.900390983
0.415618986 0.102050997 0.906432986
0.636992991 0.127716005 0.909973025
0.848021984 0.164642006 0.915648997
0.098328002 0.270904988 0.912383974
0.203186005 0.281342000 0.929320991
0.422149986 0.295013011 0.942351997
0.649260998 0.315582007 0.953094006
0.853362978 0.330170006 0.946502984
0.138885006 0.522216976 0.937012017
0.227782995 0.537781000 0.959990978
0.425902992 0.540741026 0.962921023
0.642700016 0.545013011 0.959625006
0.852385998 0.557494998 0.960510015
0.195923001 0.758911014 0.955901980
0.254272014 0.762573004 0.962401986
0.440703988 0.770721018 0.970275998
0.660583019 0.783966005 0.980835021
0.877563000 0.806640983 0.995360970
0.253845006 0.971862972 0.967224002
0.311309993 0.987945974 0.984467030
0.512115002 0.999939024 0.999664009
0.711669981 1.000000000 1.000000000
0.928740978 1.000000000 1.000000000
