public/lut/122.cube
TITLE "17x17x17 Adobe/IRIDAS cube 3D LUT exported with GrossGrade v0.2.2 (beta) 64 bit"
DOMAIN_MIN 0 0 0
DOMAIN_MAX 1 1 1
LUT_3D_SIZE 17
0.000000000 0.000000000 0.000000000
0.029479999 0.000000000 0.000000000
0.053467002 0.000000000 0.000000000
0.101287998 0.000000000 0.000000000
0.159271002 0.000000000 0.000000000
0.216399997 0.000000000 0.000000000
0.271026999 0.000000000 0.000000000
0.325042993 0.000000000 0.000000000
0.377532989 0.000000000 0.000000000
0.428772002 0.000000000 0.000000000
0.480042011 0.000000000 0.000000000
0.530578971 0.000000000 0.000000000
0.580565989 0.000000000 0.000000000
0.629882991 0.000000000 0.000000000
0.678588986 0.000000000 0.000000000
0.726929009 0.000000000 0.000000000
0.774505973 0.000000000 0.000000000
0.000000000 0.027802000 0.000000000
0.027892999 0.028472999 0.000000000
0.052765001 0.027069001 0.000000000
0.098389000 0.026977999 0.000000000
0.156494007 0.026184000 0.000000000
0.213501006 0.025420999 0.000000000
0.269196004 0.024658000 0.000000000
0.322661996 0.023864999 0.000000000
0.375640988 0.023071000 0.000000000
0.427673012 0.022338999 0.000000000
0.479218006 0.022278000 0.000000000
0.530089974 0.022278000 0.000000000
0.580048025 0.022095000 0.000000000
0.630127013 0.021545000 0.000000000
0.679138005 0.021545000 0.000000000
0.728271008 0.021484001 0.000000000
0.776549995 0.021545000 0.000000000
0.000000000 0.091216996 0.000000000
0.026366999 0.091278002 0.000000000
0.050811999 0.091216996 0.000000000
0.093323000 0.091216996 0.000000000
0.151824996 0.091216996 0.000000000
0.209868997 0.091155998 0.000000000
0.265594006 0.090972997 0.000000000
0.320160002 0.090636998 0.000000000
0.373656988 0.090636998 0.000000000
0.425873011 0.090576001 0.000000000
0.477631003 0.090576001 0.000000000
0.528961003 0.090576001 0.000000000
0.579406977 0.090576001 0.000000000
0.629669011 0.090576001 0.000000000
0.679503977 0.090972997 0.000000000
0.728882015 0.090972997 0.000000000
0.777557015 0.091370001 0.000000000
0.000000000 0.152069002 0.000000000
0.024780000 0.152344003 0.000000000
0.048218001 0.152587995 0.000000000
0.087646000 0.152832001 0.000000000
0.146148995 0.153320000 0.000000000
0.205200002 0.153778002 0.000000000
0.261382997 0.153931007 0.000000000
0.316376001 0.154174998 0.000000000
0.370117009 0.154419005 0.000000000
0.423339993 0.154785007 0.000000000
0.475585997 0.154877007 0.000000000
0.527130008 0.155304000 0.000000000
0.578217030 0.155700997 0.000000000
0.628875971 0.156036004 0.000000000
0.679046988 0.156494007 0.000000000
0.728820980 0.157226995 0.000000000
0.778778017 0.157683998 0.000000000
0.000000000 0.210418999 0.000000000
0.023254000 0.210938007 0.000000000
0.045531999 0.211456001 0.000000000
0.081634998 0.212097004 0.000000000
0.140717000 0.212830007 0.000000000
0.200286999 0.213318005 0.000000000
0.257079989 0.213989004 0.000000000
0.312530994 0.214690998 0.000000000
0.366851985 0.215178996 0.000000000
0.419921994 0.215850994 0.000000000
0.472290009 0.216491997 0.000000000
0.524811029 0.217194006 0.000000000
0.576569021 0.217742994 0.000000000
0.627624989 0.218505993 0.000000000
0.678497016 0.219359994 0.000000000
0.729278982 0.220032007 0.000000000
0.778747976 0.221160993 0.000000000
0.000000000 0.267365009 0.000000000
0.021698000 0.268523991 0.000000000
0.042725001 0.269286990 0.000000000
0.075745001 0.269989014 0.000000000
0.134795994 0.270904988 0.000000000
0.195373997 0.271851003 0.000000000
0.252350003 0.272949010 0.000000000
0.308104992 0.273865014 0.000000000
0.362762004 0.274719000 0.000000000
0.416626006 0.275635004 0.000000000
0.469940007 0.276611000 0.000000000
0.522552013 0.277648985 0.000000000
0.574828982 0.278472990 0.000000000
0.626403987 0.279572010 0.000000000
0.677917004 0.280669987 0.000000000
0.728911996 0.282103986 0.000000000
0.779174984 0.283385992 0.000000000
0.000000000 0.323852986 0.000000000
0.020172000 0.325103998 0.000000000
0.039825000 0.326233000 0.000000000
0.069458000 0.327300996 0.000000000
0.129210994 0.328429997 0.000000000
0.190216005 0.329650998 0.000000000
0.247528002 0.330902010 0.000000000
0.303741008 0.332152992 0.000000000
0.359008998 0.333344012 0.000000000
0.413329989 0.334686011 0.000000000
0.466948986 0.335967988 0.000000000
0.520049989 0.337249994 0.000000000
0.572937012 0.338501006 0.000000000
0.625092030 0.340393007 0.000000000
0.676482975 0.341704994 0.000000000
0.726166010 0.341277987 0.000000000
0.772369027 0.339477986 0.000000000
0.000000000 0.379700005 0.000000000
0.018616000 0.381316990 0.000000000
0.036713000 0.382690012 0.000000000
0.063049003 0.384124994 0.000000000
0.122803003 0.385589987 0.000000000
0.184753001 0.387053996 0.000000000
0.242676005 0.388550013 0.000000000
0.299133003 0.390197992 0.000000000
0.354766995 0.391754001 0.000000000
0.409606993 0.393341005 0.000000000
0.463683993 0.395172000 0.000000000
0.517578006 0.397064000 0.000000000
0.570281982 0.398589998 0.000000000
0.621155024 0.398285002 0.000000000
0.669768989 0.396881014 0.000000000
0.717254996 0.394134998 0.000000000
0.761565983 0.391205013 0.000000000
0.000000000 0.435180992 0.000000000
0.017059000 0.437164009 0.000000000
0.033721998 0.438933998 0.000000000
0.055695001 0.440613002 0.000000000
0.116333000 0.442474008 0.000000000
0.179168999 0.444243997 0.000000000
0.237762004 0.446013987 0.000000000
0.294647008 0.448058993 0.000000000
0.350555003 0.450073004 0.000000000
0.406096995 0.452362001 0.000000000
0.460357994 0.453887999 0.000000000
0.512817025 0.454070985 0.000000000
0.563049018 0.453063995 0.000000000
0.612121999 0.450439006 0.000000000
0.658843994 0.447326988 0.000000000
0.706116021 0.444213986 0.000000000
0.751128972 0.442047000 0.000000000
0.000000000 0.490601003 0.000000000
0.015533000 0.492828012 0.000000000
0.030701000 0.494904011 0.000000000
0.048827998 0.496886998 0.000000000
0.109985001 0.498993009 0.000000000
0.173797995 0.501190007 0.000000000
0.232604995 0.503632009 0.000000000
0.290131003 0.506317019 0.000000000
0.346466005 0.507996023 0.000000000
0.401001006 0.508361995 0.000000000
0.453644007 0.507659972 0.000000000
0.504028022 0.505218983 0.000000000
0.552917004 0.502013981 0.000000000
0.601471007 0.499237001 0.000000000
0.648528993 0.497070014 0.000000000
0.696106017 0.494720012 0.000000000
0.742249012 0.492644995 0.000000000
0.000000000 0.545898020 0.000000000
0.013947000 0.548492014 0.000000000
0.027710000 0.550841987 0.000000000
0.042755000 0.553223014 0.000000000
0.103577003 0.555877984 0.000000000
0.168792993 0.558745980 0.000000000
0.227385998 0.560882986 0.000000000
0.284301996 0.561950982 0.000000000
0.339630008 0.561249018 0.000000000
0.392455995 0.558533013 0.000000000
0.443450987 0.555481017 0.000000000
0.493591011 0.552917004 0.000000000
0.543426991 0.550536990 0.000000000
0.592406988 0.548340023 0.000000000
0.639434993 0.546630979 0.000000000
0.686859012 0.545073986 0.000000000
0.733551025 0.543518007 0.000000000
0.000000000 0.601318002 0.000000000
0.012421000 0.603972971 0.000000000
0.025269000 0.607086003 0.000000000
0.036316000 0.610291004 0.000244000
0.097382002 0.612426996 0.000000000
0.162414998 0.613982975 0.000000000
0.220795006 0.613524973 0.000000000
0.276336998 0.610900998 0.000000000
0.329955995 0.607726991 0.000000000
0.382293999 0.605225027 0.000000000
0.434082001 0.602966011 0.000000000
0.484894007 0.600921988 0.000000000
0.534729004 0.599120975 0.000000000
0.583739996 0.597594976 0.000000000
0.631255984 0.596466005 0.000000000
0.679320991 0.595398009 0.000000000
0.725127995 0.594971001 0.000000000
0.000000000 0.656737983 0.000000000
0.010864000 0.660125971 0.001190000
0.022278000 0.663055003 0.000977000
0.030273000 0.665069997 0.000793000
0.089722000 0.664520025 0.000000000
0.153381005 0.661773980 0.000000000
0.211334005 0.658721983 0.000000000
0.267212003 0.656157970 0.000000000
0.321594000 0.653869987 0.000000000
0.374451011 0.652007997 0.000000000
0.426117003 0.650452018 0.000000000
0.477600008 0.648742974 0.000000000
0.527984977 0.647400022 0.000000000
0.576416016 0.646820009 0.000000000
0.625792980 0.645690978 0.000000000
0.673523009 0.645537972 0.000000000
0.720000982 0.645354986 0.000000000
0.000000000 0.711760998 0.002655000
0.009308000 0.714965999 0.004578000
0.019257000 0.714752018 0.003784000
0.025787000 0.711731017 0.000153000
0.081421003 0.708465993 0.000000000
0.144347996 0.706023991 0.000000000
0.203674003 0.703643978 0.000000000
0.260071009 0.701629996 0.000000000
0.315246999 0.699676991 0.000000000
0.368591011 0.698364019 0.000000000
0.420287997 0.697449028 0.000000000
0.472075999 0.696259022 0.000000000
0.521544993 0.696166992 0.000000000
0.570648015 0.695953012 0.000000000
0.621062994 0.695128977 0.000000000
0.669830024 0.695343018 0.000000000
0.715880990 0.696380973 0.000000000
0.000000000 0.762908995 0.006897000
0.007782000 0.760437012 0.001678000
0.016174000 0.757507026 0.000000000
0.020599000 0.754760981 0.000000000
0.074401997 0.752411008 0.000000000
0.138031006 0.750397027 0.000000000
0.197784007 0.748534977 0.000000000
0.253998011 0.747223020 0.000000000
0.308898985 0.746155024 0.000000000
0.363007009 0.745239019 0.000000000
0.415497005 0.744629025 0.000000000
0.467101991 0.744262993 0.000000000
0.518065989 0.744354010 0.000000000
0.567291021 0.744812012 0.000000000
0.616973996 0.745453000 0.000000000
0.666687012 0.746185005 0.000000000
0.714538991 0.747283995 0.000000000
0.000000000 0.804840028 0.000793000
0.006195000 0.802734017 0.000793000
0.013153000 0.800354004 0.000793000
0.015869001 0.798218012 0.000793000
0.068512000 0.796387017 0.000000000
0.131683007 0.795226991 0.000000000
0.192200005 0.794036984 0.000000000
0.249390006 0.793213010 0.000000000
0.304688007 0.792846978 0.000000000
0.358153999 0.792815983 0.000000000
0.411132991 0.792725027 0.000000000
0.464172006 0.792663991 0.000000000
0.515075982 0.793609977 0.000000000
0.566649973 0.794128001 0.000000000
0.615478992 0.796020985 0.000000000
0.662781000 0.798461974 0.000000000
0.713104010 0.799591005 0.000000000
0.000000000 0.845763981 0.001587000
0.004669000 0.844177008 0.001587000
0.010071000 0.842589974 0.000793000
0.010590000 0.841094971 0.000793000
0.065277003 0.839600027 0.000214000
0.129363999 0.839049995 0.000000000
0.187378004 0.839568973 0.000000000
0.245544001 0.839110970 0.000000000
0.301941007 0.839049995 0.000000000
0.355224997 0.839995980 0.000000000
0.408751994 0.840668023 0.000000000
0.462372005 0.841461003 0.000000000
0.514526010 0.842559993 0.000000000
0.565521002 0.844177008 0.000000000
0.614929020 0.846466005 0.000000000
0.664703012 0.849182010 0.000000000
0.714354992 0.851562977 0.000000000
0.003845000 0.003845000 0.043915000
0.033202998 0.003845000 0.043030001
0.059296001 0.004639000 0.040924001
0.102752998 0.000854000 0.039398000
0.160521999 0.000000000 0.038635001
0.217377007 0.000000000 0.037842002
0.272644013 0.000000000 0.037842002
0.326323986 0.000000000 0.037842002
0.378845006 0.000000000 0.037108999
0.430756003 0.000000000 0.037445001
0.481812000 0.000000000 0.037842002
0.532378972 0.000000000 0.037842002
0.582702994 0.000000000 0.038605001
0.632293999 0.000000000 0.038787998
0.681334972 0.000000000 0.039429002
0.730010986 0.000000000 0.040222000
0.777831972 0.000000000 0.040924001
0.003845000 0.032349002 0.042328000
0.031799000 0.031647000 0.041687001
0.057098001 0.030913999 0.040924001
0.100249998 0.027832000 0.040222000
0.157622993 0.024750000 0.039429002
0.214935005 0.023071000 0.039246000
0.270049989 0.022583000 0.038695998
0.324310005 0.021545000 0.038695998
0.377319008 0.020752000 0.039092999
0.429412991 0.019958001 0.039429002
0.480865002 0.019226000 0.039429002
0.532073975 0.018188000 0.040222000
0.582916021 0.016907001 0.040984999
0.632874012 0.016113000 0.041687001
0.682250977 0.015381000 0.042419001
0.731719971 0.014587000 0.043274000
0.779724002 0.013794000 0.044647001
0.000061000 0.092528999 0.040924001
0.026458999 0.092560001 0.040924001
0.050903000 0.092926003 0.040924001
0.093353003 0.093566999 0.039519999
0.153015003 0.092377000 0.033080999
0.212157995 0.091155998 0.028290000
0.268005013 0.090607002 0.026703000
0.322326988 0.089905001 0.025757000
0.375885010 0.089507997 0.025055001
0.428344995 0.089142002 0.024261000
0.480621010 0.088715002 0.023499001
0.532073975 0.088408999 0.022766000
0.582672000 0.088013001 0.022095000
0.633484006 0.087554999 0.021300999
0.683288991 0.087096997 0.020416001
0.733031988 0.086243004 0.016814999
0.781921029 0.086212002 0.015320000
0.000000000 0.153075993 0.040924001
0.024780000 0.153564006 0.041625999
0.048218001 0.154021993 0.042296998
0.081848003 0.155457005 0.033844002
0.145996004 0.155791998 0.028137000
0.207092002 0.155548006 0.026123000
0.263947010 0.155242994 0.025330000
0.319153011 0.154967993 0.024444999
0.372954994 0.155059993 0.023651000
0.426270008 0.155182004 0.022857999
0.478668004 0.155273005 0.022583000
0.530578971 0.155396000 0.022095000
0.582153022 0.155396000 0.021300999
0.632934988 0.155640006 0.020508001
0.683318973 0.155853003 0.018921001
0.733947992 0.155640006 0.017059000
0.783752024 0.155579001 0.012573000
0.000000000 0.211609006 0.042236000
0.023254000 0.212463006 0.042998999
0.045623999 0.213012993 0.043853998
0.071167000 0.214690998 0.033507999
0.138062000 0.215911999 0.026458999
0.202025995 0.216248006 0.025330000
0.259155005 0.216308996 0.025330000
0.315154999 0.216582999 0.024536001
0.369751006 0.216887996 0.023743000
0.423400998 0.217254996 0.022949001
0.476471007 0.217712000 0.022247000
0.528778017 0.218200997 0.021454001
0.580627024 0.218628004 0.021057000
0.632233024 0.219025001 0.020447001
0.683380008 0.219696000 0.019805999
0.734528005 0.220122993 0.019012000
0.785187006 0.220458999 0.016357001
0.000000000 0.269165009 0.043853998
0.021698000 0.270141989 0.045074001
0.042815998 0.271057010 0.045837000
0.062316999 0.272736013 0.041260000
0.130431995 0.274444997 0.027649000
0.196167007 0.275481999 0.023743000
0.254364014 0.276214987 0.023224000
0.310822010 0.276793987 0.026215000
0.365875006 0.277465999 0.030456999
0.420318991 0.278106987 0.032531999
0.473785013 0.278748006 0.034363002
0.526337028 0.279846013 0.035399999
0.579010010 0.280609012 0.035583001
0.631377995 0.281219006 0.034790002
0.683075011 0.282348990 0.030060001
0.735291004 0.283295006 0.019774999
0.786162972 0.283600003 0.018219000
0.000000000 0.325836003 0.046417002
0.020172000 0.327179015 0.047118999
0.039917000 0.328429997 0.048462000
0.056731999 0.329986989 0.048401002
0.123474002 0.332305998 0.028259000
0.190154999 0.333739996 0.028441999
0.249237001 0.334838986 0.032439999
0.306183010 0.335875988 0.035980001
0.361907989 0.336944997 0.040130999
0.416687012 0.338012993 0.042877000
0.470764011 0.339080989 0.045166001
0.524231017 0.340301991 0.046813998
0.577515006 0.341675013 0.047943000
0.630340993 0.343261987 0.047943000
0.681824028 0.343811005 0.041503999
0.731323004 0.342101991 0.018890001
0.777190983 0.340424001 0.012115000
0.000000000 0.381958008 0.049500000
0.018616000 0.383697987 0.050811999
0.036835000 0.385100991 0.052124001
0.052368000 0.386840999 0.052855998
0.116699003 0.389679015 0.036681999
0.183960006 0.391449004 0.037415002
0.244170994 0.392852992 0.042603001
0.301696986 0.394318014 0.045745999
0.357665986 0.395873994 0.048156999
0.412903011 0.397430003 0.050415002
0.467896014 0.399017006 0.052673001
0.522278011 0.400786996 0.054687999
0.574950993 0.401611000 0.054412998
0.625397027 0.400909007 0.046813998
0.674438000 0.398804009 0.028229000
0.721008003 0.395904988 0.015717000
0.765411019 0.393371999 0.008911000
0.000000000 0.437927008 0.052979000
0.017059000 0.439850003 0.054535002
0.034118999 0.441742003 0.056366000
0.047791000 0.443664998 0.057647999
0.109710999 0.446837991 0.046783000
0.177581996 0.449036002 0.045867998
0.238830999 0.450774997 0.049438000
0.296967000 0.452605993 0.052368000
0.353545994 0.454955995 0.055114999
0.409485012 0.456970006 0.057831001
0.464293987 0.457794011 0.058533002
0.516785026 0.457428008 0.055939000
0.567505002 0.455871999 0.047180001
0.615997016 0.453002989 0.028778000
0.663268983 0.449981987 0.014832000
0.710236013 0.447418004 0.010437000
0.756072998 0.445434988 0.008179000
0.000000000 0.493651986 0.057526000
0.015533000 0.496001989 0.059264999
0.031433001 0.498108000 0.060973998
0.043182001 0.500458002 0.063231997
0.102692001 0.503875971 0.053314000
0.171387002 0.506500006 0.053070001
0.233521000 0.509002984 0.056731999
0.292266995 0.511443973 0.059540000
0.348969012 0.512786984 0.060759999
0.403717011 0.512817025 0.059723001
0.456818014 0.511260986 0.054931998
0.507659972 0.508391976 0.043701001
0.556824028 0.505585015 0.027191000
0.605468988 0.503021002 0.014099000
0.653687000 0.500823975 0.010956000
0.701964974 0.498504996 0.007385000
0.747711003 0.497040004 0.007446000
0.000000000 0.549408019 0.062683001
0.013947000 0.552062988 0.064331003
0.028380999 0.554565012 0.066650003
0.038787998 0.557159007 0.069305003
0.095062003 0.561249018 0.060150001
0.164764002 0.564575016 0.059875000
0.227660999 0.566254020 0.062194999
0.285979986 0.566681027 0.061554000
0.341704994 0.565338016 0.058440998
0.394897014 0.562500000 0.049651999
0.446747005 0.559661984 0.038054999
0.497864008 0.557036996 0.025330000
0.547577024 0.555023015 0.013123000
0.596862972 0.552978992 0.010559000
0.645781994 0.551117003 0.006653000
0.694122016 0.549530029 0.006653000
0.740234017 0.548552990 0.006348000
0.000000000 0.605132997 0.068236999
0.012421000 0.608276010 0.070281997
0.025390999 0.611481011 0.072967999
0.034515001 0.614471018 0.076110996
0.084839001 0.617888987 0.064971998
0.155670002 0.619629025 0.062073000
0.219726995 0.618317008 0.059418000
0.276885986 0.615265012 0.051819000
0.332091987 0.612244010 0.041962001
0.386078000 0.609802008 0.031189000
0.438324004 0.607819021 0.019012000
0.489226997 0.606018007 0.012329000
0.540130973 0.604187012 0.009796000
0.589630008 0.602692008 0.005920000
0.638794005 0.601500988 0.005920000
0.687041998 0.600768983 0.005859000
0.733489990 0.600615978 0.005676000
0.000000000 0.661255002 0.074738003
0.010864000 0.665069997 0.077362001
0.022278000 0.667419016 0.078887999
0.030609000 0.669158995 0.081450999
0.068695001 0.669281006 0.061767999
0.143035993 0.666504025 0.049011000
0.210143998 0.663788021 0.041931000
0.267791986 0.661652029 0.033020001
0.323792011 0.659484982 0.020416001
0.377837986 0.657531977 0.012238000
0.430725008 0.656005979 0.011139000
0.482849002 0.654572010 0.008240000
0.533630013 0.653594971 0.005188000
0.582854986 0.653168023 0.005188000
0.633056998 0.652161002 0.005066000
0.681427002 0.652130008 0.004974000
0.727844000 0.652740002 0.005219000
0.000000000 0.717132986 0.081207000
0.009308000 0.720000982 0.083251998
0.019257000 0.717864990 0.080963001
0.026854999 0.714752018 0.079285003
0.050170999 0.713684022 0.047332998
0.128571004 0.712036014 0.025513001
0.201660007 0.709960997 0.015533000
0.260742009 0.708007991 0.011871000
0.317139000 0.706359982 0.011200000
0.371520996 0.705138981 0.007935000
0.425049007 0.704163015 0.004425000
0.477385998 0.703429997 0.004425000
0.528411984 0.703185976 0.004425000
0.578857005 0.702971995 0.004272000
0.627929986 0.702880979 0.004272000
0.676697016 0.704070985 0.004272000
0.726013005 0.704223990 0.004578000
0.000000000 0.766815007 0.083282001
0.007782000 0.763153017 0.079620004
0.016174000 0.760712028 0.076752000
0.022949001 0.758484006 0.076599002
0.037354000 0.758301020 0.033234000
0.120209001 0.757049978 0.011993000
0.196960002 0.755309999 0.008636000
0.256103992 0.754028022 0.005371000
0.312774986 0.753203988 0.003601000
0.367675990 0.752624989 0.003693000
0.421294987 0.752197027 0.003693000
0.473266989 0.752563000 0.003601000
0.524536014 0.753021002 0.003601000
0.576323986 0.752807975 0.003021000
0.625885010 0.753997982 0.003693000
0.676117003 0.755096018 0.003784000
0.724030018 0.757049978 0.003754000
0.000000000 0.808471978 0.079102002
0.006195000 0.806029975 0.076355003
0.013123000 0.804320991 0.073913999
0.017700000 0.802703977 0.074615002
0.036194000 0.802794993 0.031769000
0.116943002 0.802184999 0.005920000
0.193297997 0.800903022 0.002655000
0.253174007 0.800323009 0.002960000
0.309630990 0.800354004 0.002960000
0.364104986 0.800659001 0.002899000
0.418090999 0.801208019 0.002899000
0.471251994 0.801757991 0.002228000
0.523284972 0.802460015 0.002380000
0.574187994 0.803893983 0.003021000
0.624664009 0.805817008 0.003052000
0.675781012 0.807403982 0.003052000
0.726806998 0.809234977 0.002319000
0.000000000 0.850585997 0.076812997
0.004669000 0.849059999 0.074890003
0.010071000 0.847931027 0.072448999
0.013062000 0.846648991 0.073669001
0.030762000 0.847899973 0.030853000
0.112640001 0.847931027 0.005035000
0.189636007 0.847442985 0.001221000
0.248535007 0.847899973 0.002228000
0.305388987 0.848632991 0.002228000
0.361176014 0.849364996 0.001465000
0.416289985 0.850158989 0.001770000
0.470183998 0.851440012 0.002228000
0.521422982 0.853546023 0.002258000
0.574768007 0.855225027 0.002319000
0.626801014 0.857299984 0.001587000
0.675507009 0.861052990 0.001526000
0.725432992 0.863830984 0.000793000
0.014679000 0.014679000 0.108521000
0.043152001 0.015381000 0.108551003
0.069182999 0.015381000 0.107086003
0.107513003 0.015289000 0.106812000
0.163268998 0.010254000 0.105988003
0.220245004 0.001343000 0.104644999
0.274841011 0.000000000 0.103821002
0.328613013 0.000000000 0.103546001
0.381195009 0.000000000 0.103455000
0.433167011 0.000000000 0.103759997
0.484467000 0.000000000 0.104156002
0.535156012 0.000000000 0.104523003
0.585296988 0.000000000 0.105224997
0.635070980 0.000000000 0.106049001
0.684448004 0.000000000 0.107024997
0.733551025 0.000000000 0.108153999
0.781921029 0.000000000 0.109252997
0.015381000 0.042998999 0.108521000
0.043182001 0.042328000 0.107879996
0.068787001 0.042296998 0.107879996
0.104675002 0.041595001 0.107818998
0.160767004 0.037170000 0.107391000
0.217833996 0.026123000 0.106140003
0.273009986 0.021484001 0.105621003
0.326995999 0.021484001 0.105621003
0.380066007 0.020752000 0.105803996
0.432251006 0.019958001 0.106170997
0.483947992 0.018890001 0.106841996
0.535156012 0.017639000 0.107543997
0.585906982 0.016845999 0.108489998
0.635985970 0.016052000 0.109618999
0.685698986 0.015289000 0.110656999
0.735413015 0.014404000 0.112090997
0.784241021 0.013641000 0.113738999
0.013794000 0.096619003 0.108153999
0.040222000 0.097015001 0.108489998
0.065033004 0.097321004 0.108825997
0.099457003 0.097321004 0.108489998
0.155853003 0.096252002 0.108032003
0.214507997 0.094420999 0.106841996
0.270934999 0.092528999 0.106017999
0.325652987 0.091095001 0.105590999
0.379088998 0.090088002 0.105224997
0.431854010 0.089233004 0.105224997
0.484100014 0.088806003 0.105926998
0.535399973 0.088348001 0.106232002
0.586578012 0.087798998 0.106934004
0.637328982 0.086639002 0.107299998
0.687530994 0.085235998 0.107605003
0.737456977 0.083038002 0.107239000
0.787567019 0.078247003 0.106170997
0.001953000 0.156951994 0.107849002
0.026764000 0.157622993 0.108185001
0.050018001 0.158172995 0.108887002
0.089019999 0.158875003 0.108733997
0.149535999 0.158875003 0.108459003
0.209990993 0.158660993 0.108214997
0.266876012 0.157958999 0.107849002
0.322418004 0.157440007 0.107758000
0.376343012 0.157104000 0.107758000
0.429688007 0.157042995 0.108245999
0.482452005 0.156891003 0.108825997
0.534484982 0.157074004 0.109650001
0.585784972 0.157440007 0.110381998
0.637085021 0.157166004 0.111206003
0.688140988 0.156799003 0.111571997
0.739044011 0.155823007 0.111389004
0.788757026 0.154387996 0.110198997
0.000000000 0.215485007 0.108185001
0.022430001 0.216370001 0.109160997
0.044799998 0.217162997 0.109924003
0.075805999 0.218505993 0.109618999
0.141509995 0.219208002 0.109343998
0.204437003 0.219666004 0.109833002
0.261992991 0.219817996 0.110106997
0.318268001 0.219817996 0.110656999
0.372893989 0.219909996 0.111083999
0.426665992 0.220214993 0.111846998
0.479950011 0.220612004 0.113128997
0.532622993 0.221129999 0.114074998
0.584838986 0.221558005 0.115295000
0.636443973 0.222014993 0.116210997
0.687835991 0.222412005 0.117064998
0.739319026 0.222381994 0.117339998
