public/lut/123.cube
TITLE "17x17x17 Adobe/IRIDAS cube 3D LUT exported with GrossGrade v0.2.2 (beta) 64 bit"
DOMAIN_MIN 0 0 0
DOMAIN_MAX 1 1 1
LUT_3D_SIZE 17
0.000000000 0.000000000 0.000000000
0.000000000 0.000000000 0.000000000
0.020691000 0.000000000 0.000000000
0.088836998 0.000000000 0.000000000
0.163756996 0.000000000 0.000000000
0.237976000 0.000000000 0.000000000
0.314940989 0.000000000 0.000000000
0.392670006 0.000000000 0.000000000
0.471343994 0.000000000 0.000000000
0.551208019 0.000000000 0.000000000
0.632018983 0.000000000 0.000000000
0.713440001 0.000000000 0.000000000
0.795836985 0.000000000 0.000000000
0.879882991 0.000000000 0.000000000
0.957458019 0.000000000 0.000000000
0.981812000 0.000000000 0.000000000
0.999969006 0.000000000 0.000000000
0.000000000 0.027802000 0.000000000
0.002258000 0.020843999 0.000000000
0.008209000 0.014740000 0.000000000
0.072173998 0.007782000 0.000000000
0.148010001 0.005951000 0.000000000
0.224243000 0.006561000 0.000000000
0.302886993 0.007294000 0.000000000
0.381682992 0.008087000 0.000000000
0.461852998 0.009155000 0.000000000
0.543304026 0.010742000 0.000000000
0.625702024 0.012329000 0.000000000
0.708953977 0.013397000 0.000000000
0.792755008 0.014893000 0.000000000
0.878021002 0.016266000 0.000000000
0.956573009 0.017151000 0.000000000
0.981658995 0.018585000 0.000000000
0.999939024 0.020111000 0.000000000
0.000000000 0.090026997 0.000000000
0.004547000 0.083922997 0.000000000
0.008179000 0.077483997 0.000000000
0.058745999 0.071044996 0.000000000
0.133118004 0.065796003 0.000000000
0.211060002 0.060028002 0.000000000
0.290192008 0.055358998 0.000000000
0.370849997 0.050476000 0.000000000
0.452697992 0.045715000 0.000000000
0.535369992 0.041228998 0.000000000
0.618927002 0.036865000 0.000000000
0.703674018 0.032683998 0.000000000
0.788483024 0.031433001 0.000000000
0.874907970 0.033264000 0.000000000
0.955658019 0.034790002 0.000000000
0.981353998 0.036316000 0.000000000
0.999939024 0.039429002 0.000000000
0.000000000 0.157714993 0.000000000
0.006165000 0.151978001 0.000000000
0.012085000 0.146484002 0.000000000
0.046326000 0.140869007 0.000000000
0.118469000 0.135528997 0.000000000
0.198058993 0.130248994 0.000000000
0.278351009 0.125030994 0.000000000
0.360076994 0.119690001 0.000000000
0.443145990 0.114745997 0.000000000
0.526885986 0.109802000 0.000000000
0.611938000 0.104950003 0.000000000
0.697784007 0.100311004 0.000000000
0.783752024 0.096404999 0.000000000
0.871825993 0.093079001 0.000000000
0.953979015 0.089661002 0.000000000
0.980835021 0.087006003 0.000000000
0.999939024 0.083801001 0.000000000
0.000000000 0.227264002 0.000000000
0.008331000 0.222442999 0.000000000
0.016754000 0.217773005 0.000000000
0.034607001 0.213073999 0.000000000
0.104613997 0.208068997 0.000000000
0.185486004 0.203491002 0.000000000
0.266784996 0.198853001 0.000000000
0.349303991 0.194305003 0.000000000
0.433075011 0.189941004 0.000000000
0.517943978 0.185577005 0.000000000
0.603546023 0.181457996 0.000000000
0.690643013 0.177001998 0.000000000
0.778168023 0.172821000 0.000000000
0.867706001 0.168578997 0.000000000
0.950622976 0.164459005 0.000000000
0.980072021 0.160460994 0.000000000
0.999939024 0.157012999 0.000000000
0.000000000 0.299286008 0.000000000
0.010590000 0.295410007 0.000000000
0.021454001 0.291350991 0.000000000
0.032623000 0.287353992 0.000000000
0.093506001 0.283142000 0.000000000
0.173004001 0.279235989 0.000000000
0.255127013 0.275146008 0.000000000
0.338562012 0.270934999 0.000000000
0.423065007 0.266997993 0.000000000
0.508759022 0.263062000 0.000000000
0.595825016 0.259063989 0.000000000
0.683929026 0.255035013 0.000000000
0.772614002 0.251190007 0.000000000
0.862945974 0.247191995 0.000000000
0.947356999 0.243530005 0.000000000
0.979156017 0.240234002 0.000000000
0.999969006 0.236785993 0.000000000
0.000000000 0.373351991 0.000000000
0.012360000 0.370299995 0.000000000
0.025818000 0.367065012 0.000000000
0.037170000 0.363707989 0.000000000
0.084167004 0.360168010 0.000000000
0.160705999 0.356842011 0.000000000
0.244170994 0.353332996 0.000000000
0.328217000 0.349669993 0.000000000
0.413605005 0.346069008 0.000000000
0.500427008 0.342377007 0.000000000
0.588226020 0.338744998 0.000000000
0.676757991 0.335144013 0.000000000
0.766448975 0.331573009 0.000000000
0.857361019 0.328155994 0.000000000
0.942596018 0.324645996 0.000000000
0.978179991 0.320037991 0.000000000
0.999939024 0.314788997 0.000000000
0.000000000 0.449707001 0.000000000
0.014679000 0.447479010 0.000000000
0.029906999 0.444793999 0.000000000
0.043976001 0.442169011 0.000000000
0.074492998 0.439392000 0.000000000
0.147888005 0.436675996 0.000000000
0.232970998 0.433623999 0.000000000
0.317627013 0.430510998 0.000000000
0.404053003 0.427184999 0.000000000
0.491638005 0.423797995 0.000000000
0.579955995 0.420563012 0.000000000
0.669372976 0.417479992 0.000000000
0.759307981 0.414000988 0.000000000
0.849578977 0.409119010 0.000000000
0.934174001 0.403259009 0.000000000
0.977111995 0.397156000 0.000000000
0.999907970 0.391113013 0.000000000
0.000000000 0.527557015 0.000000000
0.016663000 0.526062012 0.000000000
0.033721998 0.524231017 0.000000000
0.051086001 0.522278011 0.000000000
0.071135998 0.520111024 0.000000000
0.137603998 0.517731011 0.000000000
0.222075999 0.515380979 0.000000000
0.307770014 0.512573004 0.000000000
0.394439995 0.509856999 0.000000000
0.482178003 0.507354975 0.000000000
0.571197987 0.503906012 0.000000000
0.661132991 0.498932004 0.000000000
0.750671029 0.493010998 0.000000000
0.839843988 0.486084014 0.000000000
0.924103022 0.478789985 0.000000000
0.975921988 0.472229004 0.000000000
0.999939024 0.466156006 0.000000000
0.000000000 0.606719971 0.000000000
0.018921001 0.605804026 0.000000000
0.037964001 0.604705989 0.000000000
0.057647999 0.603302002 0.000000000
0.075774997 0.601715028 0.000000000
0.130919993 0.599822998 0.000000000
0.211548001 0.598052979 0.000000000
0.297942996 0.596283019 0.000000000
0.385497987 0.593200982 0.000000000
0.474151999 0.588775992 0.000000000
0.563750982 0.582825005 0.000000000
0.653594971 0.575226009 0.000000000
0.742523015 0.567169011 0.000000000
0.830749989 0.559692025 0.000000000
0.915314019 0.552825987 0.000000000
0.974609017 0.546416998 0.000000000
0.999969006 0.540221989 0.000000000
0.000000000 0.686919987 0.000000000
0.020904999 0.686767995 0.000000000
0.042114001 0.686127007 0.000000000
0.063842997 0.685302973 0.000000000
0.084045000 0.684387028 0.000000000
0.124573000 0.683593988 0.000000000
0.201294005 0.681334972 0.000000000
0.290253013 0.677643001 0.000000000
0.379332989 0.671905994 0.000000000
0.469208002 0.663971007 0.000000000
0.558745980 0.655457020 0.000000000
0.648041010 0.647369027 0.000000000
0.735747993 0.639892995 0.000000000
0.822968006 0.632690012 0.000000000
0.907257020 0.626038015 0.000000000
0.973267019 0.619719982 0.000000000
0.999969006 0.613708019 0.000000000
0.000000000 0.768036008 0.000000000
0.022736000 0.768280029 0.000000000
0.046386998 0.768463016 0.000000000
0.069885001 0.768585026 0.000000000
0.093718998 0.767180979 0.000000000
0.122130997 0.764832020 0.000000000
0.195769995 0.759429991 0.000000000
0.288513005 0.751250982 0.000000000
0.378051996 0.742583990 0.000000000
0.466980010 0.734467030 0.000000000
0.555603027 0.726562977 0.000000000
0.643341005 0.718994021 0.000000000
0.729767025 0.711884022 0.000000000
0.815796018 0.704986989 0.000000000
0.899658024 0.698517025 0.000000000
0.971648991 0.692200005 0.000000000
0.999939024 0.686401010 0.000000000
0.000000000 0.849700987 0.000000000
0.024994001 0.850555003 0.000000000
0.050567999 0.850646973 0.000000000
0.076263003 0.849883974 0.000000000
0.102112003 0.845062017 0.000000000
0.129455999 0.836853027 0.000000000
0.200103998 0.828032970 0.000000000
0.290526986 0.819733024 0.000000000
0.378906012 0.811767995 0.000000000
0.466827005 0.803924978 0.000000000
0.553833008 0.796539009 0.000000000
0.640106022 0.789336979 0.000000000
0.726043999 0.782348990 0.000000000
0.810211003 0.775879025 0.000000000
0.894409001 0.769286990 0.000000000
0.969330013 0.762969971 0.000000000
0.999939024 0.757507026 0.000000000
0.000000000 0.918731987 0.000000000
0.027252000 0.919586003 0.000000000
0.054901000 0.918273985 0.000000000
0.082428001 0.913390994 0.000000000
0.110413000 0.906554997 0.000000000
0.138977006 0.899749994 0.000000000
0.206572995 0.892974973 0.000000000
0.294494987 0.886200011 0.000000000
0.381592005 0.879486024 0.000000000
0.468048006 0.872528017 0.000000000
0.553924978 0.865447998 0.000000000
0.638641000 0.858642995 0.000000000
0.722961009 0.852020025 0.000000000
0.807036996 0.845398009 0.000000000
0.890532970 0.838958979 0.000000000
0.966919005 0.832885981 0.000000000
0.999939024 0.827515006 0.000000000
0.000793000 0.941588998 0.000793000
0.029572001 0.941497982 0.000793000
0.059082001 0.941375971 0.000793000
0.089203000 0.941344976 0.000793000
0.119171001 0.941284001 0.000793000
0.148956001 0.941101015 0.000000000
0.214507997 0.940886974 0.000000000
0.299407989 0.940551996 0.000000000
0.384734988 0.938903987 0.000000000
0.470061988 0.935271978 0.000000000
0.554809988 0.930054009 0.000000000
0.638854980 0.923859000 0.000000000
0.722168028 0.918120980 0.000000000
0.804840028 0.912415028 0.000000000
0.886932015 0.906982005 0.000000000
0.964783013 0.901215017 0.000000000
0.999939024 0.896332026 0.000793000
0.000000000 0.968750000 0.000000000
0.031830002 0.968657970 0.000000000
0.063538000 0.968627989 0.000000000
0.095337003 0.968505979 0.000000000
0.127441004 0.968322992 0.000793000
0.158875003 0.968109012 0.000000000
0.221741006 0.967833996 0.000000000
0.304381996 0.967559993 0.000000000
0.388947010 0.967224002 0.000000000
0.472443014 0.966948986 0.000000000
0.556091011 0.966614008 0.000061000
0.639801025 0.966278017 0.000793000
0.721557975 0.965911984 0.000732000
0.803680003 0.965453982 0.000000000
0.884856999 0.964965999 0.000000000
0.962372005 0.963927984 0.000061000
0.999877989 0.962554991 0.000000000
0.000000000 0.999939024 0.000000000
0.034118999 0.999939024 0.000000000
0.067322001 0.999939024 0.000000000
0.101379000 0.999939024 0.000000000
0.135773003 0.999939024 0.000000000
0.169036999 0.999939024 0.000000000
0.230346993 0.999877989 0.000000000
0.311461985 0.999907970 0.000000000
0.394562006 0.999907970 0.000000000
0.477324992 0.999877989 0.000000000
0.559813976 0.999939024 0.000305000
0.640929997 0.999907970 0.000549000
0.722473025 0.999877989 0.000000000
0.803406000 0.999877989 0.000793000
0.882385015 0.999907970 0.000793000
0.959595025 0.999877989 0.001587000
0.999907970 0.999907970 0.000000000
0.000000000 0.000000000 0.000000000
0.000000000 0.000000000 0.000000000
0.015778000 0.000000000 0.005127000
0.083587997 0.000000000 0.005219000
0.158660993 0.000000000 0.005798000
0.233704001 0.000000000 0.006744000
0.310149997 0.000000000 0.008026000
0.387908995 0.000000000 0.009125000
0.466614008 0.000000000 0.009918000
0.546447992 0.000000000 0.011047000
0.627135992 0.000000000 0.012238000
0.708495975 0.000000000 0.013275000
0.790862978 0.000000000 0.014526000
0.874877989 0.000000000 0.015381000
0.953064024 0.000000000 0.016266000
0.981963992 0.000000000 0.017761000
1.000000000 0.000000000 0.019257000
0.000000000 0.026215000 0.003693000
0.002258000 0.019257000 0.003693000
0.008118000 0.012360000 0.004395000
0.067230001 0.006165000 0.005066000
0.142578006 0.005798000 0.005951000
0.219054997 0.006012000 0.006744000
0.297089010 0.006805000 0.007538000
0.376190007 0.008087000 0.008820000
0.456757009 0.009613000 0.009918000
0.537932992 0.010803000 0.010712000
0.620055974 0.012329000 0.011780000
0.703369021 0.013397000 0.013031000
0.787078977 0.014893000 0.014038000
0.872313976 0.016266000 0.015381000
0.951812983 0.017151000 0.016907001
0.981841981 0.018585000 0.017792000
0.999939024 0.020111000 0.019257000
0.000000000 0.088715002 0.005127000
0.004578000 0.081696004 0.005127000
0.008179000 0.074584998 0.005188000
0.053070001 0.068480998 0.005920000
0.126404002 0.062194999 0.006592000
0.204772994 0.056701999 0.007355000
0.283935994 0.051665999 0.008270000
0.364684999 0.046661001 0.009125000
0.446381003 0.041839998 0.009918000
0.528961003 0.037170000 0.011047000
0.612793028 0.032288000 0.012268000
0.697449028 0.029144000 0.013306000
0.782531977 0.030944999 0.014832000
0.869324028 0.032471001 0.016174000
0.950286984 0.034118999 0.017090000
0.981505990 0.037078999 0.018585000
0.999939024 0.039489999 0.020111000
0.000000000 0.155304000 0.006653000
0.006195000 0.149444997 0.006653000
0.012726000 0.143616006 0.006653000
0.040252998 0.137603998 0.006805000
0.111481003 0.131835997 0.007538000
0.191101000 0.126099005 0.008240000
0.271605998 0.120757997 0.009003000
0.353240997 0.115234002 0.009796000
0.436156988 0.110016003 0.010712000
0.520264030 0.104858004 0.012177000
0.605193973 0.100005999 0.013062000
0.690918028 0.095367000 0.014496000
0.777557015 0.091735996 0.015625000
0.865203977 0.088287003 0.016968001
0.947356999 0.084839001 0.018433001
0.980988026 0.081940003 0.019378999
0.999939024 0.078308001 0.020203000
0.000000000 0.224547997 0.008179000
0.008331000 0.219451994 0.008179000
0.017456001 0.214264005 0.008179000
0.030853000 0.209351003 0.008331000
0.097747996 0.204254001 0.008972000
0.178284004 0.199219003 0.009705000
0.259460002 0.194518998 0.010559000
0.342193991 0.189545006 0.011322000
0.426207989 0.184906006 0.012115000
0.511169016 0.180267006 0.013458000
0.597229004 0.175780997 0.014496000
0.683593988 0.171478003 0.015686000
0.770934999 0.167236000 0.016845999
0.860351980 0.162659004 0.017944001
0.944182992 0.158538997 0.019165000
0.980255008 0.154358000 0.020203000
0.999939024 0.150481999 0.021484001
0.000000000 0.296447992 0.009918000
0.010590000 0.292113990 0.009705000
0.021454001 0.287811011 0.009918000
0.031189000 0.283600003 0.010498000
0.086548001 0.278961003 0.010559000
0.165222004 0.274749994 0.011292000
0.247620001 0.270354986 0.012085000
0.331238002 0.266052008 0.012878000
0.415863007 0.261871010 0.014252000
0.501739979 0.257629007 0.015045000
0.588593006 0.253387004 0.016022000
0.675841987 0.249480993 0.016998000
0.764403999 0.245514005 0.018005000
0.854919016 0.241364002 0.019135000
0.940063000 0.237579003 0.020111000
0.979369998 0.234070003 0.020996001
0.999939024 0.230164006 0.022217000
0.000000000 0.370209008 0.011963000
0.012878000 0.366943002 0.011963000
0.025818000 0.363281012 0.012024000
0.037170000 0.359618992 0.012268000
0.077393003 0.355987996 0.012817000
0.152618006 0.352081001 0.013611000
0.236480996 0.348235995 0.014404000
0.320434988 0.344574004 0.015137000
0.405945003 0.340820014 0.015961001
0.492309988 0.336975008 0.016754000
0.579864979 0.333220989 0.017548000
0.668456972 0.329436988 0.018340999
0.758086979 0.325744987 0.019378999
0.849120975 0.322174013 0.020293999
0.935059011 0.318114996 0.021423001
0.978393972 0.313080013 0.022491001
0.999939024 0.308014005 0.023010001
0.000000000 0.446105987 0.014282000
0.014679000 0.443480998 0.014282000
0.029906999 0.440582007 0.014343000
0.044464000 0.437682986 0.014648000
0.069214001 0.434540004 0.015137000
0.140625000 0.431365997 0.015930001
0.225585997 0.428131014 0.016205000
0.310119987 0.424834996 0.016693000
0.396088004 0.421508998 0.017487001
0.483092993 0.418090999 0.018279999
0.571533024 0.414824992 0.019012000
0.661072016 0.411437988 0.019805999
0.750792980 0.407379001 0.020599000
0.840789974 0.401977986 0.021698000
0.926299989 0.396057010 0.022583000
0.977294981 0.389984012 0.023712000
0.999939024 0.384094000 0.024444999
0.000000000 0.523773015 0.016602000
0.016663000 0.521790028 0.016602000
0.033813000 0.519713998 0.016602000
0.051453002 0.517364979 0.016907001
0.068787001 0.514922976 0.017395001
0.130951002 0.512481987 0.017792000
0.214203000 0.509765983 0.018188000
0.299652010 0.506896973 0.018982001
0.385895014 0.504242003 0.019378999
0.473724008 0.501372993 0.019774999
0.563202024 0.497162014 0.020538000
0.652984977 0.491730005 0.021331999
0.742218018 0.485442996 0.022125000
0.830443978 0.478455007 0.023193000
0.915679991 0.471404999 0.024109000
0.976195991 0.465117991 0.025177000
0.999939024 0.459136993 0.025574001
0.000000000 0.602814019 0.018524000
0.018921001 0.601471007 0.018921001
0.037964001 0.600036979 0.018921001
0.057647999 0.598419011 0.018921001
0.075622998 0.596648991 0.019378999
0.124022998 0.594757020 0.019714000
0.202666998 0.592804015 0.020111000
0.289490014 0.590546012 0.020508001
0.377045006 0.586853027 0.021300999
0.466156006 0.581695974 0.022034001
0.556122005 0.575012028 0.022491001
0.645630002 0.567169011 0.023193000
0.733887017 0.559478998 0.023987001
0.821197987 0.552460015 0.024780000
0.907042980 0.545562983 0.025574001
0.974853992 0.539367974 0.026366999
0.999939024 0.533356011 0.027069001
0.000000000 0.682860970 0.020904999
0.020904999 0.682097971 0.020904999
0.042114001 0.681366026 0.021179000
0.063842997 0.680359006 0.021179000
0.084747002 0.679351985 0.021240000
0.118804999 0.678192019 0.021973001
0.193176001 0.675140023 0.021973001
0.282927990 0.670562983 0.022766000
0.372130990 0.663909972 0.022857999
0.462341011 0.655578971 0.023560001
0.551787972 0.647278011 0.024292000
0.640349984 0.639496028 0.025024001
0.727478027 0.632354975 0.025757000
0.814513981 0.625335991 0.026458999
0.899901986 0.618591011 0.027222000
0.972899973 0.612426996 0.027953999
0.999939024 0.606628001 0.028991999
0.000000000 0.763549984 0.022736000
0.022736000 0.763489008 0.022736000
0.046386998 0.763549984 0.023193000
0.069885001 0.763275027 0.023193000
0.093933001 0.761169016 0.023499001
0.119384997 0.757934988 0.023499001
0.190276995 0.751465023 0.024261000
0.282348990 0.742766976 0.024506001
0.371704012 0.734252989 0.025024001
0.460662991 0.726226985 0.025574001
0.548950016 0.718536019 0.025878999
0.635924995 0.711242974 0.026611000
0.722687006 0.704101980 0.027344000
0.808502018 0.697327018 0.028137000
0.893249989 0.690886974 0.028778000
0.970336974 0.684723020 0.029663000
0.999939024 0.679168999 0.030396000
0.000000000 0.845611989 0.024994001
0.024994001 0.846343994 0.024994001
0.050567999 0.845367014 0.024994001
0.076263003 0.843567014 0.025513001
0.102202997 0.837036014 0.025574001
0.128722996 0.828094006 0.025757000
0.195739999 0.819549978 0.026306000
0.284575999 0.811492980 0.026520001
0.372649997 0.803771973 0.027100001
0.459807992 0.796294987 0.027313000
0.547150016 0.788818002 0.028076001
0.633544981 0.781708002 0.028625000
0.718842030 0.774963021 0.028870000
0.803313971 0.768494010 0.029633000
0.887664974 0.762115002 0.030396000
0.967406988 0.756348014 0.031189000
0.999939024 0.750823975 0.032288000
0.000000000 0.916565001 0.027252000
0.027252000 0.917479992 0.027252000
0.054901000 0.913635015 0.027252000
0.082428001 0.906554997 0.027252000
0.110564999 0.899536014 0.027740000
0.138519004 0.892853022 0.028046001
0.202208996 0.886291981 0.028046001
0.288085997 0.879424989 0.028625000
0.375458002 0.872192025 0.028839000
0.461638987 0.865020990 0.029418999
0.547302008 0.857971013 0.029633000
0.632538021 0.851135015 0.030365000
0.716705024 0.844452024 0.031158000
0.800841987 0.837890983 0.031738002
0.883179009 0.832153022 0.031952001
0.963440001 0.826263011 0.032683998
0.999939024 0.820708990 0.033599999
0.000793000 0.941711009 0.029572001
0.029572001 0.941588998 0.029572001
0.059082001 0.941588998 0.029572001
0.089263998 0.941619992 0.030121000
0.119384997 0.941619992 0.030212000
0.148223996 0.941466987 0.030212000
0.210022002 0.941101015 0.030304000
0.293823004 0.939239979 0.030304000
0.380066007 0.935059011 0.031097000
0.464661002 0.929382026 0.031097000
0.548705995 0.923523009 0.031830002
0.633056998 0.917357981 0.032042999
0.716216981 0.911559999 0.032623000
0.797882020 0.906342030 0.033417001
0.880156994 0.901031017 0.034210000
0.959990978 0.895232975 0.034912001
0.999939024 0.890044987 0.036162999
0.000000000 0.968750000 0.031830002
0.031830002 0.968657970 0.031830002
0.063538000 0.968596995 0.031830002
0.095337003 0.968505979 0.031830002
0.127746999 0.968322992 0.031830002
0.157775998 0.968078971 0.031830002
0.218230993 0.967895985 0.032531999
0.300415009 0.967559993 0.032593001
0.384705007 0.967346013 0.032623000
0.467925996 0.967101991 0.033356000
0.551452994 0.966766000 0.033599999
0.634429991 0.966431022 0.034363002
0.715789974 0.966094971 0.034942999
0.797667980 0.965515018 0.035675000
0.878692985 0.964172006 0.035675000
0.957244992 0.961822987 0.036469001
0.999877989 0.956969976 0.039337002
0.000000000 0.999939024 0.034118999
0.034790002 0.999939024 0.034790002
0.068297997 0.999939024 0.034759998
0.101287998 0.999939024 0.033813000
0.135315001 0.999939024 0.032745000
0.168395996 0.999939024 0.034851000
0.227417007 0.999939024 0.034607001
0.306365997 0.999939024 0.033569001
0.389708996 0.999877989 0.034515001
0.472167999 0.999939024 0.035583001
0.553833008 0.999939024 0.037078999
0.635559022 0.999877989 0.035248000
0.716796994 0.999907970 0.038054999
0.797515988 0.999877989 0.037323002
0.877166986 0.999877989 0.039917000
0.954742014 0.999877989 0.038483001
0.999877989 0.999877989 0.033996999
0.000000000 0.000000000 0.059356999
0.001465000 0.000000000 0.063170999
0.011139000 0.000000000 0.065154999
0.077331997 0.000000000 0.063506998
0.152862996 0.000000000 0.064544998
0.228577003 0.000000000 0.065186001
0.304749012 0.000000000 0.065673999
0.382874012 0.000000000 0.066223003
0.461638987 0.000000000 0.065765001
0.541472971 0.000000000 0.065765001
0.622101009 0.000000000 0.065642998
0.703643978 0.000000000 0.064788997
0.786101997 0.000000000 0.064300999
0.869445980 0.000000000 0.063629001
0.948180974 0.000000000 0.062743999
0.982056022 0.000000000 0.061675999
0.999939024 0.000000000 0.061156999
0.000000000 0.024750000 0.060180999
0.003021000 0.016998000 0.061584000
0.006653000 0.009369000 0.061675999
0.061646000 0.005341000 0.061889999
0.136414006 0.005219000 0.062408000
0.213286996 0.006012000 0.062042002
0.291718006 0.006805000 0.062438998
0.370880008 0.008331000 0.061981000
0.451263011 0.009613000 0.061462000
0.532378972 0.011139000 0.060943998
0.614777029 0.012360000 0.060180999
0.697968006 0.013885000 0.059113000
0.781432986 0.014923000 0.058228001
0.866515994 0.016266000 0.057098001
0.946747005 0.017151000 0.056488000
0.981903017 0.018616000 0.055358998
0.999939024 0.019378999 0.054230001
0.000000000 0.086639002 0.060729999
0.004578000 0.079406999 0.060669001
0.008179000 0.072082996 0.060120001
0.047545999 0.065369003 0.059631001
0.119873002 0.059326001 0.059204001
0.198424995 0.053528000 0.058594000
0.278046012 0.047943000 0.057677999
0.359008998 0.042969000 0.056915000
0.440582007 0.037842002 0.056396000
0.523163021 0.032226998 0.055236999
0.606750011 0.028778000 0.054047000
0.691101015 0.028625000 0.052917000
0.776215017 0.030762000 0.051697001
0.862793028 0.032349002 0.050446000
0.944335997 0.034118999 0.049194001
0.981628001 0.037108999 0.047882002
0.999939024 0.040222000 0.046661001
0.000000000 0.153045997 0.060242001
0.006836000 0.146880999 0.059142999
0.012878000 0.140411004 0.058044001
0.033721998 0.134215996 0.056885000
0.104401000 0.128264993 0.055785999
0.184874997 0.122313999 0.054657001
0.265258998 0.116516002 0.053374998
0.346832007 0.110748000 0.052184999
0.429688007 0.105407998 0.050903000
0.513611019 0.100005999 0.049377002
0.598479986 0.095000997 0.047821000
0.684081972 0.090880997 0.046509001
0.770630002 0.087035999 0.045166001
0.858398020 0.083405003 0.043639999
0.941284001 0.080109000 0.041779000
0.981109977 0.076782003 0.041625999
0.999939024 0.074584998 0.043030001
0.000000000 0.222197995 0.058655001
0.008514000 0.216704994 0.056945998
0.017456001 0.211211994 0.055298001
0.029022001 0.205810994 0.053955000
0.091522001 0.200562000 0.052216001
0.171112001 0.195189998 0.050354000
0.252380013 0.190093994 0.048615001
0.335388005 0.185058996 0.046661001
0.419128001 0.180084005 0.045380000
0.503966987 0.175384998 0.043457001
0.590026975 0.170624003 0.041625999
0.676940978 0.165923998 0.039948002
0.764374018 0.161438003 0.038146999
0.853241026 0.157074004 0.038543999
0.937317014 0.152893007 0.039337002
0.980437994 0.148589998 0.040833000
