public/lut/123.cube
TITLE "17x17x17 Adobe/IRIDAS cube 3D LUT exported with GrossGrade v0.2.2 (beta) 64 bit"
DOMAIN_MIN 0 0 0
DOMAIN_MAX 1 1 1
LUT_3D_SIZE 5
0.000000000 0.000000000 0.000000000
0.163756996 0.000000000 0.000000000
0.471343994 0.000000000 0.000000000
0.795836985 0.000000000 0.000000000
0.999969006 0.000000000 0.000000000
0.000000000 0.227264002 0.000000000
0.104613997 0.208068997 0.000000000
0.433075011 0.189941004 0.000000000
0.778168023 0.172821000 0.000000000
0.999939024 0.157012999 0.000000000
0.000000000 0.527557015 0.000000000
0.071135998 0.520111024 0.000000000
0.394439995 0.509856999 0.000000000
0.750671029 0.493010998 0.000000000
0.999939024 0.466156006 0.000000000
0.000000000 0.849700987 0.000000000
0.102112003 0.845062017 0.000000000
0.378906012 0.811767995 0.000000000
0.726043999 0.782348990 0.000000000
0.999939024 0.757507026 0.000000000
0.000000000 0.999939024 0.000000000
0.135773003 0.999939024 0.000000000
0.394562006 0.999907970 0.000000000
0.722473025 0.999877989 0.000000000
0.999907970 0.999907970 0.000000000
0.000000000 0.000000000 0.175384998
0.142089993 0.000000000 0.188995004
0.451568991 0.000000000 0.197601005
0.775969982 0.000000000 0.201385006
0.999907970 0.000000000 0.201934993
0.000000000 0.217133000 0.189117000
0.079620004 0.193085000 0.189208999
0.405487001 0.171082005 0.187224999
0.750427008 0.150969997 0.183715999
0.999939024 0.133849993 0.179626003
0.000000000 0.513062000 0.186004996
0.068207003 0.501067996 0.178039998
0.362121999 0.488097996 0.169341996
0.718047976 0.463898003 0.150452003
0.999939024 0.439819008 0.133178994
0.000000000 0.832580984 0.174529999
0.102966003 0.812407970 0.153748006
0.356476009 0.781342030 0.133056998
0.700684011 0.753844976 0.120757997
0.999939024 0.731688976 0.126647994
0.000000000 0.999877989 0.151764005
0.135986000 0.999939024 0.136932001
0.378174007 0.999877989 0.139129996
0.702544987 0.999877989 0.147064000
0.999877989 0.999877989 0.155212000
0.000000000 0.000000000 0.407501012
0.120544001 0.000000000 0.438324004
0.430999994 0.000000000 0.462401986
0.755797982 0.000000000 0.479126006
0.999939024 0.000000000 0.489380002
0.000000000 0.208281994 0.452544987
0.058440998 0.180114999 0.468109012
0.379729986 0.154541001 0.478973001
0.723846018 0.131989002 0.485076994
0.999939024 0.117004000 0.484436005
0.000000000 0.499908000 0.473022014
0.072327003 0.484039009 0.477508992
0.335388005 0.466217011 0.475708008
0.690918028 0.438933998 0.448273003
0.999939024 0.417724997 0.423797995
0.000000000 0.814086974 0.473937988
0.104492001 0.784424007 0.447326988
0.338806003 0.755187988 0.421142995
0.679168999 0.729950011 0.399780005
0.999907970 0.710327029 0.384460002
0.000000000 0.999939024 0.431793004
0.137177005 0.999939024 0.410338998
0.365570009 0.999939024 0.392058998
0.687134027 0.999969006 0.378845006
0.999602973 0.989502013 0.371825993
0.000000000 0.000000000 0.644836009
0.099945001 0.000000000 0.691254020
0.411040992 0.000000000 0.730468988
0.735992014 0.000000000 0.760254025
0.999969006 0.000000000 0.780395985
0.000000000 0.200165004 0.719788015
0.049957000 0.168640003 0.750580013
0.355895996 0.139892995 0.774658024
0.699585021 0.115936004 0.791442990
0.999939024 0.104156002 0.781250000
0.000000000 0.487549007 0.764099002
0.076476999 0.468811005 0.782410026
0.315369010 0.444976985 0.776520014
0.668304026 0.418242991 0.740661979
0.999786019 0.399567008 0.711456001
0.000000000 0.792174995 0.767913997
0.107116997 0.760619998 0.735961974
0.325562000 0.732604980 0.707427979
0.662078977 0.709197998 0.682982981
0.987761974 0.691711009 0.663971007
0.000000000 0.999939024 0.711395025
0.139252007 0.999939024 0.688750982
0.355895996 0.999969006 0.668609977
0.674651980 0.987640023 0.653168023
0.986176014 0.972931027 0.642913997
0.000000000 0.000000000 0.889007986
0.084778003 0.000000000 0.950226009
0.392578006 0.000000000 0.999572992
0.717194021 0.000000000 0.999907970
0.999969006 0.000000000 0.999969006
0.000000000 0.192168996 0.993408024
0.055388998 0.158508003 0.999969006
0.335357994 0.126617000 0.999939024
0.677277029 0.104705997 0.999939024
0.999939024 0.096252002 0.999939024
0.000000000 0.475829989 0.999969006
0.081542999 0.454254001 0.999939024
0.302094012 0.425628990 0.999939024
0.649841011 0.401093006 1.000000000
0.984679997 0.384398997 0.994262993
0.000000000 0.769286990 0.999939024
0.110840000 0.739624023 1.000000000
0.315216005 0.713347971 0.991180003
0.647614002 0.692169011 0.963164985
0.971953988 0.676239014 0.941161990
0.000793000 0.999939024 0.987854004
0.141754001 0.999877989 0.964507997
0.348755002 0.988830984 0.943054020
0.665344000 0.971741021 0.925629020
0.974213004 0.958832026 0.913208008
