public/lut/124.cube
TITLE "17x17x17 Adobe/IRIDAS cube 3D LUT exported with GrossGrade v0.2.2 (beta) 64 bit"
DOMAIN_MIN 0 0 0
DOMAIN_MAX 1 1 1
LUT_3D_SIZE 5
0.034697998 0.034697998 0.034697998
0.188721001 0.035491999 0.035491999
0.421631008 0.054290999 0.054290999
0.639069021 0.072235003 0.072356999
0.809356987 0.083343998 0.083343998
0.040405001 0.203887999 0.039825000
0.217528999 0.217987001 0.036072001
0.434264988 0.215515003 0.059723001
0.646332026 0.233002007 0.081482001
0.817534983 0.242035002 0.092285000
0.080536000 0.475524992 0.079346001
0.241698995 0.486115009 0.075653002
0.545013011 0.535767019 0.037872002
0.776337028 0.508789003 0.048797999
0.935576975 0.502716005 0.073394999
0.118164003 0.726135015 0.115111999
0.280853003 0.730408013 0.120483004
0.554992974 0.814849973 0.066040002
0.866210997 0.850890994 0.074799001
0.999939024 0.850921988 0.074280001
0.145355001 0.916077018 0.143126994
0.309264988 0.925536990 0.154571995
0.571135998 0.998596013 0.112548999
0.878325999 0.999939024 0.092285000
0.999939024 0.999939024 0.106415004
0.035491999 0.035491999 0.190185994
0.202087000 0.035491999 0.191925004
0.422760010 0.056212999 0.202637002
0.641510010 0.074676998 0.219391003
0.812072992 0.085631996 0.228363007
0.038451999 0.208954006 0.196259007
0.214111000 0.215178996 0.197327003
0.441071004 0.228577003 0.221588001
0.660645008 0.245269999 0.237762004
0.831268013 0.254639000 0.247223005
0.082886003 0.477508992 0.231353998
0.250458002 0.484313995 0.239441007
0.542145014 0.532715023 0.199340999
0.765502989 0.506958008 0.217804000
0.925659001 0.506744027 0.241730005
0.121063001 0.728882015 0.264313012
0.286255002 0.736236989 0.271667004
0.553740978 0.808440983 0.235045999
0.864166021 0.848784983 0.236908004
0.999939024 0.849364996 0.235442996
0.149323002 0.920257986 0.290618986
0.315613002 0.932739019 0.304107994
0.574127018 0.995453000 0.279632986
0.876403987 0.999939024 0.250977010
0.999939024 0.999939024 0.266387999
0.035491999 0.035491999 0.447418004
0.193329006 0.036072001 0.451660007
0.483794987 0.050354000 0.459564000
0.694489002 0.071044996 0.451079994
0.856383979 0.084045000 0.451873988
0.035889000 0.198607996 0.455749989
0.199004993 0.198853001 0.458588004
0.490447998 0.231415004 0.465667993
0.694733024 0.251830995 0.463104010
0.857239008 0.263031006 0.468445003
0.071563996 0.500060976 0.475800008
0.247008994 0.503570974 0.479889005
0.526153982 0.520294011 0.485839993
0.740845025 0.529479980 0.517609000
0.913878977 0.546416998 0.538573980
0.113525003 0.747497976 0.497222990
0.290832996 0.752075016 0.510101020
0.569091976 0.788025022 0.545531988
0.856658995 0.842010021 0.527252018
0.999969006 0.834990978 0.535583019
0.147522002 0.940246999 0.527068973
0.323852986 0.948212028 0.545135021
0.604187012 0.984924018 0.587616026
0.868804991 0.999939024 0.547637999
0.999939024 0.999939024 0.558745980
0.036285002 0.036285002 0.725098014
0.172851995 0.036285002 0.729705989
0.487488002 0.045074001 0.740203977
0.748871028 0.066497996 0.748627007
0.944244027 0.073273003 0.754760981
0.036865000 0.176238999 0.734405994
0.179993004 0.179076999 0.737487972
0.496062994 0.220092997 0.749664009
0.760284007 0.245239004 0.757843018
0.951049984 0.251861989 0.761107981
0.066588998 0.503174007 0.757140994
0.235747993 0.505432010 0.762633979
0.514739990 0.506195009 0.775237978
0.799621999 0.545135021 0.796692014
0.972198009 0.563109994 0.800261974
0.105103001 0.773437977 0.781005979
0.280761987 0.783325016 0.792572021
0.574492991 0.810150027 0.823273003
0.844788015 0.833434999 0.847625971
1.000000000 0.845093012 0.870177984
0.130676001 0.980041981 0.810729980
0.305725008 0.988403022 0.821471989
0.608825982 1.000000000 0.853911996
0.876770020 0.999939024 0.885955989
0.999939024 0.999939024 0.877655029
0.036285002 0.036285002 0.934813976
0.163818002 0.037078999 0.939666986
0.479308993 0.036285002 0.952270985
0.752013981 0.069610998 0.956786990
0.946624994 0.076660000 0.962005973
0.037078999 0.166748002 0.944031000
0.170502007 0.169220001 0.947082996
0.485137999 0.200348005 0.960663021
0.763518989 0.248046994 0.965758979
0.958069026 0.253906012 0.971130013
0.048920002 0.495086998 0.968932986
0.216858000 0.494201988 0.973327994
0.503234982 0.494933993 0.986419976
0.804443002 0.546112001 1.000000000
0.999359012 0.563445985 1.000000000
0.110260002 0.778991997 0.991973996
0.286193997 0.788848996 0.999907970
0.573638976 0.814330995 0.999939024
0.838867009 0.826721013 0.999939024
0.999939024 0.852814019 0.999939024
0.136870995 0.985840023 0.999939024
0.309906006 0.996124029 0.999939024
0.606719971 0.999939024 0.999939024
0.877716005 0.999939024 0.999939024
0.999939024 0.999939024 0.999939024
