public/lut/124.cube
TITLE "17x17x17 Adobe/IRIDAS cube 3D LUT exported with GrossGrade v0.2.2 (beta) 64 bit"
DOMAIN_MIN 0 0 0
DOMAIN_MAX 1 1 1
LUT_3D_SIZE 17
0.034697998 0.034697998 0.034697998
0.066680998 0.035431001 0.035431001
0.102202997 0.035491999 0.035491999
0.143126994 0.035491999 0.035491999
0.188721001 0.035491999 0.035491999
0.241638005 0.038391002 0.037597999
0.299957007 0.043457001 0.042693999
0.360931009 0.049072001 0.048370000
0.421631008 0.054290999 0.054290999
0.480376989 0.059448000 0.059174001
0.536468983 0.064361997 0.064361997
0.589325011 0.068726003 0.068726003
0.639069021 0.072235003 0.072356999
0.685333014 0.075347997 0.075774997
0.728393972 0.078185998 0.078674003
0.769713998 0.080596998 0.081055000
0.809356987 0.083343998 0.083343998
0.034697998 0.066680998 0.034697998
0.067230001 0.067780003 0.034697998
0.104767002 0.066680998 0.035431001
0.144196004 0.068176001 0.035491999
0.190125003 0.071167000 0.035491999
0.242676005 0.074707001 0.038940001
0.300994992 0.079802997 0.044128001
0.362029999 0.085266002 0.049713001
0.422791004 0.090453997 0.055511001
0.481597990 0.095764004 0.060394000
0.537598014 0.100097999 0.065459996
0.590668023 0.104248002 0.069762997
0.640320003 0.107879996 0.073394999
0.686554015 0.110992000 0.076812997
0.729767025 0.113738999 0.079620004
0.771027029 0.116118997 0.082428001
0.810729980 0.118102998 0.084686004
0.035491999 0.106934004 0.035491999
0.067749001 0.109039001 0.035491999
0.110625997 0.111694001 0.035491999
0.152373999 0.109131001 0.035491999
0.194610998 0.109375000 0.035491999
0.244170994 0.113067999 0.040405001
0.301880002 0.118317001 0.045623999
0.363402992 0.123657003 0.051483002
0.424255013 0.128722996 0.056731999
0.483092993 0.133759007 0.062073000
0.539153993 0.138245001 0.067107998
0.592224002 0.142150998 0.071319997
0.641875982 0.145691007 0.075226001
0.688080013 0.148528993 0.078308001
0.731293023 0.151153997 0.081482001
0.772521973 0.153228998 0.083801001
0.812286019 0.155242994 0.086395003
0.035491999 0.152161002 0.035491999
0.071227998 0.153441995 0.036132999
0.111236997 0.158080995 0.035491999
0.159851000 0.160827994 0.036132999
0.207184002 0.156982005 0.036072001
0.254577994 0.155457005 0.038300000
0.306823999 0.159058005 0.045959000
0.365112007 0.164764002 0.053955000
0.425659001 0.170135006 0.059753001
0.484894007 0.174926996 0.064575002
0.541351020 0.179290995 0.069243997
0.594390988 0.183228001 0.073761001
0.644164979 0.186583996 0.077575997
0.690307975 0.189362004 0.080932997
0.733489990 0.191833004 0.083678998
0.774779975 0.193969995 0.086364999
0.814453006 0.195923001 0.088653997
0.040405001 0.203887999 0.039825000
0.077087000 0.204346001 0.040619001
0.114776999 0.208191007 0.037749998
0.160338998 0.214782998 0.036224000
0.217528999 0.217987001 0.036072001
0.273499012 0.213043004 0.036285002
0.325347990 0.208831996 0.040801998
0.379027992 0.210693002 0.050170999
0.434264988 0.215515003 0.059723001
0.489104986 0.220734000 0.067322001
0.543549001 0.225615993 0.073273003
0.596374989 0.229644999 0.077698000
0.646332026 0.233002007 0.081482001
0.692870975 0.235657007 0.084656000
0.736328006 0.238006994 0.087279998
0.777831972 0.240172997 0.089844003
0.817534983 0.242035002 0.092285000
0.048340000 0.264191002 0.047637999
0.084716998 0.264862001 0.048340000
0.122924998 0.266144007 0.047974002
0.164185002 0.273285002 0.042084001
0.218842000 0.283172995 0.037018001
0.287200987 0.286742985 0.036285002
0.352905005 0.280945003 0.037078999
0.407927990 0.273559988 0.042236000
0.459838986 0.271789998 0.051849000
0.512206972 0.274352998 0.061370999
0.563385010 0.277770996 0.069335997
0.612700999 0.281311005 0.076110996
0.658966005 0.284790009 0.081665002
0.702453971 0.287811011 0.086669996
0.743317008 0.290436000 0.090880997
0.783051014 0.292786002 0.094481997
0.822174013 0.294739008 0.097167999
0.058104999 0.332336009 0.057739001
0.094696000 0.332976997 0.058318999
0.133423001 0.333404988 0.059570000
0.173400998 0.338378996 0.055114999
0.221832007 0.349303991 0.045348998
0.289824992 0.362396002 0.037811000
0.368407995 0.365906000 0.036285002
0.441345006 0.360137999 0.037811000
0.499175996 0.350921988 0.041198999
0.549072027 0.344727010 0.049408000
0.598205984 0.343445003 0.058867998
0.645781994 0.344359994 0.066650003
0.690612972 0.345946997 0.073119998
0.732726991 0.347808987 0.078918003
0.772490978 0.349579006 0.083740003
0.811127007 0.351226985 0.087738000
0.848906994 0.352661014 0.090880997
0.069366001 0.404114008 0.068572998
0.105590999 0.404754996 0.069122002
0.144256994 0.405487001 0.070189998
0.185577005 0.407561988 0.070037998
0.230560005 0.417632997 0.060120001
0.291106999 0.433533013 0.045807000
0.371277004 0.447479010 0.037872002
0.456939995 0.451171994 0.037078999
0.531982005 0.445618004 0.037872002
0.591948986 0.436340004 0.040130999
0.642028987 0.427947998 0.045685001
0.687134027 0.422455013 0.053557999
0.731567025 0.420257986 0.060669001
0.773711979 0.419463992 0.066192999
0.813872993 0.419616997 0.070983998
0.852263987 0.420073986 0.075562000
0.889708996 0.420989990 0.079865001
0.080536000 0.475524992 0.079346001
0.116760001 0.476195991 0.079773001
0.154907003 0.477050990 0.080719002
0.197265998 0.477844000 0.082549997
0.241698995 0.486115009 0.075653002
0.296967000 0.501770020 0.059967000
0.371704012 0.520965993 0.044280998
0.458983988 0.533051014 0.037872002
0.545013011 0.535767019 0.037872002
0.619750977 0.531585991 0.037872002
0.681366026 0.523590028 0.037872002
0.732635021 0.515594006 0.041839998
0.776337028 0.508789003 0.048797999
0.818207026 0.505156994 0.056244001
0.858307004 0.503479004 0.062958002
0.897156000 0.502838016 0.068512000
0.935576975 0.502716005 0.073394999
0.091155998 0.544128001 0.089417003
0.126984000 0.544830024 0.089873999
0.165160999 0.545653999 0.090911999
0.207488999 0.546477973 0.092772998
0.253051996 0.552062988 0.089386001
0.305694997 0.567322016 0.075072996
0.374419987 0.587677002 0.055939000
0.459136993 0.605895996 0.041228998
0.547302008 0.614929020 0.037903000
0.629302979 0.616913021 0.040130999
0.703064024 0.615845025 0.040955000
0.767090023 0.612213016 0.040436000
0.819885015 0.606994987 0.043639999
0.865935981 0.602569997 0.050689999
0.906585991 0.598083019 0.058075000
0.945496023 0.594817996 0.064696997
0.980132997 0.592682004 0.070587002
0.101195998 0.609099984 0.098816000
0.136779994 0.609710991 0.099578999
0.174713001 0.610625982 0.100341998
0.216796994 0.611693978 0.101898000
0.263855010 0.614777029 0.102050997
0.315032989 0.629333019 0.088592999
0.379332989 0.649505973 0.069061004
0.460144013 0.671509027 0.050018001
0.548766971 0.687560976 0.041076999
0.634582996 0.695221007 0.044769000
0.712921023 0.699158013 0.050232001
0.782989979 0.699950993 0.050964002
0.846801996 0.699706972 0.050415002
0.900237978 0.697601020 0.052124001
0.940093994 0.693572998 0.056122001
0.973937988 0.689758003 0.060913000
1.000000000 0.686371028 0.066680998
0.110016003 0.669921994 0.107483000
0.145659998 0.670562983 0.108062997
0.183379993 0.671447992 0.108948000
0.225250006 0.672698975 0.110321000
0.273223996 0.674438000 0.112427004
0.323821992 0.687897027 0.100158997
0.386047006 0.708527029 0.081573002
0.463622987 0.732056022 0.064240001
0.551482975 0.754700005 0.051727001
0.639069021 0.768463016 0.051178001
0.719788015 0.774322987 0.059113000
0.792908013 0.778258979 0.063689999
0.856963992 0.778442025 0.064269997
0.911530018 0.778168023 0.063689999
0.945861995 0.778503001 0.063231997
0.972656012 0.777893007 0.063141003
0.999939024 0.776122987 0.065552004
0.118164003 0.726135015 0.115111999
0.153441995 0.726806998 0.115753002
0.190917999 0.727721989 0.116547003
0.232604995 0.728911996 0.117766999
0.280853003 0.730408013 0.120483004
0.332275003 0.742888987 0.111023001
0.394378990 0.764892995 0.095886000
0.469909996 0.790039003 0.080750003
0.554992974 0.814849973 0.066040002
0.641997993 0.832854986 0.059356999
0.723906994 0.841552973 0.063812003
0.799103022 0.847136974 0.070770003
0.866210997 0.850890994 0.074799001
0.917908013 0.851013005 0.074920997
0.945190012 0.850830019 0.074799001
0.972716987 0.850768983 0.074799001
0.999939024 0.850921988 0.074280001
0.125275001 0.777465999 0.121642999
0.160095006 0.778289974 0.122345001
0.197601005 0.779174984 0.123291001
0.239135996 0.780609012 0.124633998
0.288300008 0.782471001 0.128662005
0.341796994 0.795197010 0.124329001
0.403351009 0.817932010 0.110473998
0.476471007 0.843474984 0.094604000
0.558533013 0.868010998 0.080352999
0.644531012 0.889252007 0.069182999
0.727416992 0.901458979 0.067780003
0.802947998 0.905762017 0.075317003
0.870360970 0.910094976 0.080688000
0.919983029 0.912598014 0.084229000
0.945648015 0.912353992 0.084686004
0.972992003 0.912353992 0.084686004
0.999939024 0.912383974 0.085662998
0.131377995 0.825043023 0.127685994
0.166137993 0.825744987 0.128325999
0.203734994 0.827117980 0.129913002
0.246032998 0.829680979 0.132813007
0.295989990 0.832916021 0.138183996
0.350616008 0.843932986 0.136504993
0.411406994 0.866088986 0.123259999
0.482634991 0.892333984 0.106688999
0.562530994 0.917083979 0.092468001
0.646942019 0.937682986 0.079346001
0.730072021 0.947449028 0.073334001
0.806273997 0.946380973 0.078795999
0.873138011 0.946319997 0.084716998
0.920502007 0.946380973 0.089478001
0.946197987 0.946594000 0.092437997
0.973236024 0.946776986 0.093231000
0.999939024 0.947021008 0.094420999
0.138153002 0.871033013 0.134918004
0.173279002 0.872528017 0.136382997
0.210906997 0.874419987 0.138396993
0.253143013 0.877013981 0.141417995
0.302855998 0.880340993 0.146605998
0.358521014 0.889739990 0.147339001
0.418731987 0.911864996 0.134490997
0.488402992 0.938445985 0.117645003
0.566833019 0.962859988 0.102813996
0.649414003 0.974304020 0.089294001
0.731934011 0.973145008 0.080779999
0.809570014 0.973174989 0.081665002
0.875671029 0.973267019 0.088684000
0.921234012 0.973327994 0.093231000
0.946716011 0.973419011 0.097259998
0.973510981 0.973510981 0.099609002
0.999939024 0.973601997 0.098999001
0.145355001 0.916077018 0.143126994
0.180267006 0.917510986 0.144501001
0.217650995 0.919372976 0.146636993
0.259674013 0.922028005 0.149749994
0.309264988 0.925536990 0.154571995
0.366028011 0.933318973 0.157622993
0.425902992 0.954926014 0.145630002
0.494201988 0.983214974 0.128021002
0.571135998 0.998596013 0.112548999
0.652252018 1.000000000 0.099395998
0.734192014 0.999939024 0.088440001
0.812317014 0.999939024 0.086639002
0.878325999 0.999939024 0.092285000
0.921935976 0.999939024 0.095673002
0.947265983 0.999939024 0.101654001
0.973784983 0.999939024 0.102477998
0.999939024 0.999939024 0.106415004
0.034759998 0.034759998 0.066742003
0.066223003 0.034759998 0.066223003
0.102875002 0.035431001 0.066650003
0.143463001 0.035491999 0.066650003
0.189605996 0.035491999 0.069122002
0.241943002 0.038391002 0.073059000
0.300568014 0.043671001 0.078400001
0.361663997 0.049713001 0.083953999
0.422607005 0.055236999 0.089630000
0.481200993 0.060394000 0.094604000
0.537445009 0.065459996 0.099335000
0.590758979 0.069762997 0.103759997
0.640442014 0.073394999 0.107451998
0.686614990 0.076812997 0.110656999
0.730010986 0.079620004 0.113434002
0.771362007 0.082428001 0.115814000
0.811004996 0.084686004 0.118133999
0.035491999 0.066742003 0.066742003
0.066742003 0.067230001 0.066680998
0.104369998 0.067780003 0.066771999
0.145843998 0.070220999 0.068755999
0.192168996 0.072844997 0.071686000
0.244536996 0.076660000 0.075653002
0.302886993 0.081634998 0.080719002
0.363891989 0.087006003 0.086150996
0.424744010 0.092528999 0.091674998
0.483489990 0.097382002 0.096954003
0.539734006 0.101989999 0.101623997
0.592711985 0.106322996 0.105713002
0.642455995 0.109924003 0.109314002
0.688660026 0.113067999 0.112700999
0.731934011 0.115722999 0.115143001
0.773101985 0.118102998 0.117766999
0.812804997 0.120086998 0.119781002
0.035491999 0.107574001 0.067199998
0.068755999 0.108672999 0.068268001
0.109985001 0.111083999 0.066742003
0.151183993 0.109527998 0.068207003
0.193817005 0.111052997 0.072632000
0.245482996 0.115111999 0.077483997
0.304076999 0.120269999 0.082275003
0.365294993 0.125366002 0.087860003
0.426239014 0.130676001 0.093353003
0.485076994 0.135528997 0.098357998
0.541199028 0.140075997 0.103119001
0.594237983 0.144042999 0.107178003
0.643981993 0.147551998 0.110992000
0.690124989 0.150420994 0.114105001
0.733367980 0.152985007 0.116791002
0.774719000 0.155242994 0.119110003
0.814301014 0.157226995 0.121367998
0.035491999 0.152618006 0.070739999
0.072296001 0.153411999 0.071777001
0.111236997 0.157134995 0.068755999
0.159058005 0.160095006 0.066742003
0.205871999 0.156982005 0.068816997
0.253295988 0.156616002 0.075897001
0.306823999 0.161010996 0.083832003
0.366515994 0.166686997 0.090392999
0.427917004 0.172119007 0.095702998
0.487152010 0.176880002 0.100493997
0.543365002 0.181182995 0.105315998
0.596436024 0.185120001 0.109527998
0.646148980 0.188599005 0.113190003
0.692444026 0.191376001 0.116425000
0.735656977 0.193909004 0.119080000
0.776854992 0.195923001 0.121338002
0.816559017 0.197876006 0.123839997
0.040619001 0.204254001 0.076018997
0.077575997 0.205200002 0.077118002
0.116028003 0.207184002 0.075989000
0.160338998 0.213898003 0.069793999
0.217133000 0.217712000 0.067230001
0.272156000 0.212769002 0.069824003
0.323882997 0.209534004 0.078491002
0.378051996 0.212340996 0.088561997
0.434020996 0.217682004 0.097046003
0.489928991 0.222930998 0.104065001
0.545440972 0.227569997 0.109406002
0.598601997 0.231598005 0.113617003
0.648773015 0.234924003 0.117004000
0.695343018 0.237700999 0.119994998
0.738739014 0.240051001 0.122559004
0.780059993 0.242035002 0.125092000
0.819763005 0.244019002 0.127258003
0.048797999 0.264862001 0.083832003
0.085602000 0.265563995 0.084686004
0.124268003 0.266418010 0.085510001
0.164977998 0.272338986 0.080048002
0.218719006 0.282195985 0.070862003
0.286713004 0.286255002 0.068145998
0.351410002 0.280425996 0.070525996
0.406158000 0.273712009 0.079437003
0.458373994 0.272826999 0.090271004
0.511260986 0.275817990 0.098876998
0.562958002 0.279540986 0.106293000
0.612151980 0.283324987 0.113036998
0.658508003 0.287018001 0.118773997
0.701996028 0.290192008 0.123504996
0.743866026 0.292755008 0.126984000
0.784636974 0.294921994 0.129913002
0.823943973 0.296875000 0.132293999
0.058899000 0.332946986 0.093506001
0.095398001 0.333588004 0.094146997
0.134277001 0.334289998 0.095154002
0.174896002 0.337433010 0.093627997
0.222381994 0.348022014 0.083282001
0.289398015 0.361633003 0.071563996
0.367736995 0.365325987 0.069335997
0.440032989 0.359467000 0.070343003
0.497527987 0.350524992 0.077301003
0.547333002 0.344940007 0.087860003
0.596557975 0.344269007 0.096496999
0.644257009 0.345519990 0.104065001
0.688965023 0.347472996 0.110808998
0.731262028 0.349487007 0.116149999
0.771515012 0.351318002 0.120453000
0.810486019 0.353058010 0.124297999
0.848145008 0.354645014 0.127563000
0.070189998 0.404906988 0.104094997
0.106293000 0.405548006 0.104613997
0.144927993 0.406342000 0.105590999
0.186890006 0.407561988 0.106688999
0.231598005 0.416565001 0.098449998
0.291168004 0.432586998 0.083068997
0.370880008 0.446837991 0.072144002
0.456299007 0.450531006 0.070281997
0.530945003 0.444884986 0.070464998
0.590301991 0.435608000 0.074463002
0.639922976 0.427489996 0.082855001
0.685516000 0.422515988 0.091216996
0.730225027 0.420684993 0.097534001
0.772400022 0.420105010 0.102936000
0.812224984 0.420471013 0.108032003
0.850830019 0.421142995 0.112488002
0.888122976 0.422271997 0.116912998
0.081450999 0.476379007 0.114532001
0.117400996 0.477050990 0.115203999
0.155670002 0.477844000 0.116028003
0.198211998 0.478606999 0.117858998
0.243194997 0.485320985 0.113036998
0.297607005 0.500487983 0.098389000
0.371398985 0.519806027 0.080504999
0.458496004 0.532410026 0.073059000
0.544556022 0.535247982 0.072265998
0.618957996 0.530945003 0.070496000
0.680023015 0.522796988 0.071410999
0.731109977 0.514984012 0.077728003
0.774872005 0.508391976 0.086060002
0.816619992 0.505005002 0.093474999
0.856872976 0.503723025 0.099639997
0.895874023 0.503112972 0.105103001
0.933745980 0.503081977 0.110656999
0.091980003 0.544983029 0.124512002
0.127899006 0.545593023 0.125121996
0.165955007 0.546539009 0.126038000
0.208221003 0.547455013 0.127593994
0.254790992 0.551299989 0.126678005
0.306793004 0.565918028 0.112853996
0.374480993 0.586395025 0.093323000
0.458710015 0.605041981 0.077209003
0.546814024 0.614440978 0.074036002
0.628844976 0.616486013 0.076172002
0.702697992 0.615478992 0.074401997
0.766387999 0.611693978 0.075165004
0.818665028 0.606414974 0.080719002
0.864440978 0.601958990 0.087707996
0.904968023 0.597504020 0.094910003
0.943817019 0.594421029 0.101562999
0.978760004 0.592499018 0.107483000
0.101929002 0.609862983 0.133759007
0.137633994 0.610565007 0.134338006
0.175506994 0.611481011 0.135193005
0.217499003 0.612671018 0.136474997
0.265320003 0.614562988 0.138245001
0.316376001 0.628296018 0.125792995
0.379790992 0.648468018 0.106201001
0.459868997 0.670531988 0.086487003
0.548278987 0.686859012 0.077483997
0.634186029 0.694916010 0.081696004
0.712554991 0.698913991 0.087188996
0.782653987 0.699676991 0.087494001
0.846466005 0.699370980 0.086760998
0.899384022 0.697052002 0.088592999
0.938781977 0.692780018 0.092987001
0.972809017 0.688995004 0.097717002
1.000000000 0.685576975 0.102417000
0.110870004 0.670684993 0.141997993
0.146454006 0.671416998 0.142638996
0.184203997 0.672333002 0.143616006
0.225922003 0.673552990 0.144927993
0.274230987 0.674926996 0.147247002
0.325195014 0.687195003 0.136627004
0.386779994 0.707549989 0.118438996
0.463622987 0.731200993 0.101135001
0.551117003 0.753906012 0.088776000
0.638611019 0.767974973 0.087646000
0.719452024 0.774016976 0.095154002
0.792541981 0.777893007 0.099730998
0.856536984 0.778106987 0.100249998
0.911284983 0.777924001 0.099395998
0.946013987 0.778228998 0.098693997
0.972778022 0.777343988 0.099609002
0.999939024 0.775084972 0.101562999
0.118927002 0.726929009 0.149444997
0.154174998 0.727630973 0.150055006
0.191742003 0.728546023 0.150848001
0.233398005 0.729797006 0.152252004
0.282074004 0.731018007 0.155182004
0.333862007 0.742187977 0.147674993
0.395507991 0.763976991 0.133086994
0.470275998 0.789336979 0.117614999
0.554749012 0.814086974 0.102904998
0.641541004 0.832244992 0.095825002
0.723541021 0.841187000 0.099792004
0.798736989 0.846801996 0.106597997
0.865906000 0.850555003 0.110321000
0.917786002 0.850677013 0.110748000
0.945190012 0.850432992 0.110748000
0.972716987 0.850432992 0.110504001
0.999939024 0.850708008 0.110016003
0.125884995 0.778380990 0.155823007
0.161072001 0.779083014 0.156371996
0.198394999 0.780059993 0.157349005
0.240051001 0.781463981 0.158843994
0.289245993 0.783508003 0.162964001
0.343658000 0.794586003 0.160858005
0.404816002 0.816802979 0.147705004
0.477019995 0.842499018 0.131347999
0.558502018 0.867034972 0.116974004
0.644073009 0.888396978 0.105559997
0.726958990 0.901122987 0.103667997
0.802550972 0.905487001 0.110808998
0.870055974 0.909789979 0.116241001
0.919951975 0.912292004 0.119507000
0.945648015 0.912078977 0.119903997
0.973021984 0.912078977 0.120148003
0.999939024 0.912047982 0.120300002
0.132293999 0.825836003 0.161530003
0.167052999 0.826659977 0.162292004
0.204680994 0.828155994 0.163971007
0.247070000 0.830780029 0.166808993
0.296875000 0.834106028 0.171936005
0.352661014 0.843291998 0.172942996
0.413085997 0.865082026 0.160278007
0.483307004 0.891357005 0.143401995
0.562682986 0.916351020 0.128876001
0.646697998 0.937469006 0.115264997
0.729583979 0.947449028 0.109283000
0.805939019 0.946380973 0.114257999
0.872802973 0.946380973 0.119903997
0.920562983 0.946411014 0.124695003
0.946197987 0.946594000 0.127410993
0.973267019 0.946838021 0.127471998
0.999939024 0.947021008 0.128082007
0.139008000 0.872192025 0.168700993
0.174376994 0.873627007 0.170502007
0.211974993 0.875427008 0.172516003
0.254180998 0.878081977 0.175384998
0.303802013 0.881622016 0.180114999
0.360626012 0.889159977 0.183440998
0.420623988 0.910492003 0.171508998
0.489349008 0.937377989 0.154174998
0.567017019 0.962189019 0.139403999
0.649169981 0.974059999 0.125792995
0.731598020 0.973205984 0.116852000
0.809143007 0.973174989 0.117339998
0.875397027 0.973236024 0.123443998
0.921265006 0.973327994 0.128113002
0.946716011 0.973450005 0.132506996
0.973479986 0.973479986 0.134552002
0.999939024 0.973601997 0.134978995
0.146148995 0.917205989 0.176543996
0.181122005 0.918671012 0.178284004
0.218719006 0.920471013 0.180450007
0.260803014 0.923156977 0.183349997
0.310211003 0.926849008 0.187896997
0.368225008 0.932892025 0.193419993
0.427886993 0.953674018 0.182251006
0.495209008 0.981994987 0.164551005
0.571533024 0.998016000 0.149292007
0.651978016 1.000000000 0.135406002
0.733612001 0.999939024 0.125244007
0.811890006 0.999939024 0.121002004
0.877929986 0.999939024 0.126312003
0.921967030 0.999939024 0.131897002
0.947234988 0.999939024 0.134398997
0.973784983 0.999939024 0.138245001
0.999939024 0.999939024 0.141234994
0.035399999 0.035399999 0.102904998
0.066284001 0.034759998 0.103363000
0.106140003 0.035491999 0.104033999
0.146210000 0.035491999 0.103332996
0.189941004 0.035491999 0.105071999
0.242278993 0.038940001 0.109283000
0.300689995 0.044188999 0.114136003
0.361815989 0.049743999 0.119658999
0.422791004 0.055573002 0.125244007
0.481628001 0.060637999 0.130280003
0.537750006 0.065490998 0.134887993
0.590942025 0.069793999 0.139008000
0.640717030 0.073913999 0.142517000
0.687041998 0.077179000 0.145691007
0.730286002 0.080109000 0.148346007
0.771575987 0.082457997 0.150695994
0.811339974 0.084716998 0.152770996
0.035431001 0.066680998 0.104065001
0.067199998 0.067230001 0.104767002
0.106505997 0.068755999 0.105071999
0.146819994 0.070831001 0.105834998
0.192626998 0.073729999 0.108581997
0.245849997 0.077972002 0.112732001
0.304076999 0.083007999 0.117675997
0.365112007 0.088317998 0.123076998
0.426117003 0.093750000 0.128601000
0.485045999 0.098907001 0.133635998
0.541320980 0.103850998 0.138366997
0.594482005 0.107879996 0.142455995
0.644409001 0.111663997 0.146026999
0.690643013 0.114776999 0.149139002
0.733947992 0.117462002 0.151732996
0.775268972 0.120056003 0.154204994
0.815063000 0.122284003 0.156219006
0.035491999 0.108978003 0.105407998
0.068816997 0.108978003 0.105803996
0.109679997 0.110717997 0.105407998
0.149963006 0.111115001 0.108185001
0.195313007 0.113434002 0.111450002
0.247771993 0.117462002 0.115509003
0.306609988 0.122497998 0.120269999
0.367798001 0.127808005 0.125670999
0.428618997 0.133026004 0.131104007
0.487549007 0.137908995 0.136078000
0.543640018 0.142395005 0.140594006
0.596801996 0.146454006 0.144713998
0.646544993 0.149902001 0.148314998
0.692780018 0.152924001 0.151215002
0.735961974 0.155457005 0.153778002
0.777252018 0.157714993 0.156219006
0.816955984 0.159667999 0.158203006
0.036132999 0.153656006 0.107605003
0.072815001 0.153931007 0.109039001
0.112152003 0.155945003 0.109252997
0.158325002 0.159454003 0.106017999
0.204346001 0.157134995 0.108948000
0.252350003 0.158691004 0.115874998
0.308043987 0.163605005 0.122466996
0.369141012 0.169220001 0.128113002
0.430572987 0.174376994 0.133178994
0.489684999 0.179230005 0.138214007
0.545807004 0.183623999 0.142761007
0.598999023 0.187561005 0.146789998
0.648773015 0.191009998 0.150420994
0.695038021 0.193786994 0.153473005
0.738250971 0.196259007 0.155974999
0.779510021 0.198424995 0.158417001
0.819182992 0.200348005 0.160400003
0.041168001 0.204620004 0.113036998
0.078460999 0.205871999 0.114409998
0.117339998 0.206909001 0.115387000
0.160400003 0.212830007 0.109741002
0.216064006 0.216887996 0.106536999
0.270599008 0.212645993 0.109802000
0.322692990 0.210723996 0.118529998
0.377106011 0.214539006 0.128142998
0.434264988 0.220275998 0.135924995
0.491759986 0.225525007 0.141815007
0.547913015 0.230011001 0.146729007
0.601593018 0.233887002 0.150573999
0.651763976 0.237274006 0.153899997
0.698090017 0.240051001 0.156708002
0.741515994 0.242461994 0.159363002
0.782653987 0.244476005 0.161590993
