public/lut/125.cube
TITLE "17x17x17 Adobe/IRIDAS cube 3D LUT exported with GrossGrade v0.2.2 (beta) 64 bit"
DOMAIN_MIN 0 0 0
DOMAIN_MAX 1 1 1
LUT_3D_SIZE 17
0.007904000 0.012634000 0.014984000
0.054108001 0.012634000 0.014984000
0.101837002 0.012634000 0.015778000
0.148040995 0.013428000 0.015778000
0.198364004 0.013428000 0.015778000
0.251433998 0.014740000 0.015778000
0.306549013 0.016266000 0.013702000
0.367980987 0.015320000 0.008118000
0.432678014 0.013428000 0.001984000
0.499572992 0.011841000 0.000000000
0.570007026 0.006989000 0.000000000
0.639007986 0.000000000 0.000000000
0.703460991 0.000000000 0.000000000
0.764007986 0.000000000 0.000000000
0.818938971 0.000000000 0.000000000
0.868317008 0.000000000 0.000000000
0.912841976 0.000000000 0.000000000
0.007904000 0.058990002 0.015778000
0.054717999 0.058990002 0.015717000
0.101898000 0.059570000 0.015778000
0.148285002 0.059631001 0.015778000
0.198394999 0.060210999 0.015778000
0.251830995 0.061218001 0.015778000
0.306854010 0.061981000 0.013702000
0.368194997 0.061066002 0.008118000
0.433380008 0.059326001 0.001587000
0.500732005 0.058136001 0.000000000
0.571228027 0.052887000 0.000000000
0.640044987 0.045348998 0.000000000
0.704620004 0.045348998 0.000000000
0.764862001 0.045348998 0.000000000
0.819611013 0.045348998 0.000000000
0.868896008 0.045348998 0.000000000
0.913268983 0.045348998 0.000000000
0.007904000 0.106384002 0.016449001
0.054749001 0.106384002 0.016449001
0.101562999 0.106720001 0.016449001
0.148254007 0.106780998 0.016449001
0.199248999 0.107391000 0.016571000
0.252319008 0.108185001 0.015778000
0.308075011 0.108916998 0.013702000
0.370453000 0.107818998 0.007324000
0.436217993 0.106201001 0.001190000
0.504059017 0.104796998 0.000000000
0.575103998 0.098968998 0.000000000
0.643828988 0.091003001 0.000000000
0.707947016 0.090759002 0.000000000
0.767883003 0.090697996 0.000000000
0.822082996 0.090668000 0.000000000
0.871398985 0.090363003 0.000000000
0.915771008 0.090301998 0.000000000
0.004883000 0.155333996 0.017364999
0.051086001 0.155333996 0.017364999
0.097838998 0.155396000 0.017364999
0.146667004 0.155640006 0.017364999
0.199248999 0.156096995 0.017364999
0.253417999 0.157257006 0.016663000
0.310822010 0.157989994 0.014008000
0.374695003 0.156799003 0.005920000
0.441345006 0.155548006 0.000397000
0.510742009 0.154662997 0.000000000
0.582336009 0.149231002 0.000000000
0.650390983 0.139191002 0.000000000
0.714080989 0.134673998 0.000000000
0.772674978 0.135802999 0.000000000
0.826538026 0.135558993 0.000000000
0.875458002 0.135284007 0.000000000
0.919861019 0.135040000 0.000000000
0.000977000 0.206146002 0.018921001
0.046448000 0.206146002 0.019531000
0.092681997 0.206207007 0.018921001
0.139587000 0.206696004 0.018921001
0.197998002 0.207550004 0.018158000
0.254913002 0.209289998 0.017364999
0.314301014 0.210051998 0.013397000
0.379913002 0.209777996 0.004547000
0.447937012 0.209839001 0.000000000
0.519073009 0.209990993 0.000000000
0.591521978 0.207122996 0.000000000
0.659210026 0.200499997 0.000000000
0.721831977 0.190947995 0.000000000
0.779326975 0.181365997 0.000000000
0.832184017 0.179993004 0.000000000
0.880614996 0.178618997 0.000000000
0.924956977 0.178252995 0.000000000
0.000000000 0.259552002 0.021819999
0.045348998 0.259705007 0.021819999
0.091155998 0.259979010 0.021819999
0.136719003 0.260405988 0.021819999
0.190613002 0.261963010 0.019714000
0.253295988 0.264586985 0.017059000
0.319701999 0.265717000 0.010590000
0.387237996 0.265717000 0.002869000
0.456542999 0.266692996 0.000000000
0.529999018 0.267578006 0.000000000
0.603546023 0.266418010 0.000000000
0.670653999 0.263000011 0.000000000
0.732757986 0.256958008 0.000000000
0.789551020 0.250000000 0.000000000
0.841400027 0.246703997 0.000000000
0.889496028 0.244536996 0.000000000
0.933807015 0.244231999 0.000000000
0.000000000 0.318969995 0.024444999
0.045348998 0.318908989 0.024444999
0.091216996 0.319121987 0.024444999
0.136687994 0.319884986 0.024139000
0.182739004 0.321381003 0.022766000
0.240294993 0.325042993 0.012115000
0.317200005 0.328094006 0.003845000
0.393462986 0.329558998 0.000305000
0.466522008 0.331512004 0.000000000
0.542663991 0.333557010 0.000000000
0.617278993 0.333862007 0.000000000
0.684630990 0.332428008 0.000000000
0.746490002 0.329681009 0.000000000
0.802460015 0.326842993 0.000000000
0.853942990 0.323821992 0.000000000
0.901825011 0.322234988 0.000000000
0.946135998 0.322021008 0.000000000
0.000000000 0.381011993 0.025238000
0.045348998 0.381134003 0.025726000
0.090911999 0.381531000 0.025238000
0.136444002 0.382598996 0.024597000
0.180907995 0.384613007 0.023406999
0.227173001 0.388976991 0.012604000
0.311370999 0.393950999 0.001831000
0.398651004 0.398193002 0.000000000
0.476348996 0.401703000 0.000000000
0.555634022 0.404906988 0.000000000
0.631470025 0.406646997 0.000000000
0.699340999 0.406432986 0.000000000
0.761353016 0.404906988 0.000000000
0.817139030 0.402801991 0.000000000
0.868469000 0.400725991 0.000000000
0.916106999 0.399596989 0.000000000
0.960510015 0.399596989 0.000000000
0.000000000 0.445679009 0.024048001
0.045348998 0.445892006 0.024048001
0.090697996 0.446868986 0.023254000
0.135956004 0.448547006 0.021819999
0.181182995 0.451384991 0.016968001
0.221801996 0.456328988 0.007843000
0.304749012 0.463135004 0.001770000
0.399901986 0.471008003 0.000000000
0.484679997 0.477111995 0.000000000
0.567260981 0.481110007 0.000000000
0.644684017 0.483794987 0.000000000
0.713379025 0.484497011 0.000000000
0.775757015 0.483550996 0.000000000
0.831786990 0.482055992 0.000000000
0.883148015 0.480071992 0.000000000
0.930694997 0.479155988 0.000000000
0.975158989 0.479279011 0.000000000
0.000000000 0.509796023 0.019012000
0.045348998 0.510101020 0.018677000
0.090363003 0.511353016 0.017120000
0.135436997 0.513489008 0.012604000
0.180573002 0.517302990 0.006104000
0.222075999 0.523621023 0.000488000
0.290740997 0.532715023 0.000000000
0.391876012 0.543609977 0.000000000
0.490081996 0.552978992 0.000000000
0.575896978 0.558655024 0.000000000
0.655211985 0.561890006 0.000000000
0.725372016 0.563598990 0.000000000
0.788543999 0.563354015 0.000000000
0.844940007 0.562377989 0.000000000
0.896697998 0.560791016 0.000000000
0.944702029 0.560088992 0.000000000
0.988922000 0.560088992 0.000000000
0.000000000 0.569580019 0.009552000
0.044677999 0.570038021 0.008759000
0.089905001 0.571319997 0.006805000
0.135040000 0.573822021 0.002716000
0.179931998 0.578552008 0.000000000
0.223389000 0.586914003 0.000000000
0.276611000 0.597899973 0.000000000
0.380492985 0.610625982 0.000000000
0.491759986 0.622711003 0.000000000
0.580841005 0.631042004 0.000000000
0.662567019 0.635468006 0.000000000
0.734252989 0.637938976 0.000000000
0.798370004 0.638489008 0.000000000
0.855437994 0.638122976 0.000000000
0.907104015 0.637085021 0.000000000
0.953948975 0.636169016 0.000000000
0.998108029 0.636260986 0.000000000
0.000000000 0.625487983 0.000000000
0.044677999 0.625945985 0.000000000
0.089905001 0.627380013 0.000000000
0.134582996 0.630402029 0.000000000
0.179290995 0.636078000 0.000000000
0.223175004 0.645569026 0.000000000
0.270354986 0.657715023 0.000000000
0.373535007 0.671875000 0.000000000
0.489226997 0.685851991 0.000000000
0.582489014 0.696959972 0.000000000
0.667297006 0.703490973 0.000000000
0.739562988 0.706146002 0.000000000
0.805054009 0.707580984 0.000000000
0.862273991 0.707611024 0.000000000
0.911713004 0.706573009 0.000000000
0.956085026 0.705353022 0.000000000
1.000000000 0.705474973 0.000000000
0.000000000 0.676452994 0.000000000
0.044647001 0.676849008 0.000000000
0.089478001 0.678466976 0.000000000
0.134064004 0.681702018 0.000000000
0.178710997 0.687804997 0.000000000
0.222992003 0.697692990 0.000000000
0.263610989 0.710601985 0.000000000
0.364502013 0.725921988 0.000000000
0.484070003 0.741271973 0.000000000
0.581450999 0.754912972 0.000000000
0.669158995 0.763763011 0.000000000
0.742340028 0.766632020 0.000000000
0.809081972 0.768981993 0.000000000
0.865845025 0.769562006 0.000000000
0.911590993 0.768127024 0.000000000
0.955871999 0.767180979 0.000000000
0.999907970 0.767302990 0.000000000
0.000000000 0.724059999 0.000000000
0.044647001 0.724335015 0.000000000
0.089050002 0.726073980 0.000000000
0.133544996 0.729462028 0.000000000
0.178039998 0.735473990 0.000000000
0.222655997 0.745360970 0.000000000
0.258392006 0.758666992 0.000000000
0.356353998 0.774658024 0.000000000
0.478363007 0.791046023 0.000000000
0.578674018 0.805603027 0.000000000
0.668762028 0.816101015 0.000000000
0.744507015 0.821075022 0.000000000
0.811339974 0.823517025 0.000000000
0.867554009 0.824615002 0.000000000
0.911742985 0.823273003 0.000000000
0.956054986 0.822417974 0.000000000
0.999877989 0.822479010 0.000000000
0.000000000 0.770476997 0.000000000
0.044555999 0.770905018 0.000000000
0.088653997 0.772614002 0.000000000
0.133209005 0.775847971 0.000000000
0.177398995 0.781768978 0.000000000
0.221801996 0.791504025 0.000000000
0.258513987 0.804931998 0.000000000
0.352203012 0.821349978 0.000000000
0.473082989 0.838409007 0.000000000
0.576843023 0.853942990 0.000000000
0.668640018 0.865570009 0.000000000
0.745911002 0.871581972 0.000000000
0.812897027 0.874114990 0.000000000
0.868286014 0.875702024 0.000000000
0.911987007 0.874359012 0.000000000
0.956176996 0.873871028 0.000000000
0.999877989 0.873901010 0.000000000
0.000000000 0.815186024 0.000000000
0.043976001 0.815703988 0.000000000
0.088225998 0.817412972 0.000000000
0.132689998 0.820586979 0.000000000
0.176788002 0.826476991 0.000000000
0.221008003 0.835999012 0.000000000
0.257782012 0.849364996 0.000000000
0.349456996 0.865935981 0.000000000
0.469788015 0.883453012 0.000000000
0.575348020 0.899322987 0.000000000
0.668914974 0.912140012 0.000000000
0.747711003 0.919219971 0.000000000
0.813598990 0.920502007 0.000000000
0.868773997 0.922057986 0.000000000
0.912262022 0.920989990 0.000000000
0.956268013 0.920409977 0.000000000
0.999877989 0.920379996 0.000000000
0.000000000 0.857819021 0.000000000
0.043976001 0.858429015 0.000000000
0.088165000 0.860137999 0.000000000
0.132110998 0.863312006 0.000000000
0.176117003 0.869324028 0.000000000
0.220305994 0.878844976 0.000000000
0.256835997 0.892548025 0.000000000
0.348877013 0.909271002 0.000000000
0.469817996 0.926880002 0.000000000
0.575591981 0.943023980 0.000000000
0.669403017 0.955811024 0.000000000
0.748291016 0.962830007 0.000000000
0.814117014 0.963958979 0.000000000
0.869171023 0.965331972 0.000000000
0.912536979 0.964294016 0.000000000
0.956390023 0.963593006 0.000000000
0.999877989 0.963531017 0.000000000
0.007904000 0.011871000 0.060302999
0.054717999 0.012634000 0.061951000
0.101256996 0.012634000 0.061462000
0.148498997 0.013428000 0.061981000
0.198578000 0.013428000 0.061981000
0.251495004 0.014740000 0.061400998
0.306580007 0.016266000 0.059845001
0.367920011 0.014587000 0.053925000
0.432830989 0.013031000 0.047455002
0.499695003 0.011841000 0.045348998
0.569916010 0.006714000 0.045348998
0.638794005 0.000000000 0.045348998
0.703429997 0.000000000 0.045348998
0.763794005 0.000000000 0.045348998
0.818908989 0.000000000 0.045348998
0.868286014 0.000000000 0.045348998
0.912658989 0.000000000 0.045348998
0.007904000 0.059570000 0.061951000
0.054749001 0.059052002 0.061981000
0.101562999 0.059052002 0.061981000
0.148406997 0.059631001 0.061981000
0.198607996 0.060210999 0.061981000
0.251861989 0.061218001 0.061432000
0.306914985 0.062346999 0.059845001
0.368561000 0.061066002 0.053679999
0.433533013 0.059052002 0.047150001
0.500609994 0.057831001 0.045348998
0.571013987 0.052521002 0.045348998
0.639984012 0.045348998 0.045348998
0.704375982 0.045348998 0.045348998
0.764648020 0.045348998 0.045348998
0.819580019 0.045348998 0.045348998
0.868866026 0.045348998 0.045348998
0.913239002 0.045348998 0.045348998
0.007996000 0.106415004 0.062531002
0.054749001 0.106384002 0.062531002
0.101195998 0.106384002 0.062531002
0.148223996 0.106749997 0.062560998
0.198944002 0.107147001 0.062560998
0.252319008 0.108124003 0.061981000
0.308196992 0.109160997 0.059905998
0.370788991 0.107787997 0.053100999
0.436401010 0.106017999 0.046783000
0.504242003 0.104736000 0.045348998
0.575012028 0.098968998 0.045348998
0.643706977 0.091155998 0.045348998
0.708037972 0.090759002 0.045348998
0.767669976 0.090697996 0.045348998
0.822052002 0.090363003 0.045348998
0.871185005 0.090363003 0.045348998
0.915709972 0.090301998 0.045348998
0.004883000 0.155579001 0.063598998
0.051086001 0.155333996 0.063598998
0.097838998 0.155365005 0.063598998
0.146636993 0.155823007 0.063598998
0.199248999 0.156096995 0.063141003
0.253479004 0.157257006 0.062652998
0.310912997 0.157837003 0.059691999
0.374785990 0.156586006 0.051453002
0.441498011 0.155304000 0.046082001
0.510712028 0.154633000 0.045348998
0.582062006 0.148986995 0.045348998
0.650237978 0.138977006 0.045348998
0.713805974 0.134673998 0.045348998
0.772643983 0.135833994 0.045348998
0.826354980 0.135558993 0.045348998
0.875397027 0.135344997 0.045348998
0.919799984 0.135040000 0.044677999
0.000977000 0.206146002 0.065246999
0.046448000 0.206146002 0.065246999
0.092681997 0.206238002 0.065246999
0.139587000 0.206696004 0.065246999
0.197936997 0.207550004 0.064240001
0.254790992 0.209105998 0.063293003
0.314422995 0.209868997 0.059509002
0.380005002 0.209442005 0.050322998
0.448029011 0.209656000 0.045348998
0.518921018 0.209808007 0.045348998
0.591338992 0.207030997 0.045348998
0.658996999 0.200286999 0.045348998
0.721710026 0.190764993 0.045348998
0.779174984 0.181365997 0.045348998
0.832062006 0.179810002 0.045348998
0.880492985 0.178467005 0.044829998
0.924896002 0.178192005 0.044677999
0.000000000 0.259948999 0.067932002
0.045348998 0.259887993 0.067932002
0.091430999 0.260071009 0.067932002
0.136687994 0.260376006 0.067932002
0.190399006 0.261871010 0.065917999
0.253356993 0.264557004 0.063323997
0.319519013 0.265350014 0.057068001
0.387481987 0.265502989 0.048583999
0.456818014 0.266602010 0.044983000
0.529906988 0.267578006 0.045348998
0.603271008 0.266357005 0.045348998
0.670471013 0.262847990 0.045348998
0.732726991 0.256805003 0.045348998
0.789306998 0.249633998 0.045348998
0.841338992 0.246399000 0.044861000
0.889343023 0.244385004 0.044677999
0.933745980 0.244202003 0.044677999
0.000000000 0.318756014 0.070587002
0.045348998 0.318908989 0.070587002
0.091247998 0.319182992 0.070220999
0.136687994 0.319945991 0.070037998
0.182739004 0.321197987 0.068908997
0.239898995 0.325011998 0.058228001
0.317290992 0.328217000 0.049651999
0.393981993 0.329497993 0.045959000
0.466643989 0.331328988 0.045348998
0.542450011 0.333434999 0.045348998
0.617125988 0.333801001 0.045348998
0.684448004 0.332275003 0.045348998
0.746307015 0.329528987 0.045348998
0.802398980 0.326599002 0.044922002
0.853851020 0.323608011 0.044677999
0.901794016 0.322021008 0.044677999
0.946044981 0.321808010 0.044677999
0.000000000 0.380950987 0.071594000
0.045348998 0.381072998 0.071289003
0.090911999 0.381561011 0.071289003
0.136444002 0.382629007 0.070770003
0.180907995 0.384613007 0.069458000
0.226714998 0.388947010 0.058594000
0.311646014 0.394286990 0.047272000
0.399048001 0.398223996 0.044647001
0.476348996 0.401488990 0.045348998
0.555419981 0.404785007 0.045348998
0.631255984 0.406524986 0.045348998
0.699249029 0.406342000 0.045134999
0.761229992 0.404724002 0.044677999
0.817047000 0.402770996 0.044677999
0.868377984 0.400481999 0.044677999
0.916046023 0.399506003 0.044677999
0.960327029 0.399291992 0.044677999
0.000000000 0.445923001 0.069977000
0.045348998 0.446227998 0.069733001
0.090697996 0.446960002 0.069214001
0.135956004 0.448578000 0.068207003
0.181182995 0.451537997 0.063202001
0.221741006 0.456360012 0.053893998
0.304443002 0.463135004 0.046967000
0.399596989 0.470916986 0.044647001
0.484375000 0.476958990 0.045348998
0.566986024 0.481018007 0.045012999
0.644500971 0.483704001 0.044677999
0.713347971 0.484375000 0.044677999
0.775757015 0.483521014 0.044677999
0.831757009 0.481994987 0.044677999
0.883026004 0.479858011 0.044677999
0.930724978 0.479034007 0.044647001
0.974976003 0.478973001 0.044647001
0.000000000 0.510132015 0.065215997
0.045348998 0.510528982 0.064636000
0.090363003 0.511505008 0.063323997
0.135436997 0.513641000 0.059418000
0.180573002 0.517426014 0.052276999
0.222259998 0.523711979 0.045990001
0.289673001 0.532562017 0.044403002
0.390929997 0.543488026 0.044952001
0.489746004 0.552978992 0.044677999
0.575531006 0.558502018 0.044677999
0.655089974 0.561707020 0.044677999
0.725403011 0.563538015 0.044677999
0.788543999 0.563416004 0.044677999
0.844910026 0.562317014 0.044677999
0.896606028 0.560546994 0.044647001
0.944640994 0.559966981 0.044647001
0.988892019 0.559997976 0.044647001
0.000000000 0.569823980 0.055817001
0.044677999 0.570312977 0.055176001
0.089905001 0.571411014 0.052979000
0.134978995 0.574065983 0.048981000
0.179931998 0.578674018 0.044829998
0.223601997 0.586914003 0.044464000
0.275543004 0.597899973 0.044677999
0.379456013 0.610625982 0.044677999
0.491425008 0.622802973 0.044677999
0.580505013 0.630981028 0.044677999
0.662353992 0.635344982 0.044677999
0.734099984 0.637938976 0.044677999
0.798309028 0.638518989 0.044647001
0.855377018 0.638122976 0.044647001
0.907073975 0.636840999 0.044647001
0.953917980 0.636078000 0.044647001
0.998108029 0.636138976 0.044372998
0.000000000 0.625732005 0.045867998
0.044677999 0.626128972 0.045134999
0.089722000 0.627563000 0.043945000
0.134582996 0.630585015 0.043915000
0.179290995 0.636078000 0.044647001
0.223235995 0.645537972 0.044677999
0.269805998 0.657745004 0.044677999
0.372772008 0.671935976 0.044677999
0.488739014 0.685822010 0.044647001
0.581969976 0.696807981 0.044647001
0.666747987 0.703338981 0.044647001
0.739287972 0.706085026 0.044647001
0.804871023 0.707549989 0.044647001
0.862151980 0.707702994 0.044647001
0.911713004 0.706481993 0.044647001
0.956085026 0.705048025 0.044403002
1.000000000 0.705138981 0.043731999
0.000000000 0.676604986 0.044647001
0.044647001 0.677062988 0.044647001
0.089478001 0.678650022 0.044647001
0.134064004 0.681762993 0.044677999
0.178650007 0.687804997 0.044647001
0.223052993 0.697692990 0.044647001
0.262939006 0.710601985 0.044647001
0.363555998 0.725890994 0.044647001
0.483307004 0.741240978 0.044647001
0.580749989 0.754760981 0.044647001
0.668609977 0.763549984 0.044647001
0.742187977 0.766692996 0.044647001
0.808960021 0.769164979 0.044647001
0.865813971 0.770020008 0.044464000
0.911590993 0.768158019 0.043976001
0.955871999 0.766968012 0.043976001
0.999877989 0.767028987 0.043793000
0.000000000 0.724090993 0.044647001
0.044647001 0.724609017 0.044647001
0.089050002 0.726135015 0.044647001
0.133544996 0.729400992 0.044647001
0.178039998 0.735442996 0.044647001
0.222655997 0.745330989 0.044647001
0.258635998 0.758575022 0.044647001
0.355742991 0.774536014 0.044647001
0.477569997 0.790955007 0.044647001
0.578278005 0.805572987 0.044495001
0.668395996 0.816009998 0.043976001
0.744292974 0.820984006 0.043976001
0.811156988 0.823364019 0.043976001
0.867614985 0.824768007 0.043976001
0.911742985 0.823273003 0.043976001
0.956054986 0.822510004 0.043976001
0.999877989 0.822570980 0.044036999
0.000000000 0.770659983 0.044555999
0.044555999 0.771088004 0.044555999
0.088653997 0.772705019 0.044555999
0.133209005 0.775940001 0.044555999
0.177398995 0.781737983 0.044555999
0.221801996 0.791411996 0.043976001
0.258666992 0.804718018 0.043976001
0.351379007 0.821075022 0.043976001
0.471832007 0.838257015 0.043976001
0.576233029 0.853851020 0.043976001
0.668335021 0.865630984 0.043976001
0.745697021 0.871703982 0.043976001
0.812744021 0.874114990 0.043976001
0.868286014 0.875732005 0.043976001
0.911987007 0.874359012 0.043976001
0.956176996 0.873871028 0.043976001
0.999877989 0.873901010 0.045166001
0.000000000 0.815369010 0.043976001
0.043976001 0.815825999 0.043976001
0.088225998 0.817596018 0.043976001
0.132689998 0.820708990 0.043976001
0.176788002 0.826385021 0.043976001
0.221008003 0.835875988 0.043976001
0.258056998 0.849213004 0.043976001
0.348327994 0.865752995 0.043976001
0.468230993 0.883148015 0.043976001
0.574492991 0.899231017 0.043976001
0.668365002 0.912140012 0.043976001
0.747497976 0.919341981 0.043976001
0.813385010 0.920531988 0.043976001
0.868744016 0.922362983 0.043976001
0.912262022 0.921416998 0.043976001
0.956299007 0.920440972 0.043976001
0.999877989 0.920440972 0.045104999
0.000000000 0.858184993 0.043976001
0.043976001 0.858582020 0.043976001
0.088165000 0.860291004 0.043976001
0.132110998 0.863463998 0.043976001
0.176117003 0.869171023 0.043976001
0.220183998 0.878754020 0.043976001
0.257079989 0.892211974 0.043976001
0.347626001 0.908843994 0.043976001
0.468048006 0.926482975 0.043976001
0.574463010 0.942505002 0.043976001
0.668609977 0.955505013 0.043976001
0.747986019 0.962799013 0.043976001
0.813812017 0.963744998 0.043976001
0.869231999 0.965698004 0.043976001
0.912536979 0.964294016 0.043976001
0.956450999 0.963653982 0.043976001
0.999877989 0.963562012 0.042541999
0.007904000 0.012634000 0.108276002
0.054717999 0.012634000 0.109222002
0.101104997 0.012634000 0.108856000
0.148376003 0.013428000 0.109252997
0.197844997 0.014008000 0.108612001
0.251648009 0.014984000 0.108306997
0.306396008 0.016266000 0.106688999
0.368102998 0.014893000 0.100249998
0.433043987 0.012726000 0.093414001
0.499725014 0.011475000 0.091155998
0.570098996 0.006195000 0.091216996
0.639069021 0.000000000 0.091155998
0.703583002 0.000000000 0.090759002
0.764281988 0.000000000 0.090697996
0.819182992 0.000000000 0.090697996
0.868561029 0.000000000 0.090363003
0.912932992 0.000000000 0.090301998
0.007904000 0.058990002 0.108581997
0.054717999 0.059570000 0.109252997
0.101195998 0.059570000 0.109252997
0.148193002 0.059631001 0.109252997
0.198028997 0.060150001 0.108643003
0.251556009 0.061248999 0.108368002
0.306823999 0.062346999 0.106688999
0.368835002 0.061066002 0.100189000
0.433777004 0.059052002 0.093414001
0.500945985 0.057556000 0.091155998
0.571380973 0.051910002 0.091155998
0.640015006 0.045348998 0.091155998
0.704375982 0.045348998 0.090759002
0.764953971 0.045348998 0.090697996
0.819823980 0.045348998 0.090697996
0.869140983 0.045348998 0.090363003
0.913483024 0.045348998 0.090301998
0.007904000 0.106720001 0.109589003
0.054138001 0.106384002 0.109589003
0.100830004 0.106720001 0.109589003
0.147948995 0.107055999 0.109650001
0.198944002 0.107451998 0.109650001
0.252319008 0.108429000 0.108916998
0.308288991 0.109283000 0.106688999
0.370849997 0.107787997 0.099518001
0.436554015 0.105834998 0.092834003
0.504486024 0.104401000 0.091155998
0.575195014 0.098419003 0.091155998
0.643706977 0.090942003 0.091155998
0.707854986 0.090759002 0.090759002
0.767974973 0.090697996 0.090697996
0.822327018 0.090668000 0.090668000
0.871490002 0.090363003 0.090363003
0.915832996 0.090301998 0.090301998
0.004242000 0.155548006 0.110596001
0.050995000 0.155579001 0.110625997
0.097503997 0.155823007 0.110656999
0.145659998 0.156066999 0.110656999
0.199004993 0.156311005 0.110290997
0.253448009 0.157440007 0.109924003
0.310882986 0.158050999 0.106812000
0.374938995 0.156586006 0.098480001
0.441832989 0.155090004 0.092224002
0.510773003 0.154082999 0.091155998
0.582062006 0.148131996 0.091155998
0.650330007 0.138519004 0.091155998
0.713958979 0.134765998 0.090697996
0.772827029 0.135833994 0.090697996
0.826752007 0.135558993 0.090363003
0.875640988 0.135344997 0.090301998
0.920044005 0.135040000 0.089934997
0.000977000 0.206359997 0.112365998
0.046386998 0.206238002 0.112365998
0.092681997 0.206512004 0.112365998
0.139069006 0.206879005 0.112334996
0.197418004 0.207733005 0.111663997
0.254577994 0.209442005 0.110504001
0.314484000 0.210082993 0.106628001
0.380095989 0.209472999 0.097075999
0.448334008 0.209351003 0.091187000
0.519104004 0.209442005 0.091155998
0.591003001 0.206634998 0.091155998
0.658813000 0.199677005 0.090759002
0.721771002 0.190125003 0.090697996
0.779541016 0.181305006 0.090636998
0.832367003 0.179626003 0.090363003
0.880707026 0.178069994 0.089965999
