public/lut/125.cube
TITLE "17x17x17 Adobe/IRIDAS cube 3D LUT exported with GrossGrade v0.2.2 (beta) 64 bit"
DOMAIN_MIN 0 0 0
DOMAIN_MAX 1 1 1
LUT_3D_SIZE 5
0.007904000 0.012634000 0.014984000
0.198364004 0.013428000 0.015778000
0.432678014 0.013428000 0.001984000
0.703460991 0.000000000 0.000000000
0.912841976 0.000000000 0.000000000
0.000977000 0.206146002 0.018921001
0.197998002 0.207550004 0.018158000
0.447937012 0.209839001 0.000000000
0.721831977 0.190947995 0.000000000
0.924956977 0.178252995 0.000000000
0.000000000 0.445679009 0.024048001
0.181182995 0.451384991 0.016968001
0.484679997 0.477111995 0.000000000
0.775757015 0.483550996 0.000000000
0.975158989 0.479279011 0.000000000
0.000000000 0.676452994 0.000000000
0.178710997 0.687804997 0.000000000
0.484070003 0.741271973 0.000000000
0.809081972 0.768981993 0.000000000
0.999907970 0.767302990 0.000000000
0.000000000 0.857819021 0.000000000
0.176117003 0.869324028 0.000000000
0.469817996 0.926880002 0.000000000
0.814117014 0.963958979 0.000000000
0.999877989 0.963531017 0.000000000
0.005707000 0.012634000 0.209014997
0.196564004 0.013428000 0.208526999
0.432738990 0.004150000 0.197632000
0.703247011 0.000000000 0.180327997
0.912720025 0.000000000 0.179748997
0.000000000 0.207245007 0.214355007
0.191894993 0.208251998 0.214049995
0.449431986 0.203704998 0.189667001
0.720031977 0.179931998 0.179626003
0.924744010 0.179015994 0.178924993
0.000000000 0.449645996 0.228148997
0.181182995 0.454620004 0.225310996
0.479034007 0.475800008 0.179198995
0.768341005 0.478455007 0.179626003
0.971984982 0.474426001 0.178527996
0.000000000 0.680388987 0.221892998
0.178650007 0.689758003 0.210418999
0.457702994 0.737091005 0.178252995
0.805572987 0.768463016 0.177489996
0.999877989 0.767516971 0.176758006
0.000000000 0.861572027 0.219666004
0.176117003 0.870911002 0.206207007
0.433196992 0.922240973 0.175689995
0.810271978 0.964232981 0.175292999
0.999877989 0.965026975 0.173797995
0.000000000 0.000793000 0.442474008
0.185912997 0.002380000 0.442748994
0.434174001 0.000000000 0.448363990
0.709320009 0.000000000 0.448395014
0.918578982 0.000000000 0.445098996
0.000000000 0.197327003 0.455078006
0.182891995 0.204589993 0.456573009
0.447815001 0.187255993 0.464661002
0.723327994 0.181061000 0.458983988
0.928802013 0.179810002 0.455871999
0.000000000 0.459044993 0.494904011
0.180907995 0.465088010 0.495422006
0.427978992 0.480621010 0.495514005
0.762817025 0.454284996 0.454865009
0.970703006 0.439148009 0.434998006
0.000000000 0.692902029 0.505492985
0.178467005 0.704528987 0.503265023
0.357849002 0.745482981 0.485839993
0.787627995 0.770690978 0.391205013
0.999817014 0.768950999 0.372498006
0.000000000 0.878203988 0.505768001
0.175963998 0.886017025 0.504333019
0.342833996 0.927489996 0.490723014
0.786132991 0.968231022 0.375304997
0.999481022 0.963805974 0.356292993
0.000000000 0.000000000 0.682953000
0.183532998 0.000000000 0.684753001
0.435272008 0.000000000 0.694244027
0.714843988 0.000000000 0.703338981
0.925231993 0.000000000 0.703460991
0.000000000 0.182799995 0.694244027
0.182677999 0.182159007 0.696716011
0.443206996 0.181395993 0.708405018
0.726715028 0.180694997 0.716094971
0.934448004 0.179413006 0.715728998
0.000000000 0.452820003 0.737244010
0.180694997 0.456268013 0.740540028
0.383423001 0.465178996 0.749786019
0.760559022 0.429412991 0.755859017
0.964385986 0.416992009 0.745360970
0.000000000 0.698913991 0.761291981
0.178252995 0.708862007 0.764099002
0.353882015 0.747437000 0.772185981
0.760742009 0.782073975 0.772948980
0.989287972 0.778137028 0.765717030
0.000000000 0.886963010 0.766663015
0.175903007 0.893341005 0.769591987
0.351500988 0.933257997 0.778838992
0.743834972 0.983887017 0.771270990
0.989655018 0.988036990 0.764496028
0.000000000 0.000000000 0.883361995
0.182953000 0.000000000 0.885650992
0.432433993 0.000000000 0.895447016
0.715728998 0.000000000 0.907531977
0.927489996 0.000000000 0.908263981
0.000000000 0.182373002 0.892516971
0.182159007 0.182159007 0.895111024
0.439422995 0.180907995 0.907042980
0.726073980 0.180327997 0.918182015
0.935760021 0.179138005 0.918609977
0.000000000 0.443329006 0.929443002
0.180236995 0.445618004 0.932587028
0.373108000 0.460967988 0.944489002
0.748534977 0.417755008 0.956511974
0.961333990 0.400451988 0.952484012
0.000000000 0.700622976 0.956817985
0.178039998 0.705811024 0.960052013
0.355163991 0.741210997 0.972931027
0.737151980 0.769379020 0.984009027
0.983551025 0.768921018 0.983062983
0.089171998 0.934020996 0.979278982
0.175689995 0.892395020 0.963440001
0.350647002 0.929413021 0.977356017
0.721374989 0.983612001 0.988617003
0.983703971 0.990601003 0.987945974
