public/lut/126.cube
TITLE "17x17x17 Adobe/IRIDAS cube 3D LUT exported with GrossGrade v0.2.2 (beta) 64 bit"
DOMAIN_MIN 0 0 0
DOMAIN_MAX 1 1 1
LUT_3D_SIZE 5
0.002380000 0.002380000 0.002380000
0.192748994 0.000214000 0.000000000
0.526520014 0.000000000 0.001984000
0.847015023 0.000000000 0.003937000
0.987578988 0.037078999 0.000000000
0.000000000 0.180267006 0.013397000
0.174774006 0.194915995 0.000000000
0.503784001 0.241913006 0.000000000
0.829192996 0.266846001 0.000000000
0.985046029 0.273986995 0.000000000
0.000000000 0.524138987 0.140045002
0.081573002 0.524353027 0.114197001
0.501739979 0.544921994 0.022095000
0.801819026 0.536682010 0.000000000
0.983307004 0.520354986 0.000000000
0.000000000 0.801575005 0.343475014
0.081023999 0.792419016 0.337067008
0.392273009 0.791778982 0.301391989
0.740478992 0.795684993 0.255706996
0.988189995 0.786377013 0.233612001
0.345856011 0.970947027 0.515289009
0.407471001 0.965363026 0.505402029
0.561218023 0.968414009 0.522552013
0.747619987 0.975799978 0.533325016
0.946716011 0.981934011 0.534148991
0.036469001 0.036469001 0.270172000
0.229340002 0.024261000 0.218780994
0.516112983 0.009460000 0.254700005
0.844848990 0.000000000 0.206756994
0.989197016 0.000000000 0.228302002
0.009674000 0.206664994 0.202117994
0.189422995 0.193451002 0.196410999
0.513823986 0.191162005 0.193817005
0.832854986 0.203734994 0.188538000
0.993499994 0.251433998 0.224181995
0.000000000 0.528137028 0.310211003
0.087554999 0.527130008 0.305328012
0.509002984 0.540893972 0.271239996
0.802489996 0.525421023 0.217467993
0.989745975 0.520599008 0.251495004
0.013000000 0.796844006 0.457733005
0.239226997 0.800293028 0.462920994
0.465240002 0.799773991 0.456818014
0.761138976 0.801757991 0.426696986
0.991057992 0.794098020 0.401977986
0.378082007 0.971496999 0.599182010
0.465362996 0.970611989 0.601409972
0.605895996 0.972747982 0.626465023
0.766357005 0.982299984 0.630127013
0.953155994 0.980010986 0.627380013
0.078612998 0.078612998 0.707062006
0.317261010 0.074524000 0.678101003
0.631500006 0.070739999 0.602356017
0.834106028 0.132813007 0.607177973
0.997741997 0.169189006 0.581573009
0.059691999 0.307464987 0.633819997
0.154266000 0.242096007 0.628997982
0.589478016 0.214478001 0.566864014
0.819244027 0.315246999 0.589020014
0.999083996 0.326171994 0.567139030
0.023254000 0.551299989 0.544799984
0.097961001 0.546814024 0.542235970
0.511718988 0.515411019 0.520111024
0.803802013 0.511047006 0.513489008
0.995940983 0.533478022 0.527161002
0.107787997 0.799499989 0.600555003
0.366272002 0.801635981 0.619994998
0.567107975 0.795929015 0.634186029
0.779632986 0.803008974 0.615906000
0.993134022 0.784882009 0.582396984
0.452179015 0.979004025 0.726836979
0.543030024 0.978760004 0.724578977
0.668609977 0.978760004 0.743957996
0.802338004 0.981812000 0.750823975
0.963286996 0.982116997 0.749481022
0.158904999 0.158904999 0.910583019
0.234496996 0.148040995 0.910004020
0.619476020 0.161193997 0.887633979
0.892364979 0.199157998 0.855499029
0.999969006 0.362396002 0.834869027
0.133667007 0.314392000 0.899047971
0.214629993 0.298676014 0.898041010
0.597259998 0.304230005 0.874541998
0.877746999 0.352019995 0.844390988
1.000000000 0.500976980 0.839416981
0.123810001 0.598479986 0.859314024
0.204864994 0.597716987 0.860442996
0.553008974 0.585875988 0.844330013
0.835999012 0.582825005 0.816742003
0.989104986 0.660645008 0.833252013
0.072754003 0.818114996 0.813872993
0.141692996 0.817932010 0.812897027
0.492401004 0.804108024 0.799499989
0.776275992 0.777495980 0.778961003
0.994385004 0.779358029 0.776122987
0.330749989 0.992156982 0.824492991
0.468475014 0.993957996 0.829437017
0.677703977 0.987182975 0.852234006
0.846252024 0.984955013 0.875458002
0.978789985 0.984802008 0.876525998
0.239929006 0.241058007 0.999939024
0.325195014 0.238892004 0.999939024
0.552978992 0.254608005 0.999939024
0.830200016 0.308075011 0.999939024
0.998534977 0.398254007 0.998534977
0.247466996 0.381743997 0.999939024
0.333404988 0.383118004 0.999939024
0.558044016 0.401977986 0.999939024
0.831176996 0.451050013 0.999939024
0.999450982 0.527007997 0.999267995
0.243256003 0.573882997 0.999939024
0.317200005 0.588989019 0.999939024
0.582062006 0.625092030 0.999939024
0.826354980 0.642486989 0.998291016
1.000000000 0.686828971 0.995025992
0.216613993 0.793518007 1.000000000
0.289703012 0.796477973 1.000000000
0.526825011 0.807007015 0.999541998
0.813080013 0.825043023 0.997253001
0.994812012 0.838317990 0.990356028
0.148864999 0.998474002 0.995728016
0.289885998 0.995422006 0.988892019
0.566039979 0.993072987 0.992096007
0.797088981 0.989014030 0.987854004
0.985320985 0.985320985 0.985382020
