public/lut/126.cube
TITLE "17x17x17 Adobe/IRIDAS cube 3D LUT exported with GrossGrade v0.2.2 (beta) 64 bit"
DOMAIN_MIN 0 0 0
DOMAIN_MAX 1 1 1
LUT_3D_SIZE 17
0.002380000 0.002380000 0.002380000
0.027832000 0.000061000 0.002380000
0.066009998 0.000000000 0.000092000
0.120788999 0.002228000 0.000000000
0.192748994 0.000214000 0.000000000
0.273438007 0.000000000 0.000000000
0.357513011 0.000000000 0.000000000
0.441832989 0.000000000 0.000793000
0.526520014 0.000000000 0.001984000
0.611786008 0.000000000 0.002014000
0.695617974 0.000000000 0.000488000
0.774322987 0.000000000 0.001038000
0.847015023 0.000000000 0.003937000
0.908813000 0.000000000 0.003021000
0.948607981 0.002960000 0.000000000
0.969910026 0.023163000 0.000000000
0.987578988 0.037078999 0.000000000
0.002380000 0.026306000 0.002380000
0.028625000 0.028595001 0.004669000
0.066040002 0.030212000 0.000183000
0.117706001 0.033172999 0.000000000
0.189362004 0.039124001 0.000000000
0.268799007 0.045623999 0.000000000
0.353058010 0.051330999 0.000000000
0.438933998 0.056488000 0.000000000
0.524689019 0.059691999 0.000061000
0.610351980 0.061127000 0.000061000
0.694427013 0.061675999 0.000000000
0.773499012 0.061492998 0.000000000
0.845367014 0.060089000 0.000061000
0.908051014 0.064452998 0.000061000
0.944305003 0.074767999 0.000000000
0.969726980 0.085051998 0.000000000
0.987549007 0.085570998 0.000000000
0.000092000 0.060486000 0.004639000
0.024048001 0.062714003 0.000153000
0.062652998 0.065917999 0.000000000
0.119475998 0.072479002 0.000000000
0.181030005 0.081267998 0.000000000
0.256713986 0.094360001 0.000000000
0.346161008 0.108397998 0.000000000
0.434204012 0.117766999 0.000000000
0.517609000 0.122528002 0.000000000
0.604218006 0.126708999 0.000000000
0.692809999 0.130614996 0.000000000
0.773193002 0.132598996 0.000000000
0.845122993 0.135681003 0.000000000
0.909882009 0.137328997 0.000000000
0.948333979 0.141663000 0.000000000
0.969359994 0.142975003 0.000000000
0.989349008 0.147400007 0.000000000
0.000000000 0.111267000 0.005371000
0.022430001 0.111298002 0.004486000
0.051697001 0.116791002 0.000092000
0.110321000 0.120209001 0.000000000
0.184448004 0.136016995 0.000000000
0.255798012 0.149414003 0.000000000
0.335723996 0.161163002 0.000000000
0.421631008 0.173308998 0.000000000
0.509765983 0.184570000 0.000000000
0.600890994 0.192230001 0.000000000
0.687653005 0.197448999 0.000000000
0.765015006 0.202179000 0.000000000
0.837921023 0.204101995 0.000000000
0.902130008 0.205963001 0.000000000
0.947417974 0.205261007 0.000000000
0.964783013 0.208862007 0.000000000
0.984650016 0.209777996 0.000000000
0.000000000 0.180267006 0.013397000
0.022491001 0.180542007 0.013458000
0.044799998 0.181305006 0.003143000
0.085143998 0.185363993 0.000000000
0.174774006 0.194915995 0.000000000
0.265899986 0.213501006 0.000000000
0.344298989 0.226501003 0.000000000
0.420958996 0.233521000 0.000000000
0.503784001 0.241913006 0.000000000
0.591247976 0.252532989 0.000000000
0.676909983 0.261321992 0.000000000
0.755707026 0.265502989 0.000000000
0.829192996 0.266846001 0.000000000
0.896758974 0.270630002 0.000000000
0.944976985 0.273193002 0.000000000
0.965453982 0.274048001 0.000000000
0.985046029 0.273986995 0.000000000
0.000000000 0.258361995 0.032715000
0.021942001 0.260192990 0.029114000
0.043853998 0.259247005 0.016907001
0.068604000 0.262389988 0.000458000
0.144012004 0.265899986 0.000000000
0.254272014 0.279143989 0.000000000
0.355255008 0.299529999 0.000000000
0.436522990 0.310912997 0.000000000
0.508606017 0.312530994 0.000000000
0.583862007 0.315887004 0.000000000
0.665741026 0.322661996 0.000000000
0.746978998 0.327544987 0.000000000
0.821197987 0.331360012 0.000000000
0.888275027 0.333496004 0.000000000
0.942780018 0.337707996 0.000000000
0.965637028 0.337891012 0.000000000
0.985260010 0.338104010 0.000000000
0.000000000 0.344909996 0.063842997
0.021698000 0.346343994 0.057312001
0.043334998 0.344848990 0.052184999
0.064452998 0.345183998 0.027953999
0.096923999 0.347321004 0.005798000
0.210631996 0.353424013 0.000000000
0.336638987 0.369354010 0.000000000
0.443511993 0.390350014 0.000000000
0.527984977 0.398925990 0.000000000
0.596588016 0.395415992 0.000000000
0.664429009 0.392365009 0.000000000
0.736755013 0.393341005 0.000000000
0.809418023 0.395233005 0.000000000
0.877960026 0.396575987 0.000000000
0.937407970 0.399719000 0.000000000
0.965911984 0.399993986 0.000000000
0.984710991 0.399933010 0.000000000
0.000000000 0.434570014 0.098784998
0.020935001 0.435454994 0.096313000
0.042571999 0.434662014 0.094085999
0.063538000 0.434264988 0.079346001
0.078887999 0.435974002 0.054076999
0.148223996 0.440032989 0.032196000
0.293884009 0.445006996 0.009613000
0.425078988 0.459533989 0.000000000
0.530059993 0.478179991 0.000000000
0.616180003 0.483489990 0.000000000
0.679961979 0.476624012 0.000000000
0.738646984 0.468627989 0.000000000
0.801635981 0.462157995 0.000000000
0.867249012 0.459441990 0.000000000
0.927887022 0.459289998 0.000000000
0.965148985 0.460449010 0.000000000
0.983398020 0.460846007 0.000000000
0.000000000 0.524138987 0.140045002
0.020904999 0.525421023 0.140471995
0.041839998 0.525177002 0.137024000
0.062378000 0.523833990 0.132018998
0.081573002 0.524353027 0.114197001
0.104248002 0.526275992 0.094788000
0.225585997 0.527893007 0.069153003
0.378693014 0.532471001 0.047607001
0.501739979 0.544921994 0.022095000
0.608062983 0.559020996 0.000092000
0.690369010 0.561187983 0.000000000
0.748322010 0.550200999 0.000000000
0.801819026 0.536682010 0.000000000
0.859740973 0.528198004 0.000000000
0.917999029 0.521332026 0.000000000
0.963379025 0.518616021 0.000000000
0.983307004 0.520354986 0.000000000
0.000000000 0.609161019 0.187621996
0.020172000 0.609833002 0.187500000
0.040741000 0.609497011 0.185729995
0.060973998 0.606841981 0.183471993
0.081359997 0.604979992 0.170470998
0.094665997 0.603882015 0.151978001
0.149352998 0.606140018 0.141204998
0.308959991 0.608582020 0.130126998
0.461883992 0.611419976 0.099303998
0.569458008 0.619292974 0.061035000
0.671875000 0.628814995 0.033966001
0.749846995 0.627929986 0.008484000
0.807312012 0.616973996 0.000000000
0.859467030 0.604857981 0.000000000
0.913878977 0.591674984 0.000000000
0.963347971 0.582764030 0.000000000
0.985015988 0.579742014 0.000000000
0.000000000 0.682617009 0.237549007
0.020172000 0.682494998 0.237700999
0.040008999 0.682648003 0.238251001
0.059813999 0.680206001 0.236968994
0.079620004 0.675719976 0.230774000
0.098663002 0.673125982 0.209014997
0.109467000 0.674346983 0.197693005
0.251525998 0.676239014 0.189270005
0.420897990 0.677093983 0.177368000
0.526305974 0.678435981 0.163055003
0.629424989 0.682953000 0.134002998
0.729309022 0.690155029 0.085205004
0.808044016 0.691039979 0.044647001
0.864655018 0.682587028 0.035767000
0.916840017 0.666320980 0.028441999
0.966736019 0.655700982 0.025238000
0.986541986 0.645507991 0.035645001
0.000000000 0.745635986 0.290192008
0.019378999 0.745666981 0.290405005
0.038849000 0.745239019 0.290161014
0.058745999 0.742125988 0.288269013
0.076416001 0.737030029 0.284943014
0.093047999 0.733916998 0.272704989
0.103821002 0.734710991 0.261047006
0.233184993 0.736328006 0.248657003
0.391478986 0.736633003 0.236083999
0.495391995 0.737426996 0.226256996
0.589812994 0.738189995 0.215149000
0.687346995 0.739960015 0.199828997
0.784424007 0.747833014 0.178618997
0.859221995 0.750762999 0.148254007
0.918030024 0.738463998 0.127654999
0.967194021 0.726562977 0.120972000
0.987487972 0.717132986 0.147430003
0.000000000 0.801575005 0.343475014
0.015442000 0.801514030 0.342864990
0.034302000 0.798828006 0.340362996
0.052611999 0.794494987 0.338562012
0.081023999 0.792419016 0.337067008
0.112579003 0.789703012 0.334015012
0.136932001 0.789581001 0.322448999
0.254577994 0.791504025 0.309417993
0.392273009 0.791778982 0.301391989
0.484160990 0.791962028 0.293915004
0.569945991 0.793395996 0.281982005
0.651978016 0.794036984 0.268523991
0.740478992 0.795684993 0.255706996
0.828278005 0.801086009 0.238922000
0.905700982 0.802460015 0.225127995
0.960205019 0.794799984 0.222930998
0.988189995 0.786377013 0.233612001
0.026306000 0.850615978 0.394378990
0.041412000 0.849059999 0.389191002
0.059174001 0.846313000 0.384552002
0.077147998 0.843414009 0.386078000
0.138824001 0.845580995 0.386229992
0.216399997 0.843047976 0.386108011
0.280272990 0.842010021 0.378845006
0.341125011 0.843384027 0.369872987
0.413116008 0.843903005 0.364867985
0.491057992 0.844848990 0.360291004
0.565918028 0.846161008 0.351287991
0.638091981 0.845856011 0.341309011
0.713653982 0.845305979 0.332702994
0.792846978 0.844573975 0.317687988
0.876770020 0.848479986 0.309845001
0.951018989 0.859252989 0.301117003
0.987304986 0.852051020 0.302520990
0.204192996 0.899932981 0.442505002
0.198090002 0.894317985 0.434204012
0.210297003 0.895812988 0.430878013
0.242950007 0.893432975 0.431030005
0.285248011 0.890929997 0.430969000
0.333617985 0.888885021 0.436127007
0.372070014 0.888976991 0.433441013
0.406342000 0.890502989 0.427094012
0.454589993 0.891022027 0.422515988
0.515075982 0.891937017 0.418121010
0.579132020 0.893341005 0.414611995
0.644684017 0.892548025 0.411559999
0.706726015 0.892426014 0.403351009
0.772736013 0.894164979 0.391570985
0.845184028 0.893127024 0.382416010
0.914794981 0.896790028 0.379088998
0.978789985 0.899231017 0.382598996
0.290924013 0.940338016 0.484313995
0.288971007 0.934296012 0.475890994
0.297791004 0.933593988 0.470551014
0.322234988 0.931640983 0.472748011
0.353911996 0.930817008 0.471953988
0.388823986 0.928955019 0.472656012
0.428618997 0.929138005 0.472534001
0.464325011 0.931029975 0.475403011
0.499298006 0.932494998 0.473206013
0.547088981 0.933655024 0.468140006
0.604767025 0.935669005 0.469940007
0.660552979 0.937195003 0.471924007
0.715728998 0.935760021 0.467377007
0.772705019 0.936309993 0.462433010
0.828887999 0.940948009 0.457428008
0.896148980 0.936432004 0.457702994
0.953094006 0.936401010 0.454041004
0.345856011 0.970947027 0.515289009
0.340332001 0.964812994 0.506744027
0.349182010 0.964447021 0.501403987
0.377196997 0.966796994 0.505890012
0.407471001 0.965363026 0.505402029
0.443176001 0.967346013 0.509917974
0.486481011 0.967773020 0.518371999
0.526672006 0.966766000 0.524169981
0.561218023 0.968414009 0.522552013
0.599609017 0.971161008 0.522002995
0.646911979 0.971893013 0.526153982
0.698212028 0.972259998 0.528838992
0.747619987 0.975799978 0.533325016
0.794005990 0.980804026 0.536132991
0.843810976 0.979187012 0.539276004
0.896667004 0.981963992 0.543273985
0.946716011 0.981934011 0.534148991
0.003113000 0.003113000 0.029510001
0.029418999 0.000793000 0.027100001
0.062134001 0.000000000 0.028472999
0.121367998 0.000000000 0.034545999
0.193877995 0.000000000 0.032837000
0.272094995 0.000000000 0.026672000
0.354095012 0.001282000 0.023102000
0.438293010 0.002319000 0.021576000
0.522490978 0.001129000 0.022826999
0.608551025 0.000000000 0.023651000
0.694611013 0.000000000 0.022186000
0.774689019 0.000000000 0.022186000
0.846893013 0.000000000 0.024840999
0.908813000 0.000000000 0.023102000
0.948607981 0.000702000 0.020996001
0.969848990 0.002228000 0.021637000
0.985077024 0.027802000 0.019257000
0.001587000 0.030944999 0.028625000
0.028625000 0.028625000 0.028625000
0.067962997 0.027832000 0.028595001
0.122345001 0.024139000 0.027892999
0.188782007 0.029846000 0.024352999
0.268371999 0.029236000 0.023163000
0.352355987 0.028778000 0.022614000
0.437561005 0.028380999 0.022368999
0.522643983 0.026123000 0.023163000
0.608429015 0.024200000 0.023254000
0.695159972 0.024200000 0.021698000
0.773651004 0.023956001 0.020935001
0.841338992 0.026306000 0.020935001
0.905700982 0.037170000 0.020935001
0.946502984 0.052246001 0.020172000
0.969848990 0.069335997 0.020172000
0.987518013 0.080261000 0.020111000
0.000000000 0.067534998 0.032471001
0.024048001 0.065886997 0.032379001
0.064911000 0.067474000 0.027953999
0.120056003 0.069945998 0.024139000
0.181457996 0.078704998 0.022368999
0.258300990 0.087279998 0.022368999
0.342498988 0.096923999 0.022430001
0.429870993 0.103729002 0.022430001
0.517578006 0.107330002 0.021790000
0.605163991 0.109985001 0.021790000
0.693359017 0.112305000 0.021698000
0.774536014 0.115447998 0.020935001
0.842163026 0.118927002 0.020904999
0.903778017 0.121886998 0.020904999
0.948059022 0.130614996 0.020752000
0.969666004 0.134765998 0.020172000
0.989655018 0.139403999 0.020172000
0.000000000 0.118529998 0.041443001
0.022583000 0.117889002 0.041351002
0.046691999 0.116485998 0.033996999
0.111083999 0.121367998 0.023468001
0.184783995 0.133269995 0.021637000
0.259918004 0.144958004 0.022430001
0.338104010 0.156280994 0.022430001
0.421294987 0.166840002 0.021729000
0.510070980 0.176146999 0.021698000
0.600432992 0.182739004 0.021698000
0.686309993 0.187804997 0.021698000
0.763916016 0.192351997 0.020935001
0.835143983 0.194855005 0.020935001
0.899260998 0.198119998 0.020904999
0.947692990 0.199524000 0.020172000
0.969208002 0.201477006 0.020172000
0.989014030 0.202392995 0.020172000
0.000000000 0.184570000 0.053406000
0.022491001 0.184570000 0.052855998
0.043731999 0.183623999 0.040222000
0.082184002 0.184783995 0.025055001
0.175963998 0.196075007 0.021423001
0.267883003 0.212707996 0.021698000
0.346648991 0.222472996 0.021698000
0.419555992 0.227997005 0.021698000
0.501617014 0.237029999 0.021698000
0.591216981 0.248321995 0.021698000
0.676575005 0.256469995 0.020935001
0.756958008 0.260924995 0.020935001
0.831299007 0.263458014 0.020904999
0.895752013 0.266052008 0.020293999
0.946929991 0.266387999 0.020172000
0.968047976 0.269165009 0.020172000
0.985930979 0.270781994 0.020172000
0.000000000 0.262573004 0.071289003
0.021942001 0.263305992 0.071167000
0.043976001 0.263823986 0.063812003
0.064361997 0.263976991 0.045441002
0.145385996 0.268707007 0.020843999
0.255524009 0.280701011 0.018767999
0.355498999 0.298096001 0.021576000
0.434998006 0.307190001 0.021698000
0.507568002 0.309662014 0.021149000
0.585815012 0.313262999 0.020935001
0.667937994 0.319243997 0.020935001
0.748076975 0.325531006 0.020904999
0.821349978 0.329315007 0.020354999
0.888062000 0.332123011 0.020172000
0.945953012 0.332946986 0.020172000
0.965911984 0.337036014 0.020111000
0.984862983 0.336181998 0.019378999
0.000000000 0.347626001 0.097838998
0.021698000 0.351500988 0.098907001
0.043334998 0.350403011 0.096496999
0.063019000 0.349761993 0.081298999
0.093842000 0.351471007 0.059082001
0.212860003 0.358184993 0.029175000
0.339172006 0.370727986 0.016357001
0.443664998 0.387389988 0.017639000
0.527495980 0.397002995 0.020538000
0.597656012 0.394347996 0.020935001
0.667632997 0.389191002 0.020904999
0.739562988 0.389892995 0.020172000
0.810546994 0.392181009 0.020172000
0.879607975 0.395752013 0.020172000
0.940948009 0.397583008 0.020111000
0.965880990 0.400238007 0.019378999
0.985778987 0.398894995 0.019378999
0.000000000 0.436461985 0.131835997
0.020935001 0.440917999 0.134918004
0.042571999 0.440674007 0.135468006
0.063781999 0.437714010 0.127258003
0.076293997 0.438385010 0.106536999
0.154877007 0.443450987 0.078612998
0.299071997 0.448913991 0.060364000
0.426299989 0.460938007 0.036469001
0.530974984 0.478271008 0.017609000
0.616729975 0.483886987 0.016022000
0.680846989 0.475250006 0.020172000
0.740020990 0.465880990 0.020172000
0.802917004 0.460236013 0.020172000
0.869812012 0.458220989 0.019958001
0.928955019 0.459075987 0.019378999
0.965179026 0.460236013 0.019378999
0.986083984 0.459899992 0.018859999
0.000000000 0.522156000 0.167236000
0.020904999 0.526549995 0.171325997
0.041839998 0.528046012 0.173279002
0.062378000 0.525481999 0.170135006
0.081329003 0.524749994 0.152282998
0.108124003 0.527588010 0.137299001
0.233825997 0.531372011 0.124695003
0.384216011 0.535797000 0.099854000
0.504700005 0.546509027 0.070160002
0.610198975 0.560393989 0.036010999
0.692139030 0.562713981 0.011871000
0.750732005 0.551514030 0.013306000
0.803223014 0.537932992 0.017395001
0.861663997 0.527252018 0.019409001
0.918213010 0.520721018 0.019378999
0.963867009 0.519226015 0.019317999
0.985718012 0.520080984 0.017302999
0.000000000 0.600098014 0.207030997
0.020172000 0.606018007 0.210723996
0.040741000 0.606781006 0.211577997
0.060973998 0.606505990 0.210998997
0.081359997 0.605225027 0.203674003
0.093474999 0.604979992 0.187438995
0.155333996 0.607635021 0.174988002
0.316437006 0.610167980 0.167174995
0.465270996 0.612578988 0.152312994
0.572174013 0.620453000 0.113555998
0.676514030 0.630645990 0.070831001
0.755432010 0.630737007 0.052643001
0.810119987 0.619354010 0.028380999
0.861846983 0.603393972 0.010468000
0.917572021 0.589690983 0.011627000
0.964935005 0.583221018 0.012207000
0.987121999 0.580413997 0.016814999
0.000000000 0.671142995 0.253661990
0.020172000 0.676239014 0.256805003
0.040008999 0.676270008 0.256592005
0.059813999 0.675872982 0.258574992
0.079620004 0.675200999 0.257416010
0.098663002 0.673981011 0.242523000
0.110290997 0.674956977 0.228577003
0.256835997 0.678223014 0.220703006
0.425902992 0.679168999 0.210754007
0.528503001 0.678345025 0.198333994
0.633148015 0.682434022 0.180694997
0.732819021 0.691802979 0.148376003
0.808867991 0.693512022 0.102692001
0.867034972 0.681487978 0.062743999
0.919341981 0.666442990 0.057921998
0.967804015 0.653563976 0.056152001
0.988494992 0.645447016 0.072021000
0.000000000 0.733551025 0.301147014
0.019378999 0.736908019 0.303528011
0.038849000 0.737121999 0.304931998
0.058929000 0.735840023 0.307953000
0.075866997 0.735687017 0.309662014
0.091370001 0.735077024 0.305144995
0.108062997 0.736450016 0.289398015
0.244019002 0.739409983 0.278991997
0.399901986 0.739807010 0.270446986
0.497925013 0.738312006 0.258392006
0.591888011 0.738036990 0.244598001
0.688934028 0.742156982 0.231110007
0.783966005 0.751190007 0.218842000
0.860596001 0.751555979 0.195831001
0.915741026 0.742461979 0.177734002
0.968414009 0.725799978 0.171783000
0.986877024 0.718322992 0.186798006
0.000000000 0.787262022 0.347534001
0.015807999 0.791199028 0.350585997
0.034790002 0.791809022 0.354279011
0.051757999 0.792174995 0.356323004
0.085449003 0.792235970 0.358916998
0.117400996 0.791382015 0.362946004
0.152129993 0.792815983 0.350585997
0.271483988 0.794646978 0.339325011
0.401122987 0.794250011 0.332520008
0.487762004 0.794677973 0.325165004
0.572601020 0.796539009 0.316345006
0.655242980 0.795989990 0.303528011
0.743408024 0.796752989 0.292266995
0.831939995 0.802550972 0.278351009
0.907715023 0.806061029 0.260742009
0.964905024 0.798430979 0.259368986
0.986693978 0.790648997 0.263366997
0.011383000 0.842194021 0.393494010
0.035521999 0.842987001 0.398620993
0.057190001 0.842833996 0.398285002
0.074828997 0.846679986 0.405914009
0.156891003 0.847046018 0.408080995
0.245208994 0.845031977 0.412353992
0.303191990 0.843384027 0.407256991
0.355255008 0.844635010 0.398131996
0.423004001 0.846710026 0.392365009
0.496277004 0.847168028 0.388763011
0.568085015 0.846648991 0.381256014
0.641875982 0.845611989 0.369201988
0.716187000 0.844542980 0.359192014
0.797913015 0.847136974 0.349395990
0.880218983 0.851288021 0.340301991
0.952453971 0.858551025 0.336791992
0.990143001 0.853667974 0.336059988
0.110413000 0.892395020 0.435546994
0.160735995 0.892669976 0.441222996
0.200470001 0.891083002 0.444182992
0.244751006 0.893280029 0.449615002
0.293731987 0.891570985 0.452179015
0.343079001 0.889739990 0.457825005
0.381195009 0.889679015 0.456299007
0.415618986 0.890960991 0.450347990
0.464203000 0.891632020 0.444427013
0.522888005 0.892609000 0.441101015
0.582642019 0.893523991 0.438324004
0.645721018 0.893065989 0.431885004
0.709167004 0.894469976 0.426239014
0.776093006 0.895232975 0.418792993
0.848297000 0.893616021 0.409698009
0.917510986 0.899231017 0.405517995
0.981963992 0.904510021 0.404480010
0.248474002 0.930877984 0.482634991
0.275146008 0.930999994 0.485381991
0.303986013 0.931334972 0.488617003
0.331420988 0.931457996 0.493378013
0.363251001 0.931762993 0.492493004
0.399719000 0.934265018 0.498535007
0.440429986 0.933715999 0.504059017
0.477142006 0.931945980 0.501434028
0.512390018 0.933257997 0.497162014
0.556151986 0.935822010 0.493622005
0.608582020 0.937407970 0.490509003
0.662415028 0.937744021 0.490020990
0.717010021 0.936554015 0.490417004
0.775299013 0.938721001 0.490996987
0.829711974 0.939117014 0.486938000
0.896422982 0.936645985 0.481200993
0.953338981 0.936676025 0.474242985
0.334594995 0.967926025 0.527161002
0.351500988 0.967621028 0.526885986
0.368804991 0.967377007 0.526794016
0.390686005 0.965575993 0.527984977
0.423186988 0.967315972 0.532715023
0.462157995 0.966033995 0.534973025
0.501770020 0.965546012 0.541015983
0.538268983 0.966461003 0.545135021
0.570007026 0.968567014 0.542357981
0.606841981 0.971984982 0.542999029
0.652801991 0.974487007 0.547882020
0.700866997 0.975646973 0.549408019
0.751160026 0.977997005 0.552367985
0.801849008 0.978699028 0.553252995
0.844482005 0.979125977 0.555817008
0.896575987 0.981903017 0.559783995
0.947052002 0.979034007 0.557860970
0.009949000 0.009949000 0.080139004
0.034667999 0.007538000 0.071410999
0.072448999 0.006805000 0.070496000
0.116301998 0.006805000 0.076782003
0.183654994 0.003357000 0.088867001
0.266602010 0.000000000 0.091766000
0.351318002 0.000000000 0.080750003
0.435059011 0.000092000 0.066771999
0.521422982 0.000092000 0.057342999
0.608336985 0.000336000 0.049254999
0.692932010 0.000793000 0.044036999
0.773926020 0.000458000 0.045563001
0.846831977 0.000000000 0.048583999
0.908783019 0.000000000 0.047058001
0.948485970 0.000000000 0.046539001
0.969726980 0.000000000 0.053801998
0.987456977 0.002350000 0.068053998
0.007629000 0.035583001 0.073028997
0.032439999 0.032439999 0.072844997
0.076324001 0.032379001 0.073913999
0.118804999 0.032349002 0.073578000
0.185211003 0.024444999 0.078033000
0.267242014 0.021637000 0.078552000
0.350158989 0.022368999 0.069610998
0.434386998 0.022368999 0.060637999
0.521300972 0.021545000 0.053893998
0.608734012 0.021392999 0.047943000
0.694427013 0.021392999 0.045044001
0.774291992 0.020660000 0.045563001
0.846313000 0.020691000 0.047851998
0.908599973 0.021729000 0.046478000
0.948333979 0.023804000 0.045715000
0.967864990 0.032715000 0.043639999
0.987640023 0.045012999 0.041625999
0.000885000 0.071625002 0.069122002
0.025513001 0.071106002 0.069610998
0.068664998 0.069122002 0.069122002
0.121551998 0.069580004 0.065948002
0.187195003 0.068176001 0.066467002
0.266021997 0.066803001 0.061156999
0.349548012 0.062560998 0.053374998
0.432036996 0.064819001 0.045959000
0.515807986 0.068847999 0.041839998
0.604004025 0.070556998 0.040984999
0.691192985 0.073669001 0.040894002
0.768890023 0.079529002 0.040222000
0.838562012 0.085479997 0.040008999
0.903900027 0.094360001 0.039337002
0.948302984 0.107513003 0.038543999
0.967864990 0.121367998 0.037597999
0.987700999 0.123474002 0.036865000
0.000000000 0.123291001 0.076812997
0.022491001 0.121826001 0.078612998
0.052338000 0.120238997 0.077666998
0.113617003 0.120544001 0.067566000
0.185760006 0.128021002 0.058318999
0.263092011 0.136474997 0.051178001
0.341643989 0.142455995 0.044464000
0.424652010 0.149384007 0.041595001
0.510802984 0.158325002 0.040741000
0.600250006 0.165191993 0.040771000
0.687346995 0.169464007 0.040771000
0.763427973 0.174285993 0.040100001
0.834442019 0.178101003 0.039978001
0.901244998 0.183228001 0.039184999
0.947784007 0.190642998 0.038300000
0.969177008 0.192718998 0.036865000
0.989471018 0.195038006 0.036072001
0.000000000 0.189025998 0.094848998
0.022430001 0.188384995 0.091643997
0.044769000 0.187713996 0.089844003
0.081542999 0.187255993 0.078887999
0.177704006 0.194275007 0.067534998
0.267120004 0.206787005 0.049621999
0.343140006 0.216033995 0.041076999
0.419128001 0.221680000 0.040771000
0.504364014 0.229126006 0.040894002
0.592987001 0.238983005 0.040771000
0.678955019 0.247314006 0.040314000
0.760132015 0.252624989 0.040100001
0.831969976 0.255737007 0.039917000
0.899291992 0.258545011 0.039337002
0.947265983 0.261229992 0.037932999
0.966826975 0.262970001 0.036865000
