public/lut/127.cube
TITLE "17x17x17 Adobe/IRIDAS cube 3D LUT exported with GrossGrade v0.2.2 (beta) 64 bit"
DOMAIN_MIN 0 0 0
DOMAIN_MAX 1 1 1
LUT_3D_SIZE 17
0.029967999 0.033904999 0.033112001
0.082794003 0.036956999 0.030029001
0.148376003 0.045196999 0.030640000
0.217010006 0.056853998 0.032958999
0.282714993 0.068664998 0.033721998
0.333862007 0.079620004 0.039489999
0.382782012 0.089203000 0.043731999
0.430756003 0.097442999 0.046569999
0.472472996 0.105286002 0.050354000
0.508942008 0.112121999 0.055481002
0.545166016 0.118377998 0.060089000
0.583922982 0.124389999 0.063904002
0.621856987 0.129120007 0.069885001
0.655059993 0.133727998 0.075866997
0.688750982 0.136169001 0.078247003
0.730742991 0.141144007 0.080048002
0.768890023 0.138306007 0.077637002
0.030762000 0.052002002 0.032349002
0.067230001 0.054474000 0.027649000
0.131377995 0.063812003 0.027649000
0.197356999 0.076599002 0.030029001
0.261626989 0.092772998 0.031585999
0.319182992 0.105469003 0.038695998
0.374237001 0.117645003 0.043731999
0.426117003 0.127563000 0.046569999
0.472626001 0.133239999 0.050018001
0.517302990 0.138274997 0.054839998
0.562134027 0.145568997 0.058533002
0.604309022 0.151549995 0.062804997
0.646057010 0.156128004 0.068297997
0.693328977 0.162322998 0.073363997
0.737976015 0.166411996 0.076752000
0.779083014 0.170653999 0.077637002
0.816161990 0.166718006 0.075195000
0.030762000 0.080504999 0.032349002
0.067047000 0.084045000 0.027649000
0.114349000 0.088836998 0.021576000
0.177031994 0.101439998 0.025908999
0.239960000 0.117798001 0.030548001
0.303833008 0.135132000 0.038695998
0.364257991 0.148956001 0.044922002
0.421692014 0.158355996 0.047913000
0.476348996 0.165160999 0.050018001
0.527740002 0.170684993 0.053557999
0.576569021 0.175446004 0.057677999
0.625671029 0.180969000 0.061432000
0.678008974 0.189178005 0.065978996
0.730286002 0.197052002 0.070281997
0.775512993 0.200073004 0.073334001
0.821106017 0.201812997 0.074828997
0.857025027 0.201691002 0.075165004
0.036621001 0.117583998 0.034545999
0.066071004 0.120513998 0.030060001
0.112579003 0.127167001 0.021423001
0.159851000 0.131926998 0.022736000
0.220000997 0.146972999 0.030151000
0.286895990 0.165131003 0.040894002
0.351348996 0.180542007 0.047180001
0.413666010 0.190887004 0.049529999
0.474121004 0.196441993 0.052855998
0.530852973 0.201537997 0.056609999
0.585265994 0.208893001 0.059142999
0.639708996 0.216064006 0.060821999
0.695434988 0.222137004 0.065490998
0.749817014 0.227539003 0.070099004
0.794312000 0.233245999 0.072113000
0.838867009 0.237762004 0.072723001
0.876160026 0.232787997 0.073334001
0.049988002 0.156951994 0.035309002
0.080994003 0.160918996 0.029327000
0.116974004 0.169189006 0.021300999
0.159454003 0.174896002 0.023956001
0.205504999 0.180419996 0.029387999
0.269591987 0.195495993 0.040008999
0.337920994 0.211181998 0.047332998
0.403595001 0.222259998 0.050719999
0.467743009 0.229552999 0.053986002
0.530945003 0.236022994 0.057098001
0.591796994 0.242827997 0.059264999
0.649596989 0.249878004 0.061432000
0.704986989 0.257782012 0.065796003
0.758513987 0.265655994 0.068939000
0.806762993 0.269073009 0.069610998
0.852936029 0.272246987 0.070129000
0.889739990 0.267302990 0.070648000
0.073546998 0.197784007 0.043060001
0.102294996 0.201141000 0.039276000
0.133514002 0.210480005 0.032623000
0.165191993 0.219146997 0.034118999
0.204467997 0.223572001 0.035339002
0.253174007 0.228668004 0.041046001
0.316466987 0.240081996 0.047759999
0.387421012 0.253295988 0.051849000
0.457825005 0.262847990 0.055573002
0.524231017 0.269805998 0.058745999
0.588379025 0.276854992 0.060851999
0.651367009 0.285369992 0.062224999
0.710541010 0.295073986 0.065917999
0.764953971 0.303618997 0.068939000
0.814239979 0.306396008 0.068389997
0.861724973 0.308441013 0.068389997
0.895812988 0.306151986 0.069489002
0.102141999 0.238159001 0.053955000
0.128325999 0.241576999 0.050751001
0.157805994 0.250488013 0.044829998
0.182708994 0.260497987 0.044495001
0.215424001 0.268738002 0.042693999
0.255890012 0.271973014 0.044220001
0.303986013 0.275786996 0.046905998
0.368286014 0.285003990 0.050689999
0.442351997 0.294829994 0.056212999
0.514679015 0.303070009 0.060120001
0.582306027 0.311737001 0.061646000
0.646606028 0.320984006 0.063354000
0.709075987 0.330597013 0.066344999
0.768706977 0.338898003 0.068389997
0.819244027 0.343932986 0.067505002
0.865997016 0.347106993 0.066924997
0.900390983 0.342711985 0.066253997
0.134520993 0.279053003 0.064087003
0.160126001 0.283600003 0.060089000
0.186829001 0.290710002 0.055236999
0.210418999 0.300873011 0.052795000
0.235779002 0.311127007 0.050292999
0.271362007 0.317474008 0.050110001
0.311370999 0.318908989 0.049743999
0.359405994 0.320892006 0.051453002
0.424834996 0.327789009 0.055573002
0.501007020 0.336975008 0.059783999
0.574340999 0.345916986 0.061859000
0.640717030 0.354828000 0.064117000
0.704468012 0.364502013 0.065338001
0.766723990 0.373169005 0.065002002
0.820343018 0.380187988 0.064361997
0.870208979 0.384186000 0.062378000
0.904846013 0.379608005 0.061218001
0.169769004 0.320800990 0.074646004
0.194977000 0.325562000 0.071106002
0.219269007 0.331176996 0.066315003
0.240935996 0.340667993 0.063019000
0.263489008 0.350890994 0.060759999
0.292418987 0.359375000 0.058959998
0.328491002 0.363159001 0.058350001
0.367644995 0.362396002 0.057128999
0.415618986 0.363312006 0.057739001
0.482573986 0.369475991 0.059813999
0.559601009 0.377929986 0.061859000
0.631377995 0.386902004 0.063568003
0.697661996 0.396941990 0.064087003
0.761260986 0.406250000 0.061340000
0.816344976 0.413361013 0.059570000
0.872466981 0.418976009 0.053314000
0.907471001 0.419158995 0.053955000
0.205658004 0.362946004 0.086089998
0.229919001 0.366425008 0.083861999
0.253174007 0.371428996 0.078827001
0.271973014 0.379395008 0.075165004
0.294768989 0.389281988 0.071808003
0.320129007 0.398407012 0.068970002
0.350555003 0.404388011 0.067718998
0.387634009 0.405701011 0.065430000
0.426178008 0.403777987 0.062987998
0.473877013 0.403167993 0.061889999
0.541199028 0.408111989 0.061370999
0.615630984 0.417174995 0.062408000
0.685822010 0.427215993 0.063231997
0.752991021 0.436919987 0.059753001
0.810302973 0.444732994 0.054595999
0.869414985 0.452605993 0.040833000
0.907898009 0.457641989 0.027588001
0.240326002 0.405120999 0.096802004
0.264191002 0.407012999 0.094818003
0.287048012 0.410461009 0.090668000
0.305175990 0.417266995 0.086181998
0.326995999 0.426391989 0.081298999
0.351898015 0.435425013 0.077881001
0.379729986 0.442443997 0.075591996
0.413605005 0.447113007 0.072815001
0.450562000 0.447174013 0.069550000
0.487304986 0.442566007 0.065582000
0.533051014 0.440124989 0.062011998
0.597075999 0.445587009 0.061066002
0.670349002 0.456115991 0.061646000
0.741943002 0.466461003 0.057220001
0.804351985 0.476043999 0.045990001
0.863403022 0.485320985 0.018494001
0.905640006 0.491881996 0.000000000
0.272002995 0.446442008 0.106841996
0.296112001 0.447113007 0.104156002
0.318939000 0.448608011 0.100860998
0.338470012 0.454041004 0.095673002
0.358368009 0.462523997 0.090728998
0.382019013 0.471404999 0.086608998
0.410400003 0.478911996 0.083495997
0.440856993 0.485596001 0.080109000
0.475616008 0.488891989 0.076141000
0.512695014 0.486176014 0.071533002
0.547546029 0.479950011 0.066101000
0.590210021 0.477661014 0.061066002
0.655731022 0.485260010 0.057953000
0.730620980 0.496886998 0.048004001
0.796752989 0.506958008 0.025330000
0.857451975 0.516997993 0.000000000
0.901000977 0.524231017 0.000000000
0.300018013 0.485992014 0.116210997
0.323578000 0.486205995 0.113495000
0.346558005 0.486633003 0.110473998
0.366638005 0.489899009 0.105682001
0.385895014 0.498016000 0.100800000
0.409424007 0.507445991 0.095673002
0.436614990 0.515259027 0.091735996
0.466369987 0.522490978 0.088104002
0.501007020 0.528961003 0.083221003
0.538573980 0.530609012 0.077849999
0.574158013 0.526337028 0.071777001
0.607361019 0.519806027 0.064087003
0.650054991 0.517211974 0.054443002
0.717864990 0.525786996 0.036377002
0.786132991 0.537200987 0.000000000
0.850615978 0.549010992 0.000000000
0.896697998 0.559051991 0.000000000
0.327605993 0.524963021 0.124022998
0.350493997 0.524811029 0.122192003
0.373870999 0.524658024 0.119323999
0.393097013 0.526275992 0.115020998
0.412781000 0.533843994 0.109741002
0.437317014 0.543883979 0.104217999
0.462830007 0.552002013 0.099457003
0.493591011 0.559356987 0.094604000
0.528778017 0.566895008 0.088440001
0.562897027 0.571442008 0.081786998
0.596283019 0.570128977 0.074828997
0.630432010 0.564728022 0.065094002
0.664611995 0.558044016 0.050048999
0.708374023 0.554840028 0.026215000
0.774016976 0.566254020 0.000000000
0.842957020 0.581848025 0.000000000
0.893463016 0.596343994 0.000000000
0.356323004 0.564728022 0.131377995
0.379364014 0.563232005 0.130493000
0.402648985 0.562775016 0.127533004
0.421692014 0.563903987 0.123412997
0.441956013 0.570739985 0.117339998
0.465698004 0.580841005 0.111175999
0.490662009 0.589752018 0.105255000
0.521790028 0.597809017 0.098663002
0.557494998 0.606140018 0.090668000
0.591278017 0.612976015 0.081329003
0.622893989 0.615783989 0.070831001
0.656036019 0.613770008 0.055114999
0.690856993 0.608307004 0.028595001
0.727234006 0.602203012 0.000000000
0.769622982 0.599883974 0.000000000
0.835663021 0.614562988 0.000000000
0.886901975 0.630797982 0.000000000
0.384155005 0.608612001 0.136962995
0.408234000 0.605804026 0.136657998
0.431335002 0.604888976 0.134155005
0.451447010 0.605651975 0.129700005
0.468964010 0.610351980 0.123199001
0.491515994 0.619965017 0.116301998
0.519011974 0.630402029 0.108978003
0.550078988 0.639496028 0.100768998
0.583495975 0.648284972 0.090607002
0.617371023 0.656036019 0.077422999
0.649932981 0.661377013 0.059661999
0.680755973 0.663695991 0.028717000
0.712096989 0.661742985 0.000000000
0.746674001 0.657867014 0.000000000
0.786590993 0.653380990 0.000000000
0.829802990 0.649994016 0.000000000
0.879729986 0.666351020 0.000000000
0.411469012 0.656585991 0.142578006
0.434906006 0.653594971 0.142029002
0.457886010 0.651122987 0.140929997
0.481842011 0.652068973 0.136840999
0.498046994 0.655517995 0.129271999
0.517211974 0.663421988 0.121703997
0.545593023 0.673461974 0.112061001
0.576874018 0.682555974 0.101104997
0.607666016 0.691406012 0.087615997
0.639892995 0.700012028 0.067107998
0.672272027 0.705871999 0.029663000
0.703185976 0.709380984 0.000000000
0.734221995 0.712584972 0.000000000
0.766327024 0.712646008 0.000000000
0.806976020 0.708679020 0.000000000
0.848450005 0.704437017 0.000000000
0.874419987 0.702606022 0.000000000
0.032288000 0.042358000 0.073913999
0.069366001 0.040894002 0.067749001
0.135406002 0.045959000 0.067657001
0.204132006 0.053314000 0.067718998
0.264862001 0.061156999 0.071135998
0.313477010 0.069489002 0.076476999
0.360747993 0.077575997 0.079375997
0.404967993 0.085022002 0.081359997
0.445984006 0.092589997 0.084076002
0.485565007 0.099457003 0.087188996
0.523163021 0.104431003 0.089203000
0.558257997 0.108948000 0.091614000
0.590057015 0.113861002 0.096100003
0.622130990 0.118773997 0.099976003
0.656189024 0.120421998 0.101379000
0.692291021 0.121703997 0.100585997
0.726562977 0.120361000 0.097107001
0.026916999 0.058166999 0.067749001
0.061646000 0.063842997 0.068695001
0.129394993 0.072754003 0.070129000
0.195006996 0.083159998 0.073181003
0.252959996 0.094512999 0.077026002
0.305878013 0.106749997 0.081298999
0.358642995 0.116943002 0.086548001
0.408324987 0.125916004 0.091187000
0.455810994 0.133881003 0.095245004
0.504912972 0.141234994 0.100097999
0.551452994 0.147368997 0.105682001
0.593932986 0.153258994 0.110504001
0.637450993 0.160278007 0.115111999
0.681854010 0.166656002 0.120361000
0.725098014 0.168274000 0.123718001
0.765075982 0.169586003 0.123595998
0.800719976 0.166808993 0.118164003
0.023804000 0.086700000 0.069274999
0.066803001 0.095337003 0.072235003
0.115264997 0.099792004 0.067199998
0.179443002 0.111175999 0.069641002
0.241790995 0.126038000 0.074157998
0.298552990 0.139954001 0.078644000
0.355437994 0.150145993 0.084778003
0.413421988 0.159332007 0.089844003
0.468017995 0.167969003 0.093597002
0.519073009 0.174621999 0.098389000
0.571502984 0.181182995 0.104431003
0.625609994 0.189087003 0.109497003
0.676940978 0.197052002 0.114349000
0.721771002 0.202788994 0.119598001
0.764403999 0.204650998 0.123168997
0.806792974 0.207305998 0.125732005
0.841858029 0.204925999 0.121918000
0.025238000 0.123322003 0.069854997
0.078460999 0.133759007 0.076629996
0.122497998 0.138306007 0.070251003
0.169921994 0.144347996 0.065033004
0.228790000 0.157288000 0.069977000
0.290253013 0.172362998 0.076080002
0.353668004 0.184998006 0.081421003
0.415558010 0.194214001 0.086029001
0.475982994 0.202179000 0.089873999
0.535767019 0.210938007 0.094971001
0.593291998 0.219940007 0.100708000
0.649138987 0.227264002 0.105774000
0.704163015 0.234221995 0.110931002
0.754088998 0.241638005 0.117554002
0.796875000 0.247161999 0.122284003
0.838837028 0.248749003 0.124724999
0.876128972 0.241668999 0.122466996
0.036896002 0.163513005 0.074492998
0.097107001 0.172974005 0.081207000
0.132477000 0.179626003 0.076110996
0.174376994 0.186492994 0.069977000
0.219054997 0.192108005 0.069031000
0.276520014 0.203704998 0.074492998
0.343842000 0.216887996 0.080811001
0.410095006 0.227965996 0.085479997
0.473632991 0.237457007 0.088927999
0.538177013 0.246520996 0.093902998
0.601257026 0.255156994 0.100158997
0.660247982 0.264068991 0.105103001
0.716247976 0.273651004 0.108643003
0.767578006 0.282135010 0.115020998
0.813903987 0.285706013 0.120728001
0.857604980 0.285614014 0.123230003
0.892395020 0.281158000 0.121002004
0.062714003 0.203734994 0.077331997
0.122040004 0.212738007 0.087707996
0.152282998 0.220245004 0.082611002
0.186829001 0.229308993 0.077026002
0.225860998 0.234711006 0.073944002
0.269378990 0.239166006 0.073028997
0.330688000 0.249816999 0.077758998
0.400330007 0.261626989 0.083649002
0.468230993 0.271515012 0.088440001
0.534331977 0.280945003 0.093231000
0.598784983 0.291076988 0.098480001
0.661194026 0.301207989 0.103119001
0.721496999 0.311278999 0.107239000
0.774047971 0.320098996 0.113586001
0.820434988 0.324523985 0.118712999
0.865234017 0.325011998 0.120361000
0.898651004 0.321655005 0.119598001
0.092101999 0.243316993 0.082275003
0.151093006 0.253174007 0.095092997
0.179535002 0.260405988 0.090392999
0.207367003 0.270386010 0.084441997
0.240814000 0.278748006 0.081238002
0.279053003 0.283111989 0.077545002
0.324799001 0.287200987 0.076720998
0.386687994 0.295073986 0.080963001
0.457305998 0.305206001 0.086760998
0.526916981 0.315917999 0.091858000
0.593384027 0.326568991 0.096954003
0.657317996 0.336670011 0.101166002
0.719237983 0.346801996 0.105438001
0.775390983 0.357268989 0.111602999
0.823180974 0.364470989 0.116149999
0.868622005 0.365233988 0.116912998
0.902100027 0.360626012 0.118285999
0.123504996 0.283356011 0.089934997
0.182982996 0.294860989 0.103119001
0.209442005 0.301025003 0.098755002
0.234130993 0.310211003 0.092834003
0.261536002 0.320556998 0.088776000
0.296783000 0.328368992 0.084899999
0.334868997 0.330994010 0.081329003
0.380858988 0.332610995 0.080504999
0.442809999 0.339446992 0.084595002
0.514038026 0.349761993 0.091034003
0.585083008 0.360107005 0.096375003
0.651398003 0.370238990 0.100158997
0.712859988 0.381164998 0.104278997
0.771057010 0.392486989 0.109070003
0.823607981 0.401154011 0.112976000
0.871948004 0.403656006 0.114074998
0.904114008 0.399901986 0.115845002
0.158355996 0.325073004 0.097717002
0.215057001 0.337493986 0.111419998
0.239989996 0.342743009 0.107024997
0.263184011 0.349730998 0.101410002
0.288695991 0.360291004 0.096863002
0.318176001 0.370635986 0.092834003
0.354279011 0.376556009 0.089263998
0.392609000 0.376587003 0.085906997
0.437714010 0.376984000 0.085326999
0.499511987 0.383331001 0.089354999
0.572205007 0.393036008 0.094939999
0.642059028 0.403167993 0.099059999
0.705443978 0.413879007 0.103179999
0.765320003 0.424865991 0.106872998
0.821075022 0.434448004 0.109039001
0.873291016 0.440856993 0.110717997
0.905395985 0.440185994 0.111206003
0.194335997 0.367644995 0.105530001
0.244933993 0.379547000 0.119873002
0.268738002 0.384460002 0.115662001
0.291076988 0.389342993 0.110413000
0.316803008 0.398589998 0.105774000
0.342864990 0.409271002 0.102020003
0.376006991 0.418426991 0.098297000
0.413879007 0.421692014 0.095154002
0.450562000 0.419952005 0.091309004
0.494872987 0.419800013 0.089661002
0.557677984 0.425841987 0.092101999
0.628814995 0.435546994 0.096496999
0.695984006 0.445587009 0.101135001
0.759124994 0.456512004 0.104369998
0.817200005 0.467987001 0.104736000
0.871215999 0.476714998 0.105407998
0.906067014 0.479095012 0.103821002
0.227477998 0.409058005 0.114899002
0.272675008 0.420226991 0.128967002
0.296081990 0.424376994 0.125183001
0.318572998 0.427917004 0.119903997
0.342833996 0.434998006 0.115539998
0.369446009 0.445190012 0.111786000
0.400420994 0.456023991 0.107787997
0.435759991 0.462981999 0.104369998
0.472808987 0.464020014 0.100220002
0.508880973 0.461304009 0.095000997
0.552460015 0.460357994 0.091918997
0.614319026 0.466399997 0.093566999
0.684020996 0.477173001 0.097198002
0.750153005 0.488799989 0.100647002
0.811919987 0.501708984 0.100464001
0.867614985 0.510985970 0.098266996
0.904724002 0.515471995 0.094391003
0.257384986 0.448792011 0.125000000
0.300415009 0.459930003 0.137420997
0.324310005 0.462128013 0.134552002
0.347137004 0.465056986 0.129333004
0.369690001 0.470764011 0.124847002
0.396789998 0.480652004 0.120483004
0.426910013 0.491820991 0.116028003
0.459044993 0.500885010 0.112121999
0.496093988 0.505768001 0.107879996
0.533630013 0.505828977 0.102600001
0.567534983 0.501801014 0.096436001
0.609557986 0.499817014 0.092285000
0.671539009 0.507628977 0.092499003
0.739135981 0.520416021 0.094727002
0.803375006 0.533447027 0.094116002
0.864104986 0.544219971 0.088806003
0.901184022 0.550689995 0.085235998
0.285369992 0.487823009 0.133819997
0.326384991 0.499206990 0.145172000
0.350982994 0.499785990 0.143250003
0.373382986 0.502044976 0.138245001
0.396270990 0.507233024 0.133301005
0.422149986 0.517028987 0.128447995
0.451384991 0.528198004 0.123810001
0.484070003 0.538421988 0.119446002
0.520325005 0.546265006 0.114776999
0.557799995 0.550384998 0.109314002
0.593047976 0.549255013 0.102966003
0.626250982 0.543609977 0.095794998
0.666656017 0.540893972 0.089690998
0.727141976 0.550261974 0.088196002
0.793151975 0.564484000 0.084533997
0.859619021 0.577301025 0.073700003
0.898468018 0.587127984 0.062286001
0.312653005 0.526672006 0.140929997
0.349914998 0.539306998 0.153107002
0.373993009 0.539641976 0.151244998
0.396575987 0.540374994 0.147551998
0.421478003 0.544861019 0.142943993
0.445984006 0.554260015 0.137908995
0.473358005 0.565429986 0.132660002
0.507202029 0.576201975 0.127471998
0.543090999 0.585236013 0.122070000
0.578643978 0.592559993 0.116118997
0.614807010 0.596221983 0.108551003
0.649567008 0.593262017 0.100249998
0.682830989 0.586669981 0.090820000
0.721862972 0.584137022 0.080536000
0.784179986 0.596710026 0.069489002
0.852752984 0.611663997 0.042969000
0.896239996 0.625792980 0.014648000
0.338593006 0.565703988 0.148254007
0.372588992 0.581511974 0.160521999
0.396088004 0.581969976 0.158478007
0.420471013 0.581909001 0.155730993
0.446289003 0.585265994 0.151764005
0.470398009 0.594177008 0.146271005
0.497588992 0.605315983 0.140228003
0.530028999 0.616271973 0.133881003
0.564697027 0.625518978 0.127379999
0.600067019 0.634002984 0.119903997
0.636627018 0.641663015 0.110504001
0.673156977 0.643768013 0.099701002
0.707976997 0.639252007 0.086914003
0.741088986 0.634734988 0.069214001
0.779510021 0.633391976 0.042296998
0.844421029 0.647095025 0.000000000
0.888366997 0.663208008 0.000000000
0.363525003 0.609130979 0.155425996
0.396362007 0.627502024 0.166015998
0.419647008 0.628051996 0.164123997
0.446624994 0.628203988 0.161590993
0.472014993 0.629669011 0.158629999
0.495635986 0.637359977 0.152802005
0.524658024 0.648346007 0.145721003
0.555572987 0.659148991 0.137970001
0.587799013 0.668640018 0.129700005
0.623198986 0.677460015 0.119750999
0.660156012 0.686461985 0.106841996
0.695526004 0.693359017 0.089569002
0.728209972 0.694275022 0.067322001
0.762176991 0.691437006 0.035645001
0.797729015 0.687530994 0.000000000
0.837737978 0.684418023 0.000000000
0.881744027 0.699645996 0.000000000
0.391418010 0.656982005 0.160858005
0.426086009 0.675293028 0.170441002
0.451781988 0.674866021 0.170532003
0.478729010 0.675078988 0.167786002
0.503234982 0.675963998 0.164306998
0.523956001 0.680694997 0.157683998
0.551146984 0.690369010 0.148986995
0.581450999 0.701201975 0.139403999
0.611877024 0.711151004 0.128754005
0.644562006 0.720580995 0.115906000
0.679961979 0.729583979 0.098021999
0.716491997 0.738067985 0.061797999
0.751128972 0.744171023 0.011841000
0.784271002 0.745422006 0.000000000
0.820007026 0.742065012 0.000000000
0.849152029 0.739531994 0.000000000
0.876007020 0.737700999 0.000000000
0.039917000 0.055176001 0.126159996
0.066680998 0.052611999 0.121947996
0.121734999 0.050751001 0.115295000
0.188324004 0.053955000 0.116241001
0.246917993 0.057831001 0.118377998
0.294250011 0.062987998 0.122772001
0.338348001 0.069061004 0.125336006
0.380645990 0.076049998 0.125884995
0.421600014 0.083861999 0.126372993
0.461578012 0.090851001 0.127105996
0.500427008 0.096161000 0.128082007
0.536530018 0.100524999 0.129517004
0.567596018 0.105530001 0.132995993
0.596466005 0.110352002 0.136840999
0.629059017 0.111846998 0.137085006
0.665404975 0.113098003 0.135619998
0.699921012 0.112396002 0.132110998
0.035248000 0.071319997 0.120392002
0.063750997 0.077179000 0.122864000
0.119354002 0.074127004 0.116333000
0.184082001 0.080200002 0.116820998
0.241698995 0.087067001 0.119202003
0.293518007 0.095611997 0.121215999
0.343842000 0.105530001 0.123627000
0.391052008 0.113799997 0.125121996
0.437256008 0.120636001 0.126587003
0.485320985 0.127776995 0.129517004
0.531554997 0.134887993 0.133544996
0.571686029 0.140105993 0.137299001
0.609252989 0.144347996 0.140778005
0.651642025 0.149719000 0.144530997
0.692200005 0.152893007 0.146056995
0.731353998 0.153748006 0.144896999
0.767486989 0.148438007 0.138641000
0.028380999 0.094329998 0.113007002
0.062103000 0.103210002 0.116425000
0.118346997 0.107513003 0.117462002
0.183349997 0.117858998 0.119903997
0.243010998 0.128082007 0.122589000
0.298004001 0.139037997 0.126190007
0.353424013 0.150695994 0.130401999
0.409424007 0.161406994 0.134644002
0.463562012 0.169829994 0.138854995
0.515960991 0.177551001 0.143889993
0.567749023 0.186157003 0.149932995
0.618377984 0.194000006 0.156494007
0.666718006 0.200073004 0.162292004
0.710327029 0.204467997 0.166106999
0.751770020 0.209839001 0.169249997
0.791625977 0.209136993 0.170104995
0.828064024 0.205626994 0.168060005
0.022918999 0.130829006 0.112182997
0.071837999 0.140045002 0.117310002
0.130523995 0.146514997 0.120911002
0.177215993 0.152373999 0.116791002
0.235045999 0.163513005 0.117919996
0.297423989 0.176941007 0.121826001
0.357605010 0.189025998 0.126495004
0.415648997 0.199615002 0.131347999
0.476471007 0.209380999 0.136414006
0.538208008 0.218871996 0.142333999
0.593750000 0.227448002 0.148743004
0.644684017 0.235382006 0.155579001
0.696442008 0.243744001 0.162505999
0.744659007 0.250732005 0.168457001
0.787598014 0.255553991 0.172576994
0.826599002 0.253479004 0.173583999
0.865203977 0.245361000 0.173645005
0.026427999 0.171721995 0.110717997
0.090088002 0.179015994 0.117554002
0.149292007 0.188324004 0.125061005
0.189545006 0.193572998 0.119842999
0.231140003 0.199524000 0.113770001
0.288361013 0.210388005 0.116180003
0.352966011 0.223906994 0.121703997
0.416961998 0.236876994 0.126708999
0.480803996 0.247649997 0.131255999
0.546294987 0.257050008 0.136779994
0.608458996 0.266997993 0.143799007
0.664641976 0.277832001 0.151427999
0.717804015 0.287598014 0.158508003
0.766692996 0.293945014 0.164551005
0.813476980 0.297455013 0.170166001
0.852478027 0.297363013 0.173187003
