public/lut/127.cube
TITLE "17x17x17 Adobe/IRIDAS cube 3D LUT exported with GrossGrade v0.2.2 (beta) 64 bit"
DOMAIN_MIN 0 0 0
DOMAIN_MAX 1 1 1
LUT_3D_SIZE 5
0.029967999 0.033904999 0.033112001
0.282714993 0.068664998 0.033721998
0.472472996 0.105286002 0.050354000
0.621856987 0.129120007 0.069885001
0.768890023 0.138306007 0.077637002
0.049988002 0.156951994 0.035309002
0.205504999 0.180419996 0.029387999
0.467743009 0.229552999 0.053986002
0.704986989 0.257782012 0.065796003
0.889739990 0.267302990 0.070648000
0.169769004 0.320800990 0.074646004
0.263489008 0.350890994 0.060759999
0.415618986 0.363312006 0.057739001
0.697661996 0.396941990 0.064087003
0.907471001 0.419158995 0.053955000
0.300018013 0.485992014 0.116210997
0.385895014 0.498016000 0.100800000
0.501007020 0.528961003 0.083221003
0.650054991 0.517211974 0.054443002
0.896697998 0.559051991 0.000000000
0.411469012 0.656585991 0.142578006
0.498046994 0.655517995 0.129271999
0.607666016 0.691406012 0.087615997
0.734221995 0.712584972 0.000000000
0.874419987 0.702606022 0.000000000
0.060454998 0.075286999 0.226013005
0.215607002 0.060913000 0.207305998
0.392273009 0.066895001 0.212372005
0.536315978 0.089599997 0.205138996
0.658936024 0.099212997 0.200866997
0.044006001 0.186217993 0.197968006
0.246337995 0.214019999 0.216949001
0.487244010 0.260681003 0.234619007
0.703369021 0.301483005 0.266754001
0.865906000 0.294494987 0.266113013
0.127136007 0.347075999 0.189270005
0.321013987 0.387115002 0.238463998
0.455413997 0.411956996 0.215332001
0.715851009 0.466583014 0.250732005
0.911162972 0.496306986 0.276183993
0.237243995 0.494414985 0.204071000
0.392699987 0.550293028 0.258361995
0.525207996 0.580565989 0.244873002
0.667937994 0.602294981 0.223205999
0.902312994 0.660889030 0.246917993
0.333312988 0.656921029 0.225433007
0.484070003 0.739960015 0.274536014
0.612793028 0.758544981 0.270844012
0.758453012 0.800872982 0.232116997
0.889281988 0.808411002 0.150635004
0.084716998 0.105286002 0.387389988
0.197205007 0.082061999 0.354095012
0.339996010 0.064788997 0.336944997
0.483031988 0.073273003 0.343414009
0.594085991 0.081023999 0.337188989
0.101958998 0.239501998 0.404419005
0.236175999 0.269957989 0.427002013
0.400330007 0.243164003 0.388610989
0.577697992 0.274383992 0.408111989
0.767364979 0.271728992 0.400757015
0.117889002 0.392486989 0.392242014
0.278717011 0.429412991 0.431793004
0.474700987 0.470183998 0.482971013
0.717072010 0.522583008 0.507874012
0.903869987 0.525664985 0.499451011
0.199004993 0.549804986 0.389892995
0.332457989 0.586395025 0.417571992
0.536773980 0.645416021 0.484589010
0.691833019 0.673859000 0.468414009
0.925140023 0.737182975 0.482544005
0.275238007 0.684296012 0.354308993
0.404724002 0.745728016 0.393341005
0.604767025 0.829926014 0.449463010
0.773590028 0.854125977 0.443634003
0.918030024 0.868957996 0.380248994
0.100616001 0.143066004 0.601715028
0.191833004 0.101775996 0.540252984
0.328094006 0.088836998 0.506072998
0.420226991 0.073517002 0.486815989
0.533936024 0.083587997 0.516846001
0.122772001 0.299744010 0.634887993
0.243957996 0.331939995 0.661957026
0.368835002 0.293945014 0.606963992
0.482605010 0.265258998 0.568695009
0.662200987 0.273743004 0.585265994
0.151306003 0.447326988 0.646484017
0.273620993 0.492065012 0.673370004
0.446013987 0.531952024 0.704528987
0.601562977 0.499938995 0.669556022
0.820891976 0.506042004 0.679291010
0.192748994 0.601135015 0.623627007
0.319458008 0.641052008 0.647156000
0.499511987 0.691344976 0.693145990
0.733062983 0.748809993 0.750092030
0.936645985 0.789276004 0.762390018
0.255676001 0.746490002 0.580138981
0.366272002 0.790161014 0.592804015
0.531463981 0.846161008 0.639679015
0.770111024 0.899872005 0.706604004
0.940521002 0.918700993 0.673218012
0.142303005 0.211517006 0.849395990
0.180510998 0.145416006 0.774444997
0.288177013 0.134644002 0.754424989
0.385345012 0.127868995 0.760406017
0.433167011 0.111144997 0.727997005
0.169769004 0.374114990 0.874114990
0.254027992 0.401641995 0.885528982
0.326323986 0.353850991 0.841063976
0.422423989 0.326691002 0.817749023
0.509369016 0.274688989 0.779326975
0.193542004 0.514892995 0.857604980
0.287414998 0.560211003 0.871124029
0.428833008 0.605742991 0.890807986
0.538055003 0.566314995 0.864471018
0.651215017 0.511565983 0.842621028
0.220855996 0.648406982 0.824492991
0.321319997 0.694396973 0.849822998
0.487273991 0.757659972 0.881531000
0.725983024 0.817047000 0.906859994
0.827789009 0.786284983 0.892700016
0.262939006 0.784484982 0.794098020
0.371033013 0.831786990 0.827270985
0.532410026 0.876984000 0.869231999
0.756470025 0.920104980 0.908936024
0.955749989 0.954895020 0.943755984
