public/lut/128.cube
TITLE "17x17x17 Adobe/IRIDAS cube 3D LUT exported with GrossGrade v0.2.2 (beta) 64 bit"
DOMAIN_MIN 0 0 0
DOMAIN_MAX 1 1 1
LUT_3D_SIZE 5
0.019409001 0.021271000 0.022186000
0.116637997 0.036743000 0.022186000
0.243561000 0.048492000 0.024963001
0.374541998 0.064575002 0.027039001
0.487700999 0.080200002 0.030517999
0.002777000 0.089996003 0.041595001
0.154510006 0.151489004 0.024719000
0.408874989 0.215545997 0.031647000
0.598479986 0.267760992 0.039763998
0.720794976 0.292418987 0.046905998
0.005096000 0.192566007 0.047607001
0.198639005 0.291595012 0.037903000
0.401549995 0.353760004 0.049377002
0.659820974 0.423126012 0.069458000
0.804840028 0.430786014 0.066620000
0.025420999 0.278503001 0.089844003
0.243652001 0.384186000 0.067322001
0.483336985 0.468169987 0.078704998
0.636017025 0.513549984 0.105255000
0.834930003 0.542572021 0.113128997
0.083922997 0.410308987 0.208984002
0.322356999 0.500640988 0.164581001
0.610930979 0.593505979 0.180694997
0.777526975 0.658173025 0.241943002
0.863403022 0.675598025 0.254547000
0.024719000 0.027496001 0.069122002
0.089111000 0.033050999 0.074280001
0.225250006 0.036986999 0.077271000
0.332367003 0.038849000 0.071044996
0.421783000 0.041595001 0.056609999
0.027496001 0.083587997 0.125976995
0.169616997 0.170745999 0.170044005
0.417632997 0.195801005 0.157317996
0.547546029 0.196227998 0.134064004
0.594208002 0.141021997 0.075774997
0.006714000 0.197906002 0.126647994
0.237274006 0.356261998 0.197173998
0.486907989 0.416289985 0.234650001
0.670288026 0.442077994 0.232483000
0.787872016 0.383148015 0.136169001
0.031189000 0.310638011 0.171387002
0.318756014 0.500182986 0.293213010
0.602936029 0.574218988 0.297576994
0.704070985 0.590942025 0.343658000
0.863952994 0.578522027 0.258971989
0.092437997 0.452789009 0.301117003
0.533141971 0.666778982 0.456786990
0.746002018 0.720794976 0.456818014
0.851440012 0.748444021 0.469238013
0.902495980 0.760650992 0.503906012
0.033295002 0.035126001 0.133819997
0.091674998 0.037659001 0.150269002
0.255035013 0.036529999 0.153441995
0.364928991 0.038849000 0.152190998
0.438995004 0.041595001 0.118957996
0.036072001 0.073273003 0.199370995
0.115662001 0.136840999 0.261321992
0.401001006 0.172759995 0.290161014
0.524291992 0.162476003 0.260010004
0.560241997 0.105377004 0.145508006
0.031433001 0.200042993 0.286590993
0.140471995 0.333312988 0.341033995
0.493651986 0.458038002 0.428588986
0.677277029 0.460418999 0.415069997
0.780547976 0.342620999 0.240355998
0.033050999 0.330779999 0.291779011
0.314911008 0.508880973 0.382629007
0.574950993 0.604400992 0.489715993
0.731994987 0.643768013 0.518280029
0.903106987 0.637755990 0.429962009
0.075622998 0.457152992 0.360962003
0.508635998 0.677460015 0.532440007
0.760101020 0.783721983 0.640106022
0.878081977 0.811401010 0.634521008
0.945374012 0.831085026 0.672577024
0.036986999 0.039763998 0.180176005
0.078674003 0.040679999 0.205047995
0.293395996 0.039978001 0.240447998
0.400573999 0.040679999 0.230437994
0.475403011 0.045318998 0.209319994
0.038849000 0.065704003 0.241393998
0.075897001 0.095581003 0.285582989
0.312225014 0.128722996 0.342651010
0.531096995 0.153564006 0.357941002
0.597594976 0.118896000 0.280456990
0.037659001 0.163727000 0.338257015
0.096069001 0.270476997 0.403259009
0.419829994 0.410369992 0.490752995
0.667693973 0.469208002 0.532471001
0.773468018 0.350861013 0.420563012
0.036285002 0.322692990 0.422455013
0.179321006 0.474182010 0.479523003
0.501403987 0.590301991 0.562592030
0.743439019 0.688995004 0.650452018
0.929901004 0.681244016 0.620880008
0.090149000 0.498016000 0.462769002
0.435608000 0.662322998 0.566497982
0.735442996 0.784210026 0.688445985
0.900940001 0.869903982 0.776703000
0.983612001 0.891753972 0.795746028
0.039763998 0.042541999 0.217925996
0.064361997 0.043212999 0.239563003
0.240479007 0.042541999 0.294616997
0.441101015 0.047363002 0.326263011
0.518585026 0.051605001 0.320800990
0.040679999 0.055388998 0.261292011
0.052429002 0.060577001 0.280609012
0.157349005 0.065857001 0.324371010
0.455047995 0.096709996 0.397399992
0.658996999 0.171448007 0.448089987
0.040679999 0.112182997 0.337738007
0.054138001 0.127196997 0.362152010
0.155913994 0.132903993 0.401154011
0.505614996 0.230072007 0.509186029
0.808562994 0.472503990 0.635315001
0.039763998 0.248992994 0.448363990
0.081390001 0.308014005 0.482360989
0.271117985 0.388336003 0.552917004
0.646820009 0.519286990 0.673430979
0.918151975 0.737213016 0.796203971
0.050719999 0.445800990 0.538208008
0.238495007 0.610840023 0.615723014
0.557770014 0.739104986 0.718567014
0.805755973 0.851318002 0.828827024
1.000000000 0.972838998 0.960083008
