public/lut/128.cube
TITLE "17x17x17 Adobe/IRIDAS cube 3D LUT exported with GrossGrade v0.2.2 (beta) 64 bit"
DOMAIN_MIN 0 0 0
DOMAIN_MAX 1 1 1
LUT_3D_SIZE 17
0.019409001 0.021271000 0.022186000
0.033875000 0.024901999 0.022186000
0.058196999 0.029479999 0.021271000
0.085693002 0.033112001 0.022186000
0.116637997 0.036743000 0.022186000
0.148223996 0.041320998 0.023743000
0.178344995 0.042541999 0.024048001
0.210022002 0.044891000 0.024567001
0.243561000 0.048492000 0.024963001
0.277069002 0.051605001 0.025878999
0.309264988 0.054443002 0.025878999
0.342682004 0.059509002 0.025878999
0.374541998 0.064575002 0.027039001
0.406067014 0.068176001 0.028656000
0.432953000 0.071135998 0.028656000
0.463836998 0.077698000 0.029602000
0.487700999 0.080200002 0.030517999
0.020293999 0.031189000 0.025757000
0.040222000 0.038483001 0.023132000
0.069641002 0.044769000 0.022186000
0.106415004 0.053252999 0.021271000
0.143433005 0.061340000 0.021300999
0.179413006 0.065215997 0.023132000
0.216796994 0.070556998 0.024048001
0.255248994 0.077087000 0.024048001
0.291992009 0.080504999 0.024963001
0.328949004 0.085297003 0.025878999
0.366912991 0.092864998 0.025878999
0.403167993 0.099976003 0.025878999
0.435698986 0.104796998 0.027740000
0.469574004 0.111969002 0.029602000
0.499938995 0.118835002 0.030456999
0.530364990 0.125244007 0.031372000
0.553345025 0.126067996 0.032288000
0.019409001 0.047363002 0.032928001
0.039459001 0.055054002 0.029418999
0.073151000 0.066924997 0.024139000
0.111450002 0.077056997 0.023925999
0.161559999 0.087860003 0.021484001
0.208434999 0.098145001 0.023132000
0.252501994 0.105315998 0.024048001
0.297942996 0.113007002 0.024048001
0.342743009 0.122284003 0.025757000
0.383850008 0.130523995 0.026825000
0.424102992 0.138031006 0.026825000
0.463654011 0.146880999 0.027618000
0.501007020 0.156982005 0.029694000
0.536895990 0.166991994 0.031615999
0.566681027 0.173279002 0.032226998
0.595885992 0.178375006 0.033172999
0.617797971 0.179260001 0.034088001
0.015137000 0.067657001 0.039581001
0.031372000 0.076293997 0.035064999
0.067169003 0.091522001 0.028717000
0.108214997 0.104584001 0.024963001
0.158751994 0.117981002 0.023132000
0.219054997 0.130340993 0.023743000
0.275664985 0.143066004 0.024963001
0.328613013 0.155762002 0.025696000
0.380492985 0.167541996 0.027557001
0.428406000 0.178344995 0.029053001
0.472472996 0.189392000 0.030670000
0.514953971 0.201508000 0.032471001
0.555724978 0.213440001 0.034271002
0.593932986 0.223998994 0.036621001
0.621948004 0.229919001 0.037842002
0.648833990 0.234191999 0.039459001
0.672210991 0.235107005 0.041260000
0.002777000 0.089996003 0.041595001
0.031677000 0.103058003 0.036162999
0.061218001 0.120483004 0.029816000
0.105803996 0.137085006 0.026062001
0.154510006 0.151489004 0.024719000
0.215728998 0.166228995 0.026581001
0.285308987 0.183319002 0.028441999
0.351379007 0.200225994 0.028960999
0.408874989 0.215545997 0.031647000
0.461760998 0.229523003 0.034667999
0.512755990 0.243285999 0.035828002
0.559020996 0.256072998 0.037048001
0.598479986 0.267760992 0.039763998
0.635070980 0.278412014 0.043152001
0.668335021 0.286803991 0.044829998
0.697784007 0.292053014 0.045745999
0.720794976 0.292418987 0.046905998
0.000000000 0.115845002 0.041595001
0.031799000 0.131194994 0.036102001
0.070435002 0.152618006 0.030609000
0.112305000 0.172211006 0.028380999
0.158234000 0.186829001 0.028380999
0.212189004 0.201569006 0.029297000
0.279204994 0.218445003 0.031097000
0.354034007 0.237914994 0.032593001
0.422881991 0.257660002 0.036681999
0.481658995 0.275115997 0.040100001
0.535797000 0.290039003 0.041655999
0.585753977 0.303131014 0.043152001
0.627898991 0.314880013 0.045867998
0.665802002 0.326476991 0.049286000
0.700744987 0.335907012 0.050567999
0.733520985 0.342316002 0.051910002
0.756775022 0.340941995 0.052765001
0.000000000 0.142303005 0.041595001
0.036224000 0.160460994 0.036102001
0.080565996 0.184937000 0.031189000
0.121947996 0.206879005 0.030151000
0.170929000 0.225555003 0.031097000
0.221680000 0.241272002 0.032012999
0.275970012 0.254882991 0.033507999
0.344269007 0.272278011 0.035705999
0.420044005 0.293518007 0.040436000
0.489318997 0.313506991 0.045348998
0.547851980 0.329254001 0.048615001
0.597869992 0.342072010 0.050934002
0.642395020 0.353606999 0.052855998
0.684630990 0.364623994 0.055176001
0.719237983 0.371033013 0.056000002
0.751403987 0.376006991 0.057617001
0.777100027 0.373656988 0.057128999
0.000000000 0.167815998 0.043030001
0.046050999 0.189728007 0.037597999
0.085937999 0.215118006 0.032990001
0.132140994 0.238952994 0.032867000
0.185394004 0.261718988 0.033569001
0.239014000 0.280975014 0.035370000
0.287750006 0.294158995 0.037140001
0.341125011 0.307128996 0.039886001
0.409301996 0.325347990 0.044891000
0.484070003 0.346190989 0.050719999
0.551575005 0.364654988 0.055236999
0.606598020 0.378937006 0.058563001
0.653015018 0.390289009 0.060547002
0.696747005 0.400115997 0.063812003
0.732025027 0.402740002 0.062652998
0.764832020 0.404938012 0.062560998
0.790709972 0.401459008 0.061462000
0.005096000 0.192566007 0.047607001
0.049927000 0.216582999 0.042571999
0.092528999 0.242401004 0.038024999
0.144470006 0.267852992 0.036529999
0.198639005 0.291595012 0.037903000
0.255553991 0.313385010 0.039763998
0.306549013 0.329681009 0.042174999
0.349853992 0.340636998 0.045807000
0.401549995 0.353760004 0.049377002
0.469940007 0.372741997 0.054871000
0.543488026 0.393402010 0.060302999
0.608124018 0.410582989 0.065734997
0.659820974 0.423126012 0.069458000
0.705443978 0.433959991 0.073273003
0.741486013 0.435698986 0.071929999
0.778442025 0.436614990 0.069793999
0.804840028 0.430786014 0.066620000
0.014679000 0.215911999 0.054382000
0.048308998 0.240112007 0.049835000
0.100585997 0.267242014 0.044495001
0.154724002 0.293273985 0.042389002
0.212157995 0.316956013 0.042938001
0.270660013 0.339325011 0.044495001
0.324126989 0.358765006 0.047180001
0.367615014 0.371764988 0.051208001
0.409667999 0.382293999 0.054931998
0.462128013 0.396301001 0.058104999
0.528747976 0.414916992 0.064056002
0.597656012 0.433380008 0.071625002
0.655182004 0.447510004 0.075866997
0.706939995 0.460846007 0.080840997
0.747559011 0.465941995 0.081359997
0.787018001 0.467467993 0.081421003
0.817596018 0.459015012 0.073151000
0.016295999 0.236542001 0.062987998
0.052703999 0.262145996 0.058075000
0.104950003 0.290131003 0.052338000
0.160370007 0.316253990 0.049621999
0.224364996 0.340088010 0.047821000
0.285003990 0.362244010 0.049011000
0.338867009 0.382782012 0.051575001
0.387542993 0.399596989 0.055388998
0.430388987 0.411803991 0.059997998
0.471069008 0.422241002 0.063323997
0.520294011 0.435638011 0.068664998
0.581695974 0.452026010 0.075622998
0.643249989 0.467438012 0.081511997
0.702332020 0.483031988 0.089325003
0.751038015 0.491912991 0.091858000
0.791472971 0.494904011 0.094146997
0.824828982 0.484649986 0.081511997
0.015381000 0.255980998 0.073334001
0.062011998 0.283508003 0.067809999
0.106720001 0.312317014 0.062408000
0.165374994 0.337493986 0.058318999
0.233673006 0.361694008 0.055114999
0.299652010 0.384429991 0.054901000
0.355408013 0.405028999 0.057312001
0.407043010 0.424194008 0.061737001
0.454223990 0.440246999 0.067505002
0.495361000 0.452362001 0.073028997
0.534606993 0.462859988 0.077147998
0.578522027 0.474456996 0.082367003
0.634643972 0.489318997 0.091155998
0.698485970 0.506805003 0.102996998
0.751708984 0.516815007 0.105347000
0.794983029 0.520630002 0.105682001
0.829041004 0.510985970 0.093566999
0.025420999 0.278503001 0.089844003
0.068024002 0.306365997 0.083557002
0.112244003 0.334868997 0.076874003
0.174376994 0.359923989 0.070618004
0.243652001 0.384186000 0.067322001
0.317351997 0.408234000 0.065552004
0.379303008 0.429749012 0.067047000
0.432586998 0.449492991 0.071654998
0.483336985 0.468169987 0.078704998
0.530762017 0.483916998 0.085937999
0.571166992 0.495391995 0.090728998
0.601593018 0.503509998 0.096436001
0.636017025 0.513549984 0.105255000
0.694305003 0.530457020 0.117462002
0.749541998 0.541565001 0.120421998
0.797424018 0.547667980 0.120330997
0.834930003 0.542572021 0.113128997
0.034729000 0.303864002 0.109954998
0.069762997 0.330047995 0.103973001
0.124664001 0.357726991 0.093627997
0.187866002 0.383911014 0.084930003
0.256439000 0.407867014 0.081665002
0.333588004 0.432343006 0.079163000
0.404235989 0.454986989 0.078979000
0.459778011 0.474945009 0.084137000
0.509612978 0.493804991 0.092896000
0.560546994 0.511901975 0.100891002
0.603699028 0.526062012 0.107879996
0.631805003 0.534546018 0.115630999
0.656737983 0.541840017 0.123687997
0.695190012 0.552550972 0.130431995
0.747833014 0.565643013 0.137420997
0.801024973 0.576416016 0.145813003
0.843322992 0.578032970 0.139740005
0.044617001 0.331450999 0.132110998
0.077331997 0.353545994 0.124450997
0.136444002 0.380829006 0.111815996
0.201324001 0.407806009 0.102050997
0.272460997 0.433075011 0.097351000
0.351410002 0.458130002 0.095275998
0.427917004 0.482024997 0.095427997
0.490386993 0.503448009 0.101256996
0.542968988 0.523041010 0.111267000
0.593994021 0.542297006 0.121918000
0.639984012 0.559508979 0.133148000
0.673888981 0.571564019 0.143829003
0.700562000 0.579680979 0.152893007
0.727874994 0.586884022 0.159301996
0.755859017 0.593445003 0.163573995
0.806640983 0.604950011 0.174133003
0.850036979 0.608093023 0.168427005
0.055388998 0.366881996 0.165863007
0.094665997 0.387878001 0.156799003
0.150757000 0.413574010 0.144592002
0.219451994 0.439911008 0.132385001
0.298400998 0.465027004 0.122772001
0.380066007 0.490447998 0.120026000
0.455841005 0.514464974 0.122405998
0.522705019 0.536835015 0.129455999
0.580963016 0.557555974 0.139679000
0.628509998 0.575500011 0.151732996
0.669677973 0.592346013 0.166382000
0.710601985 0.608703971 0.181395993
0.743346989 0.620055974 0.192901999
0.763213992 0.624572992 0.199065998
0.787078977 0.629729986 0.202849999
0.814849973 0.635742009 0.206634998
0.856903017 0.639679015 0.202941999
0.083922997 0.410308987 0.208984002
0.124022998 0.431457996 0.199004993
0.169098005 0.453278005 0.189300999
0.241301998 0.476624012 0.177031994
0.322356999 0.500640988 0.164581001
0.408019990 0.526610970 0.157654002
0.479736000 0.549315989 0.161010996
0.546875000 0.571959972 0.170532003
0.610930979 0.593505979 0.180694997
0.660187006 0.610840023 0.192596003
0.700164974 0.626801014 0.208648995
0.742187977 0.644134998 0.227111995
0.777526975 0.658173025 0.241943002
0.799530029 0.664551020 0.248840004
0.824615002 0.669983029 0.253203988
0.850310981 0.675261974 0.256621987
0.863403022 0.675598025 0.254547000
0.020293999 0.022125000 0.027557001
0.028472999 0.023987001 0.027618000
0.052460000 0.027557001 0.027496001
0.079071000 0.031311002 0.028472999
0.106017999 0.033325002 0.030334000
0.137542993 0.036743000 0.030334000
0.167236000 0.037964001 0.030396000
0.197570994 0.038879000 0.031311002
0.229065001 0.040344000 0.031250000
0.260010004 0.042633001 0.030396000
0.288300008 0.043549001 0.031311002
0.315674007 0.043976001 0.031311002
0.344603986 0.047607001 0.031311002
0.374603003 0.050934002 0.031372000
0.399475008 0.052703999 0.031493999
0.424255013 0.053649999 0.032318000
0.447295994 0.055328000 0.032318000
0.019470001 0.029418999 0.033936001
0.033050999 0.033966001 0.033936001
0.065369003 0.041198999 0.033936001
0.105347000 0.046569999 0.028778000
0.139191002 0.050322998 0.029418999
0.174408004 0.055054002 0.031891000
0.210906997 0.059264999 0.033050999
0.246094003 0.062316999 0.033629999
0.280730993 0.065917999 0.033112001
0.316132009 0.069762997 0.033966001
0.349914998 0.074219003 0.035248000
0.381653011 0.078125000 0.035828002
0.411559999 0.082672000 0.035828002
0.438048989 0.085570998 0.035889000
0.462249994 0.086823002 0.035889000
0.487518013 0.089142002 0.035950001
0.507445991 0.088653997 0.035950001
0.019409001 0.044739000 0.041992001
0.033050999 0.054108001 0.044677999
0.069641002 0.066192999 0.038665999
0.114776999 0.074982002 0.033966001
0.165802002 0.084656000 0.032012999
0.211760998 0.092193998 0.032928001
0.253509998 0.096283004 0.034545999
0.295623988 0.102752998 0.034851000
0.335693002 0.109222002 0.034393001
0.372985989 0.113953002 0.035309002
0.409393013 0.119019002 0.037078999
0.445495993 0.126678005 0.038543999
0.477874994 0.133301005 0.037719999
0.504424989 0.135619998 0.037781000
0.528015018 0.136230007 0.038605001
0.552155018 0.138183996 0.039519999
0.570556998 0.135956004 0.038665999
0.017670000 0.065673999 0.052581999
0.029479999 0.081115998 0.051146999
0.066832997 0.095734000 0.045745999
0.119231999 0.110443003 0.041076999
0.172974005 0.121399000 0.039978001
0.234833002 0.132781997 0.039124001
0.291503996 0.143646002 0.038361002
0.339873999 0.152099997 0.038422000
0.384979010 0.158721998 0.037505999
0.428680003 0.166931003 0.037964001
0.469054997 0.176483005 0.041016001
0.505828977 0.184661999 0.042114001
0.539367974 0.190582007 0.041992001
0.568390012 0.193939000 0.042174999
0.593536019 0.196564004 0.042998999
0.616913021 0.197082996 0.044098001
0.631560981 0.189178005 0.041351002
0.008026000 0.089873999 0.058350001
0.028960999 0.110168003 0.053040002
0.069610998 0.128264993 0.047821000
0.123199001 0.147765994 0.044829998
0.171783000 0.159546003 0.044677999
0.232879996 0.171508998 0.043853998
0.302765012 0.186004996 0.043060001
0.365112007 0.199096993 0.043609999
0.415924013 0.208862007 0.043609999
0.463593006 0.218688995 0.044098001
0.510619998 0.230346993 0.046813998
0.551361024 0.239929006 0.048278999
0.584685981 0.246032998 0.049011000
0.614471018 0.250274986 0.049927000
0.643523991 0.253387004 0.049927000
0.669494987 0.253906012 0.050110001
0.681671023 0.242798001 0.047545999
0.001160000 0.116637997 0.057372998
0.034607001 0.144470006 0.051422000
0.081696004 0.166869998 0.046905998
0.137115002 0.191101000 0.044312000
0.186615005 0.205750003 0.045807000
0.235565007 0.214844003 0.048035000
0.300323009 0.227234006 0.048889000
0.372803003 0.243927002 0.050415002
0.436522990 0.258605987 0.050873000
0.489136010 0.269928008 0.052002002
0.536530018 0.280975014 0.055817001
0.580811024 0.291321009 0.057953000
0.619934022 0.299041986 0.057250999
0.651367009 0.303406000 0.058318999
0.679687977 0.304962009 0.057677999
0.708862007 0.306212991 0.058104999
0.723114014 0.294373006 0.054962002
0.000000000 0.143555000 0.056334998
0.046661001 0.181731999 0.051086001
0.093842000 0.206787005 0.047485001
0.158112004 0.234038994 0.044098001
0.216339007 0.253876001 0.044952001
0.258087009 0.262145996 0.049164001
0.303710997 0.269805998 0.053893998
0.368346989 0.284179986 0.057158999
0.439819008 0.300873011 0.059204001
0.502106011 0.315216005 0.061584000
0.554046988 0.327728003 0.065948002
0.600067019 0.338654011 0.068085000
0.642426014 0.347167999 0.067596003
0.679077029 0.352508992 0.068695001
0.708130002 0.352539003 0.067016996
0.738341987 0.354065001 0.067474000
0.756958008 0.342896014 0.062164001
0.000000000 0.168120995 0.058380000
0.054901000 0.213806003 0.054382000
0.103148997 0.240417004 0.050110001
0.172851995 0.268433005 0.046569999
0.238892004 0.292937994 0.045531999
0.286682010 0.305938989 0.050689999
0.323058993 0.312041998 0.057647999
0.369567990 0.321747005 0.062194999
0.432007015 0.335418999 0.065154999
0.498566002 0.350219995 0.069182999
0.559508979 0.365204006 0.073821999
0.611419976 0.378021002 0.077575997
0.655089974 0.387207001 0.079986997
0.694458008 0.393462986 0.081329003
0.727936029 0.393126994 0.076110996
0.760070980 0.393462986 0.074799001
0.780640006 0.383484006 0.070464998
0.002838000 0.193817005 0.062224999
0.056426998 0.240234002 0.060729999
0.112029999 0.268279999 0.055633999
0.180236995 0.296539009 0.051422000
0.249663994 0.322661996 0.050446000
0.309264988 0.342040986 0.053344999
0.352966011 0.352874994 0.059386998
0.390471995 0.360992014 0.065886997
0.434601009 0.370604992 0.070770003
0.491607994 0.382629007 0.076384999
0.556122005 0.397552013 0.082886003
0.615294993 0.411437988 0.088440001
0.662720025 0.421600014 0.092133000
0.704192996 0.428954989 0.092987001
0.740203977 0.428406000 0.086792000
0.774994016 0.426757991 0.084441997
0.798003972 0.415710002 0.077362001
0.012360000 0.220032007 0.068726003
0.057647999 0.264586985 0.070373997
0.117156997 0.293639988 0.064788997
0.186127007 0.322234988 0.059052002
0.258758992 0.348511010 0.057007000
0.324218988 0.370972008 0.058410998
0.379119992 0.387755990 0.063079998
0.421967000 0.399322987 0.069091998
0.456207007 0.407501012 0.076110996
0.495635986 0.416411996 0.084624998
0.551482975 0.429291010 0.093627997
0.613372982 0.443298012 0.100249998
0.666015983 0.454436988 0.104248002
0.712311029 0.462891012 0.106628001
0.750000000 0.463073999 0.102020003
0.785461009 0.460480005 0.100464001
0.813445985 0.445892006 0.085297003
0.018158000 0.242767006 0.078521997
0.061829001 0.287476003 0.082184002
0.117554002 0.316650003 0.076660000
0.191650003 0.345519990 0.068726003
0.269836009 0.372406006 0.064575002
0.334564000 0.394318014 0.065825999
0.394867003 0.413848996 0.068908997
0.447723001 0.430083990 0.073821999
0.485291004 0.441071004 0.082611002
0.514679015 0.449005008 0.093810998
0.553466976 0.459075987 0.103729002
0.608336985 0.472443014 0.111511000
0.665192008 0.485045999 0.118621998
0.716156006 0.494414985 0.124603003
0.757996023 0.496948004 0.120513998
0.794799984 0.495575011 0.119475998
0.825775027 0.479155988 0.098632999
0.017212000 0.263184011 0.091399997
0.066863999 0.309570014 0.095856003
0.120330997 0.338714987 0.088988997
0.198456004 0.367401004 0.079833999
0.281890988 0.395172000 0.073517002
0.350647002 0.417418987 0.073853001
0.411864996 0.436980993 0.077087000
0.469238013 0.455902010 0.082184002
0.514129996 0.471038997 0.091949001
0.546020985 0.481079012 0.104858004
0.574432015 0.489044011 0.115630999
0.610687017 0.498901010 0.124237001
0.661864996 0.511322021 0.134552002
0.715637028 0.522216976 0.143493995
0.760497987 0.526489019 0.139008000
0.802887022 0.528442025 0.137420997
0.834380984 0.514281988 0.120117001
0.026276000 0.286132991 0.108551003
0.072540000 0.334259003 0.116333000
0.130523995 0.362915009 0.106201001
0.208313003 0.391326994 0.095673002
0.294128001 0.419066995 0.088623002
0.373016000 0.443145990 0.086456001
0.437622011 0.463225991 0.089507997
0.493286014 0.481689006 0.096190996
0.542632997 0.499390006 0.106078997
0.581726015 0.513184011 0.119507000
0.610015988 0.521728992 0.132110998
0.633635998 0.528442025 0.141875997
0.664581001 0.537109017 0.151794001
0.712189019 0.547484994 0.161133006
0.759552002 0.553101003 0.158020005
0.808624029 0.558745980 0.159363002
0.842315972 0.550109982 0.146514997
0.036346000 0.312804997 0.129791006
0.084960997 0.363220006 0.144592002
0.146239996 0.391478986 0.132385001
0.220183998 0.418976009 0.120575003
0.305115014 0.445037991 0.112488002
0.387634009 0.469788015 0.109771997
0.460449010 0.491333008 0.110748000
0.515442014 0.508513987 0.117248997
0.564666986 0.526244998 0.127593994
0.610535026 0.543578982 0.140349999
0.643127024 0.555023015 0.154144004
0.666351020 0.562102973 0.165894002
0.689911008 0.569060981 0.175720006
0.716674984 0.575744987 0.184052005
0.761229992 0.582489014 0.187346995
0.813292980 0.590301991 0.192322001
0.851471007 0.587707996 0.176452994
0.046569999 0.343688995 0.154694006
0.107024997 0.398804009 0.179076999
0.170653999 0.427338004 0.166015998
0.244628996 0.452971995 0.153075993
0.330199987 0.477631003 0.143767998
0.413787991 0.502106011 0.141051993
0.489014000 0.524047971 0.142303005
0.551056027 0.542999029 0.148589998
0.603424013 0.561401010 0.159942999
0.647460997 0.578429997 0.173370004
0.681457996 0.591583014 0.187103003
0.710083008 0.601989985 0.200896993
0.735107005 0.609557986 0.211700007
0.750945985 0.612761974 0.218353003
0.768950999 0.615630984 0.224273995
0.817718983 0.623749018 0.230987996
0.857177973 0.622986019 0.215210006
0.060150001 0.381561011 0.189330995
0.137268007 0.442139000 0.221160993
0.204009995 0.470245004 0.207855001
0.283356011 0.493530005 0.194426998
0.370696992 0.517395020 0.183136001
0.450989008 0.540039003 0.179718003
0.518768013 0.560028017 0.183166996
0.583984017 0.579650998 0.189147994
0.640990973 0.598389030 0.198730007
0.680297971 0.613281012 0.212249994
0.711211979 0.626007020 0.227782995
0.744414985 0.639069021 0.243256003
0.772765994 0.648773015 0.255524009
0.788330019 0.651732981 0.262329012
0.802825987 0.653900027 0.268584996
0.825713992 0.658051014 0.272949010
0.863463998 0.659148991 0.264739990
0.088042997 0.425200999 0.234619007
0.174103007 0.488251001 0.268584996
0.236083999 0.511658013 0.261840999
0.318114996 0.534362972 0.247620001
0.405883998 0.557250977 0.234313995
0.481842011 0.578185976 0.228820994
0.549773991 0.598236024 0.232910007
0.616302013 0.618010998 0.240234002
0.673705995 0.635802984 0.249512002
0.715728998 0.650574028 0.263000011
0.749419987 0.663909972 0.280090004
0.780609012 0.676604986 0.297394007
0.806334972 0.686797976 0.310180992
0.828064024 0.693633974 0.318877995
0.843994021 0.696166992 0.325866997
0.857361019 0.697112978 0.327300996
0.870788991 0.697356999 0.324981987
0.020354999 0.022186000 0.037659001
0.027679000 0.024048001 0.037659001
0.043915000 0.026703000 0.038361002
0.067870997 0.029602000 0.041138001
0.097686999 0.033050999 0.042174999
0.129150003 0.035767000 0.043915000
0.161101997 0.036162999 0.043915000
0.192656994 0.036986999 0.042998999
0.223663002 0.038483001 0.042174999
0.252959996 0.039763998 0.041260000
0.280487001 0.039856002 0.040801998
0.307098001 0.040679999 0.040344000
0.335509986 0.043457001 0.040344000
0.362426996 0.045410000 0.040344000
0.385742009 0.046326000 0.038605001
0.410248011 0.047150001 0.038605001
0.433104992 0.048950002 0.037659001
0.021149000 0.030273000 0.045653999
0.032074001 0.034851000 0.049927000
0.052765001 0.038543999 0.049286000
0.091949001 0.042938001 0.044891000
0.127196997 0.045807000 0.044495001
0.161559999 0.049346998 0.046294998
0.197968006 0.051941000 0.045134999
0.232544005 0.053925000 0.044769000
0.263458014 0.054016002 0.044769000
0.295807004 0.056458000 0.043976001
0.328186005 0.060302999 0.043060001
0.356781006 0.062743999 0.043060001
0.381621987 0.062224999 0.043120999
0.405640006 0.063721001 0.042938001
0.428618997 0.065277003 0.040282998
0.452392995 0.066588998 0.039581001
0.470824987 0.064575002 0.038665999
0.021149000 0.042877000 0.056488000
0.032134999 0.051727001 0.061951000
0.061797999 0.062560998 0.064727999
0.106688999 0.072205000 0.062316999
0.156096995 0.077179000 0.055755999
0.200774997 0.082030997 0.055298001
0.245269999 0.087554999 0.056061000
0.289398015 0.091766000 0.055084001
0.328826994 0.095000997 0.054839998
0.363799989 0.099151999 0.055542000
0.395538002 0.102875002 0.054625999
0.423705995 0.104278997 0.052521002
0.451599002 0.106659003 0.051787999
0.475403011 0.107330002 0.050934002
0.496277004 0.107605003 0.049164001
0.513275027 0.103942998 0.045715000
0.532958984 0.101958998 0.045745999
0.020385999 0.063506998 0.069824003
0.028656000 0.078125000 0.069426998
0.063231997 0.094543003 0.075409003
0.112427004 0.108672999 0.073028997
0.167754993 0.118408002 0.067566000
0.229461998 0.129028007 0.063965000
0.287750006 0.137207001 0.062469002
0.336333990 0.142058998 0.062256001
0.380066007 0.147400007 0.062438998
0.421967000 0.154633000 0.062469002
0.457123011 0.158660993 0.060851999
0.484984994 0.159637004 0.059142999
0.513641000 0.162964001 0.059570000
0.540252984 0.164459005 0.058044001
0.562592030 0.163451999 0.055695001
0.577575982 0.156676993 0.051056001
0.593352973 0.148926005 0.049346998
0.015015000 0.088988997 0.075622998
0.026703000 0.107543997 0.072936997
0.065186001 0.132110998 0.077239998
0.116760001 0.149414003 0.076537997
0.176514000 0.164001003 0.077209003
0.239746004 0.175567999 0.075378001
0.309325993 0.187866002 0.072632000
0.370757997 0.198578000 0.072448999
0.419860989 0.206879005 0.072815001
0.465209991 0.214264005 0.071654998
0.506317019 0.219817996 0.069091998
0.539641976 0.223816007 0.068236999
0.569702029 0.228485003 0.069458000
0.596496999 0.228760004 0.067443997
0.621613026 0.225250006 0.062500000
0.638733029 0.216949001 0.058075000
