public/lut/129.cube
TITLE "17x17x17 Adobe/IRIDAS cube 3D LUT exported with GrossGrade v0.2.2 (beta) 64 bit"
DOMAIN_MIN 0 0 0
DOMAIN_MAX 1 1 1
LUT_3D_SIZE 17
0.029967999 0.029967999 0.029967999
0.075866997 0.033050999 0.033050999
0.122161999 0.037659001 0.037659001
0.169556007 0.042236000 0.042236000
0.218994007 0.047943000 0.047240999
0.269805998 0.054320998 0.052581999
0.321837991 0.060973998 0.058196999
0.376495004 0.067443997 0.064025998
0.434875011 0.075165004 0.070800997
0.495696992 0.083434999 0.078979000
0.557494998 0.093108997 0.087798998
0.617919981 0.103087999 0.097198002
0.674866021 0.114380002 0.107422002
0.728606999 0.128174007 0.117919996
0.781403005 0.144226000 0.129455999
0.833893001 0.162476003 0.142212003
0.877624989 0.178924993 0.153870001
0.035399999 0.076812997 0.036132999
0.077758998 0.077758998 0.036926001
0.122253001 0.079712003 0.039368000
0.169646993 0.083343998 0.043823000
0.218903005 0.087707996 0.048645001
0.269562006 0.092345998 0.053833000
0.321624994 0.097228996 0.059174001
0.376433998 0.102844000 0.064911000
0.434814006 0.108916998 0.071563996
0.495880008 0.115997002 0.079650998
0.557677984 0.124268003 0.088379003
0.618041992 0.132903993 0.097992003
0.675171018 0.143096998 0.108124003
0.728942990 0.155579001 0.118621998
0.781647027 0.170349002 0.130066007
0.834228992 0.187163994 0.143035993
0.877776980 0.202423006 0.154633000
0.042969000 0.122893997 0.042969000
0.082001001 0.122893997 0.043060001
0.123810001 0.123504996 0.045196999
0.169464007 0.125396997 0.047974002
0.218262002 0.128754005 0.052490000
0.268768013 0.132355005 0.056976002
0.321289003 0.136078000 0.062073000
0.376433998 0.140320003 0.067534998
0.435272008 0.145142004 0.074097000
0.496856987 0.151215002 0.081696004
0.559143007 0.158234000 0.090728998
0.619414985 0.165894002 0.100281000
0.676117003 0.174926996 0.110260002
0.730041981 0.186095998 0.120819002
0.782958984 0.199677005 0.132446006
0.835632026 0.215545997 0.145172000
0.878479004 0.229369998 0.156586006
0.050078999 0.167297006 0.050629001
0.087311000 0.167297006 0.050629001
0.126372993 0.167297006 0.051971000
0.168883994 0.167754993 0.053801998
0.216095001 0.169616997 0.057495002
0.266387999 0.172301993 0.061646000
0.318816990 0.175231993 0.066132002
0.375030994 0.178618997 0.071227998
0.435516000 0.182648003 0.077698000
0.499083996 0.188049003 0.085541002
0.562560976 0.194365993 0.094604000
0.622955024 0.201446995 0.104278997
0.679320991 0.209442005 0.114105001
0.732879996 0.219420999 0.124664001
0.785857975 0.231964007 0.136444002
0.838500977 0.246765003 0.149139002
0.879700005 0.259398997 0.160278007
0.058196999 0.210388005 0.058655001
0.092896000 0.210114002 0.058807001
0.129455999 0.210082993 0.059845001
0.169036999 0.210114002 0.061096001
0.213593006 0.210480005 0.063812003
0.262207001 0.211792007 0.067107998
0.314819008 0.214081004 0.070923001
0.371825993 0.217041001 0.076110996
0.434112996 0.221008003 0.082520001
0.500275016 0.226288006 0.090636998
0.566254020 0.232391000 0.100005999
0.628081977 0.239135996 0.110045999
0.684356987 0.246765003 0.119994998
0.737671018 0.256072998 0.130646005
0.790466011 0.268218994 0.142455995
0.842194021 0.282927990 0.155425996
0.881500006 0.294524997 0.166106999
0.066803001 0.252258003 0.067718998
0.099212997 0.252166986 0.067718998
0.133606002 0.251740009 0.068236999
0.170012996 0.251617014 0.069701999
0.211243004 0.251648009 0.071654998
0.258087009 0.251861989 0.074219003
0.309967011 0.252746999 0.077301003
0.367888987 0.255219012 0.081817999
0.432312012 0.259552002 0.088531002
0.501281977 0.265381008 0.096863002
0.570128977 0.272125006 0.106780998
0.633666992 0.279143989 0.117248997
0.690551996 0.286590993 0.127746999
0.743987978 0.296021014 0.138671994
0.796997011 0.308593988 0.150940001
0.847838998 0.323608011 0.164063007
0.885315001 0.334473014 0.174560994
0.075897001 0.293029994 0.076720998
0.105926998 0.292786002 0.077026002
0.137970001 0.292418987 0.077637002
0.171661004 0.292084008 0.078583002
0.209594995 0.292510986 0.080475003
0.253632009 0.292694002 0.082794003
0.305144995 0.292876989 0.085326999
0.364502013 0.294312000 0.089263998
0.431885004 0.298584014 0.095734000
0.504455984 0.305510998 0.104828000
0.576049984 0.313567996 0.115601003
0.640990973 0.321747005 0.126647994
0.698180974 0.329926014 0.137633994
0.752197027 0.340332001 0.149323002
0.805755973 0.354369998 0.162567005
0.854950011 0.370209008 0.176085994
0.891692996 0.380890012 0.186950997
0.085541002 0.333678991 0.087554999
0.113372996 0.333465993 0.087554999
0.143096998 0.333068997 0.088013001
0.174346998 0.332733005 0.088806003
0.208679006 0.333068997 0.090392999
0.249390006 0.334502995 0.092834003
0.299744010 0.335875988 0.095550999
0.362121999 0.337615997 0.099365003
0.433990002 0.341187000 0.105621003
0.511078000 0.348540992 0.115326002
0.585968018 0.358336985 0.127013996
0.651978016 0.368317008 0.138977006
0.709351003 0.378295988 0.150940001
0.763701975 0.390381008 0.163665995
0.816192985 0.405791998 0.177521005
0.863159001 0.422363013 0.191650003
0.899536014 0.432617009 0.203094006
0.096496999 0.375853986 0.100493997
0.122253001 0.375762999 0.100493997
0.149444997 0.375427008 0.100830004
0.178589001 0.375214010 0.101256996
0.209839001 0.375640988 0.102417000
0.246215999 0.378113002 0.104675002
0.294524997 0.382537991 0.108185001
0.359833002 0.387145996 0.113311999
0.438293010 0.391173989 0.119873002
0.521453977 0.398254007 0.129851997
0.600188971 0.409667999 0.142761007
0.667388976 0.421508998 0.155791998
0.724976003 0.433167011 0.168578997
0.778473020 0.446594000 0.182068005
0.827515006 0.462523997 0.196198002
0.872253001 0.478637993 0.210418999
0.907805979 0.486541986 0.221709996
0.109833002 0.421905994 0.116241001
0.132964998 0.421813995 0.116241001
0.157989994 0.421570003 0.116547003
0.184753001 0.421508998 0.116881996
0.213593006 0.421997011 0.117614999
0.246215999 0.424865991 0.119263001
0.291076988 0.432678014 0.123839997
0.357605010 0.443114996 0.131226003
0.444153011 0.450928003 0.140015006
0.535125971 0.457794011 0.150848001
0.617003977 0.469116002 0.164306998
0.686096013 0.482726991 0.178130999
0.743682981 0.495209008 0.191528007
0.794250011 0.508728027 0.205170006
0.839661002 0.524109006 0.218933001
0.882781982 0.538146973 0.232635006
0.917052984 0.542450011 0.242798001
0.126525998 0.473969012 0.136870995
0.147765994 0.473906994 0.137085006
0.170349002 0.473724008 0.136962995
0.194823995 0.473632991 0.136962995
0.221466005 0.474213004 0.137482002
0.251098990 0.476990014 0.138611004
0.291045994 0.486328006 0.143158004
0.355590999 0.503356993 0.153228998
0.450684011 0.521422982 0.167511001
0.551422000 0.530822992 0.180907995
0.635344982 0.537415028 0.193054006
0.705200016 0.550078988 0.206756994
0.762512028 0.562865973 0.220183998
0.809234977 0.575133979 0.232758000
0.852599978 0.589142025 0.246185005
0.894684017 0.601013005 0.259368986
0.927856028 0.602814019 0.268584996
0.149597004 0.533843994 0.164489999
0.168395996 0.533813000 0.164489999
0.188812003 0.533538997 0.164245993
0.211060002 0.533294976 0.163910002
0.235351995 0.533783019 0.163910002
0.262603998 0.536072016 0.164276004
0.297028005 0.544463992 0.167632997
0.356445014 0.564697027 0.178893998
0.457397014 0.594268978 0.199707001
0.568695009 0.612793028 0.218353003
0.655457020 0.614898980 0.229126006
0.723052979 0.619843006 0.240081996
0.778228998 0.630523980 0.252074987
0.822906017 0.641541004 0.263733000
0.865112007 0.653473020 0.276488990
0.905731022 0.663848996 0.289398015
0.937653005 0.664947987 0.298339993
0.178161994 0.598479986 0.198119998
0.194823995 0.598267019 0.197968006
0.213135004 0.597899973 0.197723001
0.233092993 0.597594976 0.197113007
0.255187988 0.597809017 0.196564004
0.280090004 0.599425972 0.196014002
0.310211003 0.605956972 0.197723001
0.365875006 0.625092030 0.208313003
0.466948986 0.657805979 0.231170997
0.583465993 0.685822010 0.255035013
0.674255013 0.692656994 0.267883003
0.739745975 0.688750982 0.274719000
0.790130973 0.691742003 0.283630013
0.833343983 0.700438976 0.294312000
0.874572992 0.711090028 0.306641012
0.913268983 0.720305979 0.319031000
0.943695009 0.721862972 0.328186005
0.209960997 0.659606993 0.233367994
0.224364996 0.659331977 0.233307004
0.240264997 0.658936024 0.232879996
0.258179009 0.658661008 0.232329994
0.278075993 0.658783019 0.231323004
0.300476015 0.659729004 0.229828000
0.328521997 0.665192008 0.230437994
0.384032995 0.683533013 0.240234002
0.481415004 0.714752018 0.262695014
0.595611989 0.744476020 0.288848996
0.688171029 0.756560981 0.304473996
0.752776980 0.753325999 0.309296012
0.803040028 0.749939024 0.315429986
0.841063976 0.750916004 0.322876006
0.880463004 0.759827018 0.334533989
0.918395996 0.769379020 0.347351015
0.947570980 0.771270990 0.356781006
0.244385004 0.718750000 0.270996004
0.256500006 0.718474984 0.270720989
0.270141989 0.717895985 0.270172000
0.285858005 0.717589974 0.269196004
0.303833008 0.717621028 0.267517000
0.324218988 0.718322992 0.265015006
0.349608988 0.722838998 0.264434993
0.405487001 0.740294993 0.274078012
0.502013981 0.769562006 0.296050996
0.612549007 0.798370004 0.322937012
0.704406977 0.814880013 0.342620999
0.769896984 0.815643013 0.349518001
0.817505002 0.809265018 0.350739002
0.854309022 0.805908024 0.355713010
0.886291981 0.804961979 0.363036990
0.923065007 0.813843012 0.375793010
0.951233029 0.814911008 0.384826988
0.280425996 0.776122987 0.310669005
0.290436000 0.775940001 0.310425013
0.301970989 0.775512993 0.309722990
0.315795988 0.775359988 0.307983011
0.332183987 0.775542974 0.305083990
0.351074010 0.776367009 0.301696986
0.375548989 0.780211985 0.300476015
0.435088992 0.797362983 0.310882986
0.532500982 0.825133979 0.333526999
0.637268007 0.852721989 0.360747993
0.724273980 0.871398985 0.383179009
0.788909972 0.875792980 0.393371999
0.835784972 0.869597971 0.392913997
0.870544016 0.862823009 0.393279999
0.899994016 0.858672976 0.397949010
0.926849008 0.854828000 0.404419005
0.954955995 0.855560005 0.413574010
0.312041998 0.819031000 0.345824987
0.319763005 0.818848014 0.345519990
0.329346001 0.818633974 0.344208002
0.341248006 0.818665028 0.341766000
0.356110007 0.819000006 0.337859988
0.373046994 0.819549978 0.333496004
0.397552013 0.822937012 0.332397014
0.457213998 0.838500977 0.342743009
0.549896002 0.864226997 0.364960015
0.645752013 0.890807986 0.391478986
0.727416992 0.910736024 0.414550990
0.794494987 0.920044005 0.430756003
0.846436024 0.919891000 0.438721001
0.880797982 0.912322998 0.435851991
0.906067014 0.902221978 0.429596007
0.933318973 0.898253977 0.436217993
0.958557010 0.895264030 0.443542004
0.031555001 0.031555001 0.074401997
0.076324001 0.033844002 0.076355003
0.122130997 0.037689000 0.078704998
0.169646993 0.042358000 0.082001001
0.219542995 0.048583999 0.085937999
0.269928008 0.054504000 0.089538999
0.322326988 0.060973998 0.093718998
0.377045006 0.067688003 0.097992003
0.435088992 0.075165004 0.103546001
0.496123999 0.083861999 0.110290997
0.557860970 0.093108997 0.117950000
0.618134022 0.103087999 0.126099005
0.675200999 0.114380002 0.134887993
0.728911996 0.128174007 0.144164994
0.781708002 0.144256994 0.154327005
0.834197998 0.162476003 0.165832996
0.877838016 0.179352000 0.176300004
0.036162999 0.077758998 0.077758998
0.077789001 0.077789001 0.077789001
0.122253001 0.079712003 0.079712003
0.169586003 0.083251998 0.082886003
0.218566999 0.087279998 0.086060002
0.269378990 0.091949001 0.089934997
0.321503013 0.096832000 0.093750000
0.376251012 0.102264002 0.098357998
0.434509009 0.108397998 0.103942998
0.495696992 0.115662001 0.110625997
0.557587028 0.123657003 0.117950000
0.617828012 0.132323995 0.126282007
0.674896002 0.142272994 0.134887993
0.728729010 0.154845998 0.144226000
0.781463981 0.169646993 0.154541001
0.834044993 0.186554000 0.166045994
0.877686024 0.201842993 0.176300004
0.042969000 0.122893997 0.082001001
0.082001001 0.122893997 0.082001001
0.123566002 0.123566002 0.082947001
0.169433996 0.125396997 0.085175000
0.217896000 0.128447995 0.088592999
0.268615991 0.132049993 0.091980003
0.320984006 0.135741994 0.095702998
0.376098990 0.139923006 0.099945001
0.434783995 0.144867003 0.105377004
0.496398985 0.150786996 0.112000003
0.558624029 0.157622993 0.119567998
0.618987978 0.165344000 0.127930000
0.675903022 0.174254999 0.136596993
0.729797006 0.185454994 0.146056995
0.782593012 0.199065998 0.156311005
0.835296988 0.214995995 0.167907998
0.878296018 0.228882000 0.178009003
0.050629001 0.167328000 0.087371998
0.086914003 0.167083994 0.087341003
0.126372993 0.167297006 0.087798998
0.168883994 0.167786002 0.089478001
0.216248006 0.169403002 0.091980003
0.266234994 0.172058001 0.095183998
0.318695009 0.174805000 0.098480001
0.374846995 0.178222999 0.102569997
0.435211003 0.182251006 0.108124003
0.498535007 0.187469006 0.114899002
0.561950982 0.193877995 0.122741997
0.622375011 0.200866997 0.131194994
0.678893983 0.208893001 0.139923006
0.732544005 0.218842000 0.149260998
0.785552979 0.231323004 0.159667999
0.838226020 0.246154994 0.171265006
0.879669011 0.258727998 0.181030005
0.058655001 0.210418999 0.093200997
0.092804000 0.210388005 0.093200997
0.129455999 0.210082993 0.093627997
0.168975994 0.210235998 0.094818003
0.213593006 0.210480005 0.096436001
0.262360007 0.211760998 0.098907001
0.314819008 0.213898003 0.102202997
0.371886998 0.216796994 0.106201001
0.434020996 0.220580995 0.111602999
0.500060976 0.225830004 0.118835002
0.565918028 0.231903002 0.126862004
0.627533019 0.238525003 0.135773003
0.683929026 0.246185005 0.144622996
0.737244010 0.255401999 0.154113993
0.790069997 0.267517000 0.164734006
0.841948986 0.282195985 0.176543996
0.881470025 0.293792993 0.186187997
0.067169003 0.252319008 0.099884003
0.099120997 0.252166986 0.099609002
0.133301005 0.251801014 0.099976003
0.169586003 0.251525998 0.100739002
0.211120993 0.251801014 0.102264002
0.257842988 0.251740009 0.104156002
0.309937000 0.252532989 0.106628001
0.368041992 0.255035013 0.110413000
0.432404011 0.259247005 0.116057999
0.501190007 0.264892995 0.123595998
0.569976985 0.271605998 0.132568002
0.633453012 0.278472990 0.141937003
0.690155029 0.285950005 0.151093006
0.743622005 0.295287997 0.160950005
0.796599984 0.307799995 0.172179997
0.847504020 0.322845012 0.184143007
0.885070980 0.333739996 0.193572998
0.075745001 0.293152004 0.107024997
0.105651997 0.292786002 0.106659003
0.137695000 0.292418987 0.107024997
0.171233997 0.291992009 0.107697003
0.209259003 0.292389005 0.109131001
0.253235012 0.292602986 0.110900998
0.304962009 0.292816013 0.112884998
0.364502013 0.294220001 0.116149999
0.432007015 0.298400998 0.121703997
0.504517019 0.305206001 0.130005002
0.575989008 0.313170999 0.139771000
0.640900016 0.321166992 0.149902001
0.697937012 0.329254001 0.159789994
0.751861989 0.339538991 0.170441002
0.805328012 0.353545994 0.182526007
0.854767025 0.369385004 0.195068002
0.891265988 0.380005002 0.204742000
0.085541002 0.333801001 0.115509003
0.113036998 0.333557010 0.115172997
0.142853007 0.333068997 0.115295000
0.174133003 0.332641989 0.115874998
0.208313003 0.332976997 0.116943002
0.248870999 0.334441990 0.119048998
0.299376994 0.335815012 0.121307001
0.361968994 0.337554991 0.124389999
0.434020996 0.341187000 0.129973993
0.511200011 0.348450005 0.138702005
0.585999012 0.358031988 0.149689004
0.651854992 0.367798001 0.160735995
0.709167004 0.377624989 0.171570003
0.763458014 0.389618009 0.183228001
0.815886974 0.404967993 0.196289003
0.862976015 0.421539009 0.209289998
0.899291992 0.431823999 0.219634995
0.096709996 0.376129001 0.126190007
0.121918000 0.375824004 0.125762999
0.149200007 0.375488013 0.125916004
0.178192005 0.375153005 0.126190007
0.209351003 0.375519007 0.127045006
0.245697007 0.377929986 0.128876001
0.293945014 0.382384986 0.131926998
0.359467000 0.387053996 0.136199996
0.438201994 0.391205013 0.142272994
0.521515012 0.398162991 0.151549995
0.600220025 0.409424007 0.163573995
0.667328000 0.421081990 0.175842002
0.724822998 0.432678014 0.187744007
0.778380990 0.446013987 0.200286999
0.827392995 0.461791992 0.213440001
0.872070014 0.477874994 0.226685002
0.907745004 0.485900998 0.236908004
0.109833002 0.422302008 0.140166998
0.132843003 0.421967000 0.139617994
0.157745004 0.421660990 0.139495999
0.184508994 0.421508998 0.139617994
0.213195994 0.421875000 0.140015006
0.245605007 0.424683005 0.141326994
0.290374994 0.432433993 0.145264000
0.356842011 0.442963004 0.152099997
0.443726003 0.450866997 0.160552993
0.535125971 0.457794011 0.170715004
0.617065012 0.468903005 0.183349997
0.686065972 0.482421994 0.196472004
0.743591011 0.494690001 0.209044993
0.794158995 0.508179009 0.221649006
0.839568973 0.523499012 0.234650001
0.882690012 0.537598014 0.247437000
0.917083979 0.541840017 0.256561011
0.126708999 0.474518001 0.158843994
0.147490993 0.474121004 0.158112004
0.170104995 0.473845989 0.157867000
0.194518998 0.473724008 0.157775998
0.221100003 0.474213004 0.157775998
0.250701994 0.476898015 0.158538997
0.290436000 0.486023009 0.162505999
0.354584008 0.502991021 0.172058001
0.449799001 0.521210015 0.185974002
0.551117003 0.530884027 0.198822007
0.635344982 0.537445009 0.210357994
0.705231011 0.549956977 0.223235995
0.762543023 0.562500000 0.235808998
0.809203982 0.574738026 0.247558996
0.852599978 0.588715017 0.260223001
0.894622982 0.600555003 0.272583008
0.927794993 0.602263987 0.280730993
0.149657995 0.534515023 0.184235007
0.168152004 0.534057975 0.183594003
0.188507006 0.533690989 0.183105007
0.210785002 0.533508003 0.182494998
0.235045999 0.533783019 0.182190001
0.262145996 0.535950005 0.182281002
0.296355993 0.544128001 0.184966996
0.355286002 0.564177990 0.195586994
0.455962986 0.593872011 0.215881005
0.567749023 0.612700999 0.234099999
0.655211985 0.614960015 0.244385004
0.723052979 0.619843006 0.254821986
0.778442025 0.630463004 0.266144007
0.822997987 0.641327024 0.276885986
0.865020990 0.653198004 0.288787991
0.905700982 0.663604975 0.300963998
0.937653005 0.664611995 0.308990002
0.178467005 0.598999023 0.215607002
0.194823995 0.598572016 0.214904994
0.212890998 0.598083019 0.214386001
0.232941002 0.597778022 0.213623002
0.254943997 0.597931027 0.212738007
0.279601991 0.599364996 0.211792007
0.309386998 0.605560005 0.212920994
0.364441007 0.624419987 0.222747996
0.465088010 0.657104015 0.245148003
0.582062006 0.685486019 0.268768013
0.673798025 0.692718983 0.281342000
0.739684999 0.688872993 0.287566990
0.790283024 0.691771984 0.295684993
0.833405018 0.700469971 0.305756003
0.874512017 0.710999012 0.317200005
0.913361013 0.720184028 0.328918010
0.943817019 0.721648991 0.337219000
0.210326999 0.660338998 0.248962000
0.224335000 0.659789979 0.248016000
0.240112007 0.659179986 0.247437000
0.257903993 0.658843994 0.246674001
0.277832001 0.658936024 0.245422006
0.300139993 0.659789979 0.243652001
0.327850014 0.665009022 0.243682995
0.382660002 0.682982981 0.252716005
0.479584008 0.714142025 0.274536014
0.594115973 0.744109988 0.300384998
0.687530994 0.756622016 0.315735012
0.752624989 0.753479004 0.320098996
0.803101003 0.749939024 0.325623006
0.841033995 0.750945985 0.332397014
0.880432010 0.759765983 0.343383998
0.918456972 0.769348025 0.355408013
0.947692990 0.771148980 0.364136010
0.244719997 0.719390988 0.284240991
0.256469995 0.718872011 0.283324987
0.270020008 0.718200982 0.282561988
0.285553008 0.717742980 0.281372011
0.303588986 0.717864990 0.279448986
0.323913991 0.718445003 0.276764005
0.349029988 0.722564995 0.275512993
0.404022008 0.739684999 0.284332007
0.500030994 0.768921018 0.305756003
0.610992014 0.798035026 0.332336009
0.703674018 0.814788997 0.351929009
0.769562006 0.815825999 0.358397990
0.817444026 0.809387028 0.358978003
0.854369998 0.805939019 0.363341987
0.886382997 0.805114985 0.370025992
0.923187017 0.813872993 0.382050008
0.951233029 0.814911008 0.390442014
0.280701011 0.776642025 0.321655005
0.290282995 0.776215017 0.320800990
0.301726997 0.775786996 0.319916010
0.315551996 0.775542974 0.317992985
0.331939995 0.775757015 0.314940989
0.350677013 0.776427984 0.311127007
0.374695003 0.779937983 0.309325993
0.433257997 0.796752989 0.318969995
0.530426025 0.824523985 0.341248006
0.635712028 0.852325022 0.368041992
0.723389030 0.871185005 0.390228003
0.788513005 0.875762999 0.400177002
0.835663021 0.869812012 0.399230987
0.870482981 0.863007009 0.398956001
0.900084972 0.858856022 0.403014988
0.926971018 0.854919016 0.408813000
0.955078006 0.855530024 0.417236000
0.312256008 0.819489002 0.354553014
0.319640994 0.819153011 0.353668004
0.329131991 0.818908989 0.352324992
0.340820014 0.818665028 0.349579006
0.355834991 0.819091976 0.345459014
0.372772008 0.819671988 0.340759009
0.396667004 0.822844982 0.338988990
0.455291986 0.837952018 0.348663002
0.547820985 0.863586009 0.370422006
0.644317985 0.890289009 0.396728992
0.726440012 0.910461009 0.419647008
0.794005990 0.920135021 0.435516000
0.846161008 0.919921994 0.442963004
0.880675972 0.912353992 0.439635992
0.905914009 0.902343988 0.432709008
0.933318973 0.898437977 0.438659996
0.958739996 0.895202994 0.445495993
0.033904999 0.034607001 0.121582001
0.076874003 0.035431001 0.121582001
0.122222997 0.038543999 0.122253001
0.169646993 0.043030001 0.124114998
0.219696000 0.049164001 0.126617000
0.271117985 0.054962002 0.129088998
0.324066013 0.061127000 0.131255999
0.379058987 0.068145998 0.134094000
0.437561005 0.075653002 0.138306007
0.498535007 0.083861999 0.143493995
0.559966981 0.093535997 0.149719000
0.619934022 0.103455000 0.156737998
0.676422000 0.114837997 0.164093003
0.730010986 0.128509998 0.171905994
0.782500982 0.144775003 0.181030005
0.834778011 0.163176998 0.191437006
0.878356993 0.179778993 0.200499997
0.037749998 0.079163000 0.122497998
0.078766003 0.079223998 0.122559004
0.122832999 0.080596998 0.123138003
0.169799998 0.083740003 0.124695003
0.219391003 0.087707996 0.126647994
0.270325005 0.092316002 0.128601000
0.322876006 0.097198002 0.130951002
0.378021002 0.102875002 0.133849993
0.436340004 0.108733997 0.138062000
0.497527987 0.115997002 0.143341005
0.559265018 0.123962000 0.149627998
0.619324028 0.132598996 0.156525001
0.676024973 0.142487004 0.163910002
0.729735970 0.155059993 0.171905994
0.782288015 0.169921994 0.181030005
0.834747016 0.187133998 0.191405997
0.878325999 0.202392995 0.200499997
0.043731999 0.123504996 0.123810001
0.082457997 0.123566002 0.123810001
0.123870999 0.123870999 0.123870999
0.169249997 0.125701994 0.125153005
0.218079001 0.128447995 0.126984000
0.268462986 0.131714001 0.128845006
0.320342988 0.135498002 0.131011993
0.375304997 0.139495999 0.133849993
0.434143007 0.144347996 0.137939006
0.496062994 0.150298998 0.143493995
0.558440983 0.157042995 0.150055006
0.618744016 0.164428994 0.156859994
0.675903022 0.173157007 0.164428994
0.729674995 0.184235007 0.172362998
0.782378972 0.197936997 0.181457996
0.834960997 0.213806003 0.191680998
0.877869010 0.227782995 0.200714007
0.050629001 0.167541996 0.126678005
0.087279998 0.167694002 0.126647994
0.125824004 0.167511001 0.126372993
0.168670997 0.167815998 0.126984000
0.216064006 0.169373006 0.128509998
0.266021997 0.171721995 0.130401999
0.318542004 0.174529999 0.132689998
0.374267995 0.177612007 0.135344997
0.434204012 0.181610003 0.139465004
0.497191995 0.186767995 0.145233005
0.560364008 0.192809999 0.151794001
0.620911002 0.199553996 0.158966005
0.677794993 0.207367003 0.166503996
0.731719971 0.217133000 0.174591005
0.784759998 0.229736000 0.183777004
0.837341011 0.244628996 0.194183007
0.879088998 0.257293999 0.202758998
0.058807001 0.210938007 0.130585000
0.092864998 0.210631996 0.130309999
0.128937006 0.210265994 0.129791006
0.168365002 0.210265994 0.130066007
0.213073999 0.210480005 0.131255999
0.262329012 0.211731002 0.132751003
0.314972013 0.213653997 0.134827003
0.371978998 0.216308996 0.137603998
0.433898985 0.219971001 0.141937003
0.499419987 0.224914998 0.148010001
0.564697027 0.230712995 0.155059993
0.626038015 0.237121999 0.162505999
0.682494998 0.244507000 0.170227006
0.735961974 0.253661990 0.178497002
0.788757026 0.265655994 0.187866002
0.840880990 0.280272990 0.198424995
