public/lut/129.cube
TITLE "17x17x17 Adobe/IRIDAS cube 3D LUT exported with GrossGrade v0.2.2 (beta) 64 bit"
DOMAIN_MIN 0 0 0
DOMAIN_MAX 1 1 1
LUT_3D_SIZE 5
0.029967999 0.029967999 0.029967999
0.218994007 0.047943000 0.047240999
0.434875011 0.075165004 0.070800997
0.674866021 0.114380002 0.107422002
0.877624989 0.178924993 0.153870001
0.058196999 0.210388005 0.058655001
0.213593006 0.210480005 0.063812003
0.434112996 0.221008003 0.082520001
0.684356987 0.246765003 0.119994998
0.881500006 0.294524997 0.166106999
0.096496999 0.375853986 0.100493997
0.209839001 0.375640988 0.102417000
0.438293010 0.391173989 0.119873002
0.724976003 0.433167011 0.168578997
0.907805979 0.486541986 0.221709996
0.178161994 0.598479986 0.198119998
0.255187988 0.597809017 0.196564004
0.466948986 0.657805979 0.231170997
0.790130973 0.691742003 0.283630013
0.943695009 0.721862972 0.328186005
0.312041998 0.819031000 0.345824987
0.356110007 0.819000006 0.337859988
0.549896002 0.864226997 0.364960015
0.846436024 0.919891000 0.438721001
0.958557010 0.895264030 0.443542004
0.040038999 0.040801998 0.221160993
0.218353003 0.051360998 0.218750000
0.442169011 0.077026002 0.215698004
0.682922006 0.117064998 0.228668004
0.880675972 0.183349997 0.255858988
0.060454998 0.212463006 0.214507997
0.211211994 0.211394995 0.212280005
0.432312012 0.219817996 0.208130002
0.680083990 0.241272002 0.225585997
0.879088998 0.287414998 0.252624989
0.098205999 0.382171988 0.224030003
0.206756994 0.377532989 0.216370001
0.435577005 0.392426014 0.220367000
0.724425972 0.427002013 0.252563000
0.904724002 0.476318002 0.287781000
0.187592000 0.613708019 0.297271997
0.257079989 0.605255008 0.284119010
0.441437006 0.648711979 0.294312000
0.792052984 0.694091976 0.342651010
0.944763005 0.720184028 0.372283995
0.326171994 0.828307986 0.418334991
0.359802008 0.823180974 0.397217005
0.520507991 0.853667974 0.394897014
0.841247976 0.922150016 0.469269007
0.959228992 0.897156000 0.460631996
0.055573002 0.062531002 0.431885004
0.216704994 0.068939000 0.427276999
0.423828006 0.090453997 0.410338998
0.679809988 0.137786999 0.406219006
0.885864019 0.205413997 0.425873011
0.075409003 0.234130993 0.418639988
0.210906997 0.227477998 0.417023003
0.416321009 0.231749997 0.402496010
0.680724978 0.259856999 0.393646002
0.882293999 0.308898985 0.412445009
0.121338002 0.399719000 0.409424007
0.224976003 0.397888005 0.406554997
0.398070991 0.408142000 0.405396014
0.703217030 0.430298001 0.385681003
0.883606017 0.454681009 0.388336003
0.255492985 0.659546018 0.513763011
0.325623006 0.656280994 0.502624989
0.411377013 0.648528993 0.448821992
0.783843994 0.706939995 0.460999012
0.940734982 0.719604015 0.462157995
0.425568014 0.853729010 0.628234982
0.461548001 0.849457026 0.614135981
0.505981028 0.847961009 0.529815972
0.810729980 0.926146984 0.570831001
0.958190978 0.906432986 0.530395985
0.084259003 0.103667997 0.644836009
0.235137999 0.107970998 0.636229992
0.410126001 0.128417999 0.619262993
0.654846013 0.165374994 0.588409007
0.869934022 0.233398005 0.639526010
0.111052997 0.281096995 0.637023985
0.236571997 0.267212003 0.629974008
0.395446986 0.265655994 0.618164003
0.654174984 0.284637004 0.586364985
0.871338010 0.342346013 0.644439995
0.174225003 0.458434999 0.634338021
0.275696009 0.455291986 0.630309999
0.384674013 0.448700011 0.642731011
0.687592030 0.470367014 0.643005013
0.895781994 0.507843018 0.680176020
0.300720006 0.664367974 0.686767995
0.377746999 0.667145014 0.687560976
0.459197998 0.685181022 0.700775027
0.751801014 0.751221001 0.740387022
0.934906006 0.736755013 0.694885015
0.476898015 0.867706001 0.789458990
0.526184022 0.869292974 0.790283024
0.568970025 0.885468006 0.785034001
0.755523980 0.922729015 0.734740973
0.968322992 0.936554015 0.703185976
0.122374997 0.161193997 0.843903005
0.263976991 0.158660993 0.834656000
0.433562994 0.180236995 0.826752007
0.655945003 0.219817996 0.831421018
0.861236989 0.273894995 0.836426020
0.151244998 0.331176996 0.838286996
0.269591987 0.316558987 0.825927973
0.423278987 0.316101015 0.823119998
0.655182004 0.340424001 0.831879020
0.865966976 0.380127013 0.841919005
0.223601997 0.520385981 0.837372005
0.322815001 0.515442014 0.826416016
0.414824992 0.490447998 0.823517025
0.678588986 0.519195974 0.860107005
0.896453977 0.547667980 0.876098990
0.339996010 0.719482005 0.869812012
0.416198999 0.718384027 0.864166021
0.491210997 0.722015023 0.870148003
0.675536990 0.734955013 0.904296994
0.941375971 0.760284007 0.927338004
0.451873988 0.867401004 0.900084972
0.498627007 0.867492974 0.898437977
0.547393978 0.876830995 0.905884027
0.633117974 0.907166004 0.929596007
0.983398020 0.981293023 0.966614008
