public/lut/13.cube
TITLE "17x17x17 Adobe/IRIDAS cube 3D LUT exported with GrossGrade v0.2.2 (beta) 64 bit"
DOMAIN_MIN 0 0 0
DOMAIN_MAX 1 1 1
LUT_3D_SIZE 17
0.037062999 0.046891998 0.050347999
0.050717562 0.046225440 0.049669001
0.071366251 0.045462999 0.046269875
0.095628068 0.048163123 0.046181001
0.128272742 0.052181751 0.047419999
0.166740939 0.055801626 0.047111999
0.198475003 0.059040129 0.045732249
0.239592522 0.062552691 0.045055188
0.285226017 0.065924004 0.044004999
0.322907805 0.069401689 0.044737998
0.361305505 0.073839873 0.044737998
0.402804762 0.076816060 0.046403188
0.441764504 0.079701498 0.049156003
0.478142828 0.081098311 0.051020000
0.511921883 0.082357749 0.052347001
0.541693568 0.081481002 0.052387942
0.561847985 0.076167002 0.050347999
0.039429002 0.064721376 0.051686000
0.048809752 0.068008557 0.049027752
0.078030877 0.074579127 0.046979997
0.118741877 0.077892065 0.046091251
0.160210371 0.081279062 0.045642499
0.205665678 0.086177565 0.043495562
0.257181019 0.092317499 0.041089125
0.303251594 0.096915379 0.041041814
0.347250372 0.101034127 0.041806310
0.393489629 0.106615439 0.041806310
0.435410738 0.110560805 0.042562749
0.471308798 0.113573313 0.044964559
0.506650746 0.115761876 0.047596000
0.540431857 0.116104752 0.048337188
0.569263160 0.116127878 0.049796317
0.592195749 0.114314243 0.051020000
0.609124660 0.105809130 0.047639623
0.043818876 0.089687750 0.053569876
0.052752752 0.094570249 0.052222751
0.070841752 0.102260374 0.050347999
0.110678449 0.109804317 0.046936002
0.166382268 0.116417624 0.046891998
0.228413388 0.124126568 0.044873934
0.286740631 0.130494371 0.041948248
0.344073892 0.136715621 0.040994000
0.399777144 0.141538128 0.039133001
0.445692748 0.145677879 0.037950501
0.487515628 0.150127754 0.039034501
0.526487768 0.154187635 0.042516001
0.562862039 0.157888129 0.045099624
0.594364345 0.161602303 0.046979997
0.622107506 0.163813755 0.049155381
0.643383563 0.161782995 0.052264377
0.659476995 0.154367372 0.050263125
0.050092440 0.114161007 0.059039377
0.055637319 0.117415950 0.058471061
0.075602621 0.128054246 0.056663752
0.097983949 0.136805132 0.054052562
0.147253186 0.147340938 0.051102936
0.223171934 0.158812642 0.049540751
0.296752393 0.166885078 0.047154874
0.364123285 0.172822446 0.043028496
0.427466750 0.176597446 0.037605248
0.480925560 0.180187941 0.036421940
0.527703464 0.184956580 0.037506811
0.569041550 0.189704642 0.039429002
0.606489301 0.194260642 0.041328687
0.638705850 0.200301215 0.044279877
0.666099608 0.203776017 0.047683254
0.686422944 0.202406824 0.050473999
0.701794863 0.196038261 0.050473999
0.062353250 0.143294007 0.064659253
0.072299495 0.148820937 0.063557684
0.088822752 0.158684373 0.061495624
0.114018507 0.171489939 0.058432691
0.147169262 0.182132751 0.053812001
0.205594763 0.194578126 0.051727314
0.294314384 0.205969632 0.048116874
0.377656579 0.212065697 0.043725621
0.449364513 0.215057507 0.038837250
0.507315159 0.217539951 0.036274001
0.559668660 0.220343009 0.035781503
0.605253577 0.225457132 0.037852000
0.643550038 0.230064258 0.039626002
0.674699306 0.236330003 0.042656254
0.702104867 0.240550131 0.045732252
0.724534333 0.240693748 0.048337191
0.739439011 0.234132752 0.048985001
0.083584502 0.176544130 0.072487935
0.097385317 0.183091491 0.071089938
0.119776689 0.195082307 0.066061817
0.137758613 0.205944628 0.062733628
0.168260440 0.218916565 0.057514813
0.214011624 0.231293321 0.053651001
0.275428474 0.244539499 0.051727314
0.369794577 0.254144311 0.046667311
0.456705511 0.257827193 0.041376498
0.526161432 0.258456230 0.038837250
0.583057582 0.260523945 0.037605438
0.630979240 0.263848752 0.038886562
0.673380971 0.266635746 0.040165003
0.706446886 0.271962553 0.043169193
0.733574629 0.275834382 0.046045505
0.756142080 0.276408494 0.049027756
0.772240162 0.271613330 0.050347999
0.114881389 0.214660883 0.081711002
0.132954940 0.222805753 0.078284629
0.161219150 0.235363379 0.070991009
0.182865769 0.247097209 0.065294437
0.206514895 0.258701414 0.059112500
0.250114709 0.272427708 0.054494686
0.303962409 0.285613626 0.051517628
0.362185478 0.297431409 0.048596311
0.455976903 0.302623630 0.043356627
0.531050444 0.302130103 0.041900937
0.598746419 0.300912023 0.041472126
0.651737154 0.301653445 0.042232126
0.694549024 0.303617418 0.043629877
0.731191874 0.307829380 0.046045069
0.761246860 0.310243994 0.048811380
0.783090949 0.309705079 0.051477570
0.801030040 0.305449128 0.052756377
0.155111074 0.256914139 0.089270316
0.180845663 0.266593963 0.081655689
0.213149607 0.278579593 0.072424002
0.241901025 0.290318072 0.064589940
0.266441822 0.301239461 0.059566248
0.301250786 0.313860029 0.054051939
0.352353066 0.328457773 0.049923625
0.406244427 0.340336770 0.048682690
0.456274956 0.348157763 0.047639623
0.534400284 0.345704138 0.044417314
0.605378568 0.341499269 0.044417311
0.666031480 0.338585526 0.045370184
0.714027882 0.339593321 0.047635254
0.751001060 0.342098981 0.050176941
0.783167660 0.342629910 0.052139692
0.807646573 0.342203468 0.055368878
0.825438559 0.337768734 0.057513565
0.198863000 0.298532516 0.096919000
0.229950517 0.308844626 0.086879179
0.267975658 0.320554256 0.076224744
0.299198270 0.330944121 0.069064319
0.327548027 0.342194498 0.062515259
0.358531386 0.353788018 0.056585252
0.397299767 0.366413116 0.052016500
0.449815542 0.379045129 0.051353000
0.497087538 0.385905504 0.051353004
0.535931647 0.387026310 0.049369439
0.609781623 0.382422388 0.048031379
0.673599958 0.377503633 0.048290502
0.727311969 0.373972028 0.051182251
0.768586874 0.374766171 0.054292500
0.800952852 0.374282628 0.056348130
0.828276753 0.373144746 0.059902504
0.847199023 0.368467510 0.062224504
0.242314368 0.338709503 0.103851378
0.278023362 0.348992884 0.093058877
0.321597576 0.360402048 0.083249934
0.354873359 0.370193452 0.075195745
0.385027289 0.380991697 0.067882121
0.419763297 0.393070996 0.061348252
0.455368340 0.404393107 0.057242438
0.491091549 0.414118677 0.056115750
0.540015578 0.422222197 0.057359438
0.576644599 0.422051638 0.055211376
0.612708807 0.420487076 0.053972688
0.679758310 0.413662314 0.052545689
0.735449433 0.407985687 0.054683816
0.779566526 0.406956017 0.059301380
0.815959275 0.405827194 0.062546194
0.843247056 0.402493179 0.065047935
0.865356386 0.397692680 0.066923872
0.284741521 0.376185626 0.111589000
0.324872047 0.386705875 0.100378193
0.370980114 0.397502780 0.091736995
0.408019006 0.407041997 0.082787126
0.438720763 0.416787744 0.074024253
0.473517835 0.428002805 0.066786557
0.510621369 0.439253271 0.063449129
0.544659078 0.448977768 0.062295124
0.584104717 0.458090127 0.063449129
0.623227239 0.459202945 0.061458126
0.654532492 0.454240620 0.059337750
0.684965372 0.447669119 0.057897624
0.743151069 0.441481858 0.059263252
0.788221121 0.438528001 0.063448384
0.827277601 0.435461491 0.068049505
0.856025696 0.431002557 0.070660755
0.879568398 0.426133871 0.072683372
0.325078934 0.411194175 0.120246693
0.369092882 0.421358883 0.109073251
0.417753547 0.432128608 0.100547940
0.458483249 0.441572994 0.091310993
0.491649330 0.451052845 0.082062438
0.524098814 0.461090356 0.075065248
0.559322238 0.471296370 0.071185812
0.594664693 0.481072992 0.070821442
0.630191267 0.490299553 0.071284629
0.663703442 0.494055539 0.070430443
0.693720222 0.488546878 0.067779750
0.721005261 0.480834424 0.065607190
0.750106573 0.473062932 0.063949250
0.797787428 0.467750669 0.067678817
0.837914407 0.462736458 0.071579382
0.867828012 0.459363222 0.077000000
0.891864479 0.454855680 0.079218067
0.363364756 0.442679018 0.129968494
0.408966482 0.452400267 0.119228624
0.459106266 0.463268369 0.109886386
0.500882745 0.472235501 0.101034440
0.534846783 0.481288254 0.091841504
0.566166878 0.490549624 0.085473314
0.599639416 0.500018001 0.081769876
0.634166241 0.509064257 0.081237748
0.668366015 0.517697752 0.081593253
0.699586511 0.522789478 0.079606190
0.728460252 0.521605372 0.077580124
0.754800081 0.513917089 0.075131878
0.778334022 0.504332304 0.072490253
0.806359589 0.494490951 0.071547076
0.848216057 0.490076363 0.076040253
0.879623771 0.486399025 0.080859758
0.902862787 0.481795251 0.085055754
0.402645051 0.472589731 0.139076710
0.447306544 0.481306106 0.129371956
0.497891963 0.492050648 0.120266952
0.540054500 0.500813067 0.111720443
0.573491514 0.508894861 0.102700263
0.605527222 0.517587245 0.096817575
0.639108837 0.526802242 0.093293324
0.670416713 0.534770131 0.091870829
0.703891575 0.542958021 0.091367707
0.733637214 0.547797084 0.089813568
0.758543372 0.549355149 0.087294072
0.782632351 0.545021653 0.085843943
0.803922832 0.534923732 0.082703508
0.825483620 0.523859859 0.080414377
0.854955435 0.515220404 0.080355629
0.888355315 0.510935128 0.084487811
0.913499653 0.506814182 0.089408383
0.446998537 0.502329111 0.150033891
0.487528741 0.509829581 0.139561385
0.536798954 0.520097792 0.131798774
0.580398917 0.528896630 0.123495698
0.613680899 0.536105275 0.115822889
0.644726753 0.543733239 0.110090263
0.677176833 0.552014172 0.105571896
0.705941319 0.559235752 0.102801263
0.735647976 0.566368759 0.101573631
0.764069676 0.570976973 0.099247448
0.788823843 0.572867870 0.096870504
0.809316695 0.571753919 0.095265508
0.830056667 0.564417243 0.093113758
0.849020123 0.553080916 0.089760445
0.867534220 0.541284382 0.086686388
0.894596279 0.534023523 0.088427186
0.920271635 0.530912638 0.093167379
0.489343733 0.529087603 0.161126524
0.527797997 0.535836041 0.148834333
0.573420763 0.544542789 0.142147079
0.617739737 0.553479195 0.134738505
0.649698615 0.559807479 0.128075317
0.675988436 0.565727055 0.121690072
0.707536757 0.573993623 0.117317826
0.736658394 0.581710160 0.114466645
0.764411867 0.588678598 0.111879021
0.790333748 0.593586683 0.109212019
0.813863099 0.595184147 0.106691383
0.834329963 0.594540179 0.104587503
0.852428794 0.591969967 0.103282131
0.869576514 0.583784282 0.099865317
0.884113908 0.572401404 0.096770756
0.901426077 0.559262037 0.093089193
0.924900413 0.555043519 0.096340373
0.536495984 0.558651984 0.172627002
0.576401532 0.564957857 0.158795074
0.617905021 0.572621703 0.154261887
0.658440292 0.580749512 0.148683622
0.690226495 0.586574554 0.141725004
0.712270260 0.591033459 0.134962246
0.738407612 0.597800612 0.130317241
0.766785204 0.605357409 0.127277240
0.792396545 0.612075508 0.124325499
0.816469491 0.617571890 0.121774435
0.837154865 0.619874895 0.118836753
0.856572628 0.619717956 0.116170622
0.873291254 0.618103981 0.114142746
0.887635171 0.614113510 0.111302994
0.900979042 0.604256868 0.107385367
0.913817227 0.590800166 0.103736311
0.928223014 0.578373015 0.099916004
0.033119999 0.041041814 0.058468625
0.051961627 0.043958686 0.066877440
0.081726812 0.046181001 0.072155878
0.115964510 0.048163123 0.074584499
0.149387076 0.048985001 0.074047185
0.179788738 0.049540438 0.073055558
0.213551939 0.051973250 0.074238248
0.249136969 0.053770814 0.071602128
0.281533718 0.055684935 0.067973815
0.315613240 0.058125876 0.066914439
0.349348754 0.061349310 0.066192001
0.386311710 0.063631624 0.065706626
0.422511071 0.068055123 0.064371191
0.457009226 0.069569379 0.065953560
0.490549147 0.070532434 0.065884061
0.519343734 0.069033936 0.062006369
0.540704608 0.064058810 0.057282437
0.030015251 0.067935377 0.082174942
0.043911938 0.074607618 0.087470815
0.082565188 0.077625811 0.091806874
0.130926386 0.081628121 0.090924621
0.179861739 0.087047070 0.090235189
0.223304242 0.091228753 0.088960871
0.267742246 0.094980627 0.087625682
0.309637070 0.099756688 0.086039819
0.349825233 0.104948878 0.085165501
0.390638679 0.110194370 0.085452937
0.429262310 0.114566751 0.086351879
0.465597630 0.118642375 0.087243691
0.500148416 0.121280067 0.087856188
0.531899571 0.123092547 0.089548931
0.560164571 0.123439632 0.090733439
0.584732294 0.121339753 0.088453934
0.602535009 0.111898251 0.079976499
0.033120062 0.094155498 0.085875876
0.047982313 0.099289685 0.092204995
0.075024940 0.106696434 0.091918692
0.125782579 0.118438870 0.089449190
0.186432704 0.126835003 0.089176431
0.246398434 0.132020563 0.088933617
0.300442100 0.137331441 0.085969321
0.351938277 0.144169077 0.084013373
0.400906354 0.149571314 0.084474310
0.442901999 0.154407397 0.084961623
0.481987983 0.158731505 0.085806817
0.520043135 0.162635818 0.086484253
0.554186761 0.166331381 0.089640439
0.584948421 0.169574380 0.093154438
0.611525774 0.169445500 0.093912937
0.633906603 0.166466743 0.092662126
0.648599446 0.155515000 0.086656436
0.033958249 0.117798321 0.088072561
0.050593130 0.127135187 0.095431000
0.080062434 0.138544500 0.093802691
0.120126694 0.152120888 0.088553444
0.183731630 0.166122943 0.084481440
0.253927618 0.174660459 0.085952938
0.324492306 0.182226837 0.085470624
0.383709580 0.188845560 0.083332941
0.437834918 0.195784703 0.081731439
0.487396479 0.202375755 0.081992626
0.531610310 0.208725005 0.083381936
0.570109844 0.213131756 0.084952556
0.604556799 0.218552187 0.089229882
0.636237204 0.224452943 0.095835820
0.663009763 0.227576256 0.100577757
0.683307588 0.223596886 0.100385815
0.697714686 0.212238446 0.096451439
0.036816627 0.143286809 0.094956502
0.062463440 0.157906070 0.101532117
0.095533565 0.170961499 0.100753441
0.134955019 0.185965180 0.094766691
0.187789425 0.202349499 0.085872941
0.249722242 0.214557320 0.082823373
0.328036577 0.222939938 0.083052255
0.399814606 0.230120197 0.081999995
0.463332862 0.234434247 0.079868563
0.517045915 0.240576059 0.077721313
0.565513253 0.248171449 0.078239255
0.609003365 0.255261451 0.080812633
0.645214856 0.261995196 0.086183004
0.675974846 0.267418683 0.091871880
0.703991652 0.273306757 0.099118754
0.726088703 0.272476494 0.102441505
0.739183009 0.260158271 0.099088073
0.044903189 0.172886997 0.099424690
0.083830439 0.193199933 0.107829250
0.127163559 0.209345117 0.107507564
0.163476884 0.225057825 0.099708878
0.212051615 0.241893128 0.088289127
0.268651724 0.256593585 0.082419507
0.327832788 0.266984612 0.078170940
0.405098766 0.272020817 0.077646494
0.478698939 0.275155336 0.075256944
0.541118622 0.277653277 0.073988751
0.591946721 0.285258263 0.074556619
0.636855721 0.291002572 0.076333933
0.675154448 0.297776490 0.081981502
0.709034503 0.304442585 0.088644072
0.735685885 0.310062528 0.096615322
0.758362889 0.310507834 0.101179995
0.773406446 0.300434262 0.100137435
0.060386006 0.206361204 0.105531260
0.114923954 0.232286811 0.115380883
0.167976007 0.252730280 0.113799259
0.204827338 0.267341256 0.102242939
0.245401651 0.281413585 0.091557071
0.296063840 0.295339882 0.083749309
0.356670111 0.309418201 0.079198748
0.408636749 0.316262066 0.074861251
0.485531896 0.317672431 0.072305501
0.551941574 0.317734450 0.071486689
0.611042500 0.319245458 0.071644440
0.657996774 0.324146330 0.075090498
0.698381007 0.330197781 0.079769500
0.733529747 0.337095886 0.086545259
0.762720227 0.343197018 0.095267385
0.784999073 0.343302637 0.099932000
0.802988410 0.337217689 0.101674996
0.084196143 0.243782327 0.115851007
0.151470333 0.272484690 0.126017183
0.213628396 0.295129955 0.119510375
0.253799170 0.308429241 0.106260560
0.293641955 0.320948541 0.095977820
0.333745480 0.333737850 0.087352447
0.389646858 0.347537041 0.080714628
0.446560204 0.358721823 0.077955507
0.488432646 0.360717237 0.073145553
0.557774544 0.358549237 0.072075561
0.616889715 0.357341409 0.074029312
0.671369553 0.358902872 0.077085316
0.716086388 0.363115072 0.082200252
0.751936853 0.368597478 0.088817880
0.783660710 0.374189317 0.096317321
0.809174657 0.375310063 0.101812378
0.826701760 0.369159847 0.103670001
0.119986698 0.283763498 0.126494557
0.188909322 0.311055630 0.135556489
0.258607507 0.335089058 0.124063313
0.302202970 0.347256303 0.110656314
0.346145660 0.359758079 0.100855194
0.386710465 0.373217762 0.091442123
0.430257708 0.386118501 0.082674749
0.487611920 0.398674726 0.079042308
0.529351354 0.401384026 0.077345505
0.564216793 0.399792939 0.073175877
0.624028504 0.397115946 0.075764440
0.678452492 0.394669920 0.079666376
0.728096545 0.395139217 0.084421568
0.767965436 0.399372667 0.092358634
0.800527155 0.404360563 0.099060193
0.828371763 0.405457020 0.105483823
0.847050607 0.398926735 0.107533932
0.165490180 0.324504703 0.135759994
0.228382796 0.348958552 0.140511572
0.302136928 0.372352868 0.128872246
0.348176420 0.383673429 0.116682813
0.392351240 0.395485818 0.107179627
0.435852915 0.409007698 0.098136373
0.476573080 0.421580017 0.089285180
0.521186292 0.433446437 0.083248496
0.569431126 0.440846473 0.083803311
0.604056716 0.439252824 0.080627628
0.633703291 0.434619904 0.077556506
0.688873231 0.430273861 0.080623247
0.737563014 0.428101510 0.086508632
0.779806256 0.429594904 0.095383197
0.815247715 0.432831824 0.102905825
0.842781067 0.432762235 0.108765319
0.865155518 0.427241564 0.111397691
0.208033815 0.361799568 0.144806877
0.268885583 0.384138286 0.146116808
0.342596978 0.406428307 0.135230064
0.391260058 0.417712331 0.124676496
0.436192900 0.428950071 0.114814192
0.479141325 0.441405177 0.105481192
0.520745814 0.453998417 0.097379558
0.563704252 0.466209084 0.091674626
0.605063617 0.474982262 0.089478314
0.642030239 0.475692570 0.088588558
0.670809209 0.470980227 0.086433813
0.698168933 0.464580923 0.083686687
0.748641253 0.460860640 0.088368937
0.791174650 0.459264517 0.096203566
0.826723099 0.459151059 0.105773821
0.855959654 0.459283203 0.112440504
0.879711866 0.454775184 0.115786999
0.248918563 0.396195859 0.155112818
0.307026535 0.416674316 0.153310940
0.384508640 0.439020753 0.144052744
0.435178339 0.450367004 0.134021625
0.481483489 0.461160868 0.123687446
0.522310019 0.472401679 0.114845380
0.563261151 0.484513819 0.107035123
0.605679333 0.496367246 0.102036566
0.644263208 0.505969226 0.098960638
0.675672650 0.507568359 0.094151303
0.706356406 0.505212665 0.094720937
0.732272387 0.499289840 0.093531370
0.757383466 0.490511984 0.091158003
0.801953554 0.487337828 0.097823627
0.837459028 0.486069262 0.107719943
0.868184268 0.485225141 0.116413698
0.891719997 0.480855376 0.120298311
0.288074404 0.428622216 0.163259372
0.341804087 0.446164042 0.160142064
0.422980189 0.468056917 0.152443066
0.473870426 0.478974909 0.141873688
0.521321237 0.489850134 0.132523060
0.561584532 0.500430703 0.123984188
0.599359691 0.511421502 0.116731502
0.640898764 0.522800565 0.112626061
0.679428995 0.532391071 0.109761879
0.708630264 0.536071420 0.104789130
0.737451494 0.535594821 0.101032503
0.763834834 0.531817377 0.102922067
0.785763800 0.522931397 0.101041503
0.811192930 0.513993204 0.099890262
0.848050654 0.512756765 0.109207764
0.879329860 0.510547936 0.118641444
0.902230799 0.506066322 0.125509128
0.330744743 0.459675103 0.171847776
0.378672302 0.474500567 0.166604608
0.460188359 0.495462090 0.160396695
0.510792434 0.506253242 0.150584310
0.557723761 0.516447306 0.141812891
0.599292040 0.526653111 0.133398086
0.635445595 0.537069559 0.126949817
0.672237933 0.547228158 0.122927010
0.710147738 0.556686461 0.119751126
0.739072919 0.560887873 0.115444943
0.764499784 0.562023461 0.109359883
0.790472448 0.561117113 0.109563008
0.812910497 0.554542661 0.111188263
0.832270920 0.544539750 0.109079570
0.856395602 0.537236929 0.110251442
0.887550116 0.534378052 0.119312942
0.912828743 0.531372905 0.129020572
0.381287545 0.491166592 0.180925086
0.422454894 0.502631843 0.174582943
0.496999562 0.521282077 0.169034377
0.548875570 0.532114446 0.158603013
0.594746649 0.541869879 0.151060134
0.634925067 0.551382244 0.143646941
0.668962240 0.560860395 0.137658149
0.701943994 0.569737792 0.132830456
0.735554159 0.578530669 0.129738763
0.765001595 0.583460748 0.125622392
0.790192962 0.584757149 0.119675629
0.812867224 0.583718836 0.114326507
0.836234987 0.581703544 0.118342444
0.855077088 0.573326409 0.118371069
0.868707895 0.563506246 0.115741514
0.894417167 0.558097184 0.119649753
0.919464648 0.556073606 0.129622191
0.428917736 0.519189954 0.190162629
0.465149879 0.528223217 0.182894126
0.534435749 0.545598209 0.175703332
0.587505579 0.556283951 0.166654378
0.632800043 0.565915346 0.160022214
0.667062938 0.573825896 0.152550131
0.699245632 0.582580626 0.147082642
0.731294751 0.591583669 0.143254787
0.761871696 0.599993467 0.139965907
0.790358782 0.606204987 0.135732517
0.814333498 0.607139766 0.129931644
0.837020636 0.606559694 0.124270633
0.856400311 0.605009139 0.121367440
0.873875618 0.603306770 0.126936555
0.887483120 0.594881773 0.126625389
0.901244760 0.583539128 0.123522758
0.925151408 0.579479754 0.129356623
0.481997937 0.550264597 0.199341312
0.513254046 0.557040930 0.190299749
0.582276404 0.573262453 0.182399452
0.628125966 0.582336783 0.177396685
0.673839569 0.591919899 0.170740619
0.703184187 0.598402321 0.164127499
0.728797138 0.604967058 0.158446193
0.759065568 0.613434672 0.154326051
0.787666142 0.621395648 0.150783882
0.814270556 0.628433943 0.146921441
0.836806595 0.631641507 0.141598508
0.857488155 0.631487966 0.135756120
0.875874162 0.629041791 0.129727930
0.891371906 0.628861129 0.132331759
0.904858232 0.624786079 0.135603249
0.915221512 0.615058780 0.133830428
0.928264081 0.603374064 0.130032748
0.033021498 0.039429002 0.071049124
0.047412060 0.040945437 0.080815248
0.079130255 0.043356627 0.090233251
0.111629516 0.045462999 0.095176123
0.146397129 0.045552749 0.098366506
0.181625068 0.045462999 0.100071624
0.214300752 0.046269875 0.099359252
0.249312907 0.046269875 0.097564809
0.282451630 0.047419250 0.094295755
0.316485077 0.050512187 0.092858940
0.350527614 0.055565000 0.091672994
0.387691408 0.060387753 0.090282880
0.423644274 0.064377502 0.088379502
0.457866162 0.066756003 0.089744747
0.491047531 0.068529002 0.088820994
0.520069838 0.067851998 0.084268428
0.541435719 0.063382000 0.076027244
0.032282688 0.060746562 0.097847253
0.045228560 0.066386253 0.102349378
0.078934178 0.066424064 0.108653806
0.127467692 0.067459874 0.111113995
0.179664448 0.072535068 0.113892689
0.225090623 0.076700434 0.113501877
0.267338157 0.080148056 0.110489376
0.305980891 0.084452629 0.110871002
0.343347490 0.090122066 0.110011689
0.380241156 0.097258061 0.106792122
0.416237980 0.101703554 0.106237307
0.451827168 0.105489507 0.107946940
0.485280633 0.108063497 0.107690565
0.516579509 0.110418379 0.105533816
0.544393659 0.110155374 0.104574308
0.568424463 0.106523305 0.101175673
0.585222781 0.097048692 0.089623936
0.032233376 0.098043129 0.125701874
0.037851937 0.103663757 0.129598513
0.065072253 0.111229502 0.133545369
0.127300084 0.119255066 0.139472306
0.194355890 0.128420502 0.141975492
0.255076498 0.137069449 0.141153187
0.306268513 0.142702132 0.138634995
0.353125423 0.148083448 0.137430623
0.398130000 0.154281616 0.137484625
0.438668728 0.160670072 0.137221992
0.476951987 0.165426508 0.136862502
0.512658060 0.169605941 0.137179196
0.545901775 0.173680007 0.139217749
0.577312350 0.177987128 0.141484499
0.603587627 0.177375883 0.140431017
0.625434637 0.172268748 0.137056500
0.641573012 0.160376504 0.126249626
0.032972250 0.124170259 0.127364621
0.039378941 0.132588997 0.134439752
0.072481938 0.145885959 0.143247619
0.123605251 0.156447336 0.144874305
0.191565514 0.170902878 0.143356264
0.262462944 0.181874126 0.141054511
0.330124885 0.189198136 0.140834063
0.386405647 0.196084008 0.140207946
0.435846865 0.203734502 0.139112025
0.482584357 0.210768953 0.139703184
0.525882840 0.217783883 0.141757369
0.563190639 0.223307446 0.143044069
0.596066117 0.228241712 0.146131247
0.627058148 0.233972013 0.150489941
0.654048681 0.236424446 0.153524265
0.674109876 0.229100496 0.149886385
0.689469516 0.215430632 0.140302375
0.033119999 0.150823995 0.133104131
0.040017750 0.160376742 0.139280021
0.078633249 0.179704756 0.148725629
0.135674015 0.195748881 0.150058642
0.193422258 0.211249262 0.142977372
0.265362352 0.224659115 0.137098238
0.339137495 0.235082015 0.139089003
0.406403899 0.244228885 0.140672699
0.464981019 0.250998497 0.141383752
0.515336812 0.259000957 0.140742630
0.563400984 0.268079609 0.142190620
0.606094062 0.277521491 0.145952746
0.641326129 0.284969509 0.151449889
0.672007024 0.290300757 0.156535864
0.699517369 0.294517010 0.162655011
0.720771611 0.290509701 0.163258225
