public/lut/13.cube
TITLE "17x17x17 Adobe/IRIDAS cube 3D LUT exported with GrossGrade v0.2.2 (beta) 64 bit"
DOMAIN_MIN 0 0 0
DOMAIN_MAX 1 1 1
LUT_3D_SIZE 5
0.037062999 0.046891998 0.050347999
0.128272742 0.052181751 0.047419999
0.285226017 0.065924004 0.044004999
0.441764504 0.079701498 0.049156003
0.561847985 0.076167002 0.050347999
0.062353250 0.143294007 0.064659253
0.147169262 0.182132751 0.053812001
0.449364513 0.215057507 0.038837250
0.643550038 0.230064258 0.039626002
0.739439011 0.234132752 0.048985001
0.198863000 0.298532516 0.096919000
0.327548027 0.342194498 0.062515259
0.497087538 0.385905504 0.051353004
0.727311969 0.373972028 0.051182251
0.847199023 0.368467510 0.062224504
0.363364756 0.442679018 0.129968494
0.534846783 0.481288254 0.091841504
0.668366015 0.517697752 0.081593253
0.778334022 0.504332304 0.072490253
0.902862787 0.481795251 0.085055754
0.536495984 0.558651984 0.172627002
0.690226495 0.586574554 0.141725004
0.792396545 0.612075508 0.124325499
0.873291254 0.618103981 0.114142746
0.928223014 0.578373015 0.099916004
0.033909000 0.040799752 0.098219253
0.124223262 0.044554748 0.122866750
0.264796764 0.043264002 0.130272254
0.415428281 0.053648502 0.127480745
0.539201498 0.062227000 0.118904002
0.035288751 0.165591761 0.218131006
0.149223015 0.223874509 0.247118264
0.454926521 0.278747261 0.264545739
0.618558764 0.312487006 0.273364991
0.716470778 0.301187009 0.260880023
0.040799752 0.288363010 0.255359232
0.245962009 0.384921521 0.291783035
0.517175436 0.447630763 0.272038251
0.705130458 0.470400244 0.294929266
0.830802023 0.495614737 0.342910498
0.094155252 0.401471019 0.273232013
0.384819210 0.501997530 0.316825718
0.623884797 0.559249520 0.299044997
0.758925796 0.576957464 0.278762519
0.883278966 0.601428270 0.387560755
0.286740243 0.515417755 0.295672745
0.582111239 0.630456984 0.397968024
0.704396009 0.671741247 0.443585485
0.824168265 0.711381495 0.468294501
0.917615771 0.721435785 0.486822009
0.034303002 0.064792007 0.178010017
0.088893756 0.053648502 0.174036503
0.223099500 0.053326502 0.175126016
0.375136018 0.050008498 0.181991249
0.521794498 0.058053002 0.181121007
0.039429002 0.186440259 0.308439016
0.076858506 0.256596506 0.349775761
0.345195472 0.288668245 0.355085492
0.559406042 0.300633490 0.343086749
0.692010283 0.305670023 0.335954249
0.045822002 0.316965520 0.410341978
0.097523004 0.396682799 0.439546973
0.398753494 0.478226513 0.465945005
0.654548764 0.518333495 0.486016035
0.786389947 0.507890522 0.464339018
0.053325251 0.422630489 0.455754519
0.150943756 0.503432751 0.463170260
0.485817015 0.579693794 0.494635761
0.702749491 0.627999783 0.508038521
0.873405218 0.654422045 0.529185534
0.095059499 0.501227975 0.435347021
0.402603507 0.604727745 0.470687002
0.631651461 0.681494474 0.529118061
0.798081219 0.731856287 0.562556982
0.908262968 0.753709495 0.593482971
0.039429002 0.114651002 0.280143738
0.062321752 0.073386498 0.226635754
0.206410751 0.083681755 0.250440001
0.322953016 0.068122499 0.235519260
0.491645247 0.073644757 0.244579256
0.043819748 0.230077758 0.391961515
0.063207500 0.293504000 0.426514983
0.230755255 0.317262024 0.426608026
0.486256003 0.327626795 0.421764493
0.658209026 0.324531496 0.404283762
0.050008498 0.336006224 0.478271246
0.079412252 0.405853003 0.503377080
0.324665010 0.499225765 0.538554788
0.559623241 0.524734497 0.549220562
0.745215476 0.519451976 0.533590794
0.055725001 0.427137524 0.531010747
0.113626756 0.506268978 0.555278540
0.369776994 0.593304276 0.590328038
0.629317522 0.648642063 0.614590287
0.842787743 0.677512765 0.643905520
0.073008254 0.509410024 0.553632498
0.273255497 0.629047513 0.585277200
0.501125038 0.683508277 0.616199791
0.720526516 0.740476489 0.654422522
0.889995694 0.779216766 0.695741773
0.042516001 0.167493999 0.362511992
0.042696502 0.105856001 0.293703496
0.155978009 0.117235497 0.306997478
0.312858999 0.135457754 0.332885504
0.398348987 0.084261000 0.291990995
0.047419999 0.264539003 0.450641990
0.060151752 0.324012995 0.484942019
0.144174516 0.345066756 0.485121995
0.367648274 0.355257004 0.481318980
0.563758492 0.347753018 0.471867502
0.052347001 0.354586005 0.522135019
0.073624253 0.421898007 0.549996018
0.261876047 0.511316061 0.593004525
0.471034765 0.530880451 0.598060489
0.652706504 0.529074490 0.592127502
0.057592500 0.429919243 0.570199490
0.104690254 0.506418705 0.596250772
0.334399998 0.597025752 0.640764534
0.615842044 0.666362286 0.686798275
0.770285010 0.684553742 0.697841525
0.074157998 0.511641979 0.609470010
0.265106529 0.637723804 0.658340991
0.478097498 0.698867500 0.697556973
0.686434269 0.751875758 0.739640474
0.865545988 0.794788003 0.770439982
