public/lut/130.cube
TITLE "17x17x17 Adobe/IRIDAS cube 3D LUT exported with GrossGrade v0.2.2 (beta) 64 bit"
DOMAIN_MIN 0 0 0
DOMAIN_MAX 1 1 1
LUT_3D_SIZE 17
0.069489002 0.068389997 0.072632000
0.090117998 0.073028997 0.074097000
0.103027001 0.081177004 0.080292001
0.115264997 0.089690998 0.086273000
0.146056995 0.091858000 0.084595002
0.183289006 0.090576001 0.078247003
0.222014993 0.087738000 0.069397002
0.260376006 0.084197998 0.059691999
0.294250011 0.080292001 0.047913000
0.325042993 0.076018997 0.025726000
0.354645014 0.071198002 0.007111000
0.383484006 0.066223003 0.014099000
0.412292004 0.061492998 0.030548001
0.442656994 0.059875000 0.038940001
0.474792004 0.059875000 0.045623999
0.508301020 0.061767999 0.051819000
0.540039003 0.067870997 0.057434000
0.087952003 0.106505997 0.090942003
0.112121999 0.110077001 0.094635002
0.124573000 0.117554002 0.102050997
0.135010004 0.125366002 0.107391000
0.161987007 0.126159996 0.102783002
0.195526004 0.121947996 0.093200997
0.230407998 0.115874998 0.081084996
0.265136987 0.109314002 0.067962997
0.297118992 0.103332996 0.054076999
0.328247011 0.099670000 0.047240999
0.360015988 0.098419003 0.050415002
0.393188000 0.099151999 0.055877998
0.428162009 0.102173001 0.061554000
0.464172006 0.106964000 0.067016996
0.500885010 0.112182997 0.071777001
0.537658989 0.117889002 0.076324001
0.568054020 0.123657003 0.081055000
0.112548999 0.137450993 0.115691997
0.134430006 0.138641000 0.115753002
0.145264000 0.142029002 0.120056003
0.153533995 0.144958004 0.124022998
0.177001998 0.142883003 0.117614999
0.208038002 0.138457999 0.106812000
0.243805006 0.134307995 0.096619003
0.281464010 0.131775007 0.087830000
0.318634003 0.131743997 0.082030997
0.355132997 0.134369001 0.079833999
0.391997993 0.138519004 0.080017000
0.429168999 0.143433005 0.082275003
0.466064006 0.148834005 0.085876003
0.503509998 0.154724002 0.089934997
0.541106999 0.160797000 0.093566999
0.577270985 0.166594997 0.096863002
0.603882015 0.173370004 0.100768998
0.126739994 0.157257006 0.129822001
0.146514997 0.156586006 0.127716005
0.157440007 0.159606993 0.130646005
0.169524997 0.164673001 0.137420997
0.199462995 0.165039003 0.138306007
0.235717997 0.166168004 0.134430006
0.275451988 0.168395996 0.129639000
0.316406012 0.170867994 0.125641003
0.356353998 0.174285993 0.123718001
0.394775003 0.179138005 0.123749003
0.432799995 0.184631005 0.124512002
0.470885992 0.190430000 0.125792995
0.508759022 0.196594000 0.128204003
0.546721995 0.203033000 0.130463004
0.584685981 0.209319994 0.132598996
0.618317008 0.216064006 0.134978995
0.639679015 0.223083004 0.137848005
0.128113002 0.188446000 0.130980998
0.152099997 0.192748994 0.133209005
0.168640003 0.201385006 0.141051993
0.185546994 0.210998997 0.150726005
0.222106993 0.214049995 0.156158000
0.264618009 0.215607002 0.159149006
0.306580007 0.218505993 0.158996999
0.347748011 0.222809002 0.156951994
0.387237996 0.228119001 0.155517995
0.425415009 0.233916998 0.155457005
0.463562012 0.240264997 0.156737998
0.501801014 0.246674001 0.158203006
0.539763987 0.253295988 0.160126001
0.578002989 0.260010004 0.162109002
0.616028011 0.266663015 0.164093003
0.647705019 0.273467988 0.165863007
0.667145014 0.281035990 0.169006005
0.139037997 0.240661994 0.141601995
0.166260004 0.247986004 0.147034004
0.184906006 0.259186000 0.157134995
0.204041004 0.271088004 0.167846993
0.242644995 0.275115997 0.172851995
0.288605005 0.275970012 0.177306995
0.334868997 0.277312994 0.181365997
0.378571004 0.280487001 0.183166996
0.418610007 0.285889000 0.183807001
0.456268013 0.292450011 0.184631005
0.493438989 0.299468994 0.185546994
0.530791998 0.306457996 0.186615005
0.568297982 0.313598990 0.188109994
0.605988026 0.320374012 0.189575002
0.643188000 0.327057004 0.190887004
0.673552990 0.334075987 0.192596003
0.691497982 0.341461003 0.194855005
0.155396000 0.302978992 0.157837003
0.183777004 0.311401010 0.164306998
0.203400001 0.323516995 0.175292999
0.223083004 0.335875988 0.186340004
0.262726009 0.340546012 0.190491006
0.310119987 0.341827005 0.193969995
0.359252989 0.341919005 0.199004993
0.406616002 0.343201011 0.204041004
0.449279994 0.346985012 0.208251998
0.488097996 0.352721989 0.211303994
0.525207996 0.359375000 0.213286996
0.561859012 0.366546988 0.214629993
0.598145008 0.373688012 0.215545997
0.634612978 0.380585015 0.216248006
0.670409977 0.387268007 0.216644004
0.698760986 0.393981993 0.217345998
0.715240002 0.401001006 0.218811005
0.173614994 0.368256003 0.175872996
0.202941999 0.377350003 0.183228001
0.223267004 0.389984012 0.194672003
0.243377998 0.402648985 0.206299007
0.283813000 0.407622993 0.210480005
0.332062006 0.409058005 0.212585002
0.382171988 0.409148991 0.216399997
0.431396008 0.409148991 0.221892998
0.476624012 0.410889000 0.227997005
0.517731011 0.414734006 0.233550996
0.556182981 0.419860989 0.237639993
0.593109012 0.425751001 0.240264997
0.628844976 0.432036996 0.241698995
0.664093018 0.438416004 0.242035002
0.698119998 0.444640994 0.241790995
0.724090993 0.451171994 0.241638005
0.738982975 0.458038002 0.242248997
0.195313007 0.434051991 0.197327003
0.225189000 0.443390012 0.205078006
0.245879993 0.456176996 0.216858000
0.266205013 0.468932986 0.228760004
0.306885004 0.473724008 0.233002007
0.355681986 0.475066990 0.234283000
0.405945003 0.474914998 0.236450002
0.455413997 0.474335015 0.240539998
0.501677990 0.474700987 0.246337995
0.544188976 0.476532012 0.252808005
0.584197998 0.479584008 0.258392006
0.622161984 0.483612001 0.262603998
0.658538997 0.488373011 0.265289009
0.693755984 0.493591011 0.266510010
0.726776004 0.499237001 0.266692996
0.750671029 0.505554020 0.266692996
0.763733029 0.512543023 0.267242014
0.219542995 0.499054015 0.221466005
0.249816999 0.508239985 0.229340002
0.270386010 0.520905018 0.241027996
0.290436000 0.533234000 0.252777010
0.331023991 0.537688971 0.256866008
0.379639000 0.538421988 0.257506996
0.429839998 0.537688971 0.258179009
0.479065001 0.536559999 0.260558993
0.525146008 0.536132991 0.265136987
0.568175972 0.536682010 0.271149009
0.609252989 0.538146973 0.277251989
0.648621023 0.540557981 0.282471001
0.686187983 0.543853998 0.286590993
0.722473025 0.547942996 0.289368004
0.755309999 0.552794993 0.291076988
0.777710021 0.558685005 0.292145014
0.789031982 0.565581977 0.293671012
0.244323999 0.562622011 0.246123999
0.274444997 0.571411014 0.253661990
0.294494987 0.583374023 0.264954001
0.314087003 0.595093012 0.276275992
0.354155988 0.598906994 0.279967993
0.402373999 0.599059999 0.280211985
0.452362001 0.597809017 0.279754996
0.501465023 0.596221983 0.280701011
0.547302008 0.595367014 0.283996999
0.590453982 0.595551014 0.289306998
0.632171988 0.596221983 0.295379996
0.672729015 0.597564995 0.301270008
0.711791992 0.599853992 0.306549013
0.749207020 0.602814019 0.310730010
0.782288015 0.606750011 0.313872993
0.803893983 0.612061024 0.316680998
0.813781977 0.618439019 0.319550008
0.268188000 0.624023020 0.269744992
0.297728986 0.632049978 0.276917011
0.317321986 0.643311024 0.287750006
0.336394995 0.654479980 0.298676014
0.375916004 0.657745004 0.302002013
0.423920006 0.657593012 0.302154988
0.473906994 0.656067014 0.301299989
0.523010015 0.654326975 0.301422000
0.569000006 0.653503001 0.304107994
0.612182975 0.653625011 0.308654994
0.654052973 0.654052973 0.314209014
0.695281982 0.654877007 0.320342988
0.735351980 0.656250000 0.326171994
0.773895025 0.658416986 0.331328988
0.807434022 0.661530018 0.335693002
0.828552008 0.666015983 0.339965999
0.837616026 0.671844006 0.344451994
0.291137993 0.682617009 0.292663991
0.320403993 0.690246999 0.299560994
0.339661002 0.701018989 0.310149997
0.358612001 0.711944997 0.321013987
0.397980005 0.715179026 0.324523985
0.445587009 0.714874029 0.324737996
0.495514005 0.713317990 0.324097008
0.544739008 0.711578012 0.323974997
0.590789974 0.710663021 0.325836003
0.633911014 0.710663021 0.329834014
0.675781012 0.711121023 0.334991008
0.716888011 0.711700022 0.340759009
0.757507026 0.712677002 0.346740991
0.796967030 0.714203000 0.352631003
0.830811024 0.716552973 0.357757986
0.851929009 0.720520020 0.363281012
0.860351980 0.725615978 0.368957996
0.314330995 0.739867985 0.315613002
0.343140006 0.747101009 0.322387993
0.362578988 0.757843018 0.333312988
0.381500006 0.768432975 0.344330013
0.420287997 0.771484017 0.347869992
0.467651010 0.771270990 0.348511010
0.517273009 0.769591987 0.348082989
0.566375971 0.767822027 0.347869992
0.612426996 0.766968012 0.349456996
0.655395985 0.766906977 0.352936000
0.697112978 0.767273009 0.357726991
0.738281012 0.767943978 0.363433987
0.778809011 0.768859982 0.369385004
0.818512022 0.769989014 0.375427008
0.852904975 0.771973014 0.381348014
0.873901010 0.775146008 0.387481987
0.882049978 0.779815972 0.394286990
0.338043004 0.795197010 0.339111000
0.366791010 0.802307010 0.346343994
0.386016995 0.812346995 0.357239008
0.404846013 0.822265983 0.368346989
0.443419993 0.825348020 0.372283995
0.489989996 0.825073004 0.373138011
0.539184988 0.823638976 0.373108000
0.588042974 0.821991026 0.373322010
0.633789003 0.821166992 0.374817014
0.676726997 0.821289003 0.378203988
0.718322992 0.821807981 0.382934988
0.759154975 0.822417974 0.388428003
0.799499989 0.823455989 0.394531012
0.839110970 0.824676991 0.400878996
0.873474002 0.826323986 0.407195985
0.894684017 0.829285026 0.414153993
0.902679026 0.833374023 0.421570003
0.361999989 0.842072010 0.362915009
0.390228003 0.848083019 0.370056003
0.409453988 0.856688976 0.381103992
0.428009003 0.865050972 0.392089993
0.465851009 0.867766976 0.396117985
0.512023985 0.868072987 0.397522002
0.560669005 0.867218018 0.398131996
0.608977973 0.866088986 0.398681998
0.654632986 0.865845025 0.400573999
0.697327018 0.866393983 0.404083014
0.738586009 0.867218018 0.408843994
0.779326975 0.868255973 0.414550990
0.819305003 0.869476020 0.420776010
0.858520985 0.871002018 0.427367985
0.892853022 0.873169005 0.434356987
0.913971007 0.876067996 0.441680998
0.921935976 0.879974008 0.449707001
0.384490997 0.873260021 0.385192990
0.412506014 0.878692985 0.392455995
0.431151986 0.885742009 0.403198004
0.449463010 0.892609000 0.414032012
0.486999989 0.895294011 0.418426991
0.532593012 0.895905018 0.419952005
0.580780029 0.895752013 0.420897990
0.628875971 0.895416021 0.422179997
0.674103022 0.895599008 0.424376994
0.716643989 0.896484017 0.428039998
0.757781982 0.897705019 0.432830989
0.798065007 0.898986995 0.438477010
0.837921023 0.900664985 0.445068002
0.877044976 0.902557015 0.452057004
0.910797000 0.904906988 0.459320009
0.931854010 0.908294976 0.467193991
0.939758003 0.912292004 0.475281000
0.058228001 0.073028997 0.095154002
0.089599997 0.074097000 0.096740998
0.103394002 0.082488999 0.103179999
0.116272002 0.090972997 0.109802000
0.147765994 0.092987001 0.108887002
0.184998006 0.091124997 0.103119001
0.224059999 0.088592999 0.095825002
0.261687994 0.084656000 0.087250002
0.295897990 0.080048002 0.077881001
0.326813012 0.075714000 0.067688003
0.356231987 0.070983998 0.056731999
0.384979010 0.065673999 0.045226999
0.414184988 0.062042002 0.030060001
0.445648015 0.061127000 0.011322000
0.477936000 0.064575002 0.001282000
0.512481987 0.069426998 0.001373000
0.543914974 0.074065998 0.001434000
0.085662998 0.106536999 0.120238997
0.110413000 0.112121999 0.117645003
0.123076998 0.119537003 0.123138003
0.134398997 0.126647994 0.127959996
0.161956996 0.126221001 0.123901002
0.195769995 0.121947996 0.114868000
0.230590999 0.115845002 0.103363000
0.265044987 0.108978003 0.091674998
0.297852010 0.103698999 0.080688000
0.329468012 0.100800000 0.072113000
0.362029999 0.100249998 0.066253997
0.395965993 0.101775996 0.062775001
0.431030005 0.105590999 0.061554000
0.467346013 0.110779002 0.061432000
0.504211009 0.116272002 0.061951000
0.541137993 0.121551998 0.062073000
0.571228027 0.127716005 0.063170999
0.107697003 0.138519004 0.143433005
0.131775007 0.139495999 0.138549998
0.142578006 0.142333999 0.141295999
0.149811000 0.145751998 0.143950999
0.174346998 0.143981993 0.137299001
0.207213998 0.139312997 0.127746999
0.244415000 0.135619998 0.118865997
0.282837003 0.133452997 0.111786000
0.320953012 0.133972004 0.107726999
0.358184993 0.137237996 0.106232002
0.395415992 0.141541004 0.106445000
0.432494998 0.146422997 0.107207999
0.469879001 0.152161002 0.108643003
0.507293999 0.157958999 0.110504001
0.544861019 0.163971007 0.112273999
0.581328988 0.170227006 0.113982998
0.607208014 0.176666006 0.116333000
0.121063001 0.157349005 0.154449001
0.143555000 0.156829998 0.150269002
0.155150995 0.160521999 0.153167993
0.167603001 0.166015998 0.159637004
0.197478995 0.167846993 0.159942999
0.234984994 0.169891000 0.156433001
0.276001006 0.171783000 0.152161002
0.318329006 0.174133003 0.149231002
0.358886987 0.177734002 0.148131996
0.397675008 0.182433993 0.148498997
0.436096013 0.187958002 0.149902001
0.474395990 0.193939000 0.151886001
0.512359977 0.200073004 0.153870001
0.550629020 0.206512004 0.156128004
0.588684022 0.212890998 0.158355996
0.621887028 0.219359994 0.160521999
0.642943978 0.226563007 0.163605005
0.125183001 0.190154999 0.155791998
0.151153997 0.194580004 0.157532007
0.167846993 0.203826994 0.165497005
0.185454994 0.214019999 0.175322995
0.222014993 0.217437997 0.180298001
0.264221013 0.219574004 0.182831004
0.306243986 0.223175004 0.181915000
0.347930998 0.227569997 0.179535002
0.388213992 0.232421994 0.178435996
0.427367985 0.238220006 0.179107994
0.465972990 0.244293004 0.180573002
0.504455984 0.250640988 0.182373002
0.542877018 0.257263005 0.184814006
0.581421018 0.263884991 0.187073007
0.619445980 0.270476997 0.189300999
0.651062012 0.277373999 0.191588998
0.670013011 0.284606993 0.194549993
0.138031006 0.243194997 0.166931003
0.166015998 0.250519007 0.172211006
0.185028002 0.262360007 0.182677999
0.204009995 0.274048001 0.193176001
0.242950007 0.278595001 0.197815001
0.289214998 0.279846013 0.202240005
0.335114002 0.281554997 0.205688000
0.378540009 0.285308987 0.206939995
0.418457001 0.290924013 0.207030997
0.456389993 0.297484994 0.207367003
0.494201988 0.304381996 0.208434999
0.532257020 0.311248988 0.209930003
0.570128977 0.318024009 0.211639002
0.608307004 0.324737996 0.213501006
0.645874023 0.331360012 0.215178996
0.676177979 0.338135004 0.217010006
0.694091976 0.345367014 0.219574004
0.155059993 0.305725008 0.183623999
0.184235007 0.314301014 0.190276995
0.203704998 0.326568991 0.201079994
0.223235995 0.339049995 0.212432995
0.263184011 0.344085991 0.216339007
0.310912997 0.345551014 0.219329998
0.360137999 0.346008003 0.224090993
0.407317996 0.347687006 0.229094997
0.449523985 0.351684988 0.232483000
0.488036990 0.357787997 0.234833002
0.525207996 0.364715993 0.236420006
0.561919987 0.371704012 0.237488002
0.598572016 0.378693014 0.238434002
0.635497987 0.385437012 0.239258006
0.671661019 0.391815007 0.239929006
0.700438976 0.398285002 0.240844995
0.717224002 0.405182004 0.242461994
0.173950002 0.371215999 0.202454001
0.203704998 0.380309999 0.209594995
0.223784998 0.393097013 0.220978007
0.243773997 0.405822992 0.232758000
0.284332007 0.411071986 0.236938000
0.332764000 0.412811011 0.238525003
0.382995993 0.413116008 0.241790995
0.432220012 0.413239002 0.247100994
0.477477998 0.415161014 0.253051996
0.518158019 0.419250011 0.258208990
0.556244016 0.424683005 0.261718988
0.592833996 0.430694997 0.263671994
0.628386974 0.437072992 0.264557004
0.663818002 0.443358988 0.264679015
0.698242009 0.449553996 0.264526010
0.724822998 0.455779999 0.264313012
0.740294993 0.462493986 0.265105993
0.195801005 0.437103003 0.224304006
0.226196006 0.446381003 0.231933996
0.246582001 0.459289998 0.243499994
0.266663015 0.472075999 0.255371004
0.307280988 0.477081001 0.259674013
0.356139988 0.478576988 0.260650992
0.406585991 0.478637993 0.262145996
0.456146002 0.478271008 0.265807986
0.502471983 0.478637993 0.271544993
0.544921994 0.480590999 0.277862996
0.584595025 0.483734012 0.283080995
0.622223020 0.487946004 0.286713004
0.658203006 0.492920011 0.288910002
0.693268001 0.498351991 0.289642006
0.726348996 0.504059017 0.289581001
0.750854015 0.510375977 0.289306998
0.764617980 0.517242014 0.289824992
0.220122993 0.501953006 0.248595998
0.250793010 0.511107981 0.256348014
0.271088004 0.523773015 0.267883003
0.290984988 0.536194026 0.279480010
0.331328988 0.540741026 0.283416986
0.379974008 0.541656017 0.283966005
0.430267006 0.541137993 0.284027010
0.479553014 0.540099978 0.285706013
0.525635004 0.539763987 0.290008992
0.568695009 0.540374994 0.295929015
0.609740973 0.541900992 0.301880002
0.648926020 0.544403017 0.306914985
0.686309993 0.547942996 0.310851991
0.722289979 0.552277029 0.313262999
0.755127013 0.557281017 0.314453006
0.777924001 0.563323975 0.315308005
0.789763987 0.570190012 0.316314995
0.245086998 0.565398991 0.273375988
0.275269002 0.574005008 0.280640006
0.295226991 0.586028993 0.291779011
0.314574987 0.597778022 0.302917004
0.354308993 0.601746023 0.306365997
0.402435005 0.602051020 0.306519002
0.452576011 0.600952029 0.305694997
0.501677990 0.599457026 0.305938989
0.547698975 0.598846018 0.308898985
0.590880990 0.599090993 0.314056009
0.632659972 0.599883974 0.320006996
0.673218012 0.601257026 0.325897008
0.712127984 0.603637993 0.330994010
0.749419987 0.606841981 0.334991008
0.782622993 0.611023009 0.337891012
0.804351985 0.616333008 0.340178996
0.814697027 0.622833014 0.342651010
0.268889993 0.626434028 0.296813995
0.298584014 0.634429991 0.303772002
0.317992985 0.645690978 0.314330995
0.336822987 0.656921029 0.325042993
0.376190007 0.660492003 0.328307986
0.423920006 0.660431027 0.328307986
0.473969012 0.659119010 0.327300996
0.523315012 0.657593012 0.326965004
0.569396973 0.656890988 0.328949004
0.612578988 0.657104015 0.333252013
0.654541016 0.657684028 0.338806003
0.695679009 0.658447027 0.344666004
0.735778987 0.659942985 0.350555003
0.774384022 0.662231028 0.355681986
0.807892025 0.665374994 0.359741002
0.829285026 0.669983029 0.363739014
0.838684022 0.675963998 0.367888987
0.291900992 0.684906006 0.319427013
0.321074992 0.692382991 0.326018989
0.340362996 0.703400016 0.336638987
0.359160990 0.714325011 0.347321004
0.398193002 0.717711985 0.350647002
0.445708990 0.717651010 0.350829989
0.495635986 0.716278017 0.350006014
0.544891000 0.714600027 0.349303991
0.591063976 0.713927984 0.350739002
0.634247005 0.714080989 0.354279011
0.676117003 0.714600027 0.359160990
0.717346013 0.715301991 0.364899009
0.757965028 0.716309011 0.370911002
0.797393978 0.717864990 0.376556009
0.831543028 0.720367014 0.381805003
0.852752984 0.724213004 0.386992991
0.861510992 0.729492009 0.392455995
0.315032989 0.741913021 0.342040986
0.344146997 0.749237001 0.348877013
0.363312006 0.760070980 0.359528005
0.382050008 0.770659983 0.370238990
0.420836985 0.774016976 0.373809993
0.467833996 0.773833990 0.374175996
0.517426014 0.772400022 0.373566002
0.566588998 0.770812988 0.373077005
0.612609982 0.770020008 0.374083996
0.655700982 0.770172000 0.377135992
0.697570980 0.770721018 0.381743997
0.738646984 0.771393001 0.387053996
0.779143989 0.772338986 0.392944008
0.819031000 0.773621023 0.398956001
0.853546023 0.775542974 0.404877007
0.874846995 0.778869987 0.411071986
0.883301020 0.783568978 0.417663991
0.339203000 0.797272027 0.365478992
0.367828012 0.804229975 0.372375011
0.387023985 0.814391971 0.383179009
0.405791998 0.824432015 0.394104004
0.443877995 0.827453971 0.397614002
0.490447998 0.827544987 0.398467988
0.539520025 0.826263011 0.398315012
0.588195980 0.824706972 0.398131996
0.634124994 0.824096978 0.399260998
0.677093983 0.824401975 0.402191013
0.718627989 0.824950993 0.406342000
0.759521008 0.825744987 0.411682010
0.799926996 0.826781988 0.417632997
0.839478016 0.828032970 0.423736989
0.874207020 0.829895020 0.430175990
0.895690978 0.832794011 0.436980993
0.903869987 0.836914003 0.444366008
0.363159001 0.843536019 0.388641000
0.391541004 0.849731028 0.395812988
0.410430998 0.858336985 0.406524986
0.428954989 0.866638005 0.417328000
0.466675013 0.869597971 0.421294987
0.512512028 0.870055974 0.422333002
0.560944021 0.869385004 0.422637999
0.609344006 0.868529975 0.423065007
0.654906988 0.868346989 0.424560994
0.697661996 0.868987978 0.427643001
0.739044011 0.869994998 0.431885004
0.779632986 0.871062994 0.437103003
0.819671988 0.872406006 0.443176001
0.859130979 0.874114990 0.449768007
0.893432975 0.876128972 0.456512004
0.915009022 0.879181027 0.463898003
0.923278987 0.883117974 0.471924007
0.385803014 0.874602973 0.410706013
0.413666010 0.879912972 0.417602986
0.432343006 0.886963010 0.428252995
0.450592011 0.893828988 0.438995004
0.487731993 0.896637022 0.442901999
0.533141971 0.897460997 0.444366008
0.581206977 0.897490978 0.445129007
0.629088998 0.897278011 0.445984006
0.674408019 0.897674978 0.447937012
0.716979980 0.898651004 0.451171994
0.758026004 0.899963021 0.455413997
0.798461974 0.901427984 0.460662991
0.838379025 0.903168023 0.466980010
0.877380013 0.905121028 0.473663002
0.911437988 0.907622993 0.480865002
0.932739019 0.910919011 0.488555998
0.940979004 0.914916992 0.496856987
0.052490000 0.079346001 0.105713002
0.088225998 0.077483997 0.109650001
0.104858004 0.085631996 0.113525003
0.117919996 0.094208002 0.120148003
0.149292007 0.096161000 0.118744001
0.187255993 0.094269000 0.113495000
0.226563007 0.091155998 0.106505997
0.264007986 0.086975001 0.097930998
0.297637999 0.082061999 0.088500999
0.328399986 0.077209003 0.079314999
0.357573986 0.072235003 0.069397002
0.386687994 0.067443997 0.058807001
0.416718006 0.064452998 0.048950002
0.448455989 0.063995004 0.040160999
0.481750011 0.066192999 0.033234000
0.517120004 0.070525996 0.030913999
0.548370004 0.076110996 0.030151000
0.085602000 0.110443003 0.129088998
0.106536999 0.117156997 0.128113002
0.124450997 0.122161999 0.132568002
0.136107996 0.129028007 0.137633994
0.163605005 0.127808005 0.133331001
0.197478995 0.123199001 0.124358997
0.232635006 0.116852000 0.113555998
0.267058998 0.110045999 0.102020003
0.300110012 0.104979999 0.091980003
0.332702994 0.102844000 0.085205004
0.365783989 0.102875002 0.080261000
0.400085002 0.104858004 0.077239998
0.436156988 0.109406002 0.077118002
0.472564995 0.114288002 0.077728003
0.509429991 0.119842999 0.078491002
0.546447992 0.125579998 0.078979000
0.575958014 0.131317005 0.080688000
0.110106997 0.138854995 0.159026995
0.131377995 0.140411004 0.152435005
0.142029002 0.143981993 0.150452003
0.149535999 0.147368997 0.151427999
0.175079003 0.145019993 0.145264000
0.209319994 0.141083002 0.136748999
0.247070000 0.137999997 0.128876001
0.286224008 0.136687994 0.122528002
0.324799001 0.137786999 0.119140998
0.362457007 0.141326994 0.118164003
0.399688989 0.145781994 0.118164003
0.437041998 0.150909007 0.119019002
0.474395990 0.156646997 0.120330997
0.511840999 0.162567005 0.122009002
0.549621999 0.168853998 0.123870999
0.585663021 0.174896002 0.125670999
0.611298025 0.181580007 0.127808005
0.118835002 0.158234000 0.170532003
0.141632006 0.158629999 0.162842005
0.155273005 0.163025007 0.163451999
0.168578997 0.169495001 0.169616997
0.198974997 0.172211006 0.169707999
0.237488002 0.174103007 0.166443005
0.279509991 0.176085994 0.162933007
0.322356999 0.178406000 0.160644993
0.363312006 0.182007000 0.159881994
0.402435005 0.186980993 0.160613999
0.440948009 0.192566007 0.162261993
0.479308993 0.198486000 0.163971007
0.517333984 0.204589993 0.166260004
0.555724978 0.211089998 0.168518007
0.593657970 0.217437997 0.170775995
0.626677990 0.224121004 0.173217997
0.647125006 0.231323004 0.176238999
0.122803003 0.193847999 0.170624003
0.151672006 0.198333994 0.170104995
0.169921994 0.207764000 0.177764997
0.187408000 0.218230993 0.187163994
0.224243000 0.221924007 0.191833004
0.266478986 0.224730998 0.194000006
0.308654994 0.228698999 0.192505002
0.350921988 0.232970998 0.190216005
0.391968012 0.237579003 0.189545006
0.431396008 0.243102998 0.190491006
0.470306009 0.249207005 0.192230001
0.509124994 0.255524009 0.194457993
0.547637999 0.262084991 0.196777001
0.586242974 0.268646002 0.199127004
0.624419987 0.275330007 0.201599002
0.655487001 0.282043010 0.203917995
