public/lut/130.cube
TITLE "17x17x17 Adobe/IRIDAS cube 3D LUT exported with GrossGrade v0.2.2 (beta) 64 bit"
DOMAIN_MIN 0 0 0
DOMAIN_MAX 1 1 1
LUT_3D_SIZE 5
0.069489002 0.068389997 0.072632000
0.146056995 0.091858000 0.084595002
0.294250011 0.080292001 0.047913000
0.412292004 0.061492998 0.030548001
0.540039003 0.067870997 0.057434000
0.128113002 0.188446000 0.130980998
0.222106993 0.214049995 0.156158000
0.387237996 0.228119001 0.155517995
0.539763987 0.253295988 0.160126001
0.667145014 0.281035990 0.169006005
0.195313007 0.434051991 0.197327003
0.306885004 0.473724008 0.233002007
0.501677990 0.474700987 0.246337995
0.658538997 0.488373011 0.265289009
0.763733029 0.512543023 0.267242014
0.291137993 0.682617009 0.292663991
0.397980005 0.715179026 0.324523985
0.590789974 0.710663021 0.325836003
0.757507026 0.712677002 0.346740991
0.860351980 0.725615978 0.368957996
0.384490997 0.873260021 0.385192990
0.486999989 0.895294011 0.418426991
0.674103022 0.895599008 0.424376994
0.837921023 0.900664985 0.445068002
0.939758003 0.912292004 0.475281000
0.013000000 0.087738000 0.144256994
0.148102000 0.099609002 0.158600003
0.296844006 0.083922997 0.128845006
0.419616997 0.068787001 0.100616001
0.554565012 0.083678998 0.097778000
0.124146000 0.192626998 0.228302002
0.225647002 0.228698999 0.236237004
0.398743004 0.244843006 0.232727006
0.555908024 0.269501001 0.241240993
0.680572987 0.296752989 0.251769990
0.192534998 0.449860007 0.291900992
0.312072992 0.488555998 0.320679009
0.507293999 0.491759986 0.328399986
0.659606993 0.508208990 0.340454012
0.769622982 0.531677008 0.339661002
0.292876989 0.694945991 0.382598996
0.402648985 0.726989985 0.410553008
0.594666004 0.725188971 0.408111989
0.761963010 0.728546023 0.425628990
0.866210997 0.742797971 0.445740014
0.389831990 0.880156994 0.470337003
0.493378013 0.901916981 0.500122011
0.677978992 0.904906988 0.502991021
0.842101991 0.911652029 0.518311024
0.945953012 0.923950016 0.547150016
0.000000000 0.108612001 0.301207989
0.074127004 0.108153999 0.342620999
0.278351009 0.077881001 0.287932992
0.409424007 0.072479002 0.269957989
0.555359006 0.092589997 0.275696009
0.077728003 0.214629993 0.358489990
0.156036004 0.252990991 0.403075993
0.395264000 0.251403987 0.404114008
0.557343006 0.276793987 0.415253013
0.686676025 0.301726997 0.428741008
0.184020996 0.432738990 0.518859982
0.296508998 0.480010986 0.535645008
0.492217988 0.497619987 0.502502024
0.649322987 0.516143978 0.504455984
0.771239996 0.535979986 0.507874012
0.256164998 0.688385010 0.605926991
0.371338010 0.725494027 0.612182975
0.579864979 0.726806998 0.587249994
0.749237001 0.734375000 0.596466005
0.860718012 0.753021002 0.607573986
0.362212986 0.875365973 0.671325982
0.475219995 0.898833990 0.683471978
0.666747987 0.905731022 0.673247993
0.830871999 0.916565001 0.680114985
0.945312977 0.930419981 0.701964974
0.000000000 0.129973993 0.437835991
0.000000000 0.132477000 0.480316013
0.247283995 0.077514999 0.437682986
0.405914009 0.080536000 0.413024992
0.554992974 0.100800000 0.421936005
0.083191000 0.244048998 0.482239008
0.089386001 0.277617991 0.546112001
0.363312006 0.267212003 0.573333979
0.556244016 0.286011010 0.562865973
0.688995004 0.308867991 0.576569021
0.175414994 0.438751012 0.655700982
0.265960991 0.497559011 0.657958984
0.433898985 0.522765994 0.649658024
0.646362007 0.520905018 0.651978016
0.773895025 0.538818002 0.657410026
0.268126994 0.667968988 0.796294987
0.374329001 0.709167004 0.807219982
0.566895008 0.723755002 0.772460997
0.736877024 0.742003977 0.743651986
0.859833002 0.760222971 0.746551991
0.359008998 0.866333008 0.871124029
0.453460991 0.895294011 0.877440989
0.644500971 0.909515023 0.838775992
0.822417974 0.922393978 0.826354980
0.945617974 0.937927008 0.840088010
0.000000000 0.151276007 0.542328000
0.000000000 0.151123002 0.571471989
0.184753001 0.091095001 0.574523985
0.394957989 0.087188996 0.555939019
0.556549013 0.101868004 0.559478998
0.085479997 0.271483988 0.599669993
0.004150000 0.305083990 0.649719000
0.302062988 0.295197010 0.681945980
0.543488026 0.296204001 0.685302973
0.692656994 0.311767995 0.694335997
0.166290000 0.479279011 0.713927984
0.186707005 0.538452029 0.733153999
0.375853986 0.549103022 0.757233024
0.611359000 0.535278022 0.776732981
0.774414003 0.542145014 0.775512993
0.281708002 0.671967030 0.828948975
0.379088998 0.716674984 0.849395990
0.536224008 0.745818973 0.845184028
0.682525992 0.768432975 0.853667974
0.860992014 0.763701975 0.861541986
0.377929986 0.865966976 0.908843994
0.476410002 0.895385981 0.929108024
0.652068973 0.909942985 0.940734982
0.814849973 0.927367985 0.946075022
0.945312977 0.945312977 0.945374012
