public/lut/131.cube
TITLE "17x17x17 Adobe/IRIDAS cube 3D LUT exported with GrossGrade v0.2.2 (beta) 64 bit"
DOMAIN_MIN 0 0 0
DOMAIN_MAX 1 1 1
LUT_3D_SIZE 17
0.029175000 0.040222000 0.048308998
0.045166001 0.043212999 0.049683001
0.071227998 0.050170999 0.044280998
0.103394002 0.057709001 0.038422000
0.139679000 0.064667001 0.009277000
0.178252995 0.071960002 0.001068000
0.221954003 0.078552000 0.002869000
0.268371999 0.087798998 0.003937000
0.320403993 0.096313000 0.004730000
0.379790992 0.101043999 0.005859000
0.442535013 0.104828000 0.006317000
0.507385015 0.108581997 0.006317000
0.573059022 0.113190003 0.007294000
0.639984012 0.119842999 0.008667000
0.709351003 0.129668996 0.009552000
0.777740002 0.140258998 0.011108000
0.836944997 0.153350994 0.013397000
0.032226998 0.068908997 0.050292999
0.047240999 0.067870997 0.051635999
0.071227998 0.079102002 0.044922002
0.102844000 0.087433003 0.046204001
0.141692996 0.092285000 0.015807999
0.182403997 0.095977999 0.003845000
0.227417007 0.100066997 0.003876000
0.273986995 0.107574001 0.005188000
0.325928003 0.115479000 0.005920000
0.384795994 0.121703997 0.007050000
0.447144002 0.127196997 0.008118000
0.511078000 0.132813007 0.008881000
0.576263011 0.140015006 0.010193000
0.643616021 0.148498997 0.011719000
0.713500977 0.157989994 0.013306000
0.782348990 0.168823004 0.014923000
0.841369987 0.181061000 0.017242000
0.039917000 0.108062997 0.055420000
0.053162001 0.111052997 0.056030001
0.079773001 0.109618999 0.053557999
0.108643003 0.116608001 0.046661001
0.147522002 0.124114998 0.019928001
0.190033004 0.132110998 0.007141000
0.235687003 0.138702005 0.006195000
0.284148991 0.145934999 0.006989000
0.338073999 0.151855007 0.008575000
0.397522002 0.156433001 0.009705000
0.459717005 0.161223993 0.011230000
0.523406982 0.166656002 0.012421000
0.588012993 0.173980996 0.014008000
0.654937983 0.182556003 0.015717000
0.724242985 0.192260996 0.018036000
0.792357981 0.202820003 0.020354999
0.850921988 0.214355007 0.022675000
0.047180001 0.151978001 0.059631001
0.059326001 0.159546003 0.057983000
0.088165000 0.157074004 0.056793001
0.119629003 0.157226995 0.054168999
0.154571995 0.158568993 0.038970999
0.200591996 0.163910002 0.018250000
0.249846995 0.171936005 0.009949000
0.300659001 0.180542007 0.009949000
0.355652004 0.188354000 0.011292000
0.414519995 0.194549993 0.012817000
0.476500988 0.201079994 0.015137000
0.540862978 0.209502995 0.017302999
0.606963992 0.219269007 0.019623000
0.675018013 0.228606999 0.022583000
0.744018972 0.238220006 0.025024001
0.810913026 0.248016000 0.027984999
0.866760015 0.258056998 0.030304000
0.054625999 0.199004993 0.064240001
0.065125003 0.208008006 0.060943998
0.092926003 0.208831996 0.059113000
0.135528997 0.202605993 0.061248999
0.166840002 0.206756994 0.053314000
0.209564000 0.202880993 0.022278000
0.262145996 0.204742000 0.013123000
0.320648015 0.211944997 0.014130000
0.381531000 0.219329998 0.014404000
0.442627013 0.226928994 0.016724000
0.504395008 0.236205995 0.019012000
0.567322016 0.246917993 0.022125000
0.632507026 0.258881003 0.025420999
0.699706972 0.272583008 0.029510001
0.768280029 0.288116008 0.033721998
0.833617985 0.302978992 0.038695998
0.882080019 0.312896997 0.041747998
0.060089000 0.246094003 0.068604000
0.069426998 0.254669011 0.064940996
0.095490001 0.261566013 0.062042002
0.145781994 0.252716005 0.063842997
0.187469006 0.254119992 0.060089000
0.220917001 0.252990991 0.045502000
0.270446986 0.245911002 0.035186999
0.333831996 0.244140998 0.024383999
0.402832001 0.250580013 0.018036000
0.471496999 0.260589987 0.020599000
0.535614014 0.271149009 0.024261000
0.596771002 0.282501012 0.027832000
0.659698009 0.295197010 0.031433001
0.725432992 0.310485989 0.036072001
0.793823004 0.328583002 0.041992001
0.858336985 0.347687006 0.046997000
0.894500971 0.356963992 0.049927000
0.064300999 0.292908013 0.071898997
0.073028997 0.299988002 0.068604000
0.099182002 0.308867991 0.064940996
0.152099997 0.307159007 0.063019000
0.203766003 0.300720006 0.064667001
0.243988007 0.308411002 0.053833000
0.286345989 0.301239014 0.038605001
0.346282989 0.290344000 0.034972999
0.418731987 0.289795011 0.029755000
0.491272002 0.296570003 0.025420999
0.558655024 0.306885004 0.028870000
0.622802973 0.318848014 0.033325002
0.686583996 0.332244992 0.037932999
0.750244021 0.347930998 0.042969000
0.817017019 0.366912991 0.049072001
0.880218983 0.386687994 0.054901000
0.906342030 0.394409001 0.056976002
0.067626998 0.340270996 0.074219003
0.075684004 0.344574004 0.071410999
0.103606999 0.353698999 0.068053998
0.160247996 0.359221995 0.063812003
0.218842000 0.352508992 0.065186001
0.269957989 0.362334996 0.053467002
0.315735012 0.370941013 0.042052999
0.367188007 0.356231987 0.044647001
0.434937000 0.342285007 0.044555999
0.507659972 0.341003001 0.036651999
0.575591981 0.346466005 0.035521999
0.642150998 0.356873006 0.039429002
0.706939995 0.369507015 0.044464000
0.772400022 0.386474997 0.050110001
0.838898003 0.405975014 0.056212999
0.897338986 0.425841987 0.062073000
0.914611995 0.432709008 0.063781999
0.069733001 0.386078000 0.078368999
0.077637002 0.391387999 0.074219003
0.112029999 0.400940001 0.070404001
0.172882006 0.408966005 0.066132002
0.236603007 0.405517995 0.065369003
0.292023003 0.412627995 0.056090999
0.345183998 0.429046988 0.051330999
0.397307992 0.433288991 0.043488000
0.456481993 0.414519995 0.059601001
0.524841011 0.398773015 0.064452998
0.592101991 0.396423012 0.047302000
0.657166004 0.400115997 0.047791000
0.722351015 0.410064995 0.051665999
0.789429009 0.425476015 0.056731999
0.856445014 0.444701999 0.063019000
0.908508003 0.465393007 0.068695001
0.919708014 0.470459014 0.069733001
0.071808003 0.432404011 0.081023999
0.081329003 0.441558987 0.075043000
0.124816999 0.449553996 0.072173998
0.188416004 0.457946986 0.068297997
0.254943997 0.455291986 0.067139000
0.310759991 0.459686011 0.061370999
0.368286014 0.475800008 0.056701999
0.424560994 0.493988007 0.047667999
0.480987996 0.496428996 0.053252999
0.542328000 0.476532012 0.080811001
0.607940972 0.459838986 0.078735001
0.672882020 0.455291986 0.060699001
0.737061024 0.457702994 0.060547002
0.803040028 0.467193991 0.063995004
0.868927002 0.484375000 0.069458000
0.914520025 0.503632009 0.074859999
0.924133003 0.505707026 0.075317003
0.073821999 0.483612001 0.080352999
0.087860003 0.493286014 0.075409003
0.136474997 0.499664009 0.073913999
0.202208996 0.506042004 0.071533002
0.270720989 0.503051996 0.070739999
0.327331990 0.506042004 0.067351997
0.385650992 0.523621023 0.059783999
0.445037991 0.541137993 0.060394000
0.501434028 0.558715999 0.050232001
0.559630990 0.563445985 0.061767999
0.621643007 0.543182015 0.103058003
0.687134027 0.525604010 0.096313000
0.751343012 0.516997993 0.075530998
0.816314995 0.517090023 0.074280001
0.879791021 0.526763976 0.077026002
0.919158995 0.542450011 0.081238002
0.928680003 0.541167974 0.081238002
0.076964997 0.537505984 0.080963001
0.095031999 0.543395996 0.078612998
0.144896999 0.551086009 0.077606000
0.213043004 0.553283989 0.077271000
0.283203006 0.550384998 0.077637002
0.341948986 0.552947998 0.074890003
0.398743004 0.568633974 0.064056002
0.461548001 0.590026975 0.064361997
0.520447016 0.606963992 0.068480998
0.575286984 0.625304997 0.055755999
0.634827018 0.633880973 0.074219003
0.696349978 0.612761974 0.128082007
0.761687994 0.592041016 0.112732001
0.828217030 0.580138981 0.091461003
0.890015006 0.577026010 0.087738000
0.924682975 0.585541010 0.089538999
0.934051991 0.581786990 0.088959001
0.082520001 0.584473014 0.087738000
0.102996998 0.587401986 0.085968003
0.154449001 0.595825016 0.084930003
0.223755002 0.596190989 0.086304002
0.294829994 0.595856011 0.087279998
0.356689006 0.598389030 0.085114002
0.414458990 0.613007009 0.072844997
0.474761993 0.634949028 0.070373997
0.537627995 0.656067014 0.078125000
0.594147027 0.672333002 0.070770003
0.647185981 0.690825999 0.056274001
0.706757009 0.703247011 0.088348001
0.767120004 0.681885004 0.149840996
0.835296988 0.656921029 0.128601000
0.900023997 0.641692996 0.106995001
0.929992974 0.636840999 0.103332996
0.939666986 0.630919993 0.100891002
0.092620999 0.624207020 0.098236002
0.116608001 0.628692985 0.096344002
0.167083994 0.639953971 0.094910003
0.234771997 0.644439995 0.095977999
0.305969000 0.647430003 0.096648999
0.371582001 0.650635004 0.095245004
0.432372987 0.666106999 0.086029001
0.491028011 0.686278999 0.080719002
0.550231993 0.706299007 0.086700000
0.610229015 0.725525022 0.093627997
0.664703012 0.740050972 0.081726000
0.716156006 0.756133974 0.065704003
0.777283013 0.770264030 0.101868004
0.840088010 0.746918023 0.169189006
0.907684028 0.717833996 0.143889993
0.934813976 0.702332020 0.127625003
0.945374012 0.691497982 0.121428996
0.101654001 0.686583996 0.104248002
0.125549003 0.694640994 0.102813996
0.172516003 0.713104010 0.101439998
0.237792999 0.726166010 0.101135001
0.309325993 0.734467030 0.100249998
0.379088998 0.738098025 0.099730998
0.445769995 0.753448009 0.103058003
0.508728027 0.770264030 0.105286002
0.566466987 0.781615973 0.107207999
0.620148003 0.791046023 0.112579003
0.675934017 0.801422000 0.114165999
0.731598020 0.811004996 0.096588001
0.783203006 0.819793999 0.077606000
0.848327994 0.831909001 0.119048998
0.909575999 0.805481017 0.191894993
0.944885015 0.775757015 0.166228995
0.953674018 0.761107981 0.154907003
0.112396002 0.777343988 0.112396002
0.132538006 0.781677008 0.113434002
0.179961994 0.792572021 0.116820998
0.241240993 0.806061029 0.121123999
0.309143007 0.820617974 0.126555994
0.383666992 0.835296988 0.132843003
0.458068997 0.847716987 0.138336003
0.524474978 0.857421994 0.142150998
0.583159983 0.863312006 0.141967997
0.637328982 0.866791010 0.141541004
0.688995004 0.870148003 0.143829003
0.741515994 0.872406006 0.136047006
0.795319021 0.873596013 0.106964000
0.849731028 0.878143013 0.090209998
0.913604975 0.886291981 0.138428003
0.950562000 0.854065001 0.206879005
0.959351003 0.829285026 0.195709005
0.148589998 0.884002984 0.149139002
0.153198004 0.888701975 0.151215002
0.176269993 0.897490978 0.155242994
0.240447998 0.906189024 0.160430998
0.313048989 0.911773980 0.164611995
0.388976991 0.914703012 0.168610007
0.466003001 0.914551020 0.170684993
0.533416986 0.913757026 0.171233997
0.591063976 0.913025022 0.169829994
0.644622982 0.911925972 0.165222004
0.695159972 0.911284983 0.162659004
0.745025992 0.911406994 0.162872002
0.798736989 0.911346018 0.134430006
0.855408013 0.913452029 0.079223998
0.911224008 0.921661019 0.111450002
0.960510015 0.921051025 0.155945003
0.967804015 0.901367009 0.182007000
0.030701000 0.046050999 0.073181003
0.049224999 0.047455002 0.076141000
0.085510001 0.044829998 0.076599002
0.120177999 0.044861000 0.068939000
0.155212000 0.042236000 0.055725001
0.191802993 0.047058001 0.038573999
0.233582005 0.059386998 0.011963000
0.277617991 0.071289003 0.000732000
0.328887999 0.077972002 0.001465000
0.388489008 0.081267998 0.004089000
0.450989008 0.084899999 0.018097000
0.513641000 0.089417003 0.040038999
0.577148020 0.094727002 0.037415002
0.644073009 0.100616001 0.008911000
0.712401986 0.111115001 0.006317000
0.779479980 0.123627000 0.009552000
0.837311029 0.139160007 0.011108000
0.033813000 0.070464998 0.078948997
0.047943000 0.070464998 0.079010002
0.080719002 0.072021000 0.078583002
0.110352002 0.082672000 0.070923001
0.147308007 0.089905001 0.062531002
0.189362004 0.094146997 0.048126001
0.233612001 0.099547997 0.015167000
0.280243009 0.107543997 0.001617000
0.331299007 0.113678001 0.004486000
0.388915986 0.117248997 0.005280000
0.451202005 0.119781002 0.006165000
0.514984012 0.122620001 0.008240000
0.579528987 0.127196997 0.010101000
0.646117985 0.134856999 0.008484000
0.715117991 0.144805998 0.010956000
0.783141971 0.156616002 0.013397000
0.841736019 0.170227006 0.015717000
0.040679999 0.110443003 0.083159998
0.052521002 0.109741002 0.080963001
0.081298999 0.108397998 0.082275003
0.112182997 0.116820998 0.071594000
0.150177002 0.125916004 0.069518998
0.194152996 0.130280003 0.058990002
0.241547003 0.133392006 0.019928001
0.290344000 0.139099002 0.003052000
0.342682004 0.145142004 0.006836000
0.400664985 0.149719000 0.008423000
0.462219000 0.153931007 0.009125000
0.525359988 0.159118995 0.010071000
0.589447021 0.166106999 0.011627000
0.655731022 0.174163997 0.014038000
0.724518001 0.184020996 0.016449001
0.792235970 0.195068002 0.018828999
0.850830019 0.207427993 0.021149000
0.047882002 0.152802005 0.082457997
0.057587001 0.158263996 0.081940003
0.084533997 0.158020005 0.083282001
0.122528002 0.156859994 0.079437003
0.159363002 0.158996999 0.070006996
0.204589993 0.164368004 0.053100999
0.253906012 0.171295002 0.019958001
0.304168999 0.179352000 0.006744000
0.357665986 0.187012002 0.010406000
0.416289985 0.192291006 0.012268000
0.478545994 0.197661996 0.014130000
0.542328000 0.205170006 0.016418001
0.607146978 0.213165000 0.018767999
0.673888981 0.221588001 0.021149000
0.742278993 0.230895996 0.024048001
0.808502018 0.241240993 0.026458999
0.865050972 0.251984000 0.029510001
0.054443002 0.197661996 0.081542999
0.063323997 0.205688000 0.082428001
0.087219000 0.210022002 0.080444001
0.135132000 0.203795999 0.084076002
0.170653999 0.207062006 0.074340999
0.214844003 0.203094006 0.060791001
0.267791986 0.205200002 0.026520001
0.323242009 0.212860003 0.010986000
0.381469995 0.220183998 0.014343000
0.442687988 0.227202997 0.016663000
0.504547000 0.235808998 0.018982001
0.566375971 0.246062994 0.021942001
0.630187988 0.257384986 0.025085000
0.696411014 0.270172000 0.028930999
0.764953971 0.284179986 0.032776002
0.830749989 0.298186988 0.037354000
0.881012022 0.308777004 0.040405001
0.060089000 0.244751006 0.084380999
0.067870997 0.251677990 0.083770998
0.088744998 0.262816995 0.076782003
0.141754001 0.256256014 0.081298999
0.189270005 0.254395008 0.079681002
0.225982994 0.252929986 0.071746998
0.278564006 0.245849997 0.040314000
0.343140006 0.244751006 0.019378999
0.409179986 0.251587003 0.018250000
0.473266989 0.261168987 0.021149000
0.534668028 0.271515012 0.024017001
0.595458984 0.282806009 0.027618000
0.658080995 0.295563012 0.031433001
0.723297000 0.310454994 0.036072001
0.791015983 0.327971995 0.041473001
0.855377018 0.346619010 0.046997000
0.893768013 0.356842011 0.050384998
0.064300999 0.292694002 0.087341003
0.071533002 0.296967000 0.085205004
0.091461003 0.311554015 0.075622998
0.146544993 0.311309993 0.076080002
0.204346001 0.301604986 0.082580999
0.247374997 0.308441013 0.069580004
0.293518007 0.302733988 0.057831001
0.357147008 0.291961998 0.040587999
0.430510998 0.290984988 0.027191000
0.501586974 0.297942996 0.025787000
0.565307975 0.308319002 0.029663000
0.624664009 0.319824010 0.033569001
0.685181022 0.332641989 0.037932999
0.748871028 0.348266989 0.042969000
0.815674007 0.367523015 0.049072001
0.878296018 0.388336003 0.054901000
0.905762017 0.396423012 0.057556000
0.067626998 0.340209991 0.090178996
0.074248999 0.342467993 0.086944997
0.095702998 0.356750011 0.077422999
0.154327005 0.363739014 0.073882997
0.218780994 0.354034007 0.081115998
0.272125006 0.362396002 0.067505002
0.318726003 0.371398985 0.060454998
0.374938995 0.358368009 0.055450000
0.446563989 0.344788015 0.043884002
0.519927979 0.343048006 0.036559999
0.586700022 0.348693997 0.036316000
0.649841011 0.359283000 0.040497001
0.710784972 0.371551991 0.045134999
0.772583008 0.387421012 0.050384998
0.837341011 0.406982005 0.056212999
0.896606028 0.428101003 0.062073000
0.914641976 0.434814006 0.063995004
0.069733001 0.386260986 0.095764004
0.076233000 0.388518989 0.090026997
0.104401000 0.403380990 0.079833999
0.166626006 0.413666010 0.074828997
0.235687003 0.407166004 0.080139004
0.293395996 0.412230998 0.072754003
0.346863002 0.428649992 0.061919998
0.400817990 0.434235007 0.056304999
0.463775992 0.417328000 0.066376001
0.534179986 0.401854992 0.063262999
0.601471007 0.399048001 0.047637999
0.666106999 0.402985007 0.048156999
0.730560005 0.413421988 0.052338000
0.794434011 0.428191990 0.057464998
0.856994987 0.446868986 0.063293003
0.908416986 0.467406988 0.068695001
0.920044005 0.472472996 0.069977000
0.071808003 0.431580007 0.100647002
0.078125000 0.438964993 0.089507997
0.117431998 0.451691002 0.080994003
0.181457996 0.462188989 0.077271000
0.252898991 0.456878990 0.081329003
0.311583996 0.459351003 0.079131998
0.370238990 0.476043999 0.067841001
0.426483005 0.494659007 0.060637999
0.484100014 0.498077005 0.064269997
0.548187017 0.479858011 0.082092002
0.614838004 0.463196009 0.078735001
0.679596007 0.458281994 0.060943998
0.743713021 0.460938007 0.061584000
0.810486019 0.470946997 0.065154999
0.874083996 0.487884998 0.070373997
0.914794981 0.506226003 0.074859999
0.924499989 0.508117974 0.075805999
0.073821999 0.481934011 0.100372002
0.081146002 0.493927002 0.085326999
0.128204003 0.502075016 0.081969999
0.194672003 0.509002984 0.080902003
0.267028987 0.504791021 0.084624998
0.327423006 0.506133974 0.084595002
0.386718988 0.523651004 0.071502998
0.447295994 0.542267025 0.067901999
0.503509998 0.559692025 0.059418000
0.561583996 0.565002024 0.066924997
0.625153005 0.545958996 0.102692001
0.691466987 0.528809011 0.097015001
0.756286979 0.520690978 0.076691002
0.821869016 0.520537972 0.074859999
0.886169016 0.530395985 0.077972002
0.919463992 0.545226991 0.081726000
0.929077029 0.543335021 0.081726000
0.076964997 0.537841976 0.099730998
0.086669996 0.544951975 0.087523997
0.136596993 0.552612007 0.085906997
0.205321997 0.554503977 0.087769002
0.277893007 0.552002013 0.091826998
0.340972990 0.553008974 0.092437997
0.399780005 0.568328977 0.077301003
0.463378996 0.590942025 0.072173998
0.522095025 0.607757986 0.076384999
0.576263011 0.625640988 0.064056002
0.635468006 0.634612978 0.076874003
0.697234988 0.614380002 0.128601000
0.765442014 0.595703006 0.113770001
0.832854986 0.583190978 0.092316002
0.894622982 0.580048025 0.088500999
0.924987972 0.587523997 0.089965999
0.934265018 0.583099008 0.089417003
0.082672000 0.585937977 0.106903002
0.095702998 0.586516976 0.097809002
0.147247002 0.594573975 0.095764004
0.216796994 0.596588016 0.098357998
0.289306998 0.596466005 0.101593003
0.355408013 0.598389030 0.102508999
0.415679991 0.612731993 0.088836998
0.476440012 0.635497987 0.079558998
0.539398015 0.657410026 0.082976997
0.595703006 0.673400998 0.081023999
0.647948980 0.691161990 0.066497996
0.706939995 0.703490973 0.087341003
0.767791986 0.682892025 0.150360003
0.839142025 0.659759998 0.129210994
0.904724002 0.644774973 0.107360996
0.930297971 0.638671994 0.103790000
0.939818978 0.632018983 0.101287998
0.093018003 0.626770020 0.118835002
0.108795002 0.628203988 0.109771997
0.160492003 0.638823986 0.107391000
0.228394002 0.644286990 0.108306997
0.300628990 0.647369027 0.110168003
0.369720012 0.650330007 0.110168003
0.432494998 0.665099978 0.100158997
0.492004007 0.686707020 0.089294001
0.551422000 0.707976997 0.091187000
0.611419976 0.726898015 0.098021999
0.666077018 0.741028011 0.084595002
0.716858029 0.756133974 0.065307997
0.776854992 0.769439995 0.102173001
0.840484977 0.746918023 0.169249997
0.912383974 0.721405029 0.144684002
0.934966981 0.704070985 0.128325999
0.945403993 0.691497982 0.121428996
0.101349004 0.694976985 0.120483004
0.117187999 0.696197987 0.114074998
0.166778997 0.712279975 0.110504001
0.232391000 0.725525022 0.109467000
0.304473996 0.733765006 0.108214997
0.376129001 0.736815989 0.105042003
0.444031000 0.751343012 0.106720001
0.508301020 0.769867003 0.109099999
0.567322016 0.783173025 0.111327998
0.621581972 0.792815983 0.116180003
0.677031994 0.802520990 0.117858998
0.732268989 0.811187983 0.099730998
0.783263981 0.819275022 0.077972002
0.847075999 0.830383003 0.118652001
0.910125971 0.805450022 0.191955999
0.945098996 0.777893007 0.167572007
0.953796029 0.761658013 0.155150995
0.113799997 0.784606993 0.120086998
0.123566002 0.784119010 0.118773997
0.174011007 0.793242991 0.121123999
0.236908004 0.804656982 0.124939002
0.304931998 0.816833019 0.129271999
0.378325999 0.829833984 0.134307995
0.453918010 0.843169987 0.139771000
0.522583008 0.855865002 0.144379005
0.583037972 0.864044011 0.144988999
0.637908995 0.868041992 0.144562006
0.689391971 0.870757997 0.146422997
0.741608024 0.872253001 0.138641000
0.795257986 0.872955024 0.109343998
0.849364996 0.877471983 0.090301998
0.912841976 0.885497987 0.138396993
0.950653017 0.854156017 0.206879005
0.959380984 0.829773009 0.195709005
0.151703000 0.890564024 0.156280994
0.153473005 0.890075982 0.155059993
0.170837000 0.898315012 0.158478007
0.235565007 0.905304015 0.162689000
0.308411002 0.911468983 0.167206004
0.383056998 0.914336979 0.170745999
0.459868997 0.915619016 0.173675999
0.529724002 0.915648997 0.174591005
0.589905024 0.914916992 0.173247993
0.644684017 0.913909972 0.168274000
0.695679009 0.913115978 0.165497005
0.745055974 0.912994027 0.165619001
0.798552990 0.912841976 0.139282003
0.855041981 0.914367974 0.086639002
0.910461009 0.921387017 0.110687003
0.960510015 0.921844006 0.155212000
0.968078971 0.902648985 0.181152001
0.033020001 0.055877998 0.105315998
0.050597999 0.055877998 0.106170997
0.090301998 0.053406000 0.110656999
0.133575007 0.050811999 0.107299998
0.173675999 0.050597999 0.100616001
0.214111000 0.048156999 0.087096997
0.257629007 0.045623999 0.071014002
0.301575005 0.050322998 0.061096001
0.348174989 0.060608000 0.059813999
0.401854992 0.070068002 0.064300999
0.460967988 0.078918003 0.072265998
0.521453977 0.086700000 0.079590000
0.583405018 0.092864998 0.080139004
0.648132026 0.094085999 0.071106002
0.716033995 0.090178996 0.045990001
0.781830013 0.095886000 0.004730000
0.838012993 0.114074998 0.008789000
0.035339002 0.076903999 0.107941002
0.049927000 0.078308001 0.110625997
0.086060002 0.078766003 0.114807002
0.130188003 0.078093998 0.111511000
0.168761998 0.080902003 0.101410002
0.207672000 0.078277998 0.083405003
0.251464993 0.075653002 0.065430000
0.295226991 0.079833999 0.056366000
0.343993992 0.087830000 0.058014002
0.400848001 0.095673002 0.063873000
0.460296988 0.103119001 0.070129000
0.520690978 0.110077001 0.075226001
0.583037972 0.116149999 0.076568998
0.648559988 0.119446002 0.067169003
0.717437983 0.119750999 0.034302000
0.783752024 0.131042004 0.009399000
0.841338992 0.147125006 0.012634000
0.040801998 0.108153999 0.117004000
0.052521002 0.109862998 0.118285999
0.082672000 0.109497003 0.119750999
0.121307001 0.115479000 0.114563003
0.157745004 0.125824004 0.105407998
0.201324001 0.130463004 0.092896000
0.249267995 0.132385001 0.073334001
0.299896002 0.134064004 0.051575001
0.350861013 0.136932001 0.038543999
0.405975014 0.140166998 0.041962001
0.465912014 0.142242000 0.052611999
0.527283013 0.145630002 0.058166999
0.590331972 0.150726005 0.052521002
0.656494021 0.156494007 0.029022001
0.724700987 0.165069997 0.012024000
0.791229010 0.177886993 0.016418001
0.849640012 0.191650003 0.018828999
0.047882002 0.156951994 0.129333004
0.057495002 0.157775998 0.122955002
0.083159998 0.157196000 0.121428996
0.125336006 0.154967993 0.119384997
0.162902996 0.161956996 0.106505997
0.206847996 0.168792993 0.098174997
0.256469995 0.172913000 0.082184002
0.309509009 0.175903007 0.058502000
0.363097996 0.179596007 0.033172999
0.419220001 0.182526007 0.025696000
0.480163991 0.185332999 0.034790002
0.542450011 0.190947995 0.032226998
0.605804026 0.198058993 0.021545000
0.671142995 0.205871999 0.017852999
0.738524973 0.215362996 0.020050000
0.804778993 0.226928994 0.024139000
0.862366021 0.239043996 0.027252000
0.054625999 0.205138996 0.127013996
0.062835999 0.203308001 0.119263001
0.081421003 0.211914003 0.117156997
0.127991006 0.208679006 0.117248997
0.173279002 0.208862007 0.106476001
0.217957005 0.204529002 0.098968998
0.270020008 0.206572995 0.078887999
0.326233000 0.213073999 0.044707999
0.381774992 0.219634995 0.022368999
0.439177990 0.226410002 0.017059000
0.499908000 0.233521000 0.019531000
0.561707020 0.242248997 0.021300999
0.624877989 0.251617014 0.022186000
0.690307975 0.262207001 0.026764000
0.757996023 0.274109006 0.031158000
0.823913991 0.286285013 0.034912001
