public/lut/131.cube
TITLE "17x17x17 Adobe/IRIDAS cube 3D LUT exported with GrossGrade v0.2.2 (beta) 64 bit"
DOMAIN_MIN 0 0 0
DOMAIN_MAX 1 1 1
LUT_3D_SIZE 5
0.029175000 0.040222000 0.048308998
0.139679000 0.064667001 0.009277000
0.320403993 0.096313000 0.004730000
0.573059022 0.113190003 0.007294000
0.836944997 0.153350994 0.013397000
0.054625999 0.199004993 0.064240001
0.166840002 0.206756994 0.053314000
0.381531000 0.219329998 0.014404000
0.632507026 0.258881003 0.025420999
0.882080019 0.312896997 0.041747998
0.069733001 0.386078000 0.078368999
0.236603007 0.405517995 0.065369003
0.456481993 0.414519995 0.059601001
0.722351015 0.410064995 0.051665999
0.919708014 0.470459014 0.069733001
0.082520001 0.584473014 0.087738000
0.294829994 0.595856011 0.087279998
0.537627995 0.656067014 0.078125000
0.767120004 0.681885004 0.149840996
0.939666986 0.630919993 0.100891002
0.148589998 0.884002984 0.149139002
0.313048989 0.911773980 0.164611995
0.591063976 0.913025022 0.169829994
0.798736989 0.911346018 0.134430006
0.967804015 0.901367009 0.182007000
0.038451999 0.081450999 0.179504007
0.200225994 0.074767999 0.181273997
0.401214987 0.081084996 0.142638996
0.611298025 0.099426001 0.124633998
0.854645014 0.070739999 0.003174000
0.052673001 0.201049998 0.209105998
0.176758006 0.212127998 0.222381994
0.396851003 0.212280005 0.156463996
0.627624989 0.209259003 0.103271000
0.874083996 0.253387004 0.029572001
0.068664998 0.414916992 0.238708004
0.165923998 0.432586998 0.173553005
0.462006003 0.433867991 0.170287997
0.720673025 0.425476015 0.043945000
0.920807004 0.486023009 0.072235003
0.076172002 0.543426991 0.253325999
0.227173001 0.609314024 0.183197007
0.534088016 0.657684028 0.170196995
0.768432975 0.685088992 0.145905003
0.941039979 0.637268007 0.102631003
0.152373999 0.890625000 0.185089007
0.250580013 0.918426991 0.192168996
0.572906017 0.924468994 0.198791996
0.795440972 0.922119021 0.169158995
0.969666004 0.908141971 0.177643001
0.046172999 0.143524006 0.342072010
0.175262004 0.138428003 0.347106993
0.477997005 0.134948999 0.290771008
0.689086974 0.132263005 0.258361995
0.899994016 0.041076999 0.216491997
0.053314000 0.240539998 0.356049001
0.135741994 0.259552002 0.386902004
0.475800008 0.246825993 0.329223990
0.693237007 0.245514005 0.284514993
0.905182004 0.243073002 0.235382006
0.065642998 0.416779011 0.426391989
0.116272002 0.457549989 0.458557010
0.441437006 0.471251994 0.453033000
0.709533989 0.473266989 0.404083014
0.940643013 0.459320009 0.311859012
0.112976000 0.691192985 0.538085997
0.135344997 0.658690989 0.490967005
0.471801996 0.658752024 0.419891000
0.753509998 0.707367003 0.391663015
0.963593006 0.678833008 0.285889000
0.201354995 0.924956977 0.511901975
0.211028993 0.928710997 0.455017000
0.478026986 0.984314024 0.366699010
0.779083014 0.935791016 0.427673012
0.972259998 0.922150016 0.420073986
0.050354000 0.204987004 0.498259991
0.165160999 0.198486000 0.484833002
0.466858000 0.206787005 0.450408995
0.736205995 0.181335002 0.396697998
0.905640006 0.156096995 0.439148009
0.056030001 0.298065007 0.509459972
0.112305000 0.307343006 0.533538997
0.448578000 0.297668010 0.504669011
0.736298025 0.294494987 0.458710015
0.914276004 0.303436011 0.487365991
0.071044996 0.442779988 0.568877995
0.121459998 0.474914998 0.606109977
0.381348014 0.485228986 0.642578006
0.753081977 0.470916986 0.592528999
0.941039979 0.491759986 0.575958014
0.121123999 0.649627984 0.665192008
0.158996999 0.678161979 0.683960021
0.325287014 0.714874029 0.717224002
0.750092030 0.729674995 0.678740978
0.967987001 0.724700987 0.629577994
0.262145996 0.907317996 0.775786996
0.301360995 0.945984006 0.785064995
0.320495993 0.964478016 0.720978022
0.748016000 0.955963016 0.637848020
0.977904975 0.934296012 0.627746999
0.061646000 0.279998988 0.661620975
0.140258998 0.275269002 0.641601980
0.431030005 0.273407012 0.634827018
0.736572027 0.265228003 0.650481999
0.953674018 0.160705999 0.714172006
0.072479002 0.373932004 0.682922006
0.118164003 0.377196997 0.702179015
0.364470989 0.354553014 0.682372987
0.748291016 0.338257015 0.703460991
0.964538991 0.299133003 0.746887028
0.100097999 0.507781982 0.734650016
0.140991002 0.529419005 0.761627018
0.302154988 0.528351009 0.788543999
0.696166992 0.486267000 0.789184988
0.977051020 0.462128013 0.797729015
0.157867000 0.667815983 0.802338004
0.191437006 0.692780018 0.823485970
0.285614014 0.701141000 0.834258974
0.707825005 0.714630008 0.840057015
0.986205995 0.683593988 0.829468012
0.264221013 0.850768983 0.868469000
0.293303996 0.874145985 0.879059017
0.336059988 0.898132026 0.889221013
0.683533013 0.918549001 0.884338021
0.982604980 0.945159972 0.858307004
