public/lut/132.cube
TITLE "17x17x17 Adobe/IRIDAS cube 3D LUT exported with GrossGrade v0.2.2 (beta) 64 bit"
DOMAIN_MIN 0 0 0
DOMAIN_MAX 1 1 1
LUT_3D_SIZE 17
0.000000000 0.000000000 0.000000000
0.041076999 0.003876000 0.000000000
0.080596998 0.010071000 0.000793000
0.133178994 0.010254000 0.000793000
0.189208999 0.010254000 0.000793000
0.244445994 0.010254000 0.000793000
0.299499989 0.010254000 0.000793000
0.361176014 0.008240000 0.000793000
0.429993004 0.004730000 0.000397000
0.497314006 0.001221000 0.000000000
0.556609988 0.000000000 0.000000000
0.611786008 0.000000000 0.000000000
0.667388976 0.000793000 0.000793000
0.722992003 0.000793000 0.000793000
0.778594971 0.000793000 0.000793000
0.834442019 0.000793000 0.000793000
0.889679015 0.000793000 0.000793000
0.020172000 0.064514004 0.020172000
0.044098001 0.070281997 0.017883001
0.079712003 0.074463002 0.004913000
0.129851997 0.071686000 0.002258000
0.182343006 0.070496000 0.002319000
0.237639993 0.069122002 0.003113000
0.293976009 0.068451002 0.003113000
0.353026986 0.067047000 0.003113000
0.420379996 0.062927000 0.003113000
0.492188007 0.057677999 0.003113000
0.556640983 0.054625999 0.003113000
0.612640023 0.054625999 0.003113000
0.667937994 0.054625999 0.003113000
0.723601997 0.054625999 0.003113000
0.779114008 0.055206001 0.003113000
0.834990978 0.055206001 0.003876000
0.890075982 0.055206001 0.003876000
0.037354000 0.130066007 0.037354000
0.054230001 0.135590002 0.036559999
0.082457997 0.143555000 0.033996999
0.132049993 0.141174003 0.009369000
0.184357002 0.136414006 0.007294000
0.237457007 0.133209005 0.006348000
0.292786002 0.130309999 0.006104000
0.349335015 0.127930000 0.006989000
0.413818002 0.123504996 0.007690000
0.486755013 0.116760001 0.007355000
0.556244016 0.111542001 0.006989000
0.615325987 0.110229000 0.007690000
0.670073986 0.110443003 0.007690000
0.725463986 0.110443003 0.007690000
0.780791998 0.110106997 0.007690000
0.836547971 0.110106997 0.007782000
0.891632020 0.110106997 0.008484000
0.049835000 0.196898997 0.049835000
0.066986002 0.200256005 0.049132999
0.098999001 0.206024006 0.046661001
0.139342993 0.208771005 0.037262000
0.188750997 0.206055000 0.010651000
0.240722999 0.200928003 0.016907001
0.295441002 0.195678994 0.014771000
0.350616008 0.191588998 0.010406000
0.412261993 0.186217993 0.012085000
0.483916998 0.178101003 0.013092000
0.556487978 0.170624003 0.013092000
0.619231999 0.167266995 0.013733000
0.673828006 0.166901007 0.013885000
0.728760004 0.166626006 0.014526000
0.783874989 0.166443005 0.014679000
0.839325011 0.166228995 0.014679000
0.894286990 0.165985003 0.015320000
0.058196999 0.264434993 0.058196999
0.075897001 0.266418010 0.057007000
0.113311999 0.269439995 0.054047000
0.154602006 0.272156000 0.048370000
0.199707001 0.272002995 0.037048001
0.249512002 0.268523991 0.013397000
0.300841987 0.263184011 0.029083000
0.354828000 0.257964998 0.029358000
0.415282995 0.251006991 0.018340999
0.485045999 0.241240993 0.018890001
0.558562994 0.231536999 0.020111000
0.623992980 0.225982994 0.020691000
0.679015994 0.224822998 0.021880999
0.733551025 0.224213004 0.022278000
0.788361013 0.223572001 0.023071000
0.843384027 0.223113999 0.023864999
0.898101985 0.222717002 0.024444999
0.063019000 0.332397014 0.063019000
0.081573002 0.333710015 0.062469002
0.122924998 0.335114002 0.060150001
0.167724997 0.336333990 0.055328000
0.213776007 0.336365014 0.048583999
0.261139005 0.334502995 0.036621001
0.311401010 0.330352992 0.021484001
0.362212986 0.325226009 0.041138001
0.421081990 0.317229986 0.042998999
0.490662009 0.305756003 0.027832000
0.563507020 0.294158995 0.027404999
0.629851997 0.286682010 0.029236000
0.685729980 0.284424007 0.030792000
0.739655018 0.283142000 0.031738002
0.794128001 0.281982005 0.033264000
0.848815978 0.281127989 0.034545999
0.903168023 0.280364990 0.035278000
0.066895001 0.400512993 0.067107998
0.085297003 0.401428014 0.066376001
0.128905997 0.401946992 0.064240001
0.177184999 0.402130008 0.060242001
0.225739002 0.401488990 0.054290999
0.274138987 0.399780005 0.048035000
0.322905988 0.396789998 0.037445001
0.373961985 0.391846001 0.031158000
0.431641012 0.383118004 0.053314000
0.499511987 0.370604992 0.055450000
0.571716011 0.357726991 0.037932999
0.637299001 0.349090993 0.037994001
0.693237007 0.345734000 0.040314000
0.746796012 0.343719006 0.042114001
0.800872982 0.342040986 0.044006001
0.855193973 0.340514988 0.045867998
0.909331977 0.339293987 0.047240999
0.069762997 0.468261987 0.070312999
0.088348001 0.468993992 0.069762997
0.133269995 0.469177008 0.067993000
0.183868006 0.468750000 0.064788997
0.234711006 0.467620999 0.060242001
0.285216987 0.465667993 0.053406000
0.335357994 0.462433010 0.049224999
0.388579994 0.456786990 0.037415002
0.447356999 0.447387993 0.048920002
0.512786984 0.434783995 0.071533002
0.582184017 0.421967000 0.061615001
0.646179020 0.412871987 0.050354000
0.701233029 0.408782989 0.050659001
0.754639030 0.406006008 0.052246001
0.808411002 0.403503001 0.054443002
0.862487972 0.401336998 0.056366000
0.916260004 0.399567008 0.058196999
0.073638998 0.535827994 0.073638998
0.092345998 0.536162972 0.073151000
0.138366997 0.535827994 0.072113000
0.191314995 0.534851015 0.069580004
0.244476005 0.533141971 0.066192999
0.297241002 0.530457020 0.061127000
0.351013005 0.526153982 0.053649999
0.406342000 0.519684017 0.051697001
0.466125011 0.510161996 0.043549001
0.529236019 0.498382986 0.065948002
0.593322992 0.486725003 0.092560001
0.654906988 0.478087991 0.072998002
0.709351003 0.473450005 0.065338001
0.762848020 0.469666004 0.063933998
0.816437006 0.466369987 0.064575002
0.870299995 0.463501006 0.066497996
0.923798025 0.461151004 0.068389997
0.078766003 0.603209972 0.078766003
0.097382002 0.602936029 0.078277998
0.144775003 0.601898015 0.077362001
0.200011998 0.600127995 0.075622998
0.256226003 0.597504020 0.072754003
0.312103003 0.593750000 0.069122002
0.368743986 0.588409007 0.062408000
0.425812006 0.581421018 0.060454998
0.485168010 0.572539985 0.050873000
0.546112001 0.562102973 0.055877998
0.604919016 0.552367985 0.096221998
0.661620975 0.544983029 0.108397998
0.716705024 0.539581001 0.091491997
0.770965993 0.534820974 0.080627002
0.824768007 0.530731022 0.077331997
0.878509998 0.527068973 0.077454001
0.931885004 0.523986995 0.078429997
0.086608998 0.670135021 0.087067001
0.104033999 0.669799984 0.086639002
0.150818005 0.668365002 0.085785002
0.207825005 0.665741026 0.084807999
0.266846001 0.662078977 0.082457997
0.325713992 0.657348990 0.079193003
0.384398997 0.651398003 0.074828997
0.443145990 0.644226015 0.068787001
0.501160026 0.636229992 0.069122002
0.559387028 0.627716005 0.062835999
0.615813971 0.619719982 0.070587002
0.668518007 0.613159001 0.114837997
0.722899973 0.606994987 0.125609994
0.778075993 0.601318002 0.110413000
0.832764030 0.596252024 0.096771002
0.886780024 0.591858029 0.091980003
0.940124989 0.587921023 0.090453997
0.099426001 0.736724973 0.099547997
0.113953002 0.736419976 0.099426001
0.157440007 0.734984994 0.098816000
0.213593006 0.732239008 0.097961001
0.273528993 0.728148997 0.096436001
0.334136993 0.723021984 0.094146997
0.394226015 0.716888011 0.090942003
0.453826994 0.709807992 0.085051998
0.511536002 0.702575982 0.082245000
0.567260981 0.695617974 0.081055000
0.622986019 0.688721001 0.071289003
0.677734017 0.681731999 0.078552000
0.729979992 0.675171018 0.128234997
0.784119010 0.668945014 0.144317999
0.839507997 0.663025022 0.129851997
0.894591987 0.657745004 0.114165999
0.948302984 0.653168023 0.106995001
0.117035002 0.802612007 0.117371000
0.128937006 0.802307010 0.117035002
0.167328000 0.801086009 0.116760001
0.220092997 0.798676014 0.116089001
0.278441995 0.794983029 0.115326002
0.338440001 0.790099978 0.114044003
0.398651004 0.784271002 0.111815996
0.458191007 0.777710021 0.108521000
0.516906977 0.770843983 0.102020003
0.573455989 0.764007986 0.100037001
0.628509998 0.757445991 0.096954003
0.684661984 0.750640988 0.079467997
0.739531994 0.743591011 0.085693002
0.791594982 0.737091005 0.140778005
0.845275998 0.730895996 0.164428994
0.901031017 0.724853992 0.149506003
0.955841005 0.719390988 0.131926998
0.140411004 0.867492974 0.140717000
0.149719000 0.867278993 0.140411004
0.182465002 0.866150022 0.140198007
0.230529994 0.863982975 0.140137002
0.285979986 0.860718012 0.139617994
0.344330013 0.856293023 0.138854995
0.403656006 0.850983024 0.137573004
0.462799013 0.844910026 0.135406002
0.521484017 0.838317990 0.131652996
0.579192996 0.831604004 0.125579998
0.634949028 0.825103998 0.123259999
0.689911008 0.819031000 0.112761997
0.746429026 0.812592030 0.082457997
0.801270008 0.805541992 0.095427997
0.853302002 0.799072027 0.152221993
0.906372011 0.792815983 0.185821995
0.962067008 0.786682010 0.168975994
0.168700993 0.931549013 0.168915004
0.175812006 0.931273997 0.168700993
0.202666998 0.930297971 0.168700993
0.245208994 0.928345025 0.168700993
0.296660990 0.925384998 0.168487996
0.352569997 0.921387017 0.168274000
0.410338998 0.916534007 0.167724997
0.468627989 0.910889030 0.166443005
0.526763976 0.904754996 0.164001003
0.584625006 0.898406982 0.159241006
0.641234994 0.892090023 0.153198004
0.696044981 0.886169016 0.150115997
0.751221001 0.880614996 0.133178994
0.808228016 0.874602973 0.088408999
0.863007009 0.867554009 0.104552999
0.915099978 0.860992014 0.161284998
0.966948986 0.854828000 0.207947001
0.211426005 0.990906000 0.211609006
0.216399997 0.990723014 0.211089998
0.237549007 0.989898980 0.211364999
0.272949010 0.988219976 0.211303994
0.318114996 0.985687017 0.211303994
0.369080007 0.982239008 0.210968003
0.423278987 0.978026986 0.210814998
0.478942990 0.973205984 0.209990993
0.535278022 0.967833996 0.208221003
0.591674984 0.962158024 0.204925999
0.648070991 0.956511974 0.198302999
0.703400016 0.951111019 0.190764993
0.756958008 0.946349978 0.185699001
0.812653005 0.941619992 0.161681995
0.870239019 0.936523020 0.100403003
0.925018013 0.929503977 0.122803003
0.976684988 0.923156977 0.172333002
0.382721007 1.000000000 0.382813007
0.384521008 1.000000000 0.382629007
0.391692996 1.000000000 0.382050008
0.405609012 1.000000000 0.380614996
0.426941007 1.000000000 0.378693014
0.454712003 1.000000000 0.375609994
0.488097996 1.000000000 0.371001989
0.526610970 1.000000000 0.365386993
0.568877995 1.000000000 0.357605010
0.614440978 1.000000000 0.347534001
0.662750006 1.000000000 0.334228992
0.713257015 1.000000000 0.314940989
0.766265988 0.999664009 0.300963998
0.821898997 0.998351991 0.315551996
0.878143013 0.997283995 0.316284001
0.933533013 0.995911002 0.268889993
0.986388981 0.991210997 0.126555994
0.010864000 0.010864000 0.062346999
0.058837999 0.000153000 0.058929000
0.106017999 0.000092000 0.055877998
0.152435005 0.000153000 0.053955000
0.202392995 0.000153000 0.052184999
0.255066007 0.000153000 0.051605001
0.308654994 0.000153000 0.051392000
0.364776999 0.000153000 0.051453002
0.428344995 0.000092000 0.052703999
0.495025992 0.000000000 0.054565001
0.556609988 0.000000000 0.055847000
0.612151980 0.000000000 0.055847000
0.667755008 0.000793000 0.055847000
0.723267019 0.000793000 0.055847000
0.778900027 0.000793000 0.055847000
0.834563971 0.000793000 0.055847000
0.889922976 0.000793000 0.056458000
0.020324999 0.060851999 0.064484000
0.062346999 0.062958002 0.063660003
0.105774000 0.062469002 0.056090999
0.146605998 0.062469002 0.046599999
0.198364004 0.054198999 0.016754000
0.252685994 0.049194001 0.006897000
0.306396008 0.046599999 0.003113000
0.360686988 0.045653999 0.001038000
0.421142995 0.041595001 0.003754000
0.489044011 0.031738002 0.006805000
0.555846989 0.017487001 0.009125000
0.614745975 0.006470000 0.010101000
0.669494987 0.007996000 0.007996000
0.724883974 0.007996000 0.007996000
0.780395985 0.007996000 0.007996000
0.835875988 0.007996000 0.007996000
0.891143978 0.007996000 0.008026000
0.037292000 0.129059002 0.070800997
0.068512000 0.129180998 0.069672003
0.105559997 0.132903993 0.063231997
0.135833994 0.139191002 0.060516000
0.187073007 0.135070994 0.053467002
0.245728001 0.127746999 0.019928001
0.302551001 0.122649997 0.006348000
0.357483000 0.120056003 0.005219000
0.415131003 0.117064998 0.004242000
0.481353998 0.110900998 0.005035000
0.552489996 0.102875002 0.005066000
0.616455019 0.097838998 0.005127000
0.671875000 0.098053001 0.005829000
0.726898015 0.098846003 0.006653000
0.782166004 0.099151999 0.006714000
0.837707996 0.098846003 0.006714000
0.892731011 0.098846003 0.006714000
0.049194001 0.196349993 0.077637002
0.075255997 0.195984006 0.076293997
0.112121999 0.199645996 0.071319997
0.142578006 0.207245007 0.064056002
0.185760006 0.207062006 0.065033004
0.240844995 0.201049998 0.063110001
0.300049007 0.193939000 0.029236000
0.357024997 0.188629001 0.011444000
0.412932992 0.184723005 0.010712000
0.476471007 0.178955004 0.010010000
0.548583984 0.170502007 0.010468000
0.617492974 0.164123997 0.011139000
0.675994992 0.162384003 0.012024000
0.730286002 0.162627995 0.013214000
0.785247982 0.162322998 0.013794000
0.840515018 0.162047997 0.013794000
0.895354986 0.161835000 0.014526000
0.057617001 0.263794005 0.082915999
0.081055000 0.263458014 0.081969999
0.122192003 0.265166998 0.077393003
0.159454003 0.269713998 0.071319997
0.199677005 0.271973014 0.065673999
0.246917993 0.269501001 0.068053998
0.300139993 0.263823986 0.072783999
0.357665986 0.257140994 0.042693999
0.414642006 0.251587003 0.019317999
0.475616008 0.244811997 0.018219000
0.546721995 0.235076994 0.017731000
0.618744016 0.226105005 0.018890001
0.681091011 0.221863002 0.020508001
0.735015988 0.221343994 0.022247000
0.789641976 0.220550999 0.023071000
0.844635010 0.220000997 0.023102000
0.899138987 0.219542995 0.023864999
0.063019000 0.331786990 0.086608998
0.084839001 0.331573009 0.085724004
0.129700005 0.331757009 0.082641996
0.174011007 0.333465993 0.077393003
0.216796994 0.334930003 0.070404001
0.260650992 0.334564000 0.067901999
0.309478998 0.331176996 0.073211998
0.361663997 0.325652987 0.080169998
0.417297006 0.319671988 0.057190001
0.478545994 0.311737001 0.029663000
0.548187017 0.300720006 0.024994001
0.621367991 0.289490014 0.027069001
0.686523020 0.282927990 0.029236000
0.741180003 0.281372011 0.031707998
0.795319021 0.280151010 0.033264000
0.849853992 0.279175013 0.033996999
0.904205024 0.278290004 0.035278000
0.066895001 0.399841011 0.089630000
0.087921001 0.399719000 0.088806003
0.134215996 0.399291992 0.086212002
0.183228001 0.399230987 0.082122996
0.230011001 0.399444997 0.076049998
0.275970012 0.398833990 0.070160002
0.322632015 0.396759003 0.069426998
0.371948004 0.392731011 0.078368999
0.423949987 0.387207001 0.088531002
0.483704001 0.378876001 0.068755999
0.553557992 0.366699010 0.040649001
0.626555979 0.353882015 0.035889000
0.692870975 0.345367014 0.038543999
0.748291016 0.342498988 0.041747998
0.801971018 0.340759009 0.044006001
0.856293023 0.339233011 0.045807000
0.910278022 0.337859988 0.047240999
0.069762997 0.467804015 0.091888003
0.090453997 0.467651010 0.091309004
0.137450993 0.467132986 0.089263998
0.189362004 0.466248006 0.085785002
0.239471003 0.465301991 0.081298999
0.288329989 0.464049995 0.074951001
0.336181998 0.462006003 0.071075000
0.384308010 0.458893001 0.072296001
0.435698986 0.453583002 0.084839001
0.493804991 0.444976985 0.094360001
0.561828971 0.432464987 0.073821999
0.634521008 0.418792993 0.049591001
0.700438976 0.409179986 0.049132999
0.756133974 0.405120999 0.051910002
0.809448004 0.402678996 0.054443002
0.863494992 0.400451988 0.056366000
0.917145014 0.398559988 0.058196999
0.073638998 0.535492003 0.094391003
0.093353003 0.535369992 0.093993999
0.140686005 0.534698009 0.092560001
0.194031000 0.533508003 0.089690998
0.246795997 0.532042980 0.086121000
0.297728986 0.530151010 0.081511997
0.347961009 0.527648985 0.075409003
0.397307992 0.524322987 0.074676998
0.450255990 0.518585026 0.078217000
0.509216011 0.509307981 0.091949001
0.574280024 0.497191995 0.099120997
0.644226015 0.483916998 0.076935001
0.709075987 0.473906994 0.063446000
0.764190972 0.469238013 0.063323997
0.817444026 0.466003001 0.064575002
0.871245980 0.463012993 0.066497996
0.924651980 0.460449010 0.068389997
0.078766003 0.602936029 0.098357998
0.097565003 0.602721989 0.097992003
0.144775003 0.601776004 0.096832000
0.199585006 0.600188971 0.094818003
0.254424989 0.598174989 0.091797002
0.307738990 0.595673025 0.088408999
0.360352010 0.592468023 0.083466001
0.413208008 0.588104010 0.079254001
0.467956990 0.581543028 0.081421003
0.527374029 0.572296023 0.088776000
0.590546012 0.560913026 0.102081001
0.654968023 0.549163997 0.107513003
0.717346013 0.539734006 0.090424001
0.772063971 0.534668028 0.080231003
0.825622976 0.530487001 0.077331997
0.879364014 0.526794016 0.077454001
0.932677984 0.523528993 0.078429997
0.087067001 0.670073986 0.104431003
0.104065001 0.669708014 0.104431003
0.150420994 0.668426991 0.103485003
0.206450999 0.666199028 0.101989999
0.263702005 0.663330019 0.100066997
0.319916010 0.659851015 0.097167999
0.375366002 0.655669987 0.093689002
0.431457996 0.650177002 0.087981999
0.487578988 0.643311024 0.088408999
0.545867980 0.634765983 0.092712000
0.607239008 0.624755979 0.092987001
0.666869998 0.615050972 0.107483000
0.723877013 0.607116997 0.124756001
0.778961003 0.601348996 0.110168003
0.833527029 0.596252024 0.096680000
0.887543023 0.591766000 0.091735996
0.940886974 0.587707996 0.090453997
0.099547997 0.736633003 0.114563003
0.114197001 0.736298025 0.114197001
0.157440007 0.734893978 0.113861002
0.213073999 0.732330024 0.112823002
0.272064000 0.728729010 0.111602999
0.331054986 0.724273980 0.109589003
0.389313012 0.719054997 0.106812000
0.447387993 0.712952018 0.102477998
0.505005002 0.705932975 0.099059999
0.562102973 0.698273003 0.101806998
0.620453000 0.690033019 0.093842000
0.677978992 0.682219982 0.085876003
0.730773985 0.675445974 0.125366002
0.784820974 0.669128001 0.144042999
0.840179026 0.663146973 0.129822001
0.895264030 0.657775998 0.113830999
0.948943973 0.653075993 0.106995001
0.117035002 0.802520990 0.129577994
0.129242003 0.802215993 0.129547000
0.167480007 0.800994992 0.128967002
0.220245004 0.798523009 0.128447995
0.278595001 0.794861019 0.127533004
0.338501006 0.790039003 0.126312003
0.398375988 0.784301996 0.124206997
0.457672000 0.777924001 0.121215999
0.516632020 0.770995975 0.115417004
0.573424995 0.763976991 0.113251001
0.628386974 0.757354975 0.116149999
0.684448004 0.750762999 0.102081001
0.739960015 0.744049013 0.088440001
0.792145014 0.737487972 0.139282003
0.845794976 0.731078982 0.164459005
0.901610970 0.724945009 0.149231002
0.956481993 0.719452024 0.131926998
0.140686005 0.867431998 0.150298998
0.150055006 0.867125988 0.150298998
0.182465002 0.866088986 0.149994001
0.230652004 0.863922000 0.149780005
0.286040992 0.860625982 0.149109006
0.344390988 0.856200993 0.148468003
0.403748006 0.850861013 0.147094995
0.462891012 0.844817996 0.144927993
0.521637022 0.838286996 0.141387999
0.579285026 0.831573009 0.135681003
0.634979010 0.825133979 0.133148000
0.689635992 0.819060981 0.130371004
0.746185005 0.812775016 0.108825997
0.801697016 0.805969000 0.095977999
0.853667974 0.799346983 0.152069002
0.906890988 0.793030024 0.185669005
0.962554991 0.786804020 0.169006005
0.168915004 0.931396008 0.176269993
0.176055998 0.931151986 0.176269993
0.202820003 0.930236995 0.176055998
0.245331004 0.928283989 0.176085994
0.296783000 0.925323009 0.176085994
0.352661014 0.921356022 0.175720006
0.410369992 0.916472971 0.175079003
0.468627989 0.910857975 0.173675999
0.526794016 0.904724002 0.171355993
0.584595025 0.898375988 0.166718006
0.641234994 0.892059028 0.161072001
0.695953012 0.886169016 0.157989994
0.751007020 0.880614996 0.145873994
0.808075011 0.874817014 0.108978003
0.863372982 0.867888987 0.103821002
0.915526986 0.861298025 0.161406994
0.967406988 0.855041981 0.207947001
0.211089998 0.990845025 0.216613993
0.216399997 0.990601003 0.216582999
0.237579003 0.989807010 0.216674998
0.272736013 0.988159001 0.216461003
0.318237007 0.985625982 0.216827005
0.369170994 0.982208014 0.216644004
0.423278987 0.977997005 0.216278002
0.479003996 0.973114014 0.215424001
0.535309017 0.967773020 0.213593006
0.591643989 0.962127984 0.210326999
0.648070991 0.956421018 0.203949004
0.703400016 0.951080024 0.196564004
0.756865978 0.946349978 0.192230001
0.812469006 0.941711009 0.169464007
0.870422006 0.936828971 0.106964000
0.925293028 0.929840028 0.123199001
0.977020025 0.923430979 0.172545999
0.382903993 1.000000000 0.384887993
0.384613007 1.000000000 0.384705007
0.391846001 1.000000000 0.384094000
0.406035990 1.000000000 0.382903993
0.427031994 1.000000000 0.380737007
0.454773009 1.000000000 0.377563000
0.488341987 1.000000000 0.373382986
0.526642025 1.000000000 0.367583990
0.568970025 1.000000000 0.359923989
0.614502013 1.000000000 0.350006014
0.662781000 1.000000000 0.336822987
0.713286996 1.000000000 0.317627013
0.766265988 0.999695003 0.303833008
0.821898997 0.998351991 0.317687988
0.878143013 0.997283995 0.320098996
0.933807015 0.995971978 0.280272990
0.986633003 0.991515994 0.126555994
0.019531000 0.019531000 0.125762999
0.063598998 0.003143000 0.125336006
0.119384997 0.000000000 0.119873002
0.170653999 0.000000000 0.115539998
0.219574004 0.000000000 0.112761997
0.269073009 0.000000000 0.110870004
0.320374012 0.000000000 0.109650001
0.373443991 0.000000000 0.108948000
0.431975991 0.000000000 0.109283000
0.495453000 0.000000000 0.110596001
0.557036996 0.000000000 0.111633003
0.613494992 0.000000000 0.111846998
0.668823004 0.000793000 0.111846998
0.724213004 0.000793000 0.111754999
0.779754996 0.000793000 0.111511000
0.835448980 0.000793000 0.111815996
0.890625000 0.000793000 0.111846998
0.002899000 0.008240000 0.012665000
0.057342999 0.051819000 0.109008998
0.120269999 0.056580000 0.120819002
0.170287997 0.050659001 0.114960000
0.218445003 0.043823000 0.105988003
0.268097013 0.031342000 0.099243000
0.319640994 0.015289000 0.095245004
0.371917993 0.009064000 0.092743002
0.427154988 0.007843000 0.091858000
0.489318997 0.002747000 0.093535997
0.554809988 0.000153000 0.097075999
0.615630984 0.000000000 0.099151999
0.670807004 0.000000000 0.099426001
0.725983024 0.000702000 0.099976003
0.781310976 0.000702000 0.100311004
0.836760998 0.000702000 0.100311004
0.891968012 0.000702000 0.100341998
0.036072001 0.128876001 0.122924998
0.062378000 0.124908000 0.125762999
0.125732005 0.127654999 0.127563000
0.167937994 0.125916004 0.120575003
0.208221003 0.126282007 0.113555998
0.260039985 0.121184997 0.104278997
0.314880013 0.114837997 0.097809002
0.368927002 0.110473998 0.093566999
0.423065007 0.107391000 0.089844003
0.482849002 0.102081001 0.087067001
0.550689995 0.091980003 0.083893001
0.617797971 0.078156002 0.076843001
0.677307010 0.054687999 0.055877998
0.732544005 0.022217000 0.023651000
0.787415028 0.018036000 0.019043000
0.842315972 0.018127000 0.019684000
0.896942019 0.018127000 0.019043000
0.048705999 0.197632000 0.136139005
0.075134002 0.194977000 0.132935002
0.128997996 0.193146005 0.130096003
0.167786002 0.195739999 0.123962000
0.197661996 0.202025995 0.122101001
0.247771993 0.198822007 0.122711003
0.307709008 0.191284001 0.115874998
0.365539998 0.185149997 0.107024997
0.421021014 0.180816993 0.100676998
0.478729010 0.176238999 0.095306002
0.544646978 0.167969003 0.090149000
0.615752995 0.155883998 0.081511997
0.680846989 0.142333999 0.058655001
0.736846983 0.130676001 0.018585000
0.791229010 0.129210994 0.005524000
0.845734000 0.131347999 0.008759000
0.900116026 0.132263005 0.010254000
0.056426998 0.263062000 0.136993006
0.081542999 0.262481987 0.136414006
0.132598996 0.260071009 0.133789003
0.174103007 0.262755990 0.128174007
0.204987004 0.269775003 0.121765003
0.246277004 0.270020008 0.125061005
0.300689995 0.263671994 0.134552002
0.360931009 0.255950987 0.128204003
0.419616997 0.249603003 0.115143001
0.476684988 0.244293004 0.107116997
0.540192008 0.236663997 0.100341998
0.612854004 0.225189000 0.091614000
0.682799995 0.214081004 0.068451002
0.741820991 0.207916006 0.027892999
0.795502007 0.207062006 0.014679000
0.849700987 0.207610995 0.018982001
