public/lut/132.cube
TITLE "17x17x17 Adobe/IRIDAS cube 3D LUT exported with GrossGrade v0.2.2 (beta) 64 bit"
DOMAIN_MIN 0 0 0
DOMAIN_MAX 1 1 1
LUT_3D_SIZE 5
0.000000000 0.000000000 0.000000000
0.189208999 0.010254000 0.000793000
0.429993004 0.004730000 0.000397000
0.667388976 0.000793000 0.000793000
0.889679015 0.000793000 0.000793000
0.058196999 0.264434993 0.058196999
0.199707001 0.272002995 0.037048001
0.415282995 0.251006991 0.018340999
0.679015994 0.224822998 0.021880999
0.898101985 0.222717002 0.024444999
0.073638998 0.535827994 0.073638998
0.244476005 0.533141971 0.066192999
0.466125011 0.510161996 0.043549001
0.709351003 0.473450005 0.065338001
0.923798025 0.461151004 0.068389997
0.117035002 0.802612007 0.117371000
0.278441995 0.794983029 0.115326002
0.516906977 0.770843983 0.102020003
0.739531994 0.743591011 0.085693002
0.955841005 0.719390988 0.131926998
0.382721007 1.000000000 0.382813007
0.426941007 1.000000000 0.378693014
0.568877995 1.000000000 0.357605010
0.766265988 0.999664009 0.300963998
0.986388981 0.991210997 0.126555994
0.030548001 0.030548001 0.253143013
0.239380002 0.000000000 0.239380002
0.448944002 0.000000000 0.226836994
0.674468994 0.000793000 0.224976003
0.894653022 0.000793000 0.223846003
0.052825999 0.262847990 0.262299001
0.249054000 0.251282007 0.250214010
0.439422995 0.245361000 0.231506005
0.675536990 0.220489994 0.214172006
0.922607005 0.106536999 0.109008998
0.071837999 0.532012999 0.269775003
0.262542993 0.522674978 0.263733000
0.450744987 0.518341005 0.255219012
0.693237007 0.483550996 0.266968012
0.947784007 0.440979004 0.109833002
0.121307001 0.799773991 0.281646997
0.278412014 0.792968988 0.278899997
0.510955989 0.773163021 0.267852992
0.732819021 0.746307015 0.300597996
0.973205984 0.719848990 0.118621998
0.386931986 1.000000000 0.433715999
0.430420011 1.000000000 0.430420011
0.570861995 1.000000000 0.413726985
0.766875982 0.999755979 0.369019002
0.987976015 0.992431998 0.453491002
0.038635001 0.038635001 0.508117974
0.249724999 0.005127000 0.499359012
0.478576988 0.000000000 0.478545994
0.695617974 0.000000000 0.463775992
0.911895990 0.000793000 0.456176996
0.042144999 0.161376998 0.472229004
0.252746999 0.252716005 0.505370975
0.484955013 0.239197001 0.484833002
0.699921012 0.218628004 0.465485007
0.939391971 0.021300999 0.436217993
0.075897001 0.523528993 0.523499012
0.265594006 0.519195974 0.519348025
0.497833014 0.501190007 0.500000000
0.710784972 0.485381991 0.479674995
0.957885981 0.437622011 0.438690007
0.142730996 0.790679991 0.532958984
0.283600003 0.785645008 0.529510021
0.516601980 0.768828988 0.517364979
0.737366021 0.748198986 0.518218994
0.976073980 0.721801996 0.476013005
0.405761987 1.000000000 0.590698004
0.446135998 1.000000000 0.588775992
0.579833984 1.000000000 0.579833984
0.770111024 0.999939024 0.554046988
0.990325987 0.993927002 0.616240978
0.059264999 0.059264999 0.761901975
0.254150003 0.049316000 0.756896973
0.492554009 0.000793000 0.738892019
0.717682004 0.000000000 0.717682004
0.935364008 0.000000000 0.701599002
0.056823999 0.186340004 0.717621028
0.257355005 0.256958008 0.760559022
0.494751006 0.244170994 0.743591011
0.724976003 0.200653002 0.724945009
0.953460991 0.000000000 0.703948975
0.102600001 0.508117974 0.756682992
0.180877998 0.482178003 0.721221983
0.504271984 0.502686024 0.750732005
0.735291004 0.482024997 0.735167980
0.977111995 0.414947987 0.709563971
0.195160002 0.781005979 0.781005979
0.303680003 0.778015018 0.778015018
0.524658024 0.768158019 0.767760992
0.750244021 0.750000000 0.749634027
0.991393983 0.717224002 0.717742980
0.450989008 1.000000000 0.794188976
0.485107005 1.000000000 0.793488026
0.603851020 1.000000000 0.790192008
0.780089974 0.999939024 0.780121028
0.994567990 0.996674001 0.795135021
0.203033000 0.203217000 1.000000000
0.294189006 0.186523005 0.999939024
0.500000000 0.038635001 0.998413026
0.733307004 0.000793000 0.977630973
0.956909001 0.000000000 0.956909001
0.122711003 0.247223005 0.988312006
0.304199010 0.303833008 0.999939024
0.502563000 0.257874012 0.999786019
0.735015988 0.146210000 0.989867985
0.966431022 0.000000000 0.966338992
0.154877007 0.495941013 0.958130002
0.224213004 0.491241008 0.948975027
0.519409001 0.519226015 1.000000000
0.741210997 0.481628001 0.995575011
0.992034972 0.323303014 0.991973996
0.366607994 0.778106987 1.000000000
0.342072010 0.767090023 0.990325987
0.494933993 0.740325987 0.952575982
0.756682992 0.755890012 0.996185005
0.997406006 0.692077994 0.997375011
0.555419981 0.999877989 0.999877989
0.580565989 0.999877989 0.999877989
0.673492014 0.999877989 0.999877989
0.820922971 0.999877989 0.999877989
0.999907970 0.999817014 0.999907970
