public/lut/133.cube
TITLE "17x17x17 Adobe/IRIDAS cube 3D LUT exported with GrossGrade v0.2.2 (beta) 64 bit"
DOMAIN_MIN 0 0 0
DOMAIN_MAX 1 1 1
LUT_3D_SIZE 5
0.000000000 0.000000000 0.000000000
0.225768998 0.000000000 0.000000000
0.495514005 0.000000000 0.000000000
0.721953988 0.000793000 0.000793000
0.932555974 0.024444999 0.000793000
0.033507999 0.227448002 0.088653997
0.234924003 0.241547003 0.073821999
0.532104015 0.250092000 0.068939000
0.771332026 0.275054991 0.064636000
0.983214974 0.302794993 0.075499997
0.110229000 0.526000977 0.213836998
0.232452005 0.543182015 0.148773000
0.528015018 0.538543999 0.164977998
0.769134998 0.546935976 0.178618997
0.975799978 0.561371028 0.169006005
0.162964001 0.782257020 0.292145014
0.272522002 0.788268983 0.243285999
0.526672006 0.781647027 0.119629003
0.762328982 0.775146008 0.228363007
0.973724008 0.778411984 0.258026004
0.226563007 0.983642995 0.333068997
0.372527987 0.985565007 0.325684011
0.561096013 0.985961974 0.272278011
0.750244021 0.990661979 0.037597999
0.977721989 0.982299984 0.247620001
0.007690000 0.007690000 0.142089993
0.236968994 0.002563000 0.076568998
0.509796023 0.000000000 0.069274999
0.737793028 0.012024000 0.095825002
0.947601020 0.040038999 0.128447995
0.037445001 0.243010998 0.192443997
0.254211009 0.256866008 0.252135992
0.547455013 0.267334014 0.244903997
0.784210026 0.291106999 0.252808005
0.993041992 0.318053991 0.268860012
0.120788999 0.541351020 0.314727992
0.276214987 0.552550972 0.327910990
0.540557981 0.550841987 0.346893013
0.778625011 0.558318973 0.353545994
0.979919016 0.572844982 0.353240997
0.172028005 0.790557981 0.420257986
0.324371010 0.791656017 0.415282995
0.534241021 0.789581001 0.331207007
0.770965993 0.781127989 0.422760010
0.979156017 0.784424007 0.430969000
0.229736000 0.982909977 0.475921988
0.378784001 0.984772027 0.472290009
0.575133979 0.988129020 0.450134009
0.746825993 0.997528017 0.281616002
0.982391000 0.985992014 0.450165004
0.012238000 0.012238000 0.321105987
0.242950007 0.006317000 0.287811011
0.523864985 0.003937000 0.246094003
0.751830995 0.026031001 0.279083014
0.961547971 0.053009000 0.325470001
0.008484000 0.262481987 0.336120993
0.269073009 0.271483988 0.446381003
0.561523020 0.282135010 0.442077994
0.795867980 0.305359006 0.451599002
1.000000000 0.329528987 0.467346013
0.112365998 0.553619027 0.476837009
0.280609012 0.563445985 0.519164979
0.555510998 0.558471978 0.557587028
0.784241021 0.568023980 0.550659001
0.986388981 0.580322027 0.547210991
0.181885004 0.796782970 0.586516976
0.333739996 0.795379996 0.615661979
0.559997976 0.787598014 0.599792004
0.778991997 0.784636974 0.629517019
0.983184993 0.788513005 0.624634027
0.229766995 0.982056022 0.636687994
0.381561011 0.983489990 0.651122987
0.588042974 0.987335026 0.649047971
0.778198004 0.988922000 0.633239985
0.985656977 0.988586009 0.662688971
0.020691000 0.021484001 0.442139000
0.256958008 0.017761000 0.419312000
0.540221989 0.018127000 0.415344000
0.767760992 0.040984999 0.443085015
0.978851020 0.068664998 0.486510992
0.025024001 0.281554997 0.470672995
0.287993997 0.290466011 0.584685981
0.579468012 0.300262004 0.584351003
0.811249018 0.322052002 0.598145008
0.999939024 0.343750000 0.617461979
0.062683001 0.575043023 0.575806022
0.284393013 0.582091987 0.627593994
0.568481028 0.571686029 0.701538026
0.794586003 0.579895020 0.700164974
0.996033013 0.590363026 0.700378001
0.167998999 0.809234977 0.713257015
0.322418004 0.808350027 0.738219976
0.566528022 0.795593023 0.760070980
0.789611995 0.791077018 0.790344000
0.990203977 0.795226991 0.781890988
0.220703006 0.982361019 0.780669987
0.360228986 0.986633003 0.794312000
0.589995980 0.988067985 0.815216005
0.797240973 0.989624023 0.822112978
0.992278993 0.993866026 0.836760998
0.031555001 0.032349002 0.554473996
0.273559988 0.031738002 0.537627995
0.559539974 0.035889000 0.542205989
0.786284983 0.058655001 0.576171994
0.998138011 0.085175000 0.623504996
0.043274000 0.301452994 0.593536019
0.307312012 0.309937000 0.709075987
0.597411990 0.318816990 0.712646008
0.826599002 0.338654011 0.731171012
0.999939024 0.358153999 0.755309999
0.044342000 0.594025016 0.681091011
0.299744010 0.597687006 0.746643007
0.581786990 0.584960997 0.832825005
0.805724978 0.591736019 0.836028993
0.999877989 0.600403011 0.841736019
0.140563995 0.823760986 0.823180974
0.316895008 0.821135998 0.854767025
0.570708990 0.807190001 0.880309999
0.797760010 0.799438000 0.930846989
0.997893989 0.802460015 0.928650022
0.165099993 0.988281012 0.897278011
0.314972013 0.993224978 0.917052984
0.565521002 0.995299995 0.942382991
0.791869998 0.997344971 0.971161008
0.999877989 0.999877989 0.999877989
