public/lut/133.cube
TITLE "17x17x17 Adobe/IRIDAS cube 3D LUT exported with GrossGrade v0.2.2 (beta) 64 bit"
DOMAIN_MIN 0 0 0
DOMAIN_MAX 1 1 1
LUT_3D_SIZE 17
0.000000000 0.000000000 0.000000000
0.043976001 0.003113000 0.000000000
0.093445003 0.003174000 0.000000000
0.157074004 0.000153000 0.000000000
0.225768998 0.000000000 0.000000000
0.296112001 0.000000000 0.000000000
0.365691990 0.000000000 0.000000000
0.432617009 0.000000000 0.000000000
0.495514005 0.000000000 0.000000000
0.555388987 0.000000000 0.000000000
0.612884998 0.000000000 0.000000000
0.668242991 0.000793000 0.000793000
0.721953988 0.000793000 0.000793000
0.774322987 0.003601000 0.000793000
0.826323986 0.011353000 0.000793000
0.879059017 0.018279999 0.000793000
0.932555974 0.024444999 0.000793000
0.003113000 0.043212999 0.010071000
0.045380000 0.045380000 0.000092000
0.095856003 0.045502000 0.000000000
0.161223993 0.042633001 0.000000000
0.230803996 0.039641999 0.000000000
0.302917004 0.036529999 0.000000000
0.375000000 0.034759998 0.000000000
0.444732994 0.035980001 0.000000000
0.510712028 0.038635001 0.000732000
0.573669016 0.042693999 0.000793000
0.633086979 0.047913000 0.000793000
0.689208984 0.053649999 0.000793000
0.743010998 0.060424998 0.000732000
0.795502007 0.067139000 0.000732000
0.847716987 0.074767999 0.000732000
0.900574028 0.082305998 0.001465000
0.954132020 0.089722000 0.001465000
0.006989000 0.091766000 0.024658000
0.041260000 0.096527003 0.001678000
0.093689002 0.096923999 0.017151000
0.164581001 0.096863002 0.009613000
0.238646999 0.098205999 0.000305000
0.314025998 0.098784998 0.000000000
0.388823986 0.099854000 0.000000000
0.459686011 0.101562999 0.000000000
0.526427984 0.104705997 0.000000000
0.589385986 0.109131001 0.000702000
0.649016976 0.114593998 0.000702000
0.705749989 0.120757997 0.001465000
0.760101020 0.128204003 0.005127000
0.813049018 0.135802999 0.012665000
0.865417004 0.143371999 0.019317999
0.918426991 0.151001006 0.026031001
0.971831977 0.158263996 0.031342000
0.016113000 0.154449001 0.053955000
0.024750000 0.164581001 0.018982001
0.090851001 0.167357996 0.011047000
0.161864996 0.166594997 0.045288000
0.238555998 0.166594997 0.053679999
0.315337986 0.167724997 0.046936002
0.391083002 0.170012996 0.031097000
0.463348001 0.173096001 0.020935001
0.531096995 0.177215993 0.014832000
0.595153987 0.182465002 0.010162000
0.655700982 0.188354000 0.011078000
0.713164985 0.194915995 0.015228000
0.768218994 0.202025995 0.021300999
0.821411014 0.209564000 0.028717000
0.873932004 0.217041001 0.036469001
0.926787972 0.224335000 0.044036999
0.979919016 0.231078997 0.051453002
0.033507999 0.227448002 0.088653997
0.039184999 0.236846998 0.067382999
0.082824998 0.242981002 0.036773998
0.157196000 0.242644995 0.035034001
0.234924003 0.241547003 0.073821999
0.314911008 0.241240993 0.086975001
0.391784996 0.243073002 0.079437003
0.463959008 0.246094003 0.072356999
0.532104015 0.250092000 0.068939000
0.596466005 0.255219012 0.066467002
0.657500982 0.261078000 0.066315003
0.715637028 0.267731011 0.065917999
0.771332026 0.275054991 0.064636000
0.825073004 0.282593012 0.064636000
0.877686024 0.289763987 0.068236999
0.930388987 0.296539009 0.071716003
0.983214974 0.302794993 0.075499997
0.054382000 0.302825987 0.122832999
0.063446000 0.311066002 0.113098003
0.077698000 0.319701999 0.075530998
0.154479995 0.319397002 0.069518998
0.230407998 0.320374012 0.039825000
0.310608000 0.319031000 0.089386001
0.391326994 0.318726003 0.115691997
0.465027004 0.321074992 0.111571997
0.532867014 0.324981987 0.107697003
0.597320974 0.329681009 0.106353998
0.658385992 0.334991008 0.105774000
0.716400027 0.340880990 0.105255000
0.771911979 0.347321004 0.104523003
0.825348020 0.353850991 0.104584001
0.877624989 0.360228986 0.106078997
0.929809988 0.366088986 0.107543997
0.982025027 0.371367991 0.108733997
0.074767999 0.378448009 0.155457005
0.085602000 0.386413991 0.149535999
0.096619003 0.394989014 0.124022998
0.149840996 0.396759003 0.105163999
0.230072007 0.397246987 0.074951001
0.307159007 0.397857994 0.063598998
0.386687994 0.396210015 0.112579003
0.464325011 0.396117985 0.140717000
0.533661008 0.398925990 0.138549998
0.597411990 0.403075993 0.134735003
0.658203006 0.407532007 0.133086994
0.715942025 0.412414998 0.132110998
0.770874023 0.417571992 0.131957993
0.823853016 0.422913015 0.131957993
0.875671029 0.428252995 0.132201999
0.927307010 0.433319002 0.132477000
0.979156017 0.437653005 0.132293999
0.093231000 0.453307986 0.185760006
0.108185001 0.460875988 0.183197007
0.123749003 0.468322992 0.167603001
0.155579001 0.471527010 0.138824001
0.230865002 0.471801996 0.122313999
0.309112996 0.472411990 0.081482001
0.383971989 0.471924007 0.090424001
0.460022002 0.470061988 0.139648005
0.532440007 0.469971001 0.164245993
0.597564995 0.472411990 0.163696006
0.657562017 0.476013005 0.159454003
0.714874029 0.479950011 0.156951994
0.769653022 0.484192014 0.155120999
0.822387993 0.488678008 0.153748006
0.873932004 0.493133992 0.152587995
0.925354004 0.497406006 0.151519999
0.976898015 0.501221001 0.150207996
0.110229000 0.526000977 0.213836998
0.131104007 0.532593012 0.214539006
0.147308007 0.539306998 0.200957999
0.174805000 0.541809022 0.177398995
0.232452005 0.543182015 0.148773000
0.311554015 0.542388976 0.123412997
0.385345012 0.542205989 0.083343998
0.456450999 0.540771008 0.109924003
0.528015018 0.538543999 0.164977998
0.595734000 0.538299978 0.185303003
0.657471001 0.540283024 0.185699001
0.714661002 0.543365002 0.182068005
0.769134998 0.546935976 0.178618997
0.821807981 0.550659001 0.176208004
0.873229980 0.554503977 0.173888996
0.924468994 0.558166981 0.171630993
0.975799978 0.561371028 0.169006005
0.126099005 0.595458984 0.239348993
0.151336998 0.600799978 0.241364002
0.167786002 0.606658995 0.228302002
0.196747005 0.607940972 0.210693002
0.234008998 0.610351980 0.170502007
0.310851991 0.608765006 0.152312994
0.388489008 0.607208014 0.110625997
0.456268013 0.606598020 0.086181998
0.523742974 0.604705989 0.130980998
0.591063976 0.602478027 0.185149997
0.655426025 0.602141976 0.203644007
0.714568973 0.603820980 0.204987004
0.769591987 0.606414974 0.202332005
0.821959972 0.609619021 0.198241994
0.873260021 0.612854004 0.195098996
0.924438000 0.615935981 0.191588998
0.975768983 0.618561029 0.187346995
0.140717000 0.661072016 0.260955989
0.168518007 0.665283024 0.263305992
0.186095998 0.670073986 0.251159996
0.215485007 0.670471013 0.236267000
0.239898995 0.673096001 0.193023995
0.310211003 0.671721995 0.170837000
0.390960991 0.668883979 0.151947007
0.458770990 0.668030024 0.100891002
0.522552013 0.667205989 0.099762000
0.587189019 0.664885998 0.159363002
0.650664985 0.662963986 0.201812997
0.712096989 0.662567019 0.219054997
0.769439995 0.663666010 0.221801996
0.822784007 0.665862978 0.219726995
0.873809993 0.668671012 0.214904994
0.924773991 0.671234012 0.210906997
0.974700987 0.673705995 0.211394995
0.153198004 0.723021984 0.278198004
0.182739004 0.726226985 0.281403005
0.202941999 0.730041981 0.270934999
0.232238993 0.730072021 0.256989002
0.255035013 0.731994987 0.219726995
0.312866002 0.731505990 0.189087003
0.390686005 0.728455007 0.170929000
0.462249994 0.726226985 0.139312997
0.524291992 0.725677013 0.103973001
0.585052013 0.724547982 0.122101001
0.647063971 0.722198009 0.179688007
0.707489014 0.720275998 0.216431007
0.766570985 0.719878972 0.231049001
0.822632015 0.720489979 0.235870004
0.874786019 0.722320974 0.233429000
0.925445974 0.724609017 0.229034007
0.972869992 0.727203012 0.240172997
0.162964001 0.782257020 0.292145014
0.193604007 0.784698009 0.295929015
0.219116002 0.787383974 0.288574010
0.247741997 0.787140012 0.274383992
0.272522002 0.788268983 0.243285999
0.316406012 0.788757026 0.204192996
0.389373988 0.785889030 0.184265003
0.464172006 0.782653987 0.166718006
0.526672006 0.781647027 0.119629003
0.584960997 0.781067014 0.101227000
0.644806027 0.779236019 0.147551998
0.704192996 0.777007997 0.194946006
0.762328982 0.775146008 0.228363007
0.819213986 0.774779975 0.240844995
0.874695003 0.774901986 0.246643007
0.926392019 0.776305974 0.244873002
0.973724008 0.778411984 0.258026004
0.170837000 0.839416981 0.303283989
0.202423006 0.841125011 0.307586998
0.235625997 0.842072010 0.305510998
0.262084991 0.842194021 0.289124012
0.287476003 0.842833996 0.261108011
0.318450987 0.844208002 0.215270996
0.387481987 0.841461003 0.194152996
0.464507997 0.837616026 0.181213006
0.529572010 0.835448980 0.155457005
0.587189019 0.834900022 0.117310002
0.643463016 0.834137022 0.115326002
0.702057004 0.831939995 0.168395996
0.759186029 0.829955995 0.207458004
0.815796018 0.828094006 0.239166006
0.870971978 0.827880979 0.248016000
0.926208019 0.827575982 0.255737007
0.975188971 0.828674018 0.272156000
0.176452994 0.895202994 0.311706990
0.209076002 0.896117985 0.316711009
0.248108000 0.895659983 0.319092005
0.273986995 0.895965993 0.300689995
0.300231993 0.896210015 0.274657995
0.321563989 0.898070991 0.225310996
0.385161996 0.895690978 0.201537997
0.463286996 0.891479015 0.191131994
0.530121028 0.888641000 0.172851995
0.589203000 0.887359977 0.139771000
0.644317985 0.886870980 0.115691997
0.700286984 0.885528982 0.138245001
0.756989002 0.883575022 0.183197007
0.812377989 0.881805003 0.217316002
0.868377984 0.879851997 0.247649997
0.922820985 0.879791021 0.252411008
0.976989985 0.878966987 0.273589998
0.182616994 0.949127018 0.318206996
0.216216996 0.949096978 0.324829012
0.255798012 0.948455989 0.326537997
0.285582989 0.948242009 0.310180992
0.315093994 0.947997987 0.287292004
0.344635010 0.948547006 0.251861989
0.394347996 0.947539985 0.219146997
0.462707996 0.944305003 0.201874003
0.530822992 0.941039979 0.187896997
0.590820014 0.939239979 0.165740997
0.645142019 0.938934028 0.125884995
0.698395014 0.938598990 0.105224997
0.755034983 0.936645985 0.153656006
0.810181022 0.935028017 0.189545006
0.864989996 0.933655024 0.215515003
0.921416998 0.932007015 0.234862998
0.978820980 0.930786014 0.244598001
0.226563007 0.983642995 0.333068997
0.257416010 0.983703971 0.340240002
0.290955007 0.983977973 0.340209991
0.329742014 0.984650016 0.333281994
0.372527987 0.985565007 0.325684011
0.418334991 0.986908019 0.318114996
0.465941995 0.987671018 0.309020996
0.514679015 0.986663997 0.295807004
0.561096013 0.985961974 0.272278011
0.602630973 0.987640023 0.226868004
0.644195974 0.990447998 0.146789998
0.693908989 0.991638005 0.057769999
0.750244021 0.990661979 0.037597999
0.808013976 0.988892019 0.105896004
0.864777029 0.987426996 0.137268007
0.922302008 0.984710991 0.200195000
0.977721989 0.982299984 0.247620001
0.003113000 0.003113000 0.013153000
0.046082001 0.006989000 0.001587000
0.095825002 0.007050000 0.001465000
0.160583004 0.002472000 0.002960000
0.229401007 0.000000000 0.003845000
0.300200999 0.000000000 0.004639000
0.369812012 0.000000000 0.005920000
0.436614990 0.000000000 0.006653000
0.499938995 0.000000000 0.007751000
0.560088992 0.000000000 0.008545000
0.617766976 0.000000000 0.009613000
0.673125982 0.000793000 0.011139000
0.726898015 0.001984000 0.011841000
0.779358029 0.008881000 0.013153000
0.831206977 0.015869001 0.013947000
0.883880973 0.022857999 0.014740000
0.937195003 0.029114000 0.015533000
0.003113000 0.047455002 0.008545000
0.046082001 0.048126001 0.009918000
0.099243000 0.049529999 0.003052000
0.164794996 0.046172999 0.002228000
0.235291004 0.043304000 0.003601000
0.307556003 0.040344000 0.004578000
0.380340993 0.039398000 0.005920000
0.450195014 0.040557999 0.007385000
0.516601980 0.043457001 0.008545000
0.579346001 0.047240999 0.009277000
0.638427973 0.052429002 0.010071000
0.694396973 0.058104999 0.010803000
0.748138011 0.064850003 0.011719000
0.800536990 0.072296001 0.013794000
0.852692008 0.079558998 0.016174000
0.905547976 0.087188996 0.022338999
0.959015012 0.094237998 0.028441999
0.007690000 0.095856003 0.028930999
0.044158999 0.100708000 0.006958000
0.096923999 0.100066997 0.050018001
0.168487996 0.100647002 0.045044001
0.243439004 0.101989999 0.025726000
0.319366008 0.103332996 0.013123000
0.394378990 0.104675002 0.008240000
0.465546012 0.106688999 0.007294000
0.532226980 0.109833002 0.008575000
0.595184028 0.114288002 0.010895000
0.654846013 0.119873002 0.015686000
0.711304009 0.126250997 0.022430001
0.765564024 0.133484006 0.030212000
0.818297982 0.140900001 0.038391002
0.870575011 0.148620993 0.046326000
0.923492014 0.156250000 0.054076999
0.976715028 0.163268998 0.061188001
0.017548000 0.159575999 0.061005000
0.028534001 0.169799998 0.023314999
0.092528999 0.171630993 0.049500000
0.166320994 0.171050996 0.078552000
0.243622005 0.171325997 0.081573002
0.320250988 0.172424003 0.074463002
0.395720989 0.174163997 0.067657001
0.467804015 0.176909998 0.061370999
0.535919011 0.181273997 0.052887000
0.600188971 0.186707005 0.046813998
0.660705984 0.192748994 0.046997000
0.718352973 0.199615002 0.047455002
0.773468018 0.207092002 0.050170999
0.826659977 0.214721993 0.056182999
0.879181027 0.222137004 0.063415997
0.931914985 0.229431003 0.071410999
0.984772027 0.235870004 0.079650998
0.035034001 0.232758000 0.097778000
0.042084001 0.242461994 0.073974997
0.085631996 0.247374997 0.068816997
0.161010996 0.247954994 0.065886997
0.239868000 0.246795997 0.102600001
0.320160002 0.246368006 0.115234002
0.396881014 0.247986004 0.110290997
0.468964010 0.250853986 0.105377004
0.537231028 0.255066007 0.101868004
0.601531982 0.260071009 0.099365003
0.662536979 0.265929997 0.099578999
0.720336974 0.272491008 0.100647002
0.775664985 0.279540986 0.102325000
0.829101980 0.286742985 0.104888998
0.881560981 0.293915004 0.108245999
0.934296012 0.300689995 0.111083999
0.987182975 0.306914985 0.112273999
0.055785999 0.308135986 0.133544996
0.066101000 0.316803008 0.122528002
0.094237998 0.323119998 0.109099999
0.159942999 0.324553996 0.095856003
0.233948007 0.326110989 0.071837999
0.315216005 0.324553996 0.119811997
0.396544993 0.323944002 0.143738002
0.470245004 0.326263011 0.140045002
0.537994027 0.330170006 0.136810005
0.602325022 0.334686011 0.135986000
0.663208008 0.339935005 0.136016995
0.721008003 0.345764011 0.136840999
0.776215017 0.351929009 0.138123006
0.829315007 0.358245999 0.139771000
0.881377995 0.364502013 0.141479000
0.933440983 0.370238990 0.143004999
0.985687017 0.375458002 0.143310994
0.076233000 0.383911014 0.167786002
0.091735996 0.391846001 0.164825007
0.114807002 0.398407012 0.153656006
0.156463996 0.401793987 0.130066007
0.233673006 0.402832001 0.102569997
0.310608000 0.403595001 0.091216996
0.390717000 0.401672006 0.140594006
0.469085991 0.401122987 0.170135006
0.538452029 0.403777987 0.168395996
0.602051020 0.407806009 0.164702997
0.662720025 0.412169993 0.163543999
0.720153987 0.416931003 0.162872002
0.774932981 0.422057986 0.162719995
0.827697992 0.427338004 0.163176998
0.879302979 0.432494998 0.163818002
0.930846989 0.437317014 0.164368004
0.982573986 0.441680998 0.164764002
0.095123000 0.458678991 0.201202005
0.116393998 0.465912014 0.201965004
0.137450993 0.472075999 0.192322001
0.165648997 0.475890994 0.166473001
0.235596001 0.476868004 0.147460997
0.312438995 0.477753013 0.108856000
0.387053996 0.477263987 0.118164003
0.463562012 0.475037009 0.168457001
0.536713004 0.474426001 0.194640994
0.601958990 0.476714998 0.194518998
0.661682010 0.480255008 0.190491006
0.718780994 0.484070003 0.188354000
0.773315012 0.488251001 0.186890006
0.825866997 0.492615014 0.185883000
0.877228022 0.497009009 0.185120001
0.928588986 0.501190007 0.184265003
0.980010986 0.504822016 0.183166996
0.112334996 0.530974984 0.232421994
0.138306007 0.537445009 0.234221995
0.158660993 0.543120980 0.224792004
0.187286004 0.545409977 0.206879005
0.237488002 0.547791004 0.174529999
0.314666986 0.547088981 0.150512993
0.388397008 0.546935976 0.114593998
0.459136993 0.545562983 0.139708996
0.531127989 0.542999029 0.194672003
0.599518001 0.542328000 0.216736004
0.661315978 0.544128001 0.217407003
0.718262017 0.547150016 0.214141995
0.772552013 0.550659001 0.211120993
0.825012028 0.554351985 0.208922997
0.876281977 0.558104992 0.207062006
0.927398980 0.561614990 0.205017000
0.978851020 0.564635992 0.201965004
0.128601000 0.600067019 0.259429991
0.157471001 0.605346978 0.261871010
0.178101003 0.610198975 0.252746999
0.209289998 0.611023009 0.240447998
0.238922000 0.614380002 0.196930006
0.313659996 0.613067985 0.178284004
0.391570985 0.611359000 0.142609000
0.458739996 0.610961974 0.118865997
0.525909007 0.609070003 0.160950005
0.593963981 0.606476009 0.216491997
0.658783019 0.605773985 0.236237004
0.717895985 0.607299984 0.237579003
0.772765994 0.609833002 0.235351995
0.824921012 0.613007009 0.231628001
0.876067996 0.616119027 0.228668004
0.927002013 0.619080007 0.225951999
0.976806998 0.622101009 0.227385998
0.143767998 0.665252984 0.281951994
0.173125997 0.669372976 0.285034001
0.195892006 0.673218012 0.276977986
0.227936000 0.673125982 0.266815007
0.247008994 0.676544011 0.222106993
0.313538015 0.675567985 0.198058993
0.393707007 0.672729015 0.180573002
0.461304009 0.671905994 0.133698002
0.524444997 0.671203971 0.131743997
0.589203000 0.668823004 0.189667001
0.653411984 0.666411996 0.234924003
0.715088010 0.665741026 0.252837986
0.772338986 0.666840017 0.255187988
0.825562000 0.668945014 0.253632009
0.876372993 0.671630979 0.249083996
0.927124023 0.674193978 0.245940998
0.974578977 0.677277029 0.255553991
0.155670002 0.726746023 0.300720006
0.185577005 0.729919016 0.304412991
0.214721993 0.732361019 0.300354004
0.244445994 0.732330024 0.288390994
0.264739990 0.734740973 0.251495004
0.317047000 0.734893978 0.217773005
0.393036008 0.731994987 0.199462995
0.464843988 0.729674995 0.171996996
0.526427984 0.729187012 0.138854995
0.586638987 0.728148997 0.154479995
0.648926020 0.725585997 0.211792007
0.710174978 0.723267019 0.251648009
0.769195974 0.722778022 0.265960991
0.825164974 0.723205984 0.270507991
0.877197027 0.724976003 0.268402010
0.927703977 0.727203012 0.264252007
0.974762022 0.729767025 0.275757015
0.165131003 0.785583019 0.316466987
0.195952997 0.787750006 0.321776986
0.233367994 0.788543999 0.322997987
0.259429991 0.789124012 0.306762993
0.281127989 0.790802002 0.274657995
0.319976985 0.791840017 0.233245999
0.391602010 0.789093018 0.213531002
0.466583014 0.785705984 0.197693005
0.528961003 0.784668028 0.156829998
0.586731017 0.784210026 0.138916001
0.646117985 0.782440007 0.179168999
0.705811024 0.780028999 0.228394002
0.764892995 0.777679026 0.265410990
0.821654975 0.777252018 0.277038991
0.876984000 0.777252018 0.282867014
0.928466976 0.778625011 0.281311005
0.975768983 0.780669987 0.292968988
0.172882006 0.842437983 0.329284996
0.204680994 0.843262017 0.337677002
0.243561000 0.843994021 0.337157995
0.271454006 0.844177008 0.320923001
0.295105010 0.845093012 0.292663991
0.321898997 0.846984982 0.245331004
0.389495999 0.844299018 0.224151999
0.466858000 0.840331972 0.212707996
0.531768978 0.838135004 0.189636007
0.588898003 0.837646008 0.153441995
0.644713998 0.837036014 0.150023997
0.703155994 0.834838986 0.201569006
0.760590017 0.832580984 0.242523000
0.818175972 0.830169976 0.277709991
0.873260021 0.829986989 0.285766989
0.928283989 0.829650998 0.292328000
0.977111995 0.830688000 0.308257997
0.178406000 0.897948980 0.339233011
0.211243004 0.898070991 0.348419011
0.252045006 0.898132026 0.348540992
0.283234000 0.897796988 0.333160013
0.309082001 0.898070991 0.307861000
0.328826994 0.900084972 0.259918004
0.389221013 0.897979975 0.234741002
0.465393007 0.893921018 0.223327994
0.532104015 0.891052008 0.206389993
0.591094971 0.889801025 0.177093998
0.645812988 0.889343023 0.154144004
0.701263011 0.888122976 0.173004001
0.758086979 0.886047006 0.218505993
0.814117014 0.883911014 0.255401999
0.870575011 0.881713986 0.284698009
0.925536990 0.881835997 0.281493992
0.978729010 0.880675972 0.312743992
0.184508994 0.951416016 0.347198009
0.217896000 0.951111019 0.356658995
0.267365009 0.949890018 0.360107005
0.307343006 0.948302984 0.349945009
0.337462991 0.947815001 0.329712003
0.366759986 0.948242009 0.299102992
0.407561988 0.948242009 0.263518989
0.466675013 0.946197987 0.238006994
0.532378972 0.943237007 0.221680000
0.592711985 0.941314995 0.202271000
0.646758974 0.941039979 0.165588006
0.699492991 0.940856993 0.144927993
0.755737007 0.938995004 0.187041998
0.811156988 0.937439024 0.219542995
0.866729975 0.935913026 0.243469000
0.923523009 0.934081972 0.264037997
0.980560005 0.932312012 0.288787991
0.227234006 0.983612001 0.362060994
0.258269995 0.983582020 0.370453000
0.291992009 0.983947992 0.369201988
0.331176996 0.984619021 0.362915009
0.374054015 0.985535026 0.355865002
0.420013011 0.986755013 0.348632991
0.468169987 0.988434017 0.341399997
0.517638981 0.988098025 0.330657989
0.565429986 0.987182975 0.311737001
0.608367980 0.988312006 0.276459008
0.647400022 0.991760015 0.191802993
0.692505002 0.994414985 0.075103998
0.750182986 0.993255973 0.047088999
0.808502018 0.991302013 0.129851997
0.866486013 0.989135981 0.180816993
0.924438000 0.986145020 0.247894004
0.979583979 0.983825982 0.290710002
0.005432000 0.005432000 0.046905998
0.048126001 0.009308000 0.012421000
0.100005999 0.009460000 0.006592000
0.164123997 0.004913000 0.005920000
0.232727006 0.000885000 0.006805000
0.303375006 0.000000000 0.008911000
0.373504996 0.000000000 0.011230000
0.440337986 0.000000000 0.013123000
0.503937006 0.000000000 0.015076000
0.564513981 0.000000000 0.016968001
0.622253001 0.000000000 0.018921001
0.677765012 0.001465000 0.021149000
0.731383979 0.005829000 0.022675000
0.783630013 0.012817000 0.024658000
0.835358024 0.019805999 0.026306000
0.888031006 0.026703000 0.029327000
0.941437006 0.033020001 0.031647000
0.007751000 0.049469002 0.037415002
0.048797999 0.049529999 0.060883000
0.101898000 0.051514000 0.033721998
0.168457001 0.049561001 0.018097000
0.239105001 0.046112001 0.010590000
0.312103003 0.044006001 0.010406000
0.385132015 0.043549001 0.011841000
0.455352992 0.044861000 0.013641000
0.521637022 0.047637999 0.016418001
0.584351003 0.051819000 0.018677000
0.643280029 0.056731999 0.022491001
0.699036002 0.062683001 0.027953999
0.752686024 0.069641002 0.035675000
0.804961979 0.076720998 0.043517999
0.857025027 0.084503002 0.050873000
0.909882009 0.091826998 0.058258001
0.963347971 0.098968998 0.065459996
0.011536000 0.098540999 0.056122001
0.047545999 0.102966003 0.054047000
0.101470999 0.103058003 0.088134997
0.171630993 0.104033999 0.085449003
0.246215999 0.105347000 0.075530998
0.323119998 0.106964000 0.056945998
0.398804009 0.108337000 0.045959000
0.470153987 0.110808998 0.040709998
0.537262022 0.114349000 0.038727000
0.600403011 0.118896000 0.040771000
0.659851015 0.124603003 0.046264999
0.716278017 0.131194994 0.053374998
0.770447016 0.138336003 0.061889999
0.823059022 0.145781994 0.070952997
0.875244021 0.153503001 0.080536000
0.928070009 0.160918996 0.089722000
0.981231987 0.167937994 0.098082997
0.019805999 0.163971007 0.080719002
0.050232001 0.171721995 0.070129000
0.099762000 0.174926996 0.098145001
0.170990005 0.175200999 0.118133999
0.247803003 0.175476000 0.119750999
0.324584991 0.176971003 0.112182997
0.400146008 0.178710997 0.105774000
0.472137004 0.181305006 0.102202997
0.539763987 0.185241997 0.099609002
0.603820980 0.190399006 0.097594999
0.664551020 0.196594000 0.094848998
0.722351015 0.203795999 0.092620999
0.777435005 0.211211994 0.094910003
0.830565989 0.218780994 0.100066997
0.883148015 0.226410002 0.104278997
0.936065972 0.233704001 0.109954998
0.989014030 0.240294993 0.116820998
0.037262000 0.237517998 0.114960000
0.066742003 0.245056003 0.109343998
0.104461998 0.249390006 0.120453000
0.167907998 0.251861989 0.114563003
0.244719997 0.251159996 0.141417995
0.324981987 0.251067996 0.150635004
0.401459008 0.252685994 0.146422997
0.473511010 0.255614996 0.143004999
0.541565001 0.259613007 0.141479000
0.605865002 0.264495999 0.140563995
0.666718006 0.270415992 0.140563995
0.724425972 0.276946992 0.141021997
0.779601991 0.283874989 0.143310994
0.832825005 0.291045994 0.146729007
0.885161996 0.298065007 0.150238007
0.937653005 0.304657012 0.153899997
