public/lut/134.cube
TITLE "17x17x17 Adobe/IRIDAS cube 3D LUT exported with GrossGrade v0.2.2 (beta) 64 bit"
DOMAIN_MIN 0 0 0
DOMAIN_MAX 1 1 1
LUT_3D_SIZE 5
0.000000000 0.000000000 0.000000000
0.194610998 0.000000000 0.000000000
0.447997987 0.000000000 0.000000000
0.707702994 0.000000000 0.000000000
0.970367014 0.000000000 0.000000000
0.000000000 0.223541006 0.000000000
0.147674993 0.212920994 0.000000000
0.406738013 0.214812994 0.000000000
0.677277029 0.210968003 0.000000000
0.954468012 0.231964007 0.000000000
0.000000000 0.453155994 0.000000000
0.106078997 0.447571009 0.000000000
0.357329994 0.456634998 0.000000000
0.639007986 0.472564995 0.000000000
0.906494021 0.481079012 0.000000000
0.000000000 0.702057004 0.000000000
0.069580004 0.701569021 0.000000000
0.325897008 0.695526004 0.000000000
0.591003001 0.710906982 0.000000000
0.847229004 0.729462028 0.000000000
0.000000000 0.925476015 0.000000000
0.063995004 0.915679991 0.000000000
0.327789009 0.910950005 0.000000000
0.578887999 0.927307010 0.000000000
0.818665028 0.952208996 0.000000000
0.000000000 0.000000000 0.223723993
0.187073007 0.000000000 0.222014993
0.442809999 0.000000000 0.227691993
0.707062006 0.000000000 0.234894007
0.975799978 0.000000000 0.249573007
0.000000000 0.233215004 0.215820000
0.141875997 0.224273995 0.220062003
0.406798989 0.222870007 0.232604995
0.682892025 0.222106993 0.247070000
0.967833996 0.248108000 0.249420002
0.000000000 0.468230993 0.217316002
0.092468001 0.465698004 0.225310996
0.363678008 0.476410002 0.239531994
0.646088004 0.487670988 0.248627007
0.911835015 0.497437000 0.248809993
0.000000000 0.727325022 0.233490005
0.070923001 0.718536019 0.242064998
0.334502995 0.716187000 0.241272002
0.606476009 0.727874994 0.248444006
0.861419976 0.743682981 0.248352006
0.000000000 0.929138005 0.246582001
0.036072001 0.929534972 0.248229995
0.316985995 0.941771984 0.198333994
0.595641971 0.955048025 0.188507006
0.843780994 0.974518001 0.187958002
0.000000000 0.000000000 0.450623006
0.178497002 0.000000000 0.453673989
0.434630990 0.000000000 0.462769002
0.702789009 0.000000000 0.476624012
0.976715028 0.000000000 0.499572992
0.000000000 0.243865997 0.453673989
0.141509995 0.235016003 0.463104010
0.405182004 0.231232002 0.479461998
0.683929026 0.234038994 0.498474002
0.970367014 0.249267995 0.499480993
0.000000000 0.490662009 0.461456001
0.091187000 0.490936011 0.477813989
0.371490002 0.496825993 0.498290986
0.650847971 0.498840004 0.498901010
0.913666010 0.498809993 0.498840004
0.000000000 0.750458002 0.487152010
0.072356999 0.741393983 0.495270014
0.347229004 0.736724973 0.499022990
0.620818973 0.742828012 0.498840004
0.873534977 0.748749018 0.498748988
0.000000000 0.941254020 0.497527987
0.038451999 0.942718983 0.498046994
0.330199987 0.962189019 0.495849997
0.617003977 0.970763981 0.498901010
0.867401004 0.985413015 0.498748988
0.000000000 0.000000000 0.674315989
0.169341996 0.000000000 0.683318973
0.427367985 0.000000000 0.696898997
0.697601020 0.000000000 0.717589974
0.975036979 0.000000000 0.745422006
0.000000000 0.249512002 0.690551996
0.139708996 0.245056003 0.706634998
0.403687000 0.241913006 0.728424013
0.685364008 0.249175996 0.749145985
0.963257015 0.249175996 0.749359012
0.000000000 0.499785990 0.712737978
0.088927999 0.499511987 0.738677979
0.376525998 0.499146014 0.749114990
0.654846013 0.498932004 0.748901010
0.913452029 0.498778999 0.748778999
0.000000000 0.750000000 0.747437000
0.071198002 0.749755979 0.749695003
0.352355987 0.749450982 0.749328971
0.633911014 0.749145985 0.749083996
0.885773003 0.748809993 0.748809993
0.000000000 0.956786990 0.748656988
0.040222000 0.958770990 0.748534977
0.305969000 0.982208014 0.748932004
0.631012022 0.984467030 0.748932004
0.888518989 0.993439019 0.748992980
0.000000000 0.000000000 0.896393001
0.163756996 0.000000000 0.911773980
0.422241002 0.000000000 0.931182981
0.695496023 0.000000000 0.957031012
0.973784983 0.000000000 0.984528005
0.000000000 0.249267995 0.926697016
0.146056995 0.249115005 0.950744987
0.404540986 0.248840004 0.980103016
0.693207026 0.248992994 0.999297976
0.951996028 0.248840004 0.998961985
0.000000000 0.499785990 0.967987001
0.087158002 0.499603003 0.993713021
0.379821986 0.499237001 0.997588992
0.663085997 0.499146014 0.998839974
0.915466011 0.498901010 0.998656988
0.000000000 0.749877989 0.979218006
0.068115003 0.749634027 0.980742991
0.348816007 0.749328971 0.992461979
0.643950999 0.749207020 0.997253001
0.900023997 0.748961985 0.998809993
0.000000000 0.967346013 0.967346013
0.038635001 0.969025016 0.969025016
0.185211003 0.990723014 0.990723014
0.630523980 0.991851985 0.996155024
0.902648985 0.997008979 0.998413026
