public/lut/134.cube
TITLE "17x17x17 Adobe/IRIDAS cube 3D LUT exported with GrossGrade v0.2.2 (beta) 64 bit"
DOMAIN_MIN 0 0 0
DOMAIN_MAX 1 1 1
LUT_3D_SIZE 17
0.000000000 0.000000000 0.000000000
0.036377002 0.000000000 0.000000000
0.073913999 0.000000000 0.000000000
0.132018998 0.000000000 0.000000000
0.194610998 0.000000000 0.000000000
0.256682992 0.000000000 0.000000000
0.320282012 0.000000000 0.000000000
0.383911014 0.000000000 0.000000000
0.447997987 0.000000000 0.000000000
0.512299001 0.000000000 0.000000000
0.577086985 0.000000000 0.000000000
0.642426014 0.000000000 0.000000000
0.707702994 0.000000000 0.000000000
0.773406982 0.000000000 0.000000000
0.839478016 0.000000000 0.000000000
0.904846013 0.000000000 0.000000000
0.970367014 0.000000000 0.000000000
0.000000000 0.056396000 0.000000000
0.034851000 0.052094001 0.000000000
0.068847999 0.048186999 0.000000000
0.123443998 0.046021000 0.000000000
0.184845001 0.048615001 0.000000000
0.247223005 0.052338000 0.000000000
0.310149997 0.055633999 0.000000000
0.374146014 0.058044001 0.000000000
0.438293010 0.059478998 0.000000000
0.503356993 0.060028002 0.000000000
0.568481028 0.060089000 0.000000000
0.634124994 0.060089000 0.000000000
0.699981987 0.060637999 0.000000000
0.766327024 0.060637999 0.000000000
0.832427979 0.060028002 0.000000000
0.899444997 0.059997998 0.000000000
0.965484977 0.059997998 0.000000000
0.000000000 0.111511000 0.000000000
0.032623000 0.108672999 0.000000000
0.065186001 0.104675002 0.000000000
0.112121999 0.101746000 0.000000000
0.172759995 0.101593003 0.000000000
0.236053005 0.101714998 0.000000000
0.299744010 0.101562999 0.000000000
0.364014000 0.101623997 0.000000000
0.428772002 0.100739002 0.000000000
0.494049013 0.099884003 0.000000000
0.559661984 0.099091001 0.000000000
0.625945985 0.098846003 0.000000000
0.692565978 0.100860998 0.000000000
0.759307981 0.105530001 0.000000000
0.826903999 0.114136003 0.000000000
0.894744992 0.123687997 0.000000000
0.961516976 0.123595998 0.000000000
0.000000000 0.167632997 0.000000000
0.031799000 0.164398000 0.000000000
0.063019000 0.161072001 0.000000000
0.102081001 0.157897994 0.000000000
0.159667999 0.157012999 0.000000000
0.223297000 0.157471001 0.000000000
0.288024992 0.157226995 0.000000000
0.353118986 0.156525001 0.000000000
0.418334991 0.155304000 0.000000000
0.484160990 0.153870001 0.000000000
0.550812006 0.152282998 0.000000000
0.617859006 0.151031002 0.000000000
0.684937000 0.150818005 0.000000000
0.753081977 0.152893007 0.000000000
0.821533024 0.158325002 0.000000000
0.889892995 0.168152004 0.000000000
0.958159983 0.181731999 0.000000000
0.000000000 0.223541006 0.000000000
0.029633000 0.220763996 0.000000000
0.060272001 0.217833996 0.000000000
0.092285000 0.214690998 0.000000000
0.147674993 0.212920994 0.000000000
0.210388005 0.213744998 0.000000000
0.274872005 0.214965999 0.000000000
0.340575993 0.215302005 0.000000000
0.406738013 0.214812994 0.000000000
0.473511010 0.214049995 0.000000000
0.540802002 0.212981999 0.000000000
0.608947992 0.211731002 0.000000000
0.677277029 0.210968003 0.000000000
0.746551991 0.211211994 0.000000000
0.815918028 0.213866994 0.000000000
0.885742009 0.220062003 0.000000000
0.954468012 0.231964007 0.000000000
0.000000000 0.280120999 0.000000000
0.027892999 0.277496010 0.000000000
0.056853998 0.274628013 0.000000000
0.085387997 0.272002995 0.000000000
0.137299001 0.269744992 0.000000000
0.198119998 0.269989014 0.000000000
0.261536002 0.272064000 0.000000000
0.327331990 0.274078012 0.000000000
0.394347996 0.275207996 0.000000000
0.462036014 0.275664985 0.000000000
0.530487001 0.275664985 0.000000000
0.599578977 0.275359988 0.000000000
0.669372976 0.275023997 0.000000000
0.739593983 0.275451988 0.000000000
0.810333014 0.277007997 0.000000000
0.881682992 0.281096995 0.000000000
0.951964974 0.289124012 0.000000000
0.000000000 0.336914003 0.000000000
0.025574001 0.334594995 0.000000000
0.053222999 0.332183987 0.000000000
0.079620004 0.329894990 0.000000000
0.127105996 0.327850014 0.000000000
0.186432004 0.327666998 0.000000000
0.249329001 0.329558998 0.000000000
0.314330995 0.332457989 0.000000000
0.381531000 0.335296988 0.000000000
0.450134009 0.337401986 0.000000000
0.519622982 0.338867009 0.000000000
0.589783013 0.339843988 0.000000000
0.660919011 0.340667993 0.000000000
0.732451975 0.341980010 0.000000000
0.804260015 0.343750000 0.000000000
0.874419987 0.346619010 0.000000000
0.940491021 0.351929009 0.000000000
0.000000000 0.394501001 0.000000000
0.022826999 0.392639011 0.000000000
0.049377002 0.390717000 0.000000000
0.074767999 0.388823986 0.000000000
0.116455004 0.387115002 0.000000000
0.174743995 0.386658013 0.000000000
0.237517998 0.388336003 0.000000000
0.302002013 0.391631991 0.000000000
0.368988007 0.395507991 0.000000000
0.437866002 0.399170011 0.000000000
0.508086979 0.402435005 0.000000000
0.579742014 0.405151010 0.000000000
0.651610970 0.407471001 0.000000000
0.722778022 0.409119010 0.000000000
0.792083979 0.410706013 0.000000000
0.859740973 0.412842005 0.000000000
0.923218012 0.416473001 0.000000000
0.000000000 0.453155994 0.000000000
0.020508001 0.451721013 0.000000000
0.045715000 0.450316995 0.000000000
0.069854997 0.448913991 0.000000000
0.106078997 0.447571009 0.000000000
0.163451999 0.447234988 0.000000000
0.226653993 0.448700011 0.000000000
0.290832996 0.452026010 0.000000000
0.357329994 0.456634998 0.000000000
0.426086009 0.461822987 0.000000000
0.496551991 0.466522008 0.000000000
0.568023980 0.470061988 0.000000000
0.639007986 0.472564995 0.000000000
0.708557010 0.474364996 0.000000000
0.775879025 0.476043999 0.000000000
0.842254996 0.478026986 0.000000000
0.906494021 0.481079012 0.000000000
0.000000000 0.512817025 0.000000000
0.018250000 0.512023985 0.000000000
0.041412000 0.511107981 0.000000000
0.065094002 0.510161996 0.000000000
0.095123000 0.509429991 0.000000000
0.152099997 0.509276986 0.000000000
0.216124997 0.510924995 0.000000000
0.280243009 0.514617980 0.000000000
0.346679986 0.519195974 0.000000000
0.415008992 0.524109006 0.000000000
0.484833002 0.528594971 0.000000000
0.555023015 0.532073975 0.000000000
0.624664009 0.534636974 0.000000000
0.693207026 0.537078977 0.000000000
0.760315001 0.539458990 0.000000000
0.826171994 0.541930974 0.000000000
0.889892995 0.545044005 0.000000000
0.000000000 0.574127018 0.000000000
0.015930001 0.573853016 0.000000000
0.037567001 0.573364019 0.000000000
0.060059000 0.573119998 0.000000000
0.084899999 0.573059022 0.000000000
0.140349999 0.573729992 0.000000000
0.205566004 0.575164974 0.000000000
0.270781994 0.577544987 0.000000000
0.337493986 0.580658019 0.000000000
0.405304015 0.584044993 0.000000000
0.473906994 0.587494016 0.000000000
0.542968988 0.591216981 0.000000000
0.611359000 0.594940007 0.000000000
0.679351985 0.598205984 0.000000000
0.745575011 0.601440012 0.000000000
0.810822010 0.604523003 0.000000000
0.873687983 0.608002007 0.000000000
0.000000000 0.637115002 0.000000000
0.013641000 0.637390018 0.000000000
0.033752002 0.637664974 0.000000000
0.055358998 0.638458014 0.000000000
0.076049998 0.638366997 0.000000000
0.130463004 0.638336003 0.000000000
0.197387993 0.637848020 0.000000000
0.264068991 0.637450993 0.000000000
0.330626994 0.638611019 0.000000000
0.397460997 0.641479015 0.000000000
0.465209991 0.645142019 0.000000000
0.532958984 0.649260998 0.000000000
0.599609017 0.653747976 0.000000000
0.666260004 0.657989979 0.000000000
0.731994987 0.661987007 0.000000000
0.796875000 0.665802002 0.000000000
0.859619021 0.669463992 0.000000000
0.000000000 0.702057004 0.000000000
0.012177000 0.703278005 0.000000000
0.030670000 0.703643978 0.000000000
0.050170999 0.703917980 0.000000000
0.069580004 0.701569021 0.000000000
0.125336006 0.697815001 0.000000000
0.193726003 0.694976985 0.000000000
0.260010004 0.694275022 0.000000000
0.325897008 0.695526004 0.000000000
0.392212003 0.698180974 0.000000000
0.458434999 0.701874018 0.000000000
0.524932981 0.706176996 0.000000000
0.591003001 0.710906982 0.000000000
0.655914009 0.715851009 0.000000000
0.721619010 0.720367014 0.000000000
0.785247982 0.725250006 0.000000000
0.847229004 0.729462028 0.000000000
0.000000000 0.768828988 0.000000000
0.009918000 0.769348025 0.000000000
0.026703000 0.767090023 0.000000000
0.043609999 0.762299001 0.000000000
0.063812003 0.757263005 0.000000000
0.123168997 0.753203988 0.000000000
0.192260996 0.750732005 0.000000000
0.258208990 0.750060976 0.000000000
0.323516995 0.751250982 0.000000000
0.388823986 0.753875971 0.000000000
0.454284996 0.757476985 0.000000000
0.519164979 0.762023985 0.000000000
0.583984017 0.766997993 0.000000000
0.648406982 0.772125006 0.000000000
0.713104010 0.777252018 0.000000000
0.775635004 0.782440007 0.000000000
0.837036014 0.787932992 0.000000000
0.000000000 0.832825005 0.000000000
0.006836000 0.826964974 0.000000000
0.021392999 0.821471989 0.000000000
0.035889000 0.816406012 0.000000000
0.061646000 0.811767995 0.000000000
0.123383000 0.807799995 0.000000000
0.192809999 0.805297971 0.000000000
0.258392006 0.804596007 0.000000000
0.322905988 0.805846989 0.000000000
0.387360007 0.808471978 0.000000000
0.451813012 0.812041998 0.000000000
0.515838981 0.816466987 0.000000000
0.580291986 0.821533024 0.000000000
0.643371999 0.827117980 0.000000000
0.705994010 0.832764030 0.000000000
0.768494010 0.838347971 0.000000000
0.827942014 0.844299018 0.000000000
0.000000000 0.885406017 0.000000000
0.002960000 0.880005002 0.000000000
0.015198000 0.874512017 0.000000000
0.027313000 0.869567990 0.000000000
0.061127000 0.865050972 0.000000000
0.125549003 0.861298025 0.000000000
0.194152996 0.859039009 0.000000000
0.259613007 0.858398020 0.000000000
0.324279994 0.859435976 0.000000000
0.387908995 0.861938000 0.000000000
0.451384991 0.865601003 0.000000000
0.515411019 0.869994998 0.000000000
0.578429997 0.875244021 0.000000000
0.641205013 0.880797982 0.000000000
0.702606022 0.886901975 0.000000000
0.762786984 0.893036008 0.000000000
0.820861995 0.899505973 0.000000000
0.000000000 0.925476015 0.000000000
0.000000000 0.925414979 0.000000000
0.009064000 0.924987972 0.000000000
0.018188000 0.920409977 0.000000000
0.063995004 0.915679991 0.000000000
0.130585000 0.912322998 0.000000000
0.198273003 0.910583019 0.000000000
0.263671994 0.909973025 0.000000000
0.327789009 0.910950005 0.000000000
0.391295999 0.913513005 0.000000000
0.454346001 0.917205989 0.000000000
0.516753972 0.921997011 0.000000000
0.578887999 0.927307010 0.000000000
0.641417980 0.932739019 0.000000000
0.700866997 0.939055979 0.000000000
0.759949028 0.945770025 0.000000000
0.818665028 0.952208996 0.000000000
0.000000000 0.000000000 0.051757999
0.037262000 0.000000000 0.050200999
0.072906002 0.000000000 0.048126001
0.131194994 0.000000000 0.048645001
0.193085000 0.000000000 0.051757999
0.255737007 0.000000000 0.056061000
0.318816990 0.000000000 0.059204001
0.382903993 0.000000000 0.060577001
0.447266012 0.000000000 0.061188001
0.511658013 0.000000000 0.061432000
0.576812983 0.000000000 0.061767999
0.641997993 0.000000000 0.061707001
0.707764030 0.000000000 0.061707001
0.773926020 0.000000000 0.061707001
0.840148985 0.000000000 0.061707001
0.906647027 0.000000000 0.061707001
0.972046018 0.000000000 0.061707001
0.000000000 0.056458000 0.047485001
0.034912001 0.052765001 0.046783000
0.067809999 0.049529999 0.046021000
0.121642999 0.046112001 0.045380000
0.183044001 0.048615001 0.049286000
0.245728001 0.052338000 0.054230001
0.309509009 0.055633999 0.058440998
0.373412997 0.058044001 0.060364000
0.438048989 0.059478998 0.060913000
0.502898991 0.060028002 0.061188001
0.568237007 0.060028002 0.061188001
0.634154975 0.060089000 0.061188001
0.700500011 0.060637999 0.061188001
0.767090023 0.060637999 0.061707001
0.833984017 0.060028002 0.061707001
0.901031017 0.059997998 0.061707001
0.967284977 0.059997998 0.061707001
0.000000000 0.112244003 0.044677999
0.032623000 0.109375000 0.044677999
0.065673999 0.105803996 0.044006001
0.107483000 0.103790000 0.037415002
0.170592993 0.102477998 0.043457001
0.235199004 0.102508999 0.050507002
0.298859000 0.102631003 0.056061000
0.363463998 0.102508999 0.059264999
0.428496987 0.101868004 0.060637999
0.494019002 0.100768998 0.061188001
0.559906006 0.100066997 0.061188001
0.626403987 0.099976003 0.061188001
0.693572998 0.101929002 0.061127000
0.760985970 0.106812000 0.061127000
0.828612983 0.115387000 0.061127000
0.896697998 0.124268003 0.061675999
0.963744998 0.123595998 0.061707001
0.000000000 0.168549001 0.043212999
0.031799000 0.165374994 0.043182001
0.063079998 0.162230998 0.042571999
0.094329998 0.159606993 0.037994001
0.156769007 0.158996999 0.032226998
0.222930998 0.159088001 0.041106999
0.287230998 0.158508003 0.051208001
0.352539003 0.157958999 0.056885000
0.418273985 0.156951994 0.059813999
0.484618992 0.155487001 0.060577001
0.551392019 0.154113993 0.060577001
0.618773997 0.153045997 0.060669001
0.686707020 0.152985007 0.060577001
0.754822016 0.155090004 0.060759999
0.823333979 0.160705999 0.061127000
0.892791986 0.170532003 0.061127000
0.961364985 0.184295997 0.061218001
0.000000000 0.224669993 0.042419001
0.029633000 0.221954003 0.042419001
0.060364000 0.219054997 0.042419001
0.088287003 0.216095001 0.041687001
0.144988999 0.215270996 0.029266000
0.209502995 0.215941995 0.028595001
0.274475008 0.216858000 0.040436000
0.340454012 0.217224002 0.051086001
0.407195985 0.216979995 0.056731999
0.474487007 0.216308996 0.059813999
0.542235970 0.215270996 0.060577001
0.610442996 0.214264005 0.060577001
0.679046988 0.213776007 0.060577001
0.748687983 0.214203000 0.060547002
0.818481028 0.217010006 0.060577001
0.888885021 0.223480001 0.060729999
0.958557010 0.235870004 0.061127000
0.000000000 0.281403005 0.041717999
0.027892999 0.278961003 0.041717999
0.056853998 0.276428014 0.041717999
0.083678998 0.273743004 0.042571999
0.133972004 0.272430003 0.028899999
0.196441993 0.272918999 0.024413999
0.261352986 0.274749994 0.027863000
0.327636987 0.276520014 0.040160999
0.394897014 0.277648985 0.051360998
0.463104010 0.278380990 0.057158999
0.531830013 0.278564006 0.059997998
0.600952029 0.278656006 0.060120001
0.671082020 0.278564006 0.059997998
0.742218018 0.278991997 0.060242001
0.813507020 0.280853003 0.060547002
0.885559022 0.285492003 0.060547002
0.955963016 0.293731987 0.061127000
0.000000000 0.338806003 0.040984999
0.025818000 0.336609006 0.040984999
0.053222999 0.334351003 0.041687001
0.079529002 0.332183987 0.043030001
0.121551998 0.330810994 0.028107001
0.183623999 0.330841005 0.023071000
0.249115005 0.332886010 0.022278000
0.314911008 0.335785002 0.026366999
0.382416010 0.338470012 0.040038999
0.451141000 0.340667993 0.052703999
0.520812988 0.342377007 0.058288999
0.591461003 0.343658000 0.060547002
0.663330019 0.344695985 0.059997998
0.735596001 0.346190989 0.059997998
0.807555974 0.348082989 0.060180999
0.876525998 0.351226985 0.060547002
0.942260981 0.356537014 0.060577001
0.000000000 0.396728992 0.040679999
0.023254000 0.395020008 0.040984999
0.049773999 0.393279999 0.041687001
0.075438999 0.391449004 0.043182001
0.105834998 0.390289009 0.030517999
0.170135006 0.390289009 0.022491001
0.237822995 0.392120004 0.020264000
0.302794993 0.395507991 0.021149000
0.370117009 0.399444997 0.030304000
0.439301014 0.403106987 0.044647001
0.510070980 0.406493992 0.055420000
0.582091987 0.409453988 0.059997998
0.654236019 0.411682010 0.059997998
0.725310981 0.413269013 0.059997998
0.794434011 0.415008992 0.059997998
0.860718012 0.417205989 0.060210999
0.924133003 0.420836985 0.059997998
0.000000000 0.455871999 0.040984999
0.020904999 0.454589993 0.041687001
0.045715000 0.453278005 0.042419001
0.070891999 0.451965004 0.043915000
0.093323000 0.451110989 0.038849000
0.156769007 0.451476991 0.023468001
0.226073995 0.453307986 0.018371999
0.291168004 0.456818014 0.019226000
0.358336985 0.461609006 0.022614000
0.427886993 0.466614008 0.035186999
0.498993009 0.470916986 0.051056001
0.570586979 0.474274009 0.057983000
0.641510010 0.476624012 0.059997998
0.710174978 0.478455007 0.059691999
0.777557015 0.480163991 0.059661999
0.843719006 0.482421994 0.059691999
0.907805979 0.485504001 0.059691999
0.000000000 0.516327024 0.042052999
0.018585000 0.515442014 0.042755000
0.042174999 0.514648020 0.043853998
0.065948002 0.514069021 0.044922002
0.085876003 0.513489008 0.046326000
0.144988999 0.514312983 0.024840999
0.213898003 0.516601980 0.016174000
0.280059993 0.520294011 0.016814999
0.347687006 0.524779975 0.018340999
0.417113990 0.529296994 0.024597000
0.487578988 0.533141971 0.039092999
0.557617009 0.536101997 0.053222999
0.626770020 0.538635015 0.059296001
0.694580019 0.541229010 0.059386998
0.762206972 0.543640018 0.059386998
0.828278005 0.546234012 0.059386998
0.891937017 0.549315989 0.059386998
0.000000000 0.578125000 0.043182001
0.016266000 0.577849984 0.044188999
0.038054999 0.577727973 0.046204001
0.060729999 0.577727973 0.046967000
0.080017000 0.577880979 0.050354000
0.132263005 0.579497993 0.024901999
0.201995999 0.581054986 0.014191000
0.270873994 0.583312988 0.014923000
0.338836998 0.586028993 0.015778000
0.407622993 0.588898003 0.016907001
0.476806998 0.592163026 0.022522001
0.545836985 0.595580995 0.037994001
0.614014030 0.599059999 0.049957000
0.681792974 0.602263987 0.058777001
0.748474002 0.605408013 0.059601001
0.813843012 0.608458996 0.058777001
0.876403987 0.611999989 0.058777001
0.000000000 0.641723990 0.044861000
0.014435000 0.641997993 0.046905998
0.034545999 0.642791986 0.048889000
0.055969000 0.643676996 0.050170999
0.074127004 0.643401980 0.054108001
0.121002004 0.643921018 0.024292000
0.192413002 0.643096983 0.012085000
0.264465004 0.642486989 0.012909000
0.332001001 0.643799007 0.011871000
0.399872005 0.646515012 0.012726000
0.467956990 0.650116026 0.013641000
0.535827994 0.654052973 0.016266000
0.603699028 0.658080995 0.027802000
0.670197010 0.662047982 0.043457001
0.736236989 0.665802002 0.054016002
0.800781012 0.669372976 0.059937000
0.862273991 0.673400998 0.058228001
0.000000000 0.707732975 0.048248000
0.012909000 0.708984017 0.050384998
0.031433001 0.708893001 0.052124001
0.050995000 0.709044993 0.053467002
0.067139000 0.705718994 0.057190001
0.115662001 0.702301025 0.023468001
0.188292995 0.700073004 0.009796000
0.260315001 0.699370980 0.011139000
0.327423006 0.700684011 0.010345000
0.394104004 0.703400016 0.009552000
0.461365014 0.706969976 0.008759000
0.528411984 0.711211979 0.007935000
0.594512999 0.715789974 0.007202000
0.660461009 0.720367014 0.011932000
0.725281000 0.724915028 0.029877000
0.788543999 0.729218006 0.048553001
0.850220025 0.733551025 0.058380000
0.000000000 0.774719000 0.052124001
0.011444000 0.775574028 0.054047000
0.027496001 0.771210015 0.055236999
0.044891000 0.765929997 0.055907998
0.058959998 0.760895014 0.059052002
0.111633003 0.758026004 0.022034001
0.186492994 0.756012022 0.006897000
0.257995993 0.755340993 0.008911000
0.324615002 0.756591976 0.008148000
0.390929997 0.759154975 0.007904000
0.456939995 0.762726009 0.007355000
0.522858024 0.767059028 0.006714000
0.588440001 0.771851003 0.006561000
0.652984977 0.776825011 0.005615000
0.716461003 0.782042980 0.004089000
0.779632986 0.787231028 0.007233000
0.841431022 0.792145014 0.046875000
0.000000000 0.836760998 0.055266999
0.007629000 0.830413997 0.055877998
0.022186000 0.824890018 0.056945998
0.037567001 0.819823980 0.057587001
0.050232001 0.815186024 0.060028002
0.110779002 0.812530994 0.020172000
0.187804997 0.810455024 0.005096000
0.258118004 0.809875011 0.006897000
0.324645996 0.811004996 0.006744000
0.390289009 0.813507020 0.005981000
0.455199987 0.817169011 0.005981000
0.520142019 0.821564019 0.005829000
0.584351003 0.826507986 0.005188000
0.647216976 0.832031012 0.005127000
0.710327029 0.837494016 0.004333000
0.773406982 0.842864990 0.002899000
0.834380984 0.848510981 0.000641000
0.000000000 0.888275027 0.057037000
0.003021000 0.882874012 0.057587001
0.015930001 0.877349973 0.057068001
0.029175000 0.872619987 0.056945998
0.039825000 0.868286014 0.057799999
0.111206003 0.865661979 0.017151000
0.191314995 0.863799989 0.002411000
0.260681003 0.863098025 0.004578000
0.326842993 0.864197016 0.004578000
0.391449004 0.866913021 0.003815000
0.455962986 0.870453000 0.003815000
0.520020008 0.874786019 0.003021000
0.582611024 0.880065978 0.003021000
0.646148980 0.885590017 0.003021000
0.707458019 0.891541004 0.002319000
0.768646002 0.897400022 0.002319000
0.828460991 0.903473020 0.002228000
0.000000000 0.925598025 0.055785999
0.000000000 0.925536990 0.055785999
0.009064000 0.925536990 0.055236999
0.020660000 0.923523009 0.055785999
0.029144000 0.919739008 0.052581999
0.113280997 0.916962028 0.013855000
0.197844997 0.915221989 0.000000000
0.264586985 0.914947987 0.001526000
0.330170006 0.916106999 0.001465000
0.394744992 0.918671012 0.000732000
0.458160013 0.922393978 0.000732000
0.521300972 0.926849008 0.000000000
0.584197998 0.932067990 0.000000000
0.646210015 0.937744021 0.000000000
0.706237972 0.943970025 0.000000000
0.766723990 0.950133979 0.000000000
0.824585021 0.956511974 0.000000000
0.000000000 0.000000000 0.109131001
0.040984999 0.000000000 0.108245999
0.073546998 0.000000000 0.105803996
0.129913002 0.000000000 0.106201001
0.191405997 0.000000000 0.107055999
0.253966987 0.000000000 0.108856000
0.317200005 0.000000000 0.110564999
0.381439000 0.000000000 0.111908004
0.445984006 0.000000000 0.113007002
0.510833979 0.000000000 0.113861002
0.576141000 0.000000000 0.115203999
0.641937017 0.000000000 0.116943002
0.707854986 0.000000000 0.120238997
0.774109006 0.000000000 0.124054000
0.840606987 0.000000000 0.124297999
0.907622993 0.000000000 0.124541998
0.973572016 0.000000000 0.124541998
0.000000000 0.058166999 0.105988003
0.034148999 0.054565001 0.105590999
0.067261003 0.050781000 0.104523003
0.120421998 0.047485001 0.104217999
0.181793004 0.049132999 0.105803996
0.244568005 0.052338000 0.107787997
0.307983011 0.055481002 0.110077001
0.372437000 0.058044001 0.111725003
0.437346995 0.059448000 0.113190003
0.502533019 0.059478998 0.114226997
0.568237007 0.059478998 0.115539998
0.634276986 0.060089000 0.117523000
0.700744987 0.060637999 0.120575003
0.767913997 0.060637999 0.124268003
0.834990978 0.060028002 0.124268003
0.902740002 0.059997998 0.124268003
0.969421029 0.059997998 0.124541998
0.000000000 0.114563003 0.102385998
0.032623000 0.111083999 0.102325000
0.065673999 0.107879996 0.101958998
0.105742998 0.105011001 0.101410002
0.169495001 0.103546001 0.103179999
0.234130993 0.103210002 0.105957001
0.297973990 0.103394002 0.108856000
0.362610012 0.103210002 0.111144997
0.428009003 0.102569997 0.113067999
0.493835002 0.101714998 0.114655003
0.560059011 0.100951999 0.116118997
0.626770020 0.101043999 0.118164003
0.694153011 0.102996998 0.121123999
0.761992991 0.107910000 0.124268003
0.830260992 0.116364002 0.124206997
0.898956001 0.124268003 0.124268003
0.966552973 0.123566002 0.124268003
0.000000000 0.170562997 0.100432999
0.031799000 0.167632997 0.100432999
0.063019000 0.164581001 0.100372002
0.093018003 0.161987007 0.099518001
0.155517995 0.161101997 0.099365003
0.222137004 0.160370007 0.102692001
0.286682010 0.159912005 0.106688999
0.352050990 0.159424007 0.109924003
0.418060005 0.158568993 0.112671003
0.484557986 0.157196000 0.114807002
0.551757991 0.155974999 0.116760001
0.619476020 0.155028999 0.119202003
0.687713981 0.155028999 0.122192003
0.756438971 0.157349005 0.123931997
0.825591981 0.163115993 0.123931997
0.895325005 0.173096001 0.124206997
0.963684022 0.186095998 0.124268003
0.000000000 0.226959005 0.098907001
0.029633000 0.224273995 0.099212997
0.060272001 0.221558005 0.099274002
0.087798998 0.218658000 0.099547997
0.141295999 0.218780994 0.096375003
0.208068997 0.218719006 0.098174997
0.274444997 0.218719006 0.103210002
0.340362996 0.218933001 0.107697003
0.407227010 0.218994007 0.111450002
0.474640012 0.218505993 0.114624001
0.542846978 0.217742994 0.117218003
0.611572027 0.216827005 0.120177999
0.680939019 0.216491997 0.123016000
0.750762999 0.217285007 0.123595998
0.820617974 0.220245004 0.123595998
0.891327024 0.227173001 0.123901002
