public/lut/135.cube
TITLE "17x17x17 Adobe/IRIDAS cube 3D LUT exported with GrossGrade v0.2.2 (beta) 64 bit"
DOMAIN_MIN 0 0 0
DOMAIN_MAX 1 1 1
LUT_3D_SIZE 17
0.000000000 0.000000000 0.000000000
0.043120999 0.000000000 0.000000000
0.096557997 0.000000000 0.000000000
0.155182004 0.000000000 0.000000000
0.216553003 0.000000000 0.000000000
0.285430998 0.000000000 0.000000000
0.358855993 0.000000000 0.000000000
0.433501989 0.000000000 0.000000000
0.500702024 0.000000000 0.000000000
0.562439024 0.000000000 0.000000000
0.624939024 0.000000000 0.000000000
0.687500000 0.000000000 0.000000000
0.750030994 0.000000000 0.000000000
0.812500000 0.000000000 0.000000000
0.874939024 0.000000000 0.000000000
0.937713981 0.000000000 0.000000000
0.999846995 0.000000000 0.000000000
0.000000000 0.037932999 0.000000000
0.041016001 0.039489999 0.000000000
0.096100003 0.042389002 0.000000000
0.154358000 0.045929000 0.000000000
0.218200997 0.047974002 0.000000000
0.286559999 0.047607001 0.000000000
0.360504001 0.048126001 0.000000000
0.434020996 0.050995000 0.000000000
0.500427008 0.054779001 0.000000000
0.562530994 0.058959998 0.000000000
0.625000000 0.062683001 0.000000000
0.687500000 0.063598998 0.000000000
0.749969006 0.062927000 0.000000000
0.812439024 0.062316999 0.000000000
0.875000000 0.062256001 0.000000000
0.937653005 0.062256001 0.000000000
0.999786019 0.062256001 0.000000000
0.000000000 0.087462999 0.000000000
0.035735998 0.089630000 0.000000000
0.092926003 0.092926003 0.000000000
0.153136998 0.095031999 0.000000000
0.217467993 0.095946997 0.000000000
0.286895990 0.093781002 0.000000000
0.361541986 0.087677002 0.000000000
0.434204012 0.075805999 0.000000000
0.499572992 0.063141003 0.000000000
0.561797976 0.059631001 0.000000000
0.624359012 0.067626998 0.000000000
0.687102973 0.082153000 0.000000000
0.749817014 0.102631003 0.000000000
0.812469006 0.122893997 0.000000000
0.875000000 0.126862004 0.000000000
0.937653005 0.124847002 0.000000000
0.999786019 0.124908000 0.000000000
0.000000000 0.142364994 0.000000000
0.028290000 0.142975003 0.000000000
0.087096997 0.146911994 0.000000000
0.150055006 0.151001006 0.000000000
0.216308996 0.153441995 0.000000000
0.286835015 0.153473005 0.000000000
0.362060994 0.150726005 0.000000000
0.434264988 0.144379005 0.000000000
0.499451011 0.134398997 0.000000000
0.561371028 0.122528002 0.000000000
0.623778999 0.109497003 0.000000000
0.686278999 0.100311004 0.000000000
0.748992980 0.105315998 0.000000000
0.811767995 0.129120007 0.000000000
0.874634027 0.158446997 0.000000000
0.937682986 0.188201994 0.000000000
0.999846995 0.187469006 0.000000000
0.000000000 0.202666998 0.000000000
0.008026000 0.202849999 0.000000000
0.074828997 0.205810994 0.000000000
0.142792001 0.210998997 0.000000000
0.212340996 0.215240002 0.000000000
0.284790009 0.217925996 0.000000000
0.360992014 0.218628004 0.000000000
0.434112996 0.217162997 0.000000000
0.499511987 0.212952003 0.000000000
0.561523020 0.206024006 0.000000000
0.623932004 0.196564004 0.000000000
0.686371028 0.187469006 0.000000000
0.748901010 0.183044001 0.000000000
0.811554015 0.187561005 0.000000000
0.874297976 0.205078006 0.000000000
0.937682986 0.251221001 0.000000000
0.999817014 0.250030994 0.000000000
0.000000000 0.268097013 0.000000000
0.000000000 0.268249989 0.000000000
0.049254999 0.269562006 0.000000000
0.129455999 0.274414003 0.000000000
0.205475003 0.280211985 0.000000000
0.280487001 0.284911990 0.000000000
0.358002007 0.287781000 0.000000000
0.433227986 0.289000988 0.000000000
0.499877989 0.288421988 0.000000000
0.561767995 0.286040992 0.000000000
0.624267995 0.282561988 0.000000000
0.686676025 0.278656006 0.000000000
0.749176025 0.275573999 0.000000000
0.811737001 0.275635004 0.000000000
0.874450982 0.283935994 0.000000000
0.937682986 0.313262999 0.000000000
0.999817014 0.312469006 0.000000000
0.000000000 0.337401986 0.000000000
0.000000000 0.337401986 0.000000000
0.014099000 0.337646008 0.000000000
0.109467000 0.341430992 0.000000000
0.195038006 0.347503990 0.000000000
0.273743004 0.353516012 0.000000000
0.353179991 0.358184993 0.000000000
0.431914985 0.361297995 0.000000000
0.500549018 0.363128990 0.000000000
0.562134027 0.363494992 0.000000000
0.624695003 0.362792999 0.000000000
0.687195003 0.361663997 0.000000000
0.749664009 0.361144990 0.000000000
0.812224984 0.363007009 0.000000000
0.874817014 0.368194997 0.000000000
0.937713981 0.375214010 0.000000000
0.999817014 0.375000000 0.000000000
0.000000000 0.409058005 0.000000000
0.000000000 0.409027010 0.000000000
0.000000000 0.409087986 0.000000000
0.082061999 0.411163002 0.000000000
0.179473996 0.416747987 0.000000000
0.264984012 0.423308998 0.000000000
0.346648991 0.429657012 0.000000000
0.428894013 0.433533013 0.000000000
0.500487983 0.434967011 0.000000000
0.562530994 0.435485989 0.000000000
0.624939024 0.435638011 0.000000000
0.687469006 0.435546994 0.000000000
0.749939024 0.435669005 0.000000000
0.812439024 0.436461985 0.000000000
0.874939024 0.438019007 0.000000000
0.937713981 0.437530994 0.000000000
0.999817014 0.437530994 0.000000000
0.000000000 0.481934011 0.000000000
0.000000000 0.482024997 0.000000000
0.000000000 0.482024997 0.000000000
0.045685001 0.482573986 0.000000000
0.157805994 0.487396002 0.000000000
0.254851997 0.494049013 0.000000000
0.339080989 0.498412997 0.000000000
0.423400998 0.500244021 0.000000000
0.498596013 0.500487983 0.000000000
0.562897027 0.500397027 0.000000000
0.624969006 0.500397027 0.000000000
0.687500000 0.500427008 0.000000000
0.749969006 0.500427008 0.000000000
0.812500000 0.500304997 0.000000000
0.874939024 0.500060976 0.000000000
0.937713981 0.500030994 0.000000000
0.999846995 0.500000000 0.000000000
0.000000000 0.555388987 0.000000000
0.000000000 0.555388987 0.000000000
0.000000000 0.555388987 0.000000000
0.014954000 0.555328012 0.000000000
0.135223001 0.558104992 0.000000000
0.243713006 0.561707020 0.000000000
0.331696004 0.562622011 0.000000000
0.417023003 0.562346995 0.000000000
0.495849997 0.562439024 0.000000000
0.563202024 0.562500000 0.000000000
0.624969006 0.562500000 0.000000000
0.687530994 0.562500000 0.000000000
0.750000000 0.562500000 0.000000000
0.812500000 0.562500000 0.000000000
0.874939024 0.562500000 0.000000000
0.937682986 0.562500000 0.000000000
0.999817014 0.562500000 0.000000000
0.000000000 0.624724984 0.000000000
0.000000000 0.624695003 0.000000000
0.000000000 0.624572992 0.000000000
0.001678000 0.624512017 0.000000000
0.117645003 0.625000000 0.000000000
0.233458996 0.624877989 0.000000000
0.326171994 0.624755979 0.000000000
0.412445009 0.624846995 0.000000000
0.493743986 0.624939024 0.000000000
0.563507020 0.625060976 0.000000000
0.625030994 0.625030994 0.000000000
0.687500000 0.624969006 0.000000000
0.750000000 0.625000000 0.000000000
0.812500000 0.625000000 0.000000000
0.874969006 0.625000000 0.000000000
0.937682986 0.624969006 0.000000000
0.999817014 0.624969006 0.000000000
0.000000000 0.687592030 0.000000000
0.000000000 0.687592030 0.000000000
0.000000000 0.687500000 0.000000000
0.000000000 0.687346995 0.000000000
0.110290997 0.687286019 0.000000000
0.230132997 0.687255979 0.000000000
0.325592011 0.687317014 0.000000000
0.411895990 0.687377989 0.000000000
0.493378013 0.687439024 0.000000000
0.563507020 0.687530994 0.000000000
0.625000000 0.687530994 0.000000000
0.687500000 0.687500000 0.000000000
0.750000000 0.687530994 0.000000000
0.812469006 0.687500000 0.000000000
0.874969006 0.687500000 0.000000000
0.937682986 0.687530994 0.000000000
0.999817014 0.687530994 0.000000000
0.000000000 0.750030994 0.000000000
0.000000000 0.749969006 0.000000000
0.000000000 0.749877989 0.000000000
0.007141000 0.749786019 0.000000000
0.124633998 0.749755979 0.000000000
0.241118997 0.749755979 0.000000000
0.333678991 0.749846995 0.000000000
0.418671012 0.749907970 0.000000000
0.496093988 0.750000000 0.000000000
0.563171029 0.750000000 0.000000000
0.624969006 0.750000000 0.000000000
0.687500000 0.750000000 0.000000000
0.750000000 0.750000000 0.000000000
0.812500000 0.750030994 0.000000000
0.874969006 0.750000000 0.000000000
0.937653005 0.750000000 0.000000000
0.999786019 0.750000000 0.000000000
0.000000000 0.812530994 0.000000000
0.000000000 0.812469006 0.000000000
0.000885000 0.812469006 0.000000000
0.049561001 0.812439024 0.000000000
0.167937994 0.812407970 0.000000000
0.269957989 0.812377989 0.000000000
0.352997005 0.812439024 0.000000000
0.431580007 0.812439024 0.000000000
0.500671029 0.812500000 0.000000000
0.562530994 0.812500000 0.000000000
0.624969006 0.812500000 0.000000000
0.687500000 0.812500000 0.000000000
0.750030994 0.812500000 0.000000000
0.812500000 0.812500000 0.000000000
0.874969006 0.812469006 0.000000000
0.937713981 0.812500000 0.000000000
0.999817014 0.812500000 0.000000000
0.000000000 0.873198986 0.000000000
0.006317000 0.873198986 0.000000000
0.037719999 0.873291016 0.000000000
0.139525995 0.874145985 0.000000000
0.228515998 0.874512017 0.000000000
0.306212991 0.874786019 0.000000000
0.375214010 0.875122011 0.000000000
0.438080013 0.875213981 0.000000000
0.500000000 0.875213981 0.000000000
0.562500000 0.875092030 0.000000000
0.624969006 0.875122011 0.000000000
0.687500000 0.875092030 0.000000000
0.750000000 0.875092030 0.000000000
0.812500000 0.875000000 0.000000000
0.874939024 0.874969006 0.000000000
0.937682986 0.874939024 0.000000000
0.999817014 0.874969006 0.000000000
0.000000000 0.922942996 0.000000000
0.061278999 0.923492014 0.000000000
0.126038000 0.924530029 0.000000000
0.188109994 0.926239014 0.000000000
0.250243992 0.928588986 0.000000000
0.312346995 0.931731999 0.000000000
0.374908000 0.935059011 0.000000000
0.437530994 0.936554015 0.000000000
0.500000000 0.936737001 0.000000000
0.562469006 0.936859012 0.000000000
0.624939024 0.937041998 0.000000000
0.687500000 0.937164009 0.000000000
0.750000000 0.937346995 0.000000000
0.812469006 0.937500000 0.000000000
0.874969006 0.937622011 0.000000000
0.937682986 0.937682986 0.000092000
0.999817014 0.937682986 0.001099000
0.000000000 0.956421018 0.000000000
0.055144999 0.956969976 0.000000000
0.120575003 0.957916021 0.000000000
0.184540004 0.959380984 0.000000000
0.247741997 0.961547971 0.000000000
0.310790986 0.964232981 0.000000000
0.373688012 0.967499018 0.000000000
0.436432004 0.971161008 0.000000000
0.499114990 0.975188971 0.000000000
0.561767995 0.979278982 0.000000000
0.624450982 0.983367980 0.000000000
0.687102973 0.987304986 0.000000000
0.749724984 0.991028011 0.000000000
0.812317014 0.994536996 0.000000000
0.874907970 0.997711003 0.000000000
0.937682986 0.999877989 0.000946000
0.999817014 0.999724984 0.027618000
0.000000000 0.000000000 0.042633001
0.041076999 0.000000000 0.040314000
0.095977999 0.000000000 0.043671001
0.153656006 0.000000000 0.047302000
0.216704994 0.000000000 0.050659001
0.285308987 0.000000000 0.053801998
0.359467000 0.000000000 0.055877998
0.433654994 0.000000000 0.056458000
0.500671029 0.000000000 0.057372998
0.562469006 0.000000000 0.059753001
0.625030994 0.000000000 0.062042002
0.687560976 0.000000000 0.062927000
0.750060976 0.000000000 0.062743999
0.812469006 0.000000000 0.062256001
0.874907970 0.000000000 0.062256001
0.937682986 0.000000000 0.062256001
0.999817014 0.000000000 0.062256001
0.000000000 0.038695998 0.038727000
0.040252998 0.039489999 0.038727000
0.096069001 0.041625999 0.041687001
0.154358000 0.044495001 0.045837000
0.217865005 0.046599999 0.049835000
0.286864996 0.046783000 0.053192001
0.360992014 0.047913000 0.054657001
0.434325993 0.051238999 0.055877998
0.500397027 0.055084001 0.056823999
0.562346995 0.058959998 0.059174001
0.625000000 0.062683001 0.062042002
0.687560976 0.063598998 0.062927000
0.750000000 0.062927000 0.062743999
0.812530994 0.062316999 0.062256001
0.874969006 0.062256001 0.062256001
0.937653005 0.062256001 0.062256001
0.999817014 0.061767999 0.061767999
0.000000000 0.087952003 0.035735998
0.034363002 0.090424001 0.033447001
0.093262002 0.092499003 0.036437999
0.153808996 0.094237998 0.040924001
0.218200997 0.095154002 0.046021000
0.287932992 0.092987001 0.050078999
0.362518013 0.086425997 0.052611999
0.434570014 0.074463002 0.053801998
0.499633998 0.062073000 0.055633999
0.561676025 0.059631001 0.058318999
0.624297976 0.067718998 0.061432000
0.687041998 0.082153000 0.062927000
0.749755979 0.102631003 0.062743999
0.812469006 0.122893997 0.062256001
0.874969006 0.126862004 0.062256001
0.937653005 0.124847002 0.062256001
0.999817014 0.124847002 0.061707001
0.000000000 0.142395005 0.032593001
0.008911000 0.145050004 0.021392999
0.084930003 0.147888005 0.020660000
0.150848001 0.150940001 0.029633000
0.217102006 0.152740002 0.038695998
0.287781000 0.152953997 0.043853998
0.363036990 0.150145993 0.047455002
0.434601009 0.143341005 0.050110001
0.499390006 0.133484006 0.053222999
0.561401010 0.121642999 0.057647999
0.623778999 0.108521000 0.060973998
0.686371028 0.099547997 0.062408000
0.748932004 0.105011001 0.061889999
0.811767995 0.129302993 0.061707001
0.874572992 0.158446997 0.061859000
0.937682986 0.188201994 0.062256001
0.999817014 0.187469006 0.062194999
0.000000000 0.202637002 0.025238000
0.000000000 0.203338996 0.021423001
0.073363997 0.206481993 0.003357000
0.143799007 0.211211994 0.004089000
0.213378996 0.215057001 0.016022000
0.285674989 0.217590004 0.030853000
0.361847013 0.218291998 0.039489999
0.434386998 0.216644004 0.045104999
0.499451011 0.212402001 0.050354000
0.561461985 0.205230996 0.056274001
0.623932004 0.195769995 0.061492998
0.686401010 0.186798006 0.062652998
0.748871028 0.182648003 0.062103000
0.811492980 0.187012002 0.061707001
0.874267995 0.204558998 0.061707001
0.937653005 0.251282007 0.062256001
0.999817014 0.250030994 0.062256001
0.000000000 0.268126994 0.010498000
0.000000000 0.268097013 0.010345000
0.050934002 0.269501001 0.000153000
0.130951002 0.274444997 0.000000000
0.206421003 0.280120999 0.000305000
0.281372011 0.284729004 0.009796000
0.358886987 0.287537009 0.027222000
0.433501989 0.288666010 0.039337002
0.499846995 0.288055003 0.046204001
0.561797976 0.285582989 0.054779001
0.624297976 0.282103986 0.061523002
0.686676025 0.278198004 0.062958002
0.749237001 0.275177002 0.062346999
0.811767995 0.275177002 0.061707001
0.874419987 0.283661008 0.061707001
0.937713981 0.313262999 0.062256001
0.999817014 0.312438995 0.062134001
0.000000000 0.337280005 0.000488000
0.000000000 0.337280005 0.000488000
0.016449001 0.337554991 0.000000000
0.111267000 0.341399997 0.000000000
0.196227998 0.347290009 0.000000000
0.274628013 0.353302002 0.000000000
0.354095012 0.357971013 0.009949000
0.432251006 0.361144990 0.028046001
0.500518978 0.362884998 0.041687001
0.562102973 0.363220006 0.052611999
0.624634027 0.362457007 0.061188001
0.687164009 0.361297995 0.063538000
0.749634027 0.360870004 0.062622003
0.812195003 0.362700999 0.062073000
0.874786019 0.368041992 0.062073000
0.937682986 0.375214010 0.062256001
0.999817014 0.375000000 0.062256001
0.000000000 0.409027010 0.000000000
0.000000000 0.409027010 0.000000000
0.000000000 0.408996999 0.000000000
0.084076002 0.411132991 0.000000000
0.180939004 0.416595012 0.000000000
0.265899986 0.423157007 0.000000000
0.347472996 0.429443002 0.000092000
0.429412991 0.433411002 0.011566000
0.500580013 0.434906006 0.031585999
0.562469006 0.435425013 0.048675999
0.624907970 0.435516000 0.059845001
0.687407970 0.435393989 0.063598998
0.749939024 0.435546994 0.062927000
0.812439024 0.436401010 0.062316999
0.874969006 0.437927008 0.062256001
0.937682986 0.437530994 0.062256001
0.999817014 0.437500000 0.061951000
0.000000000 0.481934011 0.000000000
0.000000000 0.481934011 0.000000000
0.000000000 0.481934011 0.000000000
0.047943000 0.482605010 0.000000000
0.159484997 0.487426996 0.000000000
0.255768001 0.493988007 0.000000000
0.339843988 0.498322010 0.000000000
0.424071997 0.500182986 0.000885000
0.498901010 0.500518978 0.014404000
0.562775016 0.500397027 0.038054999
0.624969006 0.500397027 0.056793001
0.687500000 0.500458002 0.063598998
0.750030994 0.500458002 0.062927000
0.812500000 0.500304997 0.062316999
0.874969006 0.500092030 0.062256001
0.937713981 0.500000000 0.062256001
0.999817014 0.500000000 0.062256001
0.000000000 0.555328012 0.000000000
0.000000000 0.555328012 0.000000000
0.000000000 0.555266976 0.000000000
0.016754000 0.555266976 0.000000000
0.136962995 0.558135986 0.000000000
0.244781002 0.561645985 0.000000000
0.332457989 0.562622011 0.000000000
0.417724997 0.562377989 0.000000000
0.496123999 0.562407970 0.001282000
0.563140988 0.562500000 0.018585000
0.624969006 0.562500000 0.047913000
0.687500000 0.562500000 0.064392000
0.750000000 0.562500000 0.062927000
0.812500000 0.562500000 0.062316999
0.874969006 0.562500000 0.062256001
0.937682986 0.562500000 0.062256001
0.999817014 0.562500000 0.062500000
0.000000000 0.624602973 0.000000000
0.000000000 0.624664009 0.000000000
0.000000000 0.624541998 0.000000000
0.002319000 0.624481022 0.000000000
0.119110003 0.625000000 0.000000000
0.234679997 0.624786019 0.000000000
0.326873988 0.624724984 0.000000000
0.413024992 0.624817014 0.000000000
0.494080007 0.624907970 0.000000000
0.563385010 0.624969006 0.002502000
0.624969006 0.624969006 0.027465999
0.687500000 0.624969006 0.059356999
0.750000000 0.625000000 0.064300999
0.812500000 0.625000000 0.062316999
0.874969006 0.625000000 0.062256001
0.937713981 0.625000000 0.062256001
0.999817014 0.625000000 0.062469002
0.000000000 0.687622011 0.000000000
0.000000000 0.687592030 0.000000000
0.000000000 0.687439024 0.000000000
0.000000000 0.687407970 0.000000000
0.111877002 0.687224984 0.000000000
0.231232002 0.687224984 0.000000000
0.326202005 0.687286019 0.000000000
0.412506014 0.687377989 0.000000000
0.493683010 0.687469006 0.000000000
0.563476980 0.687530994 0.000000000
0.624969006 0.687530994 0.005615000
0.687530994 0.687530994 0.038054999
0.750000000 0.687500000 0.064819001
0.812500000 0.687500000 0.062896997
0.874969006 0.687500000 0.062256001
0.937682986 0.687500000 0.062256001
0.999817014 0.687500000 0.062256001
0.000000000 0.750030994 0.000000000
0.000000000 0.749969006 0.000000000
0.000000000 0.749877989 0.000000000
0.007782000 0.749786019 0.000000000
0.126099005 0.749755979 0.000000000
0.242064998 0.749786019 0.000000000
0.334351003 0.749817014 0.000000000
0.419189006 0.749907970 0.000000000
0.496277004 0.749969006 0.000000000
0.563140988 0.750000000 0.000000000
0.624969006 0.750000000 0.000000000
0.687530994 0.750030994 0.008179000
0.750000000 0.750000000 0.049621999
0.812469006 0.750000000 0.065277003
0.874969006 0.750000000 0.062256001
0.937713981 0.750000000 0.062256001
0.999817014 0.750000000 0.062560998
0.000000000 0.812530994 0.000000000
0.000000000 0.812469006 0.000000000
0.001038000 0.812407970 0.000000000
0.051453002 0.812407970 0.000000000
0.169098005 0.812407970 0.000000000
0.270538002 0.812407970 0.000000000
0.353394002 0.812439024 0.000000000
0.431823999 0.812469006 0.000000000
0.500671029 0.812500000 0.000000000
0.562530994 0.812500000 0.000000000
0.624969006 0.812500000 0.000000000
0.687500000 0.812500000 0.000000000
0.750000000 0.812500000 0.008026000
0.812500000 0.812500000 0.059478998
0.874939024 0.812469006 0.063354000
0.937682986 0.812469006 0.062256001
0.999817014 0.812469006 0.062316999
0.000000000 0.873108029 0.000000000
0.006317000 0.873108029 0.000000000
0.039856002 0.873229980 0.000000000
0.140929997 0.874145985 0.000000000
0.229218006 0.874481022 0.000000000
0.306793004 0.874786019 0.000000000
0.375427008 0.875122011 0.000000000
0.438019007 0.875213981 0.000000000
0.500000000 0.875213981 0.000000000
0.562500000 0.875092030 0.000000000
0.624969006 0.875122011 0.000000000
0.687500000 0.875092030 0.000000000
0.750000000 0.875092030 0.000000000
0.812469006 0.874969006 0.009796000
0.874969006 0.874969006 0.061737001
0.937682986 0.874969006 0.062378000
0.999817014 0.874969006 0.062622003
0.000000000 0.922913015 0.000000000
0.061278999 0.923430979 0.000000000
0.126038000 0.924468994 0.000000000
0.188079998 0.926117003 0.000000000
0.250092000 0.928528011 0.000000000
0.312346995 0.931609988 0.000000000
0.374908000 0.934937000 0.000000000
0.437530994 0.936554015 0.000000000
0.500000000 0.936737001 0.000000000
0.562469006 0.936859012 0.000000000
0.624939024 0.937041998 0.000000000
0.687500000 0.937164009 0.000000000
0.750000000 0.937346995 0.000000000
0.812469006 0.937500000 0.000946000
0.874969006 0.937622011 0.018371999
0.937682986 0.937682986 0.063568003
0.999817014 0.937682986 0.062316999
0.000000000 0.956421018 0.000000000
0.055144999 0.957062006 0.000000000
0.120575003 0.957916021 0.000000000
0.184540004 0.959380984 0.000000000
0.247741997 0.961547971 0.000000000
0.310790986 0.964232981 0.000000000
0.373627007 0.967499018 0.000000000
0.436370999 0.971190989 0.000000000
0.499114990 0.975188971 0.000000000
0.561767995 0.979278982 0.000000000
0.624390006 0.983307004 0.000000000
0.687102973 0.987244010 0.000000000
0.749724984 0.991028011 0.000000000
0.812286019 0.994507015 0.000000000
0.874939024 0.997711003 0.005524000
0.937682986 0.999877989 0.059478998
0.999817014 0.999817014 0.063415997
0.000000000 0.000000000 0.093627997
0.039519999 0.000000000 0.093658000
0.094208002 0.000000000 0.094573997
0.152373999 0.000000000 0.096190996
0.215118006 0.000000000 0.097900003
0.284667999 0.000000000 0.099518001
0.359070003 0.000000000 0.100037001
0.433654994 0.000000000 0.099486999
0.500609994 0.000000000 0.098357998
0.562439024 0.000000000 0.097290002
0.624907970 0.000000000 0.097747996
0.687530994 0.000000000 0.102020003
0.750030994 0.000000000 0.112548999
0.812469006 0.000000000 0.125061005
0.875000000 0.000000000 0.125153005
0.937682986 0.000000000 0.124908000
0.999786019 0.000000000 0.124908000
0.000000000 0.038727000 0.090576001
0.039519999 0.038695998 0.091674998
0.094512999 0.040160999 0.093689002
0.153595001 0.043090999 0.095794998
0.217499003 0.045288000 0.097778000
0.286498994 0.045410000 0.098846003
0.360808998 0.047210999 0.099274002
0.434204012 0.050629001 0.098724000
0.500487983 0.054779001 0.097259998
0.562439024 0.058959998 0.096161000
0.624969006 0.062683001 0.096619003
0.687469006 0.063598998 0.100951999
0.749969006 0.062927000 0.111908004
0.812500000 0.062316999 0.124785997
0.874939024 0.062256001 0.124939002
0.937744021 0.062256001 0.124908000
0.999817014 0.062256001 0.125121996
0.000000000 0.089996003 0.089630000
0.034363002 0.090026997 0.089507997
0.092926003 0.091339000 0.091216996
0.154053003 0.093018003 0.093018003
0.218963996 0.093506001 0.095123000
0.288787991 0.090942003 0.096771002
0.363373011 0.084656000 0.096954003
0.434906006 0.072540000 0.096038997
0.499480993 0.060669001 0.094727002
0.561707020 0.059113000 0.093597002
0.624267995 0.067901999 0.094299003
0.687012017 0.082611002 0.098724000
0.749755979 0.102721997 0.110198997
0.812439024 0.123138003 0.124512002
0.874969006 0.126862004 0.125183001
0.937744021 0.124847002 0.124908000
0.999817014 0.125121996 0.125121996
0.000000000 0.143767998 0.087006003
0.007996000 0.145630002 0.085051998
0.086060002 0.147460997 0.085937999
0.151672006 0.150207996 0.087830000
0.217987001 0.151703000 0.090545997
0.288940012 0.151703000 0.092009999
0.364470989 0.148620993 0.092224002
0.435241997 0.141875997 0.091643997
0.499146014 0.131805003 0.090149000
0.561309993 0.119811997 0.089019999
0.623778999 0.106841996 0.089538999
0.686278999 0.098266996 0.094543003
0.748932004 0.104644999 0.107207999
0.811737001 0.129302993 0.123076998
0.874602973 0.158721998 0.124939002
0.937744021 0.188201994 0.124908000
0.999817014 0.187469006 0.124877997
0.000000000 0.203429997 0.082580999
0.000000000 0.204101995 0.081878997
0.074309997 0.207580999 0.078125000
0.144958004 0.211181998 0.078856997
0.214539006 0.214629993 0.080688000
0.286835015 0.216766000 0.083313003
0.363402992 0.217407003 0.084259003
0.435059011 0.215636998 0.083678998
0.499390006 0.211060002 0.082153000
0.561461985 0.203857005 0.081390001
0.623839974 0.194365993 0.082764000
0.686309993 0.185363993 0.089233004
0.748839974 0.181244001 0.104217999
0.811432004 0.186095998 0.121947996
0.874237001 0.203917995 0.124939002
0.937744021 0.251343012 0.124908000
