public/lut/135.cube
TITLE "17x17x17 Adobe/IRIDAS cube 3D LUT exported with GrossGrade v0.2.2 (beta) 64 bit"
DOMAIN_MIN 0 0 0
DOMAIN_MAX 1 1 1
LUT_3D_SIZE 5
0.000000000 0.000000000 0.000000000
0.216553003 0.000000000 0.000000000
0.500702024 0.000000000 0.000000000
0.750030994 0.000000000 0.000000000
0.999846995 0.000000000 0.000000000
0.000000000 0.202666998 0.000000000
0.212340996 0.215240002 0.000000000
0.499511987 0.212952003 0.000000000
0.748901010 0.183044001 0.000000000
0.999817014 0.250030994 0.000000000
0.000000000 0.481934011 0.000000000
0.157805994 0.487396002 0.000000000
0.498596013 0.500487983 0.000000000
0.749969006 0.500427008 0.000000000
0.999846995 0.500000000 0.000000000
0.000000000 0.750030994 0.000000000
0.124633998 0.749755979 0.000000000
0.496093988 0.750000000 0.000000000
0.750000000 0.750000000 0.000000000
0.999786019 0.750000000 0.000000000
0.000000000 0.956421018 0.000000000
0.247741997 0.961547971 0.000000000
0.499114990 0.975188971 0.000000000
0.749724984 0.991028011 0.000000000
0.999817014 0.999724984 0.027618000
0.000000000 0.000000000 0.211243004
0.212157995 0.000000000 0.216766000
0.500640988 0.000000000 0.221068993
0.749939024 0.000000000 0.224822998
0.999817014 0.000000000 0.250030994
0.000000000 0.207245007 0.207610995
0.215607002 0.212738007 0.212189004
0.499083996 0.206726000 0.215118006
0.748778999 0.178558007 0.218140006
0.999817014 0.250000000 0.250000000
0.000000000 0.483765006 0.190674007
0.165222004 0.489257991 0.188170999
0.500275016 0.500609994 0.183594003
0.749939024 0.500518978 0.189941004
0.999817014 0.499969006 0.250030994
0.000000000 0.749939024 0.149474993
0.122040004 0.749695003 0.129425004
0.497314006 0.749877989 0.114441000
0.749939024 0.749939024 0.132629007
0.999817014 0.750000000 0.250214010
0.000000000 0.967315972 0.113495000
0.248321995 0.971741021 0.107849002
0.499359012 0.983124018 0.083678998
0.749786019 0.994812012 0.083221003
0.999817014 0.999817014 0.199219003
0.000000000 0.000000000 0.496033013
0.174193993 0.000000000 0.497437000
0.498108000 0.000000000 0.500365973
0.749969006 0.000000000 0.500092030
0.999786019 0.000000000 0.500000000
0.000000000 0.209839001 0.495635986
0.193726003 0.209747002 0.496398985
0.499908000 0.197661996 0.499451011
0.748932004 0.180877998 0.499237001
0.999817014 0.250030994 0.499969006
0.000000000 0.492493004 0.492767006
0.157409996 0.494293004 0.493561000
0.500702024 0.499633998 0.498688012
0.749969006 0.500916004 0.500732005
0.999817014 0.500000000 0.500000000
0.000000000 0.749969006 0.485076994
0.122832999 0.749724984 0.484221995
0.499664009 0.750000000 0.491272002
0.750000000 0.750000000 0.494475991
0.999817014 0.750000000 0.500000000
0.000000000 0.976257026 0.489044011
0.248840004 0.979735970 0.490355998
0.499664009 0.988372982 0.492767006
0.749907970 0.996581972 0.493896008
0.999817014 0.999817014 0.500427008
0.000000000 0.000000000 0.750060976
0.104950003 0.000000000 0.748778999
0.493286014 0.000000000 0.749907970
0.749969006 0.000000000 0.749969006
0.999846995 0.000000000 0.750030994
0.000000000 0.206267998 0.748839974
0.137786999 0.202392995 0.748169005
0.498322010 0.187224999 0.748901010
0.749328971 0.201569006 0.749359012
0.999817014 0.250000000 0.750000000
0.000000000 0.495849997 0.749817014
0.138153002 0.495543987 0.749572992
0.500916004 0.498596013 0.749939024
0.749969006 0.500792980 0.749969006
0.999817014 0.500030994 0.750000000
0.000000000 0.749969006 0.749969006
0.120757997 0.749755979 0.749786019
0.500609994 0.750000000 0.750000000
0.750000000 0.750000000 0.750000000
0.999817014 0.750000000 0.750000000
0.000000000 0.985992014 0.749572992
0.249390006 0.988007009 0.749634027
0.499785990 0.993164003 0.749846995
0.749939024 0.997924984 0.749939024
0.999817014 0.999817014 0.750244021
0.000000000 0.000000000 0.997039974
0.220580995 0.000000000 0.997802973
0.500030994 0.000000000 0.999877989
0.750000000 0.000000000 0.999817014
0.999786019 0.000000000 0.999786019
0.000000000 0.196259007 0.994659007
0.245482996 0.187987998 0.997161984
0.499237001 0.207122996 0.999114990
0.750000000 0.250030994 0.999817014
0.999817014 0.250030994 0.999817014
0.000000000 0.496123999 0.990050972
0.250366002 0.495238990 0.994965017
0.499969006 0.498566002 0.999572992
0.750000000 0.500030994 0.999817014
0.999817014 0.500000000 0.999817014
0.000000000 0.749877989 0.983429015
0.244262993 0.749939024 0.992645025
0.499969006 0.750000000 0.996551991
0.750000000 0.750000000 0.999664009
0.999817014 0.750000000 0.999817014
0.000000000 0.993744016 0.992125988
0.249878004 0.994719982 0.992888987
0.499877989 0.997008979 0.994597971
0.750000000 0.998656988 0.995666981
0.999817014 0.998901010 0.996613026
