public/lut/136.cube
TITLE "17x17x17 Adobe/IRIDAS cube 3D LUT exported with GrossGrade v0.2.2 (beta) 64 bit"
DOMAIN_MIN 0 0 0
DOMAIN_MAX 1 1 1
LUT_3D_SIZE 17
0.000000000 0.000000000 0.000000000
0.039519999 0.000000000 0.000793000
0.092437997 0.000000000 0.001587000
0.141967997 0.000000000 0.001587000
0.199982002 0.000000000 0.002380000
0.263794005 0.000000000 0.003693000
0.335601985 0.000000000 0.005524000
0.410553008 0.000000000 0.007538000
0.481353998 0.000000000 0.009857000
0.549346983 0.000000000 0.012177000
0.613617003 0.000000000 0.014496000
0.667572021 0.000793000 0.016571000
0.711609006 0.000793000 0.018158000
0.750640988 0.000793000 0.018921001
0.790588021 0.000793000 0.017944001
0.837249994 0.000854000 0.012665000
0.889343023 0.003937000 0.018158000
0.000793000 0.029327000 0.003113000
0.038695998 0.030853000 0.000793000
0.089722000 0.031647000 0.003113000
0.143584996 0.030853000 0.002472000
0.202087000 0.030212000 0.000793000
0.264252007 0.030060001 0.000000000
0.335114002 0.030060001 0.000061000
0.410216987 0.030060001 0.000092000
0.483429015 0.030060001 0.000153000
0.554168999 0.030060001 0.000946000
0.620177984 0.030853000 0.000977000
0.674408019 0.032379001 0.001038000
0.716521978 0.033356000 0.001038000
0.754242003 0.035645001 0.001038000
0.794646978 0.040436000 0.001038000
0.843750000 0.050200999 0.001862000
0.897369027 0.063354000 0.014252000
0.000793000 0.090851001 0.009277000
0.038787998 0.092560001 0.000885000
0.088867001 0.095642000 0.000793000
0.137542993 0.098663002 0.004425000
0.197020993 0.098389000 0.008270000
0.261139005 0.097290002 0.007843000
0.329223990 0.095734000 0.002747000
0.403046012 0.094818003 0.000000000
0.480010986 0.095183998 0.000000000
0.556640983 0.095977999 0.000000000
0.626434028 0.096954003 0.000000000
0.682587028 0.099976003 0.000702000
0.725646973 0.105834998 0.000702000
0.764069021 0.112213001 0.000702000
0.804961979 0.117737003 0.000610000
0.855437994 0.129668996 0.001038000
0.909179986 0.142180994 0.018738000
0.000793000 0.153045997 0.015472000
0.038695998 0.156005993 0.000977000
0.089233004 0.158234000 0.000000000
0.138153002 0.161376998 0.000153000
0.191833004 0.165802002 0.004639000
0.253417999 0.167480007 0.012665000
0.320769995 0.169403002 0.014679000
0.393433005 0.170227006 0.009125000
0.471587986 0.169464007 0.002228000
0.552031994 0.168395996 0.000000000
0.627349973 0.170044005 0.000000000
0.688660026 0.175934002 0.000793000
0.734221995 0.184295997 0.000793000
0.774047971 0.190734997 0.000793000
0.817534983 0.196441993 0.000702000
0.868744016 0.209136993 0.001709000
0.920440972 0.218383998 0.024139000
0.001587000 0.209839001 0.022491001
0.036559999 0.212738007 0.001099000
0.089507997 0.216766000 0.000000000
0.140075997 0.217377007 0.000000000
0.194823995 0.222137004 0.000214000
0.253082007 0.227569997 0.004242000
0.320006996 0.231018007 0.014191000
0.393738002 0.233765006 0.017487001
0.470183998 0.234741002 0.009064000
0.549193978 0.234099999 0.000793000
0.626830995 0.235808998 0.000000000
0.692017019 0.241515994 0.000793000
0.740478992 0.248016000 0.000793000
0.781830013 0.255219012 0.000793000
0.827422976 0.264557004 0.000702000
0.879302979 0.277527004 0.001953000
0.929992974 0.285858005 0.029572001
0.000793000 0.261444002 0.028687000
0.035034001 0.265076011 0.003265000
0.089478001 0.269957989 0.000000000
0.139954001 0.271178991 0.000000000
0.198578000 0.273833990 0.000000000
0.261444002 0.279693991 0.000000000
0.329865009 0.285553008 0.004883000
0.402496010 0.290100008 0.013367000
0.477142006 0.292542011 0.011292000
0.554382026 0.293639988 0.002228000
0.631531000 0.296081990 0.000000000
0.698028982 0.300568014 0.000793000
0.747161984 0.306243986 0.000793000
0.789246023 0.315459996 0.000793000
0.835846007 0.327942014 0.000702000
0.888031006 0.342987001 0.002075000
0.938445985 0.350647002 0.036804002
0.000000000 0.312377989 0.034118999
0.032226998 0.316437006 0.005127000
0.089813001 0.322144002 0.000000000
0.142029002 0.324463010 0.000000000
0.199493006 0.327331990 0.000000000
0.269042999 0.332244992 0.000000000
0.344512999 0.339172006 0.000000000
0.416687012 0.344666004 0.003693000
0.487029999 0.348235995 0.005615000
0.561309993 0.351500988 0.002319000
0.636932015 0.355803996 0.000000000
0.703002989 0.362060994 0.000793000
0.753234982 0.370575011 0.000793000
0.795013011 0.381408989 0.000793000
0.839447021 0.394867003 0.000702000
0.889069021 0.408904999 0.001373000
0.944153011 0.413451999 0.022368999
0.000000000 0.365143001 0.041076999
0.029327000 0.368407995 0.010498000
0.089752004 0.375977010 0.000549000
0.144713998 0.377959996 0.000000000
0.201660007 0.381316990 0.000000000
0.276764005 0.388092011 0.000000000
0.359863013 0.396178991 0.000000000
0.431091011 0.402069002 0.000000000
0.497283995 0.406859994 0.000732000
0.568145990 0.412598014 0.000458000
0.640838981 0.420105010 0.000000000
0.706450999 0.429535002 0.000000000
0.757568002 0.439696997 0.000793000
0.799591005 0.450316995 0.000793000
0.841736019 0.462707996 0.000793000
0.888306022 0.470459014 0.000793000
0.944885015 0.472106993 0.004547000
0.000000000 0.420807004 0.049316000
0.029327000 0.423278987 0.021392999
0.090697996 0.430907995 0.001190000
0.145873994 0.437256008 0.000000000
0.208465993 0.438385010 0.000000000
0.288329989 0.446258992 0.000000000
0.375304997 0.456847996 0.000000000
0.445587009 0.464935005 0.000000000
0.506775022 0.470856011 0.000000000
0.573760986 0.478516012 0.000000000
0.643768013 0.488739014 0.000000000
0.708832026 0.499359012 0.000000000
0.760590017 0.508849978 0.000000000
0.802887022 0.517548025 0.000000000
0.844054997 0.526732981 0.000000000
0.889252007 0.528838992 0.000000000
0.943542004 0.528778017 0.000000000
0.000000000 0.481628001 0.062469002
0.030121000 0.483947992 0.043427002
0.084105998 0.491333008 0.002655000
0.146118000 0.502288997 0.000000000
0.222838998 0.505370975 0.000000000
0.307159007 0.510528982 0.000000000
0.390320003 0.519653022 0.000000000
0.458191007 0.528991997 0.000000000
0.517548025 0.536682010 0.000000000
0.580353022 0.544768989 0.000000000
0.646270990 0.555388987 0.000000000
0.708832026 0.566101015 0.000000000
0.761718988 0.574738026 0.000000000
0.805054009 0.581085026 0.000000000
0.846557975 0.586395025 0.000000000
0.891143978 0.585601985 0.000000000
0.941802979 0.585815012 0.000000000
0.000000000 0.545471013 0.079742000
0.031707998 0.547913015 0.068726003
0.072021000 0.555572987 0.016449001
0.154662997 0.568419993 0.000305000
0.237976000 0.576781988 0.000000000
0.324279994 0.580383003 0.000000000
0.401398003 0.584778011 0.000000000
0.465972990 0.591369987 0.000000000
0.527343988 0.599792004 0.000000000
0.590057015 0.608458996 0.000000000
0.651916981 0.617859006 0.000000000
0.710663021 0.628265023 0.000000000
0.762543023 0.636017025 0.000000000
0.807067990 0.641022027 0.000000000
0.849547982 0.643036008 0.000092000
0.894317985 0.641143978 0.001373000
0.941254020 0.642853022 0.000000000
0.000000000 0.606719971 0.093383998
0.033264000 0.608916998 0.082061999
0.067962997 0.615143001 0.041747998
0.164642006 0.630828977 0.004242000
0.246948004 0.642638981 0.000000000
0.328887999 0.647247016 0.000000000
0.403748006 0.650207996 0.000000000
0.469727010 0.654143989 0.000000000
0.533294976 0.660857975 0.000000000
0.597716987 0.669891000 0.000000000
0.661315978 0.679108024 0.000000000
0.718322992 0.687713981 0.000000000
0.766357005 0.694153011 0.000000000
0.809661984 0.698028982 0.000000000
0.852294981 0.698302984 0.000183000
0.897033989 0.698364019 0.004669000
0.943572998 0.699828982 0.000000000
0.000000000 0.665252984 0.101562999
0.034851000 0.667114019 0.090209998
0.068268001 0.671570003 0.057434000
0.142425999 0.683990002 0.009155000
0.242493004 0.701294005 0.000000000
0.329712003 0.709625006 0.000000000
0.402954012 0.712707996 0.000793000
0.471343994 0.716431022 0.000793000
0.538055003 0.721831977 0.000793000
0.604369998 0.729369998 0.000000000
0.668518007 0.738341987 0.000000000
0.725005984 0.746062994 0.000000000
0.771575987 0.750427008 0.000000000
0.813567996 0.751953006 0.000000000
0.855377018 0.753265023 0.000092000
0.898986995 0.756072998 0.002167000
0.946135998 0.757080019 0.000793000
0.000000000 0.723083019 0.107360996
0.035767000 0.725005984 0.094329998
0.072265998 0.728088021 0.076110996
0.108032003 0.731903017 0.028441999
0.216858000 0.750732005 0.002502000
0.326995999 0.767731011 0.000000000
0.407714993 0.774016976 0.000793000
0.475127995 0.777435005 0.000793000
0.542632997 0.782715023 0.000793000
0.610077024 0.788878977 0.000793000
0.672028005 0.795867980 0.000488000
0.725890994 0.802550972 0.000000000
0.773895025 0.805694997 0.000000000
0.817200005 0.805481017 0.000000000
0.859984994 0.808013976 0.000000000
0.903778017 0.811737001 0.000000000
0.950043023 0.813660026 0.000000000
0.000000000 0.780791998 0.111725003
0.037170000 0.782288015 0.099547997
0.079102002 0.784789979 0.087402001
0.118500002 0.787872016 0.059356999
0.207550004 0.802184999 0.011353000
0.315185994 0.820312977 0.000000000
0.405364990 0.832549989 0.000000000
0.478210002 0.838653982 0.000000000
0.545319021 0.843505979 0.000000000
0.610107005 0.848662972 0.000000000
0.669983029 0.853667974 0.000000000
0.723815978 0.858336985 0.000000000
0.773253977 0.860870004 0.000000000
0.819916010 0.862061024 0.000000000
0.864380002 0.864135981 0.000000000
0.909453988 0.867888987 0.000000000
0.956695974 0.870087028 0.000000000
0.000000000 0.837981999 0.118865997
0.038787998 0.839080989 0.107483000
0.091095001 0.843169987 0.096069001
0.143004999 0.847687006 0.082732998
0.185181007 0.852599978 0.033386000
0.292113990 0.870575011 0.004791000
0.394867003 0.887786984 0.000793000
0.471374989 0.896942019 0.001190000
0.538483024 0.901885986 0.001953000
0.601746023 0.906525016 0.002014000
0.662567019 0.911346018 0.002075000
0.720427990 0.915802002 0.002228000
0.773375988 0.919677973 0.002594000
0.822112978 0.922791004 0.003448000
0.868317008 0.925689995 0.004395000
0.914672971 0.928345025 0.004547000
0.964110970 0.930297971 0.004639000
0.000000000 0.898041010 0.125916004
0.045318998 0.900481999 0.114197001
0.105926998 0.905914009 0.104858004
0.159606993 0.910889030 0.090911999
0.198151007 0.914489985 0.061400998
0.282532007 0.927765012 0.030609000
0.387603998 0.945068002 0.022278000
0.475127995 0.956757009 0.027679000
0.543883979 0.963042974 0.031952001
0.605590999 0.967711985 0.033904999
0.664978027 0.972015023 0.036865000
0.722411990 0.976500988 0.045623999
0.776549995 0.980713010 0.059845001
0.825989008 0.983825982 0.077881001
0.872955024 0.985930979 0.091614000
0.920624018 0.987456977 0.100464001
0.970703006 0.988892019 0.108612001
0.000000000 0.000000000 0.031647000
0.040252998 0.000000000 0.050567999
0.093291998 0.000000000 0.049561001
0.144958004 0.000000000 0.050018001
0.202148005 0.000000000 0.051330999
0.264984012 0.000000000 0.053192001
0.336791992 0.000000000 0.053406000
0.412506014 0.000000000 0.054047000
0.484375000 0.000000000 0.055695001
0.552825987 0.000000000 0.057495002
0.616943002 0.000000000 0.059264999
0.669128001 0.000793000 0.060821999
0.712219000 0.000793000 0.061584000
0.750518978 0.000793000 0.062714003
0.790099978 0.000793000 0.063629001
0.836974978 0.000854000 0.060791001
0.888763011 0.003937000 0.065338001
0.000000000 0.030060001 0.050567999
0.035675000 0.031647000 0.050811999
0.096557997 0.029327000 0.052062999
0.151703000 0.027771000 0.049621999
0.212830007 0.025635000 0.046905998
0.279022008 0.024139000 0.042052999
0.351837009 0.023163000 0.035491999
0.423186988 0.023956001 0.033904999
0.492217988 0.024750000 0.036956999
0.561127007 0.025482001 0.039276000
0.624907970 0.026581001 0.040497001
0.677245975 0.027802000 0.040557999
0.717406988 0.028595001 0.040557999
0.754333019 0.029387999 0.040405001
0.795502007 0.030273000 0.036377002
0.846405029 0.036713000 0.033020001
0.899078012 0.056488000 0.051116999
0.000000000 0.090545997 0.063323997
0.034851000 0.094116002 0.056426998
0.086364999 0.097503997 0.047058001
0.147368997 0.093474999 0.052429002
0.208922997 0.092072003 0.052184999
0.272522002 0.090880997 0.049500000
0.341766000 0.088134997 0.043579001
0.417450011 0.081848003 0.032776002
0.494507015 0.077575997 0.025574001
0.568755984 0.077422999 0.026062001
0.634216011 0.078583002 0.027313000
0.684937000 0.080994003 0.028351000
0.724945009 0.085724004 0.029022001
0.763062000 0.092987001 0.030304000
0.805236995 0.100066997 0.030121000
0.857971013 0.113617003 0.031189000
0.910736024 0.133514002 0.054625999
0.000000000 0.152802005 0.072296001
0.036316000 0.156036004 0.063323997
0.083251998 0.160858005 0.042296998
0.137420997 0.161956996 0.043304000
0.202362001 0.161316007 0.052521002
0.269134998 0.161163002 0.057434000
0.337128013 0.162476003 0.055420000
0.406158000 0.162659004 0.049621999
0.483397990 0.158843994 0.035918999
0.565674007 0.155457005 0.026123000
0.638396978 0.156829998 0.027252000
0.693542004 0.162810996 0.028534001
0.735107005 0.170837000 0.029266000
0.774567008 0.177855998 0.030060001
0.819458008 0.186554000 0.030762000
0.873291016 0.200499997 0.032134999
0.922393978 0.213165000 0.060120001
0.000793000 0.209534004 0.078247003
0.037932999 0.212372005 0.069366001
0.082824998 0.218048006 0.042938001
0.133849993 0.219299003 0.030944999
0.193023995 0.222992003 0.036132999
0.261352986 0.225342005 0.051116999
0.335815012 0.227081001 0.059478998
0.409424007 0.229340002 0.059326001
0.485473990 0.229156002 0.048401002
0.564940989 0.228027001 0.033661000
0.639038026 0.230529994 0.027710000
0.698760986 0.236053005 0.029479999
0.742583990 0.241790995 0.030212000
0.783783019 0.249146000 0.030853000
0.830994010 0.261260986 0.030913999
0.886475027 0.275054991 0.033020001
0.932465017 0.285492003 0.068604000
0.001587000 0.261536002 0.083007999
0.039489999 0.264373988 0.074767999
0.082855001 0.270476997 0.047240999
0.132232994 0.274475008 0.030182000
0.193023995 0.276062012 0.027008001
0.259368986 0.280853003 0.032379001
0.337006003 0.285614014 0.048950002
0.416382015 0.288390994 0.059661999
0.493561000 0.289795011 0.055206001
0.571533024 0.290466011 0.040038999
0.645630002 0.292694002 0.029175000
0.705901980 0.297545999 0.030212000
0.750244021 0.303802013 0.030792000
0.792297006 0.312988013 0.031555001
0.840515018 0.327484012 0.031647000
0.898132026 0.341187000 0.034332000
0.941344976 0.350616008 0.075928003
0.000793000 0.312377989 0.088561997
0.038695998 0.315917999 0.078308001
0.081359997 0.323303014 0.041992001
0.133514002 0.329315007 0.029572001
0.190704003 0.330321997 0.026703000
0.264068991 0.333801001 0.026031001
0.346740991 0.341187000 0.033507999
0.427704006 0.345795006 0.048523001
0.502258003 0.348022014 0.054230001
0.577637017 0.351043999 0.043427002
0.652374029 0.355498999 0.031097000
0.712646008 0.361999989 0.030212000
0.756653011 0.370391995 0.031799000
0.798187017 0.380706996 0.032288000
0.844299018 0.394897014 0.032349002
0.899016976 0.404448986 0.034485001
0.947692990 0.410522014 0.073974997
0.000000000 0.365020990 0.095673002
0.036316000 0.368804991 0.085510001
0.077849999 0.377624989 0.039489999
0.135651007 0.384644002 0.028472999
0.194672003 0.387787014 0.027802000
0.270934999 0.392699987 0.028290000
0.360839993 0.400391012 0.028351000
0.438262999 0.405853003 0.034790002
0.509247005 0.410308987 0.040619001
0.583679020 0.416718006 0.037749998
0.656280994 0.424896002 0.031707998
0.716338992 0.433411002 0.031158000
0.761260986 0.441437006 0.031982001
0.802124023 0.451202005 0.032531999
0.845580995 0.461243004 0.032439999
0.897643983 0.464477986 0.033569001
0.951903999 0.467406988 0.062652998
0.000000000 0.420410007 0.104492001
0.032439999 0.423828006 0.095367000
0.070891999 0.432067990 0.053314000
0.134887993 0.443085015 0.030060001
0.203155994 0.447266012 0.028839000
0.280487001 0.454589993 0.030029001
0.372925013 0.464691013 0.030212000
0.448882997 0.471374989 0.030609000
0.513885021 0.477263987 0.031342000
0.586395025 0.485992014 0.031707998
0.657836974 0.495941013 0.031707998
0.717742980 0.504760981 0.032104000
0.764069021 0.511536002 0.032683998
0.804596007 0.518494010 0.033264000
0.846619010 0.523711979 0.033813000
0.897674978 0.522400022 0.040649001
0.953460991 0.524260998 0.050018001
0.000000000 0.480713010 0.117310002
0.030548001 0.483368009 0.108551003
0.067443997 0.489226997 0.081084996
0.124512002 0.501312017 0.038422000
0.207916006 0.511229992 0.030304000
0.293976009 0.517700016 0.031342000
0.382750988 0.527648985 0.031493999
0.458678991 0.536925972 0.031738002
0.522736013 0.544646978 0.032134999
0.588622987 0.553101003 0.032104000
0.656219006 0.562530994 0.032776002
0.715668023 0.571013987 0.033202998
0.763916016 0.576964974 0.033264000
0.806366026 0.580596983 0.034515001
0.848755002 0.581939995 0.040649001
0.897185981 0.579955995 0.058014002
0.949890018 0.582184017 0.045593001
0.000000000 0.544708014 0.133972004
0.031738002 0.546387017 0.125061005
0.068024002 0.550598025 0.108397998
0.116301998 0.561034977 0.046234000
0.210693002 0.577392995 0.031097000
0.307799995 0.584320009 0.032288000
0.392883003 0.590148985 0.032837000
0.466277987 0.598694026 0.033020001
0.532378972 0.607879996 0.033325002
0.595825016 0.616271973 0.033599999
0.657135010 0.623932004 0.034118999
0.713989019 0.631805003 0.034393001
0.762878001 0.637512028 0.034148999
0.807708979 0.640166998 0.036285002
0.851653993 0.638396978 0.051849000
0.898284972 0.637176991 0.072875999
0.945953012 0.640075982 0.047455002
0.000000000 0.606628001 0.149384007
0.033325002 0.608002007 0.139525995
0.066803001 0.611572027 0.124297999
0.119080000 0.622528017 0.058745999
0.218230993 0.640289009 0.031250000
0.315703988 0.650023997 0.031982001
0.399291992 0.654572010 0.034363002
0.471496999 0.659911990 0.034363002
0.537353992 0.667297006 0.034851000
0.602020025 0.675567985 0.035094999
0.664215028 0.683166981 0.035186999
0.718657970 0.689391971 0.035645001
0.765717030 0.694763005 0.034912001
0.809174001 0.697632015 0.037659001
0.853179991 0.696289003 0.055144999
0.899627984 0.695586979 0.077026002
0.946471989 0.697968006 0.048340000
0.000000000 0.665069997 0.160309002
0.034851000 0.666747987 0.149352998
0.069458000 0.669556022 0.132172003
0.118377998 0.677338004 0.095673002
0.212769002 0.695770025 0.048248000
0.313048989 0.709290028 0.034118999
0.397125006 0.715240002 0.035645001
0.470672995 0.720062017 0.036132999
0.540130973 0.725983024 0.036437999
0.606750011 0.732819021 0.036437999
0.668883979 0.740478992 0.036621001
0.723815978 0.746887028 0.036681999
0.770385981 0.750000000 0.037170000
0.812622011 0.751128972 0.038054999
0.855193973 0.753174007 0.048370000
0.899353027 0.755402029 0.069489002
0.947539985 0.756591976 0.048308998
0.000000000 0.722838998 0.168945000
0.035767000 0.724487007 0.156616002
0.072571002 0.727385998 0.139069006
0.129210994 0.733642995 0.128174007
0.178650007 0.740692019 0.089599997
0.289916992 0.760895014 0.046599999
0.392150998 0.773528993 0.035186999
0.467285007 0.778687000 0.037230998
0.539458990 0.784210026 0.037354000
0.609099984 0.790314019 0.037932999
0.669616997 0.796905994 0.037932999
0.723450005 0.802887022 0.038086001
0.772063971 0.804961979 0.038086001
0.816314995 0.805266976 0.038695998
0.859557986 0.808288991 0.042511001
0.903442025 0.811890006 0.051575001
0.950653017 0.813445985 0.042479999
0.000000000 0.780487001 0.174225003
0.037170000 0.781859994 0.162781000
0.078948997 0.784515023 0.150909007
0.140746996 0.790588021 0.143738002
0.188446000 0.796142995 0.117064998
0.270386010 0.809387028 0.063629001
0.375335991 0.826323986 0.038451999
0.465546012 0.837890983 0.037415002
0.539276004 0.844115973 0.038635001
0.606445014 0.849120975 0.038635001
0.666351020 0.853972971 0.038849000
0.720184028 0.858153999 0.039337002
0.771088004 0.860687017 0.039337002
0.819000006 0.862182975 0.038391002
0.863952994 0.864531994 0.040070001
0.908996999 0.868103027 0.046905998
0.957000971 0.869994998 0.041228998
0.000000000 0.837859988 0.182311997
0.037994001 0.838927984 0.172699004
0.091918997 0.843474984 0.163451999
0.154113993 0.849487007 0.156859994
0.202057004 0.854614019 0.130523995
0.279480010 0.867706001 0.078612998
0.372437000 0.883911014 0.046997000
0.457854986 0.895325005 0.040801998
0.530852973 0.901610970 0.041565001
0.596130013 0.906219006 0.041655999
0.658599973 0.910919011 0.042358000
0.717559993 0.915709972 0.042755000
0.771088004 0.920135021 0.043579001
0.821044981 0.923400998 0.044464000
0.867736995 0.926330984 0.046112001
0.914184988 0.929108024 0.052154999
0.964354992 0.930572987 0.046967000
0.000000000 0.897888005 0.189330995
0.044647001 0.900512993 0.180756003
0.106934004 0.906403005 0.173920006
0.167236000 0.912018001 0.166503996
0.212707996 0.916289985 0.144927993
0.271881014 0.926514030 0.099486999
0.374054015 0.944000006 0.083557002
0.468535990 0.957458019 0.082245000
0.538818002 0.964142025 0.080840997
0.602051020 0.968474984 0.081115998
0.662476003 0.972716987 0.083495997
0.720520020 0.977203012 0.091309004
0.775359988 0.981293023 0.104552999
0.825408995 0.984497011 0.122955002
0.872588992 0.986510992 0.137390003
0.920440972 0.987945974 0.151244998
0.970825016 0.989197016 0.156096995
0.000793000 0.000702000 0.063141003
0.031952001 0.000702000 0.098082997
0.090790004 0.000000000 0.104461998
0.145934999 0.000000000 0.103606999
0.203461006 0.000000000 0.102600001
0.266968012 0.000000000 0.104552999
0.340332001 0.000000000 0.105530001
0.417084008 0.000000000 0.105926998
0.488586009 0.000000000 0.106476001
0.557097971 0.000000000 0.107422002
0.619843006 0.000000000 0.108643003
0.670653999 0.000793000 0.109710999
0.712707996 0.000793000 0.110625997
0.750671029 0.000793000 0.111754999
0.790557981 0.000793000 0.112732001
0.837189019 0.000854000 0.111694001
0.888427973 0.004730000 0.115447998
0.000000000 0.032349002 0.085510001
0.032593001 0.034667999 0.093323000
0.088408999 0.033112001 0.101349004
0.153075993 0.027892999 0.103942998
0.220550999 0.023314999 0.103179999
0.288543999 0.022338999 0.101379000
0.358947992 0.022826999 0.099884003
0.430267006 0.023560001 0.098145001
0.498259991 0.024689000 0.097930998
0.565307975 0.025513001 0.098938003
0.628601015 0.026611000 0.099426001
0.679320991 0.027863000 0.099578999
0.718231022 0.028625000 0.100158997
0.754700005 0.029327000 0.100585997
0.796265006 0.029967999 0.099059999
0.850432992 0.032042999 0.093535997
0.900969982 0.053406000 0.106567003
0.000000000 0.092987001 0.105103001
0.026550001 0.097198002 0.106384002
0.080475003 0.099822998 0.102448002
0.149535999 0.091980003 0.103606999
0.217925996 0.087952003 0.103667997
0.284087986 0.085541002 0.102477998
0.354645014 0.080658004 0.099945001
0.432830989 0.069945998 0.092956997
0.511200011 0.059296001 0.081940003
0.583527029 0.054749001 0.073669001
0.643036008 0.055695001 0.072021000
0.686492980 0.057526000 0.072783999
0.724120975 0.059845001 0.072662003
0.762573004 0.063141003 0.070099004
0.808228016 0.068480998 0.066895001
0.865845025 0.088531002 0.077209003
0.915404975 0.121886998 0.102875002
0.000000000 0.154236004 0.116668999
0.027161000 0.158203006 0.115601003
0.078460999 0.164123997 0.109070003
0.135010004 0.163848996 0.100097999
0.214111000 0.157867000 0.103455000
0.285674989 0.155730993 0.104186997
0.354645014 0.154907003 0.101349004
0.427399009 0.149840996 0.096008003
0.506317019 0.139099002 0.084564000
0.586059988 0.126190007 0.066924997
0.650635004 0.120056003 0.055450000
0.695281982 0.125916004 0.057007000
0.734130979 0.136199996 0.059052002
0.775542974 0.147614002 0.059997998
0.825226009 0.163360998 0.061523002
0.883849978 0.187103003 0.079925999
0.927643001 0.207184002 0.108368002
0.000000000 0.210754007 0.126159996
0.030212000 0.213501006 0.123383000
0.080200002 0.218780994 0.113678001
0.128447995 0.221404999 0.095183998
0.194610998 0.223113999 0.094237998
0.281311005 0.221008003 0.103821002
0.360137999 0.221191004 0.106628001
0.431427002 0.222229004 0.102936000
0.506500006 0.219788000 0.094452001
0.585601985 0.214355007 0.077393003
0.654724002 0.212615997 0.060516000
0.704650998 0.217285007 0.056426998
0.744750977 0.224030003 0.059356999
0.788055003 0.235930994 0.060577001
0.838684022 0.252869010 0.063904002
0.896515012 0.270904988 0.085693002
