public/lut/136.cube
TITLE "17x17x17 Adobe/IRIDAS cube 3D LUT exported with GrossGrade v0.2.2 (beta) 64 bit"
DOMAIN_MIN 0 0 0
DOMAIN_MAX 1 1 1
LUT_3D_SIZE 5
0.000000000 0.000000000 0.000000000
0.199982002 0.000000000 0.002380000
0.481353998 0.000000000 0.009857000
0.711609006 0.000793000 0.018158000
0.889343023 0.003937000 0.018158000
0.001587000 0.209839001 0.022491001
0.194823995 0.222137004 0.000214000
0.470183998 0.234741002 0.009064000
0.740478992 0.248016000 0.000793000
0.929992974 0.285858005 0.029572001
0.000000000 0.420807004 0.049316000
0.208465993 0.438385010 0.000000000
0.506775022 0.470856011 0.000000000
0.760590017 0.508849978 0.000000000
0.943542004 0.528778017 0.000000000
0.000000000 0.665252984 0.101562999
0.242493004 0.701294005 0.000000000
0.538055003 0.721831977 0.000793000
0.771575987 0.750427008 0.000000000
0.946135998 0.757080019 0.000793000
0.000000000 0.898041010 0.125916004
0.198151007 0.914489985 0.061400998
0.543883979 0.963042974 0.031952001
0.776549995 0.980713010 0.059845001
0.970703006 0.988892019 0.108612001
0.001587000 0.006714000 0.137390003
0.189545006 0.000793000 0.204987004
0.490204006 0.000000000 0.199462995
0.713805974 0.000793000 0.204833999
0.887755990 0.004150000 0.214965999
0.000000000 0.216461003 0.211486995
0.175476000 0.228027001 0.208405003
0.539184988 0.205963001 0.195709005
0.752624989 0.177338004 0.145538002
0.938416004 0.286316007 0.238769993
0.000000000 0.421752989 0.276793987
0.165619001 0.453734994 0.266815007
0.531768978 0.502135992 0.182953000
0.773621023 0.510222971 0.218963996
0.957062006 0.525084972 0.285645008
0.000000000 0.666869998 0.356566995
0.172150001 0.680908024 0.329712003
0.517548025 0.739440978 0.142578006
0.761443973 0.750976980 0.218200997
0.960510015 0.756835997 0.181519002
0.000000000 0.898711979 0.376006991
0.213866994 0.918151975 0.353210002
0.516357005 0.963409007 0.258819997
0.773253977 0.983367980 0.251861989
0.972442985 0.990508974 0.308135986
0.004730000 0.043242998 0.281830013
0.149352998 0.034515001 0.432830989
0.437653005 0.001587000 0.454742014
0.712158024 0.000000000 0.451294005
0.905791998 0.013397000 0.497649997
0.000000000 0.238129005 0.378661990
0.160460994 0.235779002 0.408446997
0.498443991 0.246399000 0.476929009
0.759705007 0.214752004 0.504729986
0.941833019 0.301207989 0.522552013
0.000000000 0.446258992 0.510712028
0.120117001 0.461730987 0.529388011
0.458649009 0.502838016 0.529877007
0.770416021 0.513580024 0.553497016
0.961884022 0.532471001 0.556334972
0.000793000 0.674377024 0.567809999
0.140045002 0.686492980 0.566314995
0.459167004 0.727294981 0.554718018
0.753754020 0.761749029 0.497527987
0.977721989 0.764038026 0.527343988
0.000793000 0.905364990 0.588958979
0.193114996 0.921997011 0.587799013
0.518646002 0.962401986 0.572510004
0.773070991 0.986419976 0.521117985
0.977509022 0.992371023 0.557860970
0.010468000 0.094971001 0.463683993
0.134582996 0.095275998 0.578338981
0.447205007 0.055176001 0.708527029
0.723877013 0.030365000 0.761901975
0.916534007 0.045990001 0.768494010
0.000000000 0.274444997 0.588440001
0.157349005 0.257537991 0.601288021
0.458038002 0.279877007 0.753418028
0.744994998 0.308075011 0.763306022
0.936371028 0.310303003 0.770385981
0.000000000 0.478118986 0.714478016
0.123627000 0.489684999 0.731200993
0.449707001 0.517333984 0.747559011
0.758942008 0.535674989 0.774658024
0.964354992 0.541442990 0.779388011
0.000793000 0.686583996 0.768188000
0.143066004 0.696716011 0.772614002
0.416565001 0.732483029 0.778533995
0.753661990 0.762755990 0.782471001
0.981262028 0.770020008 0.795593023
0.006104000 0.916869998 0.785492003
0.230437994 0.935760021 0.787627995
0.494201988 0.962799013 0.793578982
0.779326975 0.986205995 0.794005990
0.984467030 0.994109988 0.798156977
0.014984000 0.124968998 0.668823004
0.151764005 0.132263005 0.799773991
0.480194002 0.130585000 0.932525992
0.733642995 0.105011001 0.948638976
0.921997011 0.092162997 0.960479975
0.000000000 0.313416004 0.798645020
0.135802999 0.301604986 0.835205019
0.478760004 0.309722990 0.949859977
0.749054015 0.315398991 0.957213998
0.939666986 0.324950993 0.967406988
0.000000000 0.504455984 0.892364979
0.126495004 0.513549984 0.906677008
0.400543004 0.518127024 0.958130002
0.765044987 0.539978027 0.969085991
0.961914003 0.550536990 0.976684988
0.000000000 0.702942014 0.944945991
0.145568997 0.710784972 0.952086985
0.320403993 0.727111995 0.963500977
0.746551991 0.767638981 0.979767025
0.981750011 0.773864985 0.987244010
0.053649999 0.934753001 0.968384027
0.283295006 0.951201975 0.973815978
0.522888005 0.969604015 0.981536984
0.771239996 0.987396002 0.989715993
0.994843006 0.996674001 0.994994998
