public/lut/137.cube
TITLE "17x17x17 Adobe/IRIDAS cube 3D LUT exported with GrossGrade v0.2.2 (beta) 64 bit"
DOMAIN_MIN 0 0 0
DOMAIN_MAX 1 1 1
LUT_3D_SIZE 5
0.000000000 0.000000000 0.000000000
0.212127998 0.002380000 0.002380000
0.482239008 0.002380000 0.002380000
0.763275027 0.001587000 0.001587000
0.999846995 0.000000000 0.000000000
0.000000000 0.226653993 0.000000000
0.211028993 0.229828000 0.001587000
0.480681986 0.229828000 0.001587000
0.762054026 0.228606999 0.000793000
0.998749018 0.226531997 0.000000000
0.000000000 0.500609994 0.000000000
0.211028993 0.504364014 0.001587000
0.480713010 0.504486024 0.001587000
0.762023985 0.503021002 0.000793000
0.998809993 0.500609994 0.000000000
0.000000000 0.774200022 0.000000000
0.211517006 0.777526975 0.001770000
0.481200993 0.777557015 0.002380000
0.762512028 0.776337028 0.001373000
0.999207020 0.774231017 0.000000000
0.000793000 0.999907970 0.000793000
0.212249994 0.999877989 0.002380000
0.482178003 0.999877989 0.003174000
0.763306022 0.999877989 0.002167000
0.999907970 0.999907970 0.000000000
0.000000000 0.000000000 0.253661990
0.210143998 0.001373000 0.257629007
0.479828000 0.000977000 0.257874012
0.761169016 0.000000000 0.256621987
0.998169005 0.000000000 0.254456013
0.000000000 0.224396005 0.253021002
0.209014997 0.227814004 0.256500006
0.478332996 0.227844000 0.256592005
0.759887993 0.226531997 0.255187988
0.997070014 0.224518001 0.253143013
0.000000000 0.498169005 0.253082007
0.209014997 0.502044976 0.256500006
0.478332996 0.502075016 0.256500006
0.759917974 0.500640988 0.255248994
0.997070014 0.498198986 0.253143013
0.000000000 0.772216976 0.253632009
0.209534004 0.775481999 0.256958008
0.478911996 0.775574028 0.257050008
0.760406017 0.774322987 0.255706996
0.997497976 0.772247016 0.253661990
0.000000000 0.998169005 0.254456013
0.210480005 0.999877989 0.257903993
0.479797006 0.999877989 0.257842988
0.761229992 0.999846995 0.256592005
0.998169005 0.998169005 0.254058987
0.000000000 0.000000000 0.533020020
0.210388005 0.001373000 0.536987007
0.479950011 0.001587000 0.537231028
0.761353016 0.000000000 0.535736024
0.998229980 0.000000000 0.533294976
0.000000000 0.224518001 0.531677008
0.209167004 0.227844000 0.535674989
0.478394002 0.227844000 0.535674989
0.760039985 0.226685002 0.534241021
0.997130990 0.224547997 0.531830013
0.000000000 0.498259991 0.531799018
0.209105998 0.502106011 0.535583019
0.478394002 0.502106011 0.535645008
0.760010004 0.500732005 0.534241021
0.997130990 0.498259991 0.531799018
0.000000000 0.772278011 0.532378972
0.209594995 0.775574028 0.536162972
0.478911996 0.775574028 0.536194026
0.760497987 0.774384022 0.534820974
0.997528017 0.772307992 0.532410026
0.000000000 0.998229980 0.533294976
0.210663006 0.999877989 0.537109017
0.479828000 0.999877989 0.537140012
0.761260986 0.999846995 0.535736024
0.998198986 0.998229980 0.533325016
0.000000000 0.000000000 0.792297006
0.211151004 0.001587000 0.795379996
0.480742991 0.001587000 0.795226991
0.762115002 0.000793000 0.794158995
0.998932004 0.000000000 0.792083979
0.000000000 0.225342005 0.790771008
0.209808007 0.228577003 0.793976009
0.479279011 0.228637993 0.794036984
0.760773003 0.227477998 0.792877018
0.997771978 0.225342005 0.790832996
0.000000000 0.499206990 0.790862978
0.209900007 0.502991021 0.794005990
0.479247987 0.503051996 0.794067025
0.760773003 0.501586974 0.792846978
0.997771978 0.499175996 0.790832996
0.000000000 0.773041010 0.791289985
0.210326999 0.776337028 0.794463992
0.479828000 0.776367009 0.794525027
0.761291981 0.775146008 0.793365002
0.998198986 0.773041010 0.791289985
0.000000000 0.998839974 0.792083979
0.211060002 0.999877989 0.795226991
0.480713010 0.999877989 0.795257986
0.762145996 0.999877989 0.794158995
0.998871028 0.998871028 0.791900992
0.000000000 0.000000000 1.000000000
0.212249994 0.002380000 0.999724984
0.482116997 0.002777000 0.999786019
0.763366997 0.001587000 0.999939024
0.999907970 0.000000000 0.999907970
0.000000000 0.226653993 0.998932004
0.211151004 0.229919001 0.999877989
0.480681986 0.229889005 0.999877989
0.762023985 0.228698999 0.999877989
0.998809993 0.226471007 0.998839974
0.000000000 0.500549018 0.998839974
0.211151004 0.504395008 0.999877989
0.480681986 0.504455984 0.999877989
0.761992991 0.502991021 0.999877989
0.998809993 0.500609994 0.998839974
0.000000000 0.774231017 0.999207020
0.211517006 0.777495980 0.999877989
0.481231987 0.777557015 0.999877989
0.762481987 0.776337028 0.999877989
0.999207020 0.774200022 0.999207020
0.000793000 0.999877989 0.999877989
0.212494001 0.999877989 0.999877989
0.482024997 0.999877989 0.999877989
0.763213992 0.999877989 0.999877989
0.999877989 0.999877989 0.999877989
