public/lut/137.cube
TITLE "17x17x17 Adobe/IRIDAS cube 3D LUT exported with GrossGrade v0.2.2 (beta) 64 bit"
DOMAIN_MIN 0 0 0
DOMAIN_MAX 1 1 1
LUT_3D_SIZE 17
0.000000000 0.000000000 0.000000000
0.048675999 0.001526000 0.001526000
0.098632999 0.001587000 0.001587000
0.153624997 0.002380000 0.002380000
0.212127998 0.002380000 0.002380000
0.274170011 0.002380000 0.002380000
0.340362996 0.002380000 0.002380000
0.409943014 0.002380000 0.002380000
0.482239008 0.002380000 0.002380000
0.555388987 0.002380000 0.002380000
0.627258003 0.002380000 0.002380000
0.696807981 0.001587000 0.001587000
0.763275027 0.001587000 0.001587000
0.826599002 0.001434000 0.001434000
0.886810005 0.000793000 0.000793000
0.944671988 0.000793000 0.000793000
0.999846995 0.000000000 0.000000000
0.000000000 0.053314000 0.000000000
0.046721999 0.054565001 0.000793000
0.098601997 0.055206001 0.001526000
0.153503001 0.055755999 0.001587000
0.211944997 0.055877998 0.001770000
0.273589998 0.055877998 0.002380000
0.339873999 0.056274001 0.002380000
0.409301996 0.055877998 0.002380000
0.481505990 0.055877998 0.002380000
0.554596007 0.055877998 0.001617000
0.626555979 0.055236999 0.001617000
0.696135998 0.055236999 0.001587000
0.762573004 0.055084001 0.001373000
0.825806022 0.054625999 0.000793000
0.886229992 0.054016002 0.000793000
0.944153011 0.053925000 0.000000000
0.999390006 0.053314000 0.000000000
0.000000000 0.108612001 0.000000000
0.046721999 0.110016003 0.000793000
0.098236002 0.110443003 0.001465000
0.153015003 0.110808998 0.001587000
0.211243004 0.111144997 0.001587000
0.273467988 0.111511000 0.002380000
0.339477986 0.111511000 0.002380000
0.408874989 0.111511000 0.002380000
0.481110007 0.111511000 0.002380000
0.554108024 0.111144997 0.001587000
0.626312017 0.110779002 0.001587000
0.695831001 0.110687003 0.001587000
0.762328982 0.110352002 0.000793000
0.825684011 0.109741002 0.000793000
0.885895014 0.109406002 0.000000000
0.943817019 0.108948000 0.000000000
0.998992980 0.108306997 0.000000000
0.000000000 0.165894002 0.000000000
0.046082001 0.167449996 0.000793000
0.097838998 0.168182001 0.001465000
0.152740002 0.168670997 0.001587000
0.211334005 0.169128001 0.001587000
0.273193002 0.169128001 0.001831000
0.339141995 0.169312000 0.001587000
0.408661008 0.169220001 0.001587000
0.480713010 0.169128001 0.002380000
0.553740978 0.168883994 0.001587000
0.625945985 0.168670997 0.001587000
0.695586979 0.168335006 0.001343000
0.762085021 0.167998999 0.000793000
0.825408995 0.167541996 0.000793000
0.885742009 0.167052999 0.000000000
0.943633974 0.166565001 0.000000000
0.998901010 0.165894002 0.000000000
0.000000000 0.226653993 0.000000000
0.046021000 0.227997005 0.000000000
0.097838998 0.228973001 0.000793000
0.152740002 0.229491994 0.001587000
0.211028993 0.229828000 0.001587000
0.273070991 0.230011001 0.002380000
0.339080989 0.230164006 0.001587000
0.408569008 0.230041996 0.002380000
0.480681986 0.229828000 0.001587000
0.553802013 0.229706004 0.001587000
0.625823975 0.229431003 0.001587000
0.695526004 0.229034007 0.001129000
0.762054026 0.228606999 0.000793000
0.825255990 0.228148997 0.000214000
0.885650992 0.227660999 0.000000000
0.943542004 0.227051005 0.000000000
0.998749018 0.226531997 0.000000000
0.000000000 0.290436000 0.000000000
0.046082001 0.292145014 0.000000000
0.097838998 0.293029994 0.000793000
0.152740002 0.293549001 0.001434000
0.211028993 0.294037014 0.001587000
0.272918999 0.294066995 0.001587000
0.338988990 0.294281006 0.001587000
0.408477992 0.294158995 0.002380000
0.480590999 0.293976009 0.001587000
0.553619027 0.293731987 0.001587000
0.625762999 0.293457001 0.001587000
0.695434988 0.293121010 0.001343000
0.761932015 0.292632997 0.000793000
0.825226009 0.292174995 0.000000000
0.885559022 0.291687012 0.000000000
0.943512022 0.291106999 0.000000000
0.998778999 0.290466011 0.000000000
0.000000000 0.357879996 0.000000000
0.046082001 0.359679997 0.000000000
0.097838998 0.360596001 0.000793000
0.152740002 0.361205995 0.001434000
0.210968003 0.361541986 0.001587000
0.272949010 0.361694008 0.001587000
0.338928014 0.361876994 0.001862000
0.408416986 0.361786008 0.002380000
0.480590999 0.361663997 0.001587000
0.553650022 0.361389011 0.001587000
0.625732005 0.361023009 0.001587000
0.695465028 0.360686988 0.001343000
0.761932015 0.360228986 0.000793000
0.825164974 0.359741002 0.000000000
0.885468006 0.359160990 0.000000000
0.943481028 0.358581990 0.000000000
0.998778999 0.357910007 0.000000000
0.000000000 0.428344995 0.000000000
0.046082001 0.430175990 0.000000000
0.097838998 0.431151986 0.000793000
0.152740002 0.431762993 0.001434000
0.210968003 0.432098001 0.001587000
0.273009986 0.432312012 0.001587000
0.338898003 0.432372987 0.001587000
0.408416986 0.432372987 0.002380000
0.480590999 0.432220012 0.001587000
0.553680003 0.431946009 0.001587000
0.625792980 0.431641012 0.001587000
0.695526004 0.431243986 0.001343000
0.761992991 0.430817008 0.000793000
0.825195014 0.430267006 0.000000000
0.885497987 0.429596007 0.000000000
0.943481028 0.428986013 0.000000000
0.998809993 0.428406000 0.000000000
0.000000000 0.500609994 0.000000000
0.046082001 0.502440989 0.000000000
0.097838998 0.503356993 0.000793000
0.152740002 0.504028022 0.001587000
0.211028993 0.504364014 0.001587000
0.273070991 0.504577994 0.002380000
0.338928014 0.504639030 0.001587000
0.408508003 0.504607975 0.002380000
0.480713010 0.504486024 0.001587000
0.553710997 0.504181027 0.001587000
0.625885010 0.503875971 0.001587000
0.695556998 0.503479004 0.001343000
0.762023985 0.503021002 0.000793000
0.825226009 0.502502024 0.000641000
0.885590017 0.501891971 0.000000000
0.943542004 0.501250982 0.000000000
0.998809993 0.500609994 0.000000000
0.000000000 0.572754025 0.000000000
0.046082001 0.574523985 0.000336000
0.097838998 0.575531006 0.001465000
0.152953997 0.576111019 0.001587000
0.211151004 0.576569021 0.001587000
0.273101985 0.576690972 0.002380000
0.339080989 0.576752007 0.001587000
0.408630013 0.576721013 0.001587000
0.480803996 0.576538026 0.001923000
0.553864002 0.576323986 0.001587000
0.625976980 0.576018989 0.001587000
0.695648015 0.575622976 0.000793000
0.762115002 0.575133979 0.000793000
0.825378001 0.574615002 0.000793000
0.885680974 0.574036002 0.000000000
0.943633974 0.573424995 0.000000000
0.998901010 0.572754025 0.000000000
0.000000000 0.643158019 0.000000000
0.046021000 0.644806027 0.000793000
0.098174997 0.645812988 0.001465000
0.153015003 0.646393001 0.001587000
0.211334005 0.646728992 0.001587000
0.273254007 0.646973014 0.002075000
0.339203000 0.647033989 0.001587000
0.408722013 0.646942019 0.001587000
0.480926991 0.646790028 0.002380000
0.553986013 0.646606028 0.001587000
0.626098990 0.646270990 0.001587000
0.695770025 0.645934999 0.001343000
0.762238026 0.645447016 0.000793000
0.825469971 0.644958019 0.000793000
0.885773003 0.644379020 0.000000000
0.943755984 0.643799007 0.000000000
0.998961985 0.643158019 0.000000000
0.000000000 0.710388005 0.000000000
0.046294998 0.712067008 0.000793000
0.098236002 0.712981999 0.001465000
0.153258994 0.713593006 0.001587000
0.211334005 0.713898003 0.002380000
0.273346007 0.714049995 0.001587000
0.339354992 0.714142025 0.001587000
0.408874989 0.714080989 0.001587000
0.481018007 0.713898003 0.002380000
0.554108024 0.713775992 0.001587000
0.626250982 0.713409007 0.001587000
0.695891976 0.713104010 0.001587000
0.762359977 0.712677002 0.000854000
0.825591981 0.712158024 0.000793000
0.885895014 0.711638987 0.000000000
0.943877995 0.711090028 0.000000000
0.999023020 0.710448980 0.000000000
0.000000000 0.774200022 0.000000000
0.046721999 0.775786996 0.000793000
0.098236002 0.776672006 0.001465000
0.153258994 0.777190983 0.001587000
0.211517006 0.777526975 0.001770000
0.273499012 0.777648985 0.002380000
0.339477986 0.777740002 0.002380000
0.409058005 0.777710021 0.002380000
0.481200993 0.777557015 0.002380000
0.554320991 0.777374029 0.002380000
0.626403987 0.777068973 0.001587000
0.696044981 0.776703000 0.001587000
0.762512028 0.776337028 0.001373000
0.825713992 0.775847971 0.000793000
0.886047006 0.775359988 0.000092000
0.943970025 0.774841011 0.000000000
0.999207020 0.774231017 0.000000000
0.000000000 0.834716976 0.000000000
0.046721999 0.836181998 0.000793000
0.098601997 0.836944997 0.001587000
0.153473005 0.837463021 0.001587000
0.211731002 0.837737978 0.002380000
0.273712009 0.837952018 0.002380000
0.339691013 0.837981999 0.002380000
0.409240991 0.837921023 0.002380000
0.481445014 0.837799013 0.002380000
0.554503977 0.837584972 0.002380000
0.626586974 0.837341011 0.001587000
0.696228027 0.836974978 0.001587000
0.762664974 0.836669981 0.001373000
0.825866997 0.836211979 0.000793000
0.886200011 0.835723996 0.000793000
0.944122016 0.835236013 0.000000000
0.999390006 0.834685981 0.000000000
0.000000000 0.892090023 0.000000000
0.046721999 0.893523991 0.000793000
0.098632999 0.894286990 0.001587000
0.153564006 0.894774973 0.001678000
0.211914003 0.895111024 0.002380000
0.273894995 0.895264030 0.002380000
0.339904994 0.895354986 0.002380000
0.409485012 0.895264030 0.002380000
0.481628001 0.895142019 0.002380000
0.554749012 0.894958019 0.002380000
0.626830995 0.894684017 0.001862000
0.696411014 0.894348025 0.001587000
0.762878001 0.894011974 0.001587000
0.826111019 0.893616021 0.001434000
0.886382997 0.893127024 0.000793000
0.944275022 0.892638981 0.000000000
0.999512017 0.892090023 0.000000000
0.000000000 0.947234988 0.000000000
0.047455002 0.948517025 0.001526000
0.098968998 0.949249029 0.001617000
0.153808996 0.949615002 0.002380000
0.212097004 0.949921012 0.002380000
0.274138987 0.950103998 0.002380000
0.340148985 0.950164974 0.002411000
0.409729004 0.950103998 0.002411000
0.481902987 0.949981987 0.002411000
0.554992974 0.949859977 0.002380000
0.627075016 0.949585021 0.002380000
0.696686029 0.949340999 0.001617000
0.763091981 0.948943973 0.001587000
0.826294005 0.948547006 0.001434000
0.886596978 0.948180974 0.000793000
0.944489002 0.947722971 0.000000000
0.999724984 0.947234988 0.000000000
0.000793000 0.999907970 0.000793000
0.047455002 0.999877989 0.001587000
0.099030003 0.999877989 0.002380000
0.153808996 0.999877989 0.001709000
0.212249994 0.999877989 0.002380000
0.274475008 0.999877989 0.003174000
0.340606987 0.999877989 0.004425000
0.410034001 0.999877989 0.003174000
0.482178003 0.999877989 0.003174000
0.555266976 0.999907970 0.002380000
0.627258003 0.999877989 0.001862000
0.696959972 0.999877989 0.003174000
0.763306022 0.999877989 0.002167000
0.826476991 0.999907970 0.000000000
0.886810005 0.999877989 0.000793000
0.944640994 0.999877989 0.000793000
0.999907970 0.999907970 0.000000000
0.000000000 0.000000000 0.060486000
0.046082001 0.000793000 0.066132002
0.098236002 0.001526000 0.067780003
0.153045997 0.001587000 0.067780003
0.211243004 0.001587000 0.068328999
0.273346007 0.002380000 0.068328999
0.339293987 0.002380000 0.068328999
0.408874989 0.002380000 0.068328999
0.480865002 0.002380000 0.068328999
0.554077029 0.001587000 0.068085000
0.626160026 0.001587000 0.067780003
0.695831001 0.001343000 0.067780003
0.762268007 0.000793000 0.067230001
0.825469971 0.000793000 0.066711001
0.885802984 0.000000000 0.066161998
0.943726003 0.000000000 0.065613002
0.999023020 0.000000000 0.065094002
0.000000000 0.052062999 0.064514004
0.045410000 0.053374998 0.066161998
0.097503997 0.054016002 0.066711001
0.152710006 0.054625999 0.067718998
0.210571006 0.055236999 0.067780003
0.272491008 0.055236999 0.067780003
0.338378996 0.055236999 0.067780003
0.407898009 0.055236999 0.067809999
0.480163991 0.054931998 0.067780003
0.553345025 0.054657001 0.067534998
0.625397027 0.054625999 0.067261003
0.695038021 0.054016002 0.066711001
0.761565983 0.054016002 0.066711001
0.824890018 0.053374998 0.066161998
0.885284007 0.053374998 0.065642998
0.943175972 0.052703999 0.065094002
0.998444021 0.052703999 0.065094002
0.000000000 0.107268997 0.064514004
0.045990001 0.108978003 0.065613002
0.097075999 0.109406002 0.066650003
0.152007997 0.110077001 0.067230001
0.210480005 0.110443003 0.067261003
0.272368997 0.110443003 0.067688003
0.338164985 0.110443003 0.067780003
0.407471001 0.110443003 0.067290999
0.479674995 0.110443003 0.067261003
0.552825987 0.110106997 0.067261003
0.625060976 0.110106997 0.066955999
0.694702029 0.109741002 0.066711001
0.761260986 0.109375000 0.066192999
0.824492991 0.108948000 0.066071004
0.884949028 0.108337000 0.065521002
0.942932010 0.107970998 0.065033004
0.998198986 0.107239000 0.064514004
0.000000000 0.164948002 0.064514004
0.045380000 0.166382000 0.065613002
0.097046003 0.167480007 0.066650003
0.152007997 0.167754993 0.066711001
0.210143998 0.168182001 0.067230001
0.271941990 0.168029994 0.067261003
0.337981999 0.168243006 0.067261003
0.407409996 0.168212995 0.067261003
0.479584008 0.167998999 0.067261003
0.552582026 0.167877004 0.067230001
0.624817014 0.167632997 0.066711001
0.694580019 0.167297006 0.066223003
0.761047006 0.166991994 0.066161998
0.824370980 0.166534007 0.065613002
0.884734988 0.166077003 0.065094002
0.942749023 0.165619001 0.064575002
0.998016000 0.164948002 0.064025998
0.000000000 0.225525007 0.064514004
0.045380000 0.226989999 0.065613002
0.097046003 0.227997005 0.066588998
0.151764005 0.228515998 0.066711001
0.209930003 0.228820994 0.067230001
0.272002995 0.229003996 0.067261003
0.337738007 0.228973001 0.067261003
0.407379001 0.229003996 0.067261003
0.479492009 0.228820994 0.067230001
0.552520990 0.228606999 0.066711001
0.624695003 0.228302002 0.066711001
0.694427013 0.227997005 0.066161998
0.760895014 0.227660999 0.066161998
0.824249029 0.227051005 0.065613002
0.884674013 0.226653993 0.065094002
0.942656994 0.226165995 0.064911000
0.997893989 0.225525007 0.064423002
0.000000000 0.289337009 0.064514004
0.045380000 0.290984988 0.065613002
0.097046003 0.291839987 0.066161998
0.151703000 0.292479992 0.066711001
0.209930003 0.292816013 0.066863999
0.271789998 0.292968988 0.067230001
0.337738007 0.293090999 0.067261003
0.407227010 0.292998999 0.067261003
0.479461998 0.292937994 0.067230001
0.552520990 0.292632997 0.066711001
0.624572992 0.292297006 0.066711001
0.694365978 0.291961998 0.066161998
0.760833979 0.291565001 0.066040002
0.824158013 0.291076988 0.065613002
0.884552002 0.290587991 0.065094002
0.942505002 0.290039003 0.064514004
0.997864008 0.289458990 0.064514004
0.000000000 0.356781006 0.064514004
0.045380000 0.358521014 0.065613002
0.096648999 0.359436005 0.066161998
0.151703000 0.360076994 0.066711001
0.209930003 0.360442996 0.066711001
0.271881014 0.360596001 0.067230001
0.337738007 0.360626012 0.067261003
0.407227010 0.360626012 0.067261003
0.479369998 0.360442996 0.067230001
0.552460015 0.360228986 0.066711001
0.624602973 0.359894007 0.066711001
0.694335997 0.359528005 0.066161998
0.760864019 0.359070003 0.066040002
0.824187994 0.358581990 0.065613002
0.884521008 0.358002007 0.065094002
0.942534983 0.357421994 0.064514004
0.997864008 0.356750011 0.063995004
0.000000000 0.427276999 0.064208999
0.045380000 0.429076999 0.065613002
0.097046003 0.429962009 0.066161998
0.151703000 0.430572987 0.066711001
0.209930003 0.430907995 0.067230001
0.271881014 0.431212991 0.067230001
0.337769002 0.431243986 0.067261003
0.407288015 0.431151986 0.067261003
0.479400992 0.431030005 0.067230001
0.552429020 0.430756003 0.066711001
0.624664009 0.430510998 0.066711001
0.694305003 0.429993004 0.066161998
0.760895014 0.429535002 0.066161998
0.824158013 0.429046988 0.065613002
0.884552002 0.428467005 0.065094002
0.942596018 0.427855998 0.064514004
0.997864008 0.427184999 0.064208999
0.000000000 0.499390006 0.064484000
0.045380000 0.501190007 0.065613002
0.097046003 0.502197027 0.066161998
0.151764005 0.502776980 0.066711001
0.209990993 0.503112972 0.067230001
0.271973014 0.503386974 0.067261003
0.337769002 0.503418028 0.067261003
0.407317996 0.503356993 0.067261003
0.479431003 0.503203988 0.067230001
0.552550972 0.503021002 0.066711001
0.624695003 0.502655029 0.066711001
0.694335997 0.502228022 0.066161998
0.760955989 0.501770020 0.066040002
0.824249029 0.501221001 0.065613002
0.884643972 0.500671029 0.065094002
0.942627013 0.500030994 0.064514004
0.997893989 0.499390006 0.064514004
0.000000000 0.571564019 0.064514004
0.045380000 0.573333979 0.065613002
0.097046003 0.574340999 0.066161998
0.151978001 0.574890018 0.066711001
0.210114002 0.575255990 0.067230001
0.272002995 0.575469971 0.067261003
0.337920994 0.575562000 0.067261003
0.407409996 0.575469971 0.067261003
0.479523003 0.575348020 0.067261003
0.552643001 0.575103998 0.067230001
0.624786019 0.574768007 0.066711001
0.694518983 0.574432015 0.066161998
0.761047006 0.573913991 0.066161998
0.824310005 0.573364019 0.065613002
0.884734988 0.572844982 0.065094002
0.942687988 0.572265983 0.064514004
0.997986019 0.571564019 0.064269997
0.000000000 0.641937017 0.064514004
0.045380000 0.643676996 0.065613002
0.097046003 0.644622982 0.066650003
0.151978001 0.645232975 0.066711001
0.210297003 0.645569026 0.067230001
0.272217005 0.645781994 0.067261003
0.338043004 0.645781994 0.067261003
0.407532007 0.645812988 0.067261003
0.479674995 0.645630002 0.067261003
0.552734017 0.645385981 0.067230001
0.624877989 0.645080984 0.066711001
0.694640994 0.644744992 0.066680998
0.761138976 0.644257009 0.066161998
0.824432015 0.643768013 0.065765001
0.884827018 0.643218994 0.065521002
0.942809999 0.642609000 0.065002002
0.998046994 0.641968012 0.064423002
0.000000000 0.709320009 0.064514004
0.045380000 0.711028993 0.066132002
0.097198002 0.711853027 0.066680998
0.152252004 0.712463021 0.067230001
0.210448995 0.712799013 0.067261003
0.272278011 0.712981999 0.067261003
0.338196009 0.713012993 0.067780003
0.407683998 0.712952018 0.067626998
0.479828000 0.712859988 0.067261003
0.552887022 0.712616026 0.067230001
0.625060976 0.712311029 0.066895001
0.694733024 0.711944997 0.066711001
0.761260986 0.711516976 0.066161998
0.824554026 0.711059988 0.066161998
0.884949028 0.710570991 0.065613002
0.942902029 0.709960997 0.065033004
0.998138011 0.709351003 0.065033004
0.000000000 0.773163021 0.064514004
0.046021000 0.774779975 0.066132002
0.097442999 0.775574028 0.066711001
0.152252004 0.776122987 0.067230001
0.210540995 0.776427984 0.067261003
0.272460997 0.776610970 0.067780003
0.338317990 0.776703000 0.067780003
0.407837003 0.776672006 0.067780003
0.480010986 0.776520014 0.067626998
0.553070009 0.776305974 0.067261003
0.625213981 0.776062012 0.067230001
0.694945991 0.775695980 0.066711001
0.761443973 0.775299013 0.066528000
0.824738026 0.774841011 0.066161998
0.885101020 0.774384022 0.065613002
0.943023980 0.773773015 0.065094002
0.998322010 0.773163021 0.064727999
0.000000000 0.833679020 0.065033004
0.046021000 0.835174978 0.066132002
0.097473003 0.835937977 0.066711001
0.152344003 0.836456001 0.067230001
0.210663006 0.836760998 0.067780003
0.272614002 0.836914003 0.067780003
0.338562012 0.836974978 0.067780003
0.408111989 0.836944997 0.067780003
0.480224997 0.836822987 0.067780003
0.553252995 0.836638987 0.067780003
0.625397027 0.836364985 0.067230001
0.695128977 0.836028993 0.066711001
0.761627018 0.835663021 0.066711001
0.824859977 0.835265994 0.066161998
0.885254025 0.834747016 0.065613002
0.943207026 0.834228992 0.065094002
0.998444021 0.833679020 0.065215997
0.000000000 0.891205013 0.065033004
0.046082001 0.892609000 0.066223003
0.097838998 0.893311024 0.067199998
0.152495995 0.893828988 0.067780003
0.210814998 0.894104004 0.067780003
0.272826999 0.894317985 0.068176001
0.338744998 0.894348025 0.068328999
0.408295006 0.894286990 0.067809999
0.480437994 0.894164979 0.067780003
0.553466976 0.893950999 0.067780003
0.625640988 0.893737972 0.067261003
0.695312977 0.893401980 0.067230001
0.761810005 0.893065989 0.066711001
0.825103998 0.892638981 0.066588998
0.885375977 0.892242014 0.066161998
0.943390012 0.891692996 0.065613002
0.998627007 0.891205013 0.065430000
0.000000000 0.946289003 0.065094002
0.046082001 0.947661996 0.066680998
0.097900003 0.948364019 0.067230001
0.152770996 0.948791981 0.067780003
0.211060002 0.949036002 0.068207003
0.273070991 0.949158013 0.068328999
0.338988990 0.949218988 0.068328999
0.408538997 0.949218988 0.068328999
0.480652004 0.949096978 0.068053998
0.553710997 0.948943973 0.067780003
0.625885010 0.948729992 0.067780003
0.695556998 0.948424995 0.067261003
0.762054026 0.948059022 0.066711001
0.825255990 0.947722971 0.066711001
0.885619998 0.947296023 0.066161998
0.943572998 0.946807981 0.065613002
0.998809993 0.946319997 0.064606003
0.000000000 0.998992980 0.065094002
0.046021000 0.999846995 0.066132002
0.097870000 0.999877989 0.066803001
0.152557001 0.999877989 0.067322001
0.211394995 0.999877989 0.068451002
0.273315012 0.999877989 0.068512000
0.339325011 0.999877989 0.069335997
0.408782989 0.999877989 0.068389997
0.480926991 0.999877989 0.068480998
0.554046988 0.999877989 0.068451002
0.626190007 0.999877989 0.068604000
0.695708990 0.999877989 0.067199998
0.762145996 0.999877989 0.065459996
0.825469971 0.999877989 0.066895001
0.885864019 0.999846995 0.066680998
0.943755984 0.999450982 0.062500000
0.998961985 0.998961985 0.066559002
0.000000000 0.000000000 0.127685994
0.046112001 0.000000000 0.128997996
0.098113999 0.000793000 0.130005002
0.152344003 0.001434000 0.129943997
0.210968003 0.001587000 0.130493000
0.272675008 0.001587000 0.130554006
0.338683993 0.001587000 0.130768001
0.408172995 0.001587000 0.130768001
0.480347008 0.001587000 0.130431995
0.553435981 0.001587000 0.130309999
0.625580013 0.000885000 0.130156994
0.695312977 0.000793000 0.129730001
0.761780024 0.000793000 0.129271999
0.824981987 0.000000000 0.128937006
0.885315001 0.000000000 0.128387004
0.943359017 0.000000000 0.127991006
0.998596013 0.000000000 0.127379999
0.000000000 0.052002002 0.127105996
0.045380000 0.052703999 0.128296003
0.097046003 0.053955000 0.129242003
0.151794001 0.054047000 0.129302993
0.210297003 0.054625999 0.129883006
0.271941990 0.054625999 0.129943997
0.337830007 0.054625999 0.129883006
0.407440007 0.054625999 0.129883006
0.479645014 0.054625999 0.129883006
0.552765012 0.054320998 0.129851997
0.624907970 0.054016002 0.129425004
0.694489002 0.053955000 0.129150003
0.761138976 0.053801998 0.128845006
0.824370980 0.053314000 0.128356993
0.884705007 0.052703999 0.127991006
0.942749023 0.052062999 0.127379999
0.997986019 0.052062999 0.126800999
0.000000000 0.106567003 0.126221001
0.045380000 0.108276002 0.127991006
0.096984997 0.109283000 0.128876001
0.151519999 0.109406002 0.129271999
0.209808007 0.110077001 0.129577994
0.271851003 0.110077001 0.129791006
0.337738007 0.110106997 0.129883006
0.407074004 0.110077001 0.129668996
0.479218006 0.110077001 0.129577994
0.552307010 0.109741002 0.129394993
0.624481022 0.109406002 0.129271999
0.694182992 0.109222002 0.128845006
0.760742009 0.108887002 0.128387004
0.824036002 0.108306997 0.128051996
0.884459972 0.107941002 0.127654999
0.942412972 0.107543997 0.127045006
0.997741997 0.106841996 0.126464993
0.000000000 0.164489999 0.126464993
0.045380000 0.165894002 0.127716005
0.096619003 0.166778997 0.128601000
0.151458994 0.167266995 0.129210994
0.209564000 0.167541996 0.129271999
0.271605998 0.167754993 0.129577994
0.337401986 0.167754993 0.129577994
0.406859994 0.167754993 0.129577994
0.479003996 0.167632997 0.129363999
0.552155018 0.167541996 0.129271999
0.624207020 0.167083994 0.128937006
0.694000006 0.166840002 0.128631994
0.760468006 0.166503996 0.128325999
0.823882997 0.166077003 0.127959996
0.884247005 0.165619001 0.127379999
0.942322016 0.165160999 0.127045006
0.997588992 0.164673001 0.126464993
0.000000000 0.225036994 0.126221001
0.044647001 0.226531997 0.127685994
0.096344002 0.227325007 0.128325999
0.151458994 0.227997005 0.128937006
0.209534004 0.228302002 0.129271999
0.271454006 0.228485003 0.129517004
0.337311000 0.228515998 0.129517004
0.406677008 0.228394002 0.129363999
0.478789985 0.228332996 0.129271999
0.551880002 0.228088006 0.128997996
0.624114990 0.227782995 0.128845006
0.693848014 0.227448002 0.128539994
0.760497987 0.227051005 0.128264993
0.823700011 0.226653993 0.127716005
0.884186029 0.226135001 0.127350003
0.942139030 0.225525007 0.126800999
