public/lut/14.cube
TITLE "17x17x17 Adobe/IRIDAS cube 3D LUT exported with GrossGrade v0.2.2 (beta) 64 bit"
DOMAIN_MIN 0 0 0
DOMAIN_MAX 1 1 1
LUT_3D_SIZE 5
0.035486002 0.039429002 0.040217001
0.176251248 0.057899501 0.033909000
0.332442999 0.067578495 0.034697000
0.470070511 0.083799750 0.036274001
0.583225012 0.101089999 0.042516001
0.036865748 0.157591507 0.079341248
0.210732251 0.238675267 0.039820250
0.467605025 0.297892481 0.026417501
0.637088537 0.348630726 0.033119999
0.746435225 0.368454993 0.048461750
0.056194000 0.301761985 0.095080502
0.265059531 0.397540271 0.049829502
0.462019026 0.449151516 0.043989502
0.673045516 0.501322746 0.078717500
0.803799987 0.505302489 0.083792999
0.070398256 0.393421739 0.162710264
0.310268998 0.482964516 0.097394258
0.530323505 0.541743994 0.081908509
0.661610007 0.576852739 0.124023259
0.819829524 0.596681714 0.155635759
0.145068005 0.503816009 0.314971000
0.379855275 0.566902518 0.253896505
0.610479951 0.628261507 0.223462000
0.746996224 0.670055509 0.291216254
0.826601982 0.684395015 0.314271986
0.032331999 0.039626002 0.116436757
0.122887753 0.050852001 0.130386740
0.306525499 0.053002000 0.140553504
0.440194726 0.049838752 0.128454000
0.543732524 0.055881001 0.098294258
0.036077000 0.135185003 0.204247758
0.165789008 0.239027500 0.248969510
0.475553274 0.278650522 0.253660500
0.607367516 0.278652757 0.221542746
0.675255299 0.220005244 0.134810999
0.043447502 0.299879789 0.219834268
0.288160264 0.437338263 0.272787511
0.524327755 0.498002499 0.314611763
0.673654795 0.514007747 0.328605771
0.793476224 0.474368781 0.236705512
0.069060504 0.415306270 0.273372263
0.364787757 0.549350262 0.373058766
0.598208547 0.611752570 0.372939020
0.703660488 0.628754973 0.416780263
0.832370758 0.634974480 0.410662532
0.150334001 0.526825249 0.397029519
0.626764536 0.699462235 0.560732484
0.735742509 0.735305011 0.592735469
0.810260236 0.756921470 0.608806193
0.860092044 0.777336478 0.663404465
0.035091501 0.043634500 0.208891004
0.106231496 0.047419999 0.227596998
0.317737520 0.057129502 0.250805497
0.448337018 0.053002000 0.253973007
0.546716452 0.054614499 0.207566500
0.039823003 0.113483250 0.284196258
0.113460258 0.191976011 0.335311532
0.402656257 0.249414757 0.384238958
0.576058269 0.246769994 0.379149258
0.655172467 0.181276754 0.261516005
0.044371501 0.282679975 0.378407985
0.144200504 0.395244509 0.424267501
0.459176004 0.499930054 0.479286015
0.667205334 0.527540445 0.500575781
0.781934500 0.436815023 0.354470015
0.061637502 0.420748770 0.396125972
0.316442519 0.540537298 0.445661783
0.567720771 0.617552519 0.531950712
0.700247288 0.659440279 0.562349737
0.845983028 0.665572524 0.528453231
0.127491996 0.525403023 0.450158000
0.609724998 0.696430326 0.601749301
0.737277031 0.752519965 0.657283962
0.815863967 0.778236747 0.674612522
0.870769501 0.799815476 0.719329000
0.038640000 0.049838752 0.266403496
0.081538998 0.048983250 0.279047251
0.311424017 0.057129502 0.326378495
0.463824034 0.062371749 0.337227494
0.554260969 0.069333754 0.323143005
0.040994000 0.098899506 0.321938515
0.078791507 0.144486487 0.355098248
0.284075260 0.170635998 0.399953514
0.546233475 0.234793007 0.448983490
0.656409502 0.214322001 0.410676509
0.044737998 0.236935258 0.411815494
0.095864512 0.325025260 0.456127733
0.405529261 0.463548005 0.524469256
0.623359561 0.519165218 0.575412750
0.772397280 0.455584288 0.521207511
0.055092499 0.400625765 0.488426507
0.190929264 0.509136558 0.528060496
0.486504287 0.597748995 0.581497729
0.666418254 0.668275297 0.630090475
0.854003727 0.681238770 0.651247799
0.149403498 0.549475729 0.529099524
0.572413445 0.688445210 0.624768257
0.717688501 0.748654962 0.686120272
0.816890001 0.797820985 0.736486971
0.883698285 0.823428750 0.770362496
0.040994000 0.053002000 0.299883008
0.066035502 0.049497999 0.307354510
0.250922024 0.056508001 0.361129999
0.463756502 0.073132500 0.404588521
0.563947976 0.085170001 0.412901014
0.042516001 0.080765501 0.336884499
0.057431750 0.095370501 0.350115508
0.166774035 0.099284001 0.382086515
0.449588507 0.155049503 0.453251749
0.667361021 0.280011505 0.520176768
0.044737998 0.179216012 0.407911509
0.059404001 0.199157238 0.427452028
0.200372532 0.228391021 0.459780484
0.480711788 0.304617524 0.532626271
0.764483988 0.529323459 0.644373536
0.052510753 0.334230244 0.499061495
0.098923758 0.385146737 0.523706019
0.330073029 0.477597773 0.581499040
0.610330760 0.569611251 0.654430509
0.836236238 0.709380507 0.747146249
0.084261000 0.502573013 0.569796026
0.442299247 0.659864545 0.650464773
0.631320000 0.724558473 0.707813025
0.762631536 0.784455299 0.767526746
0.892401993 0.847171009 0.831686974
