public/lut/14.cube
TITLE "17x17x17 Adobe/IRIDAS cube 3D LUT exported with GrossGrade v0.2.2 (beta) 64 bit"
DOMAIN_MIN 0 0 0
DOMAIN_MAX 1 1 1
LUT_3D_SIZE 17
0.035486002 0.039429002 0.040217001
0.051251750 0.042420875 0.037901249
0.086452380 0.046622749 0.035584502
0.131867886 0.053282563 0.034697000
0.176251248 0.057899501 0.033909000
0.219363436 0.061274562 0.033909000
0.259105027 0.064308003 0.034401499
0.296540469 0.066202000 0.034253750
0.332442999 0.067578495 0.034697000
0.368409663 0.071516752 0.034697000
0.403543860 0.075355873 0.035486002
0.436587691 0.078919940 0.035486002
0.470070511 0.083799750 0.036274001
0.502225697 0.090703383 0.037999753
0.532688022 0.096009627 0.039527506
0.559839249 0.099595636 0.041041814
0.583225012 0.101089999 0.042516001
0.037852000 0.054005876 0.046090811
0.056330312 0.061183751 0.042516001
0.100341566 0.071778007 0.037901253
0.156064510 0.082813933 0.033366438
0.208188385 0.091518253 0.031543002
0.256897241 0.100011379 0.030803312
0.300180584 0.105807252 0.030803312
0.341622084 0.111120060 0.030360064
0.381129771 0.117227688 0.030064562
0.417852193 0.123442188 0.029719375
0.453063607 0.129566759 0.029324876
0.488220334 0.137045503 0.029275563
0.522576511 0.145429492 0.030064562
0.553771377 0.153548315 0.031641565
0.582056940 0.159556016 0.033218563
0.608626664 0.164919138 0.034844879
0.629483402 0.163955316 0.037112311
0.037852000 0.082660623 0.058725376
0.059476126 0.094121188 0.055796374
0.106352121 0.111045375 0.044646371
0.162327334 0.125981122 0.039379627
0.224876001 0.139817625 0.033317126
0.285502553 0.152034253 0.029177001
0.333460271 0.161999494 0.028487498
0.377856344 0.170462191 0.027255373
0.421569169 0.179074377 0.024938624
0.461300194 0.188895643 0.024544500
0.498427510 0.198452741 0.024544500
0.534098268 0.208149567 0.024544500
0.569694042 0.219636008 0.026023000
0.602027595 0.230982214 0.028388999
0.631446242 0.240115866 0.030754000
0.656022310 0.243746370 0.032381251
0.675523996 0.241266996 0.034697000
0.037210938 0.119216129 0.073064744
0.051506437 0.127971947 0.069029629
0.096571870 0.150864631 0.060310248
0.154155150 0.170527086 0.044873931
0.223273993 0.188144267 0.037506558
0.289037824 0.202473313 0.032282561
0.348769516 0.215185136 0.028536748
0.400763094 0.226846695 0.026022999
0.447442502 0.238362879 0.024445999
0.492312193 0.251700878 0.023657000
0.532983720 0.264332920 0.025086250
0.570605993 0.275376320 0.025875064
0.607813954 0.287319690 0.027649501
0.641686082 0.300716370 0.031395253
0.671767116 0.309618473 0.034499943
0.695645332 0.311933517 0.036816627
0.713996768 0.308065116 0.038985379
0.036865748 0.157591507 0.079341248
0.054234810 0.172108889 0.073584810
0.094424248 0.195210129 0.067370743
0.147679269 0.220615074 0.052749120
0.210732251 0.238675267 0.039820250
0.278870642 0.253472567 0.034204561
0.351991266 0.270960391 0.032430496
0.412518799 0.283979386 0.028339500
0.467605025 0.297892481 0.026417501
0.514292657 0.311699241 0.027205750
0.558059156 0.324701488 0.029078627
0.599378467 0.337308824 0.031148752
0.637088537 0.348630726 0.033119999
0.669429064 0.360014915 0.037753195
0.699612021 0.368271232 0.041271131
0.726023674 0.372227848 0.045002569
0.746435225 0.368454993 0.048461750
0.042040374 0.196110308 0.081803441
0.062192313 0.213647187 0.076104246
0.106262505 0.240082562 0.069098502
0.160495758 0.265953213 0.054999623
0.218631133 0.286665380 0.041512940
0.278291821 0.299603432 0.035732251
0.336541802 0.311895072 0.032331999
0.412013024 0.331601828 0.032873750
0.473307014 0.345481813 0.032232873
0.525525570 0.360259950 0.033760939
0.570033371 0.373472691 0.036323626
0.614418983 0.387116194 0.038689625
0.655421853 0.398222327 0.041220129
0.690152586 0.408706188 0.045766316
0.720846474 0.417452455 0.051673129
0.749363184 0.422880679 0.055478379
0.769765675 0.418357313 0.058086377
0.048464127 0.236082390 0.083630502
0.071190067 0.255570948 0.078042001
0.119498380 0.281956136 0.070726000
0.176160768 0.308404267 0.056766745
0.233922884 0.330588520 0.043720253
0.292745024 0.347089529 0.036520563
0.347449899 0.358313143 0.033119999
0.394793600 0.366827995 0.033119999
0.466565251 0.384835511 0.036274500
0.526743710 0.401147336 0.042272501
0.577955425 0.414377272 0.045353752
0.621109605 0.425208658 0.048147254
0.661835790 0.435403258 0.051668756
0.699629664 0.445565432 0.056489322
0.733622551 0.452575237 0.061189380
0.761768639 0.455862641 0.064866386
0.784613729 0.451896489 0.065358631
0.053367063 0.271560967 0.087268688
0.079091996 0.293240279 0.080977440
0.131811500 0.318858355 0.073517941
0.189936072 0.345051467 0.059068687
0.249590322 0.368089855 0.045722872
0.309371054 0.387213647 0.036175501
0.364827842 0.401487648 0.034647752
0.408697695 0.409649581 0.035584066
0.451143771 0.416730553 0.037112318
0.516535819 0.433166385 0.045268063
0.578287780 0.449369311 0.055361692
0.626916885 0.460754782 0.059238195
0.668244720 0.470076740 0.064427696
0.705886483 0.478789836 0.069175139
0.740939438 0.483402550 0.072865881
0.771329045 0.484217763 0.074085452
0.794610441 0.479618192 0.074054129
0.056194000 0.301761985 0.095080502
0.084052250 0.323686600 0.088420004
0.141120121 0.349522114 0.079753377
0.203202337 0.375087261 0.063835308
0.265059531 0.397540271 0.049829502
0.325025946 0.416850150 0.039921314
0.378713280 0.431836754 0.038640503
0.425477386 0.443176508 0.040643252
0.462019026 0.449151516 0.043989502
0.500877023 0.456240863 0.046790875
0.564469755 0.473291993 0.057425626
0.623938441 0.490299106 0.070077941
0.673045516 0.501322746 0.078717500
0.711198926 0.508279622 0.083201572
0.746392369 0.512898505 0.087826997
0.778867960 0.512179673 0.086220875
0.803799987 0.505302489 0.083792999
0.060722999 0.328396678 0.106007628
0.086932003 0.348261744 0.099241376
0.146310017 0.375053316 0.090425499
0.213547200 0.400631696 0.073056862
0.280077755 0.423169374 0.056538876
0.339299142 0.441724569 0.046042439
0.392619312 0.456830442 0.044503935
0.439794004 0.470315397 0.045770999
0.476712376 0.478662461 0.051551122
0.511295378 0.484694481 0.056298561
0.549529374 0.492214859 0.059768941
0.609932363 0.508364141 0.073811561
0.668890595 0.523835003 0.089176625
0.711587906 0.532265782 0.097050510
0.748777568 0.537416160 0.102858938
0.782727122 0.538047194 0.103647247
0.811292589 0.529779553 0.094456501
0.062444124 0.351173252 0.120568499
0.090564631 0.370543629 0.112376377
0.151137248 0.397690892 0.103104502
0.221522644 0.422956198 0.084806055
0.292106271 0.445436239 0.064785376
0.354180425 0.463270366 0.051722310
0.407261550 0.477751732 0.050425377
0.453304589 0.491031617 0.052131504
0.494367629 0.502614141 0.056794625
0.528499901 0.510101557 0.064394437
0.562029839 0.517024755 0.070702121
0.596231163 0.524237573 0.078466997
0.656212151 0.540050387 0.095979497
0.708425820 0.553200722 0.110392705
0.749614477 0.558986723 0.119735882
0.784690142 0.559953034 0.121776626
0.814651370 0.551182508 0.109512746
0.063737936 0.371643484 0.138352692
0.093621872 0.390273809 0.128545254
0.156566635 0.418417513 0.119487815
0.228896007 0.442577302 0.100960679
0.300732493 0.464783192 0.077889375
0.366016626 0.482630014 0.061478876
0.422602296 0.497174114 0.058761191
0.467285365 0.510022283 0.062285565
0.509357393 0.522548914 0.066935189
0.545477390 0.532763958 0.075104006
0.578157544 0.540271640 0.083587997
0.609887779 0.547116876 0.092671126
0.643693924 0.554836512 0.103058934
0.700553954 0.569589436 0.124136835
0.751194596 0.580684900 0.139961302
0.786455810 0.581302047 0.142285615
0.816764534 0.572950602 0.129188746
0.070398256 0.393421739 0.162710264
0.096014872 0.408557951 0.151529074
0.163980007 0.437124789 0.140680254
0.239094898 0.461061180 0.122431755
0.310268998 0.482964516 0.097394258
0.377045691 0.501307607 0.078860819
0.440105259 0.516358256 0.072924756
0.488000154 0.529201865 0.076207563
0.530323505 0.541743994 0.081908509
0.568448544 0.553605676 0.092063755
0.604269266 0.563603580 0.103109635
0.636075616 0.570960522 0.113371007
0.661610007 0.576852739 0.124023259
0.692898571 0.584636688 0.138446778
0.747488916 0.598812401 0.160867646
0.788333356 0.603075504 0.165813446
0.819829524 0.596681714 0.155635759
0.079548076 0.416448832 0.192151040
0.099804632 0.426790506 0.179598972
0.172483131 0.455248028 0.166636899
0.252008796 0.479437083 0.148445711
0.322765827 0.501379848 0.122144468
0.388758183 0.519562244 0.102649778
0.454217046 0.535145462 0.093481652
0.508537233 0.548176050 0.094434649
0.549850702 0.560624003 0.102783650
0.586823463 0.572393537 0.114845581
0.623987973 0.583417773 0.127307966
0.657268584 0.592854142 0.140025780
0.679091573 0.598190248 0.152431667
0.702532172 0.603562117 0.164929420
0.741063714 0.613078833 0.179839551
0.790043533 0.623860002 0.195388481
0.823826909 0.621946037 0.189561278
0.092367023 0.440809011 0.224307030
0.108881272 0.447562486 0.210280910
0.179838270 0.473103166 0.195857406
0.263512611 0.497218639 0.179105103
0.335159540 0.519841969 0.150988400
0.402081639 0.538426042 0.131160647
0.468243688 0.554577827 0.120057285
0.526636541 0.567964077 0.120254338
0.572309017 0.580932140 0.129188538
0.609971285 0.592930734 0.143694714
0.646587133 0.604445100 0.159623161
0.680509865 0.615127385 0.175682992
0.705889881 0.622606337 0.191860795
0.727110147 0.627611101 0.206028312
0.749766409 0.632394731 0.215407312
0.788908660 0.641457736 0.228893280
0.826959908 0.643534899 0.226700544
0.114392705 0.469928831 0.266248107
0.128506899 0.473787904 0.251312762
0.197288767 0.495916069 0.236397162
0.283112288 0.518523932 0.220683977
0.356851697 0.541880310 0.192932054
0.424338669 0.560787141 0.168672249
0.488899738 0.576949179 0.156831980
0.546249092 0.590477347 0.158683807
0.594124675 0.603548586 0.168251291
0.635497510 0.615341425 0.181696296
0.668195844 0.626173139 0.199447110
0.697948277 0.636449754 0.218409285
0.728090048 0.646960616 0.238868237
0.750997663 0.653046608 0.254179478
0.768970370 0.655855596 0.261747599
0.790538311 0.659618795 0.267570645
0.828549922 0.664652407 0.267785519
0.145068005 0.503816009 0.314971000
0.161059633 0.506482720 0.299573302
0.226972505 0.525802851 0.288464516
0.304459035 0.545528829 0.275458068
0.379855275 0.566902518 0.253896505
0.446976364 0.585696936 0.226465255
0.510283887 0.602269232 0.209633380
0.562188327 0.614948452 0.212641448
0.610479951 0.628261507 0.223462000
0.654291928 0.639912605 0.235611930
0.687572479 0.649734497 0.249677002
0.716242731 0.659502029 0.268823683
0.746996224 0.670055509 0.291216254
0.772042751 0.677819908 0.307416320
0.790653884 0.681135476 0.313746005
0.811234951 0.684116423 0.318007708
0.826601982 0.684395015 0.314271986
0.034697000 0.038640000 0.048117064
0.045231499 0.040945437 0.048764877
0.074114442 0.043170501 0.047371563
0.116283320 0.048768185 0.047979627
0.159251258 0.052919753 0.048590001
0.201517820 0.055880502 0.049406126
0.242745012 0.057515439 0.048241876
0.279983401 0.058128878 0.048025936
0.315883458 0.057821877 0.047325250
0.349411130 0.058432877 0.046618499
0.381859124 0.059640877 0.047325250
0.412517250 0.061420504 0.047371563
0.443568498 0.063842997 0.047417376
0.475625157 0.068255380 0.048071750
0.506712377 0.073421314 0.048161939
0.533734024 0.075974561 0.048896942
0.558431923 0.077395938 0.048854187
0.034746312 0.050806001 0.058267314
0.049406126 0.059438873 0.061731249
0.090103619 0.066110440 0.058217753
0.148358524 0.073503375 0.051461563
0.204881623 0.079324938 0.046750501
0.249297932 0.083556563 0.047325250
0.292830288 0.087530680 0.047979627
0.333515614 0.092411630 0.049058504
0.371427953 0.097003184 0.050042685
0.406071067 0.099997625 0.050042685
0.440295100 0.104425006 0.050042685
0.473679960 0.110255815 0.051386375
0.504335642 0.115552813 0.051595625
0.532274365 0.119385809 0.052093688
0.557855844 0.121416934 0.051390748
0.581369281 0.122420818 0.050849628
0.602137506 0.120741807 0.050849628
0.034746312 0.077150375 0.075727060
0.049493439 0.089161366 0.079540186
0.090501502 0.105037563 0.074442878
0.158891529 0.119298562 0.062883377
0.227361873 0.129362568 0.054508936
0.286270022 0.137956560 0.049221940
0.336383224 0.145071924 0.047837749
0.379056036 0.151165262 0.047619622
0.418601334 0.156893998 0.047928751
0.455677956 0.162282765 0.046918999
0.489620596 0.167284504 0.046610996
0.522474110 0.174196690 0.047318000
0.552857518 0.180105627 0.048022814
0.580767989 0.185318753 0.048022814
0.604881942 0.185973451 0.047412064
0.625425816 0.184012562 0.046843186
0.642887712 0.177851260 0.048114937
0.035535250 0.114954256 0.094412439
0.047984499 0.132387593 0.094465315
0.090135567 0.154363081 0.088347249
0.159254134 0.177455589 0.074128307
0.235082060 0.193186268 0.066613622
0.302402496 0.204410642 0.058353689
0.366659939 0.214994937 0.051029623
0.415524870 0.224007562 0.049126815
0.457875282 0.232200578 0.047789186
0.497776866 0.239302829 0.045207255
0.534793258 0.247585699 0.044530187
0.569335878 0.255956531 0.045981187
0.600789547 0.263146400 0.047046810
0.628428042 0.268498212 0.047183380
0.652057111 0.268512100 0.047230437
0.671693802 0.264465958 0.047935564
0.686839521 0.254004449 0.047938686
0.035338063 0.154268011 0.105836749
0.050374065 0.177059814 0.101587124
0.093145192 0.201413065 0.096145190
0.162171826 0.230091438 0.083660677
0.234216616 0.249040574 0.071583807
0.299537659 0.260501564 0.067263626
0.369101971 0.271522313 0.059897933
0.428641528 0.284163743 0.055285752
0.480678946 0.294991493 0.053615000
0.521680892 0.301993072 0.052633375
0.560674965 0.310203403 0.051230438
0.598838687 0.321463585 0.052554816
0.631387651 0.329197377 0.054183189
0.659520388 0.333690405 0.055649314
0.685418010 0.335303336 0.055736132
0.708273530 0.333237141 0.055863317
0.723474801 0.320827693 0.054119878
0.038442999 0.194404185 0.108176500
0.058511000 0.222969368 0.101907246
0.110826753 0.255534351 0.095384993
0.181741759 0.285037696 0.080977812
0.254833072 0.309194952 0.064566374
0.309247881 0.318574131 0.066066816
0.361841351 0.324912369 0.067670621
0.431821465 0.337525249 0.065316439
0.488067657 0.348128080 0.063292377
0.537456214 0.358732760 0.062420435
0.577913404 0.366261423 0.061944995
0.615831137 0.374752611 0.064993434
0.650273442 0.382714123 0.067800440
0.682049334 0.388479799 0.067838505
0.707854629 0.389227331 0.067988127
0.731860816 0.386722863 0.066808686
0.751121819 0.376163602 0.064189188
0.042279437 0.232858256 0.108086683
0.070191130 0.268178314 0.102532573
0.131073385 0.304684401 0.095129251
0.204777211 0.333903849 0.075982742
0.282532275 0.359109819 0.056650188
0.340254366 0.371830404 0.055430502
0.382269979 0.376810938 0.063130692
0.421489865 0.380919278 0.070344187
0.490426034 0.396216512 0.073427379
0.542829752 0.406453013 0.075377382
0.588652790 0.415091217 0.076187067
0.627481461 0.422991514 0.080676503
0.663956463 0.430434138 0.083278880
0.698608875 0.436299801 0.083597317
0.727002621 0.436854035 0.083125129
0.751025677 0.433144212 0.081428185
0.771992624 0.423562467 0.076607510
0.045911752 0.267500728 0.111224435
0.078149252 0.305390626 0.107511878
0.143835872 0.341552377 0.099458374
0.219062254 0.370168895 0.079769686
0.298772961 0.395717084 0.058572132
0.363841116 0.412640989 0.053795185
0.403907835 0.419313163 0.060543813
0.440008581 0.423547834 0.071368448
0.476537943 0.429049700 0.079480506
0.540144801 0.442945510 0.086357944
0.590765297 0.452370584 0.092007816
0.633874178 0.461135089 0.095770001
0.671775758 0.468618512 0.101166762
0.706313193 0.473608971 0.103151754
0.739093006 0.475152880 0.099890694
0.766981959 0.472011328 0.095187441
0.788130283 0.463310897 0.091050379
0.047988623 0.299111515 0.118525498
0.079810880 0.333402455 0.116511188
0.149891317 0.370065719 0.108325198
0.229719952 0.398708522 0.086326562
0.308342040 0.423228949 0.064613447
0.375992388 0.442034572 0.056452002
0.428034902 0.454517275 0.057986878
0.463763118 0.460507900 0.068553634
0.497278959 0.466468245 0.081180632
0.527996063 0.471328646 0.093312003
0.586050689 0.484411627 0.103584751
0.636810362 0.494569212 0.114359379
0.676850438 0.500965655 0.120323263
0.712075472 0.505928218 0.123876691
0.746071160 0.507528961 0.119885117
0.777161539 0.503534019 0.111326560
0.800037324 0.493093997 0.103046000
0.052303065 0.328639925 0.129987314
0.081505999 0.358026296 0.129157186
0.151039004 0.393995672 0.121458933
0.235522836 0.422795177 0.099484742
0.316553116 0.447620571 0.074894316
0.383455426 0.466220021 0.064671814
0.438619316 0.480047286 0.064840004
0.484768420 0.490965009 0.068678260
0.519926906 0.498747706 0.081072941
0.550582051 0.504449844 0.095966130
0.575972319 0.509365737 0.113656506
0.632202446 0.522138953 0.128919929
0.680443347 0.531660855 0.140897363
0.716269314 0.535286069 0.145446450
0.751081347 0.536768019 0.143305421
0.783104360 0.532839656 0.134962797
0.809756637 0.519957304 0.116372123
0.057321064 0.354172289 0.145961434
0.083168373 0.379512906 0.145121500
0.152054697 0.413875759 0.137616247
0.240174055 0.442898154 0.116975620
0.324632049 0.468141198 0.087898307
0.394140542 0.486680627 0.073746316
0.448975325 0.500196517 0.074370869
0.497588426 0.512355268 0.077443875
0.536043763 0.521771789 0.083536506
0.568913341 0.530380607 0.101826251
0.594122231 0.536170900 0.122802183
0.620798051 0.541977942 0.140833125
0.675306320 0.555644274 0.158589989
0.719572306 0.563223779 0.169549078
0.754612386 0.563650370 0.169771492
0.787527204 0.560673058 0.162192822
0.816161633 0.547714055 0.138352051
0.062186439 0.376844078 0.166296884
0.083914563 0.398151696 0.165210575
0.154279500 0.431669056 0.156786680
0.244176000 0.460167497 0.137922674
0.330018520 0.485788852 0.106404126
0.403840065 0.504791021 0.086898193
0.460608482 0.518436551 0.086793371
0.509522796 0.530751348 0.091143876
0.551688373 0.541603386 0.096749820
0.582617879 0.550345242 0.109243810
0.613591850 0.559521258 0.135556757
0.638407290 0.565774918 0.159192502
0.664672017 0.571948290 0.175568625
0.716846406 0.584359169 0.193902269
0.756135523 0.587745845 0.197518125
0.790337324 0.586094499 0.191035867
0.820630848 0.575443327 0.168407887
0.069465503 0.399658740 0.191932067
0.089389130 0.417533576 0.191405386
0.159301057 0.449248463 0.182103693
0.252319783 0.476779312 0.163557366
0.337371141 0.502946258 0.131923705
0.413577616 0.522715628 0.109126247
0.478509903 0.537391543 0.104719073
0.527470291 0.549658120 0.109326884
0.568578482 0.560629904 0.116709068
0.602699935 0.570747197 0.128688455
0.633486032 0.580093861 0.148132190
0.660058975 0.588334918 0.177767813
0.681106925 0.593951881 0.198462322
0.707273841 0.600003362 0.216806337
0.755757332 0.609445035 0.227097258
0.792103887 0.609139860 0.222820893
0.823536575 0.601630747 0.205033690
0.079213262 0.423565090 0.222076222
0.098940328 0.438030988 0.221268654
0.166496769 0.467679381 0.213955462
0.263371110 0.494379014 0.195926905
0.345752954 0.520089626 0.165236160
0.418938637 0.539948523 0.141395837
0.485732764 0.555419862 0.133371711
0.542752743 0.568456709 0.134179652
0.582201362 0.578787804 0.142012224
0.616497636 0.589325666 0.155488461
0.648661852 0.598935187 0.168890327
0.677247822 0.608745456 0.194389403
0.699580848 0.615977585 0.222589210
0.719117463 0.620789766 0.243748471
0.749159098 0.626604140 0.257944524
0.793290615 0.631344676 0.260964960
0.826758981 0.628149867 0.245800465
0.094965830 0.449880123 0.254599661
0.113171957 0.460686833 0.253240705
0.181325406 0.488947451 0.248801857
0.280144304 0.514357567 0.229573473
0.361992538 0.539711654 0.201883912
0.433671862 0.559539497 0.177347854
0.499728411 0.575405002 0.167781040
0.558527231 0.588464558 0.167629674
0.604538321 0.600118816 0.175395593
0.640000224 0.610777140 0.190507665
0.670439005 0.620327055 0.205670685
0.695881546 0.628118038 0.218674153
0.723889410 0.638923585 0.252600163
0.744431376 0.645184040 0.278932571
0.757576704 0.647352934 0.292537361
0.792729259 0.653464317 0.301938921
0.828160703 0.652591050 0.289211750
0.119512595 0.479935586 0.293873131
0.136104912 0.487110227 0.290322363
0.205570847 0.513458550 0.287780523
0.304395795 0.538157523 0.269940257
0.386720657 0.562171280 0.244870484
0.456153154 0.581391335 0.218000233
0.519651473 0.597139955 0.208803535
0.573994458 0.610082030 0.211523920
0.622919440 0.622419477 0.219426289
0.661941826 0.632986963 0.232351929
0.688691914 0.641464174 0.247686177
0.712091208 0.648925245 0.261218786
0.739064276 0.657897770 0.281614900
0.765734911 0.668242455 0.316175967
0.779565632 0.671513557 0.333397299
0.795848966 0.674248815 0.343569219
0.828807831 0.676100254 0.337561548
0.151705503 0.513363242 0.339913368
0.163327381 0.516206145 0.333913982
0.236331686 0.540592134 0.331370682
0.322249204 0.561878085 0.319971919
0.406942934 0.584625661 0.300956607
0.475374013 0.604196250 0.275875509
0.537072778 0.620371103 0.261460006
0.589994967 0.633227110 0.264776319
0.637433112 0.645136714 0.273358166
0.677968681 0.655203581 0.284737110
0.708323359 0.663773298 0.297320604
0.732171834 0.671187103 0.311507225
0.756497204 0.678756595 0.325446069
0.783683658 0.689663351 0.354049921
0.802762449 0.696842670 0.379761100
0.815351248 0.698820531 0.389981687
0.829233289 0.698675573 0.388332367
0.032430500 0.037852000 0.064923748
0.042369813 0.040118437 0.067586623
0.064432874 0.044646375 0.069781497
0.097818509 0.048031125 0.072173066
0.142157257 0.050178248 0.075195380
0.189440444 0.053529315 0.076506130
0.232488513 0.055646498 0.076878875
0.274840057 0.055646498 0.075417563
0.313154250 0.055646498 0.072978243
0.347475439 0.056274001 0.070699371
0.379532635 0.056897376 0.068975501
0.409325182 0.056702375 0.067075871
0.438971996 0.057282381 0.066459998
0.468467325 0.060795374 0.065558746
0.497481406 0.063736379 0.064291365
0.523814023 0.065956503 0.061781377
0.548214912 0.068120874 0.060162622
0.033859689 0.050087560 0.079510689
0.044000626 0.055908188 0.083087757
0.071191378 0.062860683 0.089593939
0.120997585 0.067287564 0.085274629
0.179323509 0.072021194 0.079692811
0.230689004 0.075216189 0.077307001
0.274567902 0.077630378 0.077595942
0.315274596 0.080340937 0.075714499
0.352979898 0.082103625 0.073864184
0.385906368 0.082103625 0.072458938
0.417168736 0.084122308 0.071190938
0.449258864 0.088624127 0.070006751
0.477993459 0.091537438 0.068574689
0.504632950 0.092488691 0.067557186
0.530004859 0.094296053 0.064927876
0.555165887 0.095919438 0.061155878
0.577223480 0.094715558 0.059448000
0.033119999 0.072270125 0.098352626
0.041803002 0.083185434 0.104387440
0.074691877 0.100279249 0.109807253
0.139032573 0.114777386 0.111060880
0.210694745 0.122582503 0.101631500
0.271891624 0.127688184 0.094494686
0.321681261 0.132785514 0.093011498
0.367071390 0.136911944 0.091653064
0.409795642 0.140391633 0.088706374
0.447729915 0.145539552 0.088793933
0.479663730 0.148682266 0.086286627
0.509645343 0.151679680 0.084882997
0.535946488 0.153020620 0.080958001
0.562714219 0.156216130 0.078820869
0.585095704 0.155166507 0.075137995
0.602691889 0.148022637 0.068713121
0.620267272 0.140799001 0.065145627
0.033909000 0.109431133 0.123738818
0.041707434 0.125131518 0.125331804
0.075992122 0.148570821 0.130141616
0.135709822 0.169910580 0.132265002
0.220523372 0.183296263 0.124365628
0.294545382 0.193917572 0.113559753
0.357458651 0.202246830 0.106144436
0.410146147 0.209584579 0.101266496
0.454874933 0.213474333 0.096047997
0.493276477 0.218404055 0.095454380
0.527832627 0.223212391 0.092106499
0.558850050 0.226982385 0.090279691
0.584790289 0.227243900 0.085945688
0.610001922 0.229351833 0.084158495
0.631736279 0.226553261 0.079106748
0.647578180 0.214623868 0.071413934
0.661528349 0.201055527 0.065524004
0.034697000 0.150868505 0.134794503
0.042977124 0.169315830 0.131727561
0.081235006 0.199616760 0.136356369
0.148920387 0.228590891 0.139524624
0.222080007 0.248620883 0.132378876
0.300834298 0.261126518 0.130101055
0.369699299 0.271285474 0.121976495
0.432129383 0.283034325 0.113979131
0.484246492 0.290543675 0.108210877
0.524724722 0.296189517 0.105990127
0.561757505 0.301985234 0.100919880
0.596205413 0.308066666 0.097881377
0.625054121 0.309904754 0.094592996
0.651615858 0.311246961 0.092652179
0.674225628 0.307314485 0.086816370
0.690674663 0.294254839 0.076547682
