public/lut/15.cube
TITLE "17x17x17 Adobe/IRIDAS cube 3D LUT exported with GrossGrade v0.2.2 (beta) 64 bit"
DOMAIN_MIN 0 0 0
DOMAIN_MAX 1 1 1
LUT_3D_SIZE 5
0.011829000 0.007886000 0.003943000
0.518557250 0.050178248 0.021883000
0.571133494 0.054614499 0.023657000
0.582247019 0.055567998 0.023657000
0.580722988 0.055567998 0.023657000
0.011829000 0.208563000 0.003943000
0.086705752 0.214849994 0.003943000
0.406978756 0.323870510 0.003943000
0.613333225 0.285525978 0.017743001
0.688995481 0.267468244 0.023854250
0.020108504 0.327714026 0.003943000
0.157398254 0.348399013 0.003943000
0.226071000 0.363307536 0.003943000
0.534006000 0.461777270 0.003943000
0.753197491 0.456850529 0.012223000
0.116033763 0.459539235 0.005520000
0.269046009 0.483036280 0.003943000
0.339617252 0.498608500 0.003943000
0.424347758 0.518328011 0.003943000
0.678883016 0.590086758 0.003943000
0.291608989 0.572857976 0.022869000
0.395817757 0.589618981 0.003943000
0.456533998 0.602603495 0.003943000
0.510644972 0.613323212 0.003943000
0.595107973 0.629002988 0.003943000
0.011829000 0.135571003 0.336995006
0.213145256 0.040799752 0.149202496
0.421062261 0.023854502 0.040555000
0.578231514 0.044890001 0.026812002
0.606719017 0.055249497 0.026614750
0.011829000 0.270972490 0.338637769
0.139651000 0.285641491 0.281620026
0.505558729 0.302316278 0.261749744
0.683712006 0.267804742 0.173002005
0.727577746 0.242759496 0.108257003
0.011829000 0.399771005 0.321280509
0.142455503 0.428344011 0.294713020
0.386173725 0.451071262 0.276468754
0.650512278 0.476460755 0.236588508
0.761126518 0.471717775 0.236400262
0.012617505 0.525977492 0.315230757
0.239888519 0.557246506 0.293387771
0.434601754 0.580177665 0.261957228
0.531486511 0.591575742 0.263235480
0.780230999 0.649443030 0.268117249
0.197836757 0.624626994 0.324411750
0.432974994 0.672443271 0.394212753
0.537710965 0.687813997 0.397055477
0.651553035 0.705612719 0.418489754
0.714125752 0.723237514 0.504189491
0.011829000 0.248501509 0.478547513
0.018728746 0.062935248 0.298689753
0.402043998 0.084011003 0.325098991
0.539152503 0.079682261 0.165841758
0.639928460 0.029571500 0.135754019
0.011829000 0.364293516 0.501333773
0.114361510 0.386042744 0.474371552
0.287152022 0.325583994 0.421364009
0.603007793 0.339824498 0.362998009
0.745345950 0.265286773 0.320039511
0.011829000 0.436623514 0.515142918
0.077970996 0.465579510 0.508836746
0.368929029 0.488384008 0.483548492
0.671886802 0.490105748 0.467352509
0.796710014 0.459410012 0.404084504
0.011829000 0.562086225 0.510703921
0.176363766 0.593305290 0.503495514
0.408903778 0.616513968 0.492161512
0.614510536 0.634125769 0.479481280
0.772752523 0.638248503 0.474237263
0.154125512 0.660187483 0.507872462
0.414065719 0.692930579 0.527930975
0.529817998 0.708192468 0.527203560
0.671116769 0.725256801 0.529384255
0.732898474 0.734089494 0.575449467
0.011829000 0.345829517 0.569176793
0.011829000 0.123333260 0.437687010
0.131369516 0.135954753 0.426185280
0.562843204 0.154109761 0.412604541
0.652336955 0.169758767 0.278314233
0.011829000 0.445686013 0.594786048
0.043663256 0.470370263 0.599149704
0.260533780 0.382084012 0.565797269
0.529486775 0.382625759 0.542831004
0.702901244 0.390119255 0.435949028
0.011829000 0.508021235 0.613761723
0.091508761 0.549643517 0.622817278
0.399555266 0.572230995 0.617871761
0.525619745 0.516708553 0.577463031
0.743921220 0.518499494 0.526229024
0.011829000 0.587041736 0.632269025
0.150134265 0.619225264 0.639648497
0.397536039 0.640304804 0.639756262
0.587649584 0.657412052 0.620335996
0.791839004 0.648318231 0.611782968
0.056027748 0.681474030 0.639961481
0.417901516 0.711341262 0.645120740
0.532116771 0.726809740 0.648161292
0.667641521 0.739930272 0.645620227
0.757086992 0.743568242 0.651466489
0.011829000 0.419452012 0.621514022
0.011829000 0.234525755 0.561113715
0.053732011 0.179922998 0.487242997
0.422854036 0.233553752 0.543891490
0.676301003 0.227581993 0.434083015
0.011829000 0.508325458 0.653075457
0.062885001 0.533248246 0.675201058
0.268947244 0.445112497 0.643757463
0.383863777 0.396247000 0.582368255
0.704105496 0.427711993 0.569804490
0.011829000 0.568282485 0.675381005
0.074075252 0.615637481 0.691125512
0.420001507 0.631081462 0.692910075
0.515434742 0.545513034 0.647968531
0.726665974 0.556741953 0.636400521
0.011829000 0.626731515 0.695984006
0.201700523 0.663480997 0.704052508
0.439985991 0.688656271 0.703711987
0.649558008 0.709784985 0.696965992
0.726778984 0.671165705 0.669873714
0.080536000 0.694881976 0.709438980
0.433487743 0.723853469 0.708679974
0.544095516 0.736400962 0.708490014
0.671657741 0.747250974 0.703935742
0.762097001 0.749019980 0.693885982
