public/lut/15.cube
TITLE "17x17x17 Adobe/IRIDAS cube 3D LUT exported with GrossGrade v0.2.2 (beta) 64 bit"
DOMAIN_MIN 0 0 0
DOMAIN_MAX 1 1 1
LUT_3D_SIZE 17
0.011829000 0.007886000 0.003943000
0.235365242 0.029966000 0.011829000
0.405745506 0.041369125 0.017939875
0.489339441 0.048031125 0.020502999
0.518557250 0.050178248 0.021883000
0.539627552 0.051686000 0.022080000
0.553557277 0.053002000 0.022869000
0.563984513 0.054013252 0.023312250
0.571133494 0.054614499 0.023657000
0.575675428 0.054933999 0.023657000
0.579330742 0.054933999 0.023657000
0.581234097 0.055567998 0.023657000
0.582247019 0.055567998 0.023657000
0.582736015 0.055567998 0.023657000
0.582736015 0.055567998 0.023657000
0.582247019 0.055567998 0.023657000
0.580722988 0.055567998 0.023657000
0.021439811 0.078398876 0.013553813
0.027600000 0.071634375 0.011927563
0.061325632 0.084417500 0.011829000
0.174960002 0.101404436 0.008132438
0.247989759 0.098866001 0.010990625
0.305437505 0.099932253 0.013997000
0.364204437 0.097466372 0.016313437
0.426140606 0.088984996 0.018630125
0.466885120 0.076834120 0.019714000
0.507004440 0.065818749 0.021291999
0.541322589 0.057466127 0.022425188
0.564460576 0.055488437 0.023164500
0.583201110 0.054374561 0.023657002
0.594357133 0.055725001 0.024445999
0.601393819 0.056781001 0.024445999
0.605434537 0.057400312 0.024445999
0.604406714 0.057400312 0.024445999
0.011927500 0.131476372 0.010448249
0.024298124 0.127044439 0.010448249
0.036471624 0.126436248 0.010448249
0.074251510 0.140169576 0.007441998
0.172626764 0.177866250 0.003943000
0.273220450 0.198997319 0.005470688
0.345644653 0.194757879 0.009265875
0.395379901 0.187206686 0.012567878
0.454375505 0.179629877 0.017151626
0.498137712 0.176309556 0.020157812
0.531193137 0.171559259 0.021686001
0.564210653 0.166445687 0.023558499
0.588627279 0.158034995 0.024347374
0.608795285 0.146636292 0.024593752
0.626427114 0.132833242 0.025234001
0.637218237 0.119325995 0.025924375
0.644086242 0.106524870 0.026023000
0.011829000 0.180199444 0.004090750
0.020404499 0.179142386 0.004090750
0.035830565 0.178705707 0.004090750
0.057845570 0.179012090 0.004090750
0.087679379 0.182983190 0.003943000
0.134329751 0.203806698 0.003943000
0.239591971 0.247084543 0.003943000
0.375381887 0.284165502 0.004681938
0.448429197 0.280010462 0.008575687
0.504429102 0.265978098 0.012617187
0.543592572 0.251350313 0.016362749
0.573196352 0.242448702 0.019073749
0.604545891 0.237964511 0.021439750
0.629121542 0.235977963 0.022523629
0.645919144 0.230772823 0.024051316
0.658967018 0.225559518 0.026023000
0.671682477 0.222660333 0.026170937
0.011829000 0.208563000 0.003943000
0.019566188 0.207940683 0.003943000
0.042753998 0.209581509 0.003943000
0.064230628 0.212067947 0.003943000
0.086705752 0.214849994 0.003943000
0.112501755 0.219047815 0.003943000
0.157006025 0.235857502 0.003943000
0.266274929 0.280353695 0.003943000
0.406978756 0.323870510 0.003943000
0.500457466 0.332057983 0.007393187
0.552116871 0.317366779 0.011730124
0.585084081 0.297436446 0.015426249
0.613333225 0.285525978 0.017743001
0.638919532 0.277469575 0.020059191
0.660166383 0.273073256 0.021587502
0.674699545 0.269788921 0.022869000
0.688995481 0.267468244 0.023854250
0.011829000 0.234204561 0.003943000
0.023608185 0.236269742 0.003943000
0.051193625 0.240039319 0.003943000
0.077029072 0.243320182 0.003943000
0.098187186 0.246459246 0.003943000
0.115571186 0.247963548 0.003943000
0.140859380 0.254048109 0.003943000
0.191018045 0.268243164 0.003943000
0.294488311 0.311746657 0.003943000
0.442951858 0.361796260 0.003943000
0.548597336 0.379532993 0.006604187
0.598306954 0.363389701 0.010744126
0.625434995 0.344056368 0.014095813
0.652282774 0.327317625 0.016954502
0.672736049 0.315437078 0.019270752
0.687619865 0.307814389 0.020749561
0.702570200 0.305261105 0.021538250
0.011829000 0.264752895 0.003943000
0.024297811 0.268646717 0.003943000
0.064652376 0.272548139 0.003943000
0.096748702 0.276741147 0.003943000
0.113526009 0.279643655 0.003943000
0.128172576 0.283237785 0.003943000
0.149077252 0.285320252 0.003943000
0.174819142 0.290041506 0.003943000
0.223430634 0.303962767 0.003943000
0.333102971 0.347515553 0.003943000
0.470096320 0.396788388 0.003943000
0.592350125 0.424827516 0.005569312
0.638300538 0.411735892 0.009462625
0.664478302 0.388777882 0.012568126
0.689597368 0.370141149 0.015377003
0.704007208 0.355382562 0.017693752
0.716867089 0.346407890 0.019221500
0.011828999 0.293846965 0.003943000
0.039834142 0.301265121 0.003943000
0.085240632 0.307061583 0.003943000
0.116463259 0.312254578 0.003943000
0.132853270 0.315239727 0.003943000
0.147130519 0.315973222 0.003943000
0.163838089 0.319588155 0.003943000
0.185904577 0.323250890 0.003943000
0.214724511 0.330991358 0.003943000
0.266774386 0.344627976 0.003943000
0.365519911 0.381156862 0.003943000
0.497592896 0.429972708 0.003943000
0.630050540 0.464396060 0.005076187
0.678059638 0.458243996 0.007590126
0.704308689 0.435292035 0.011385187
0.721791446 0.411105126 0.014145188
0.731417000 0.394161522 0.016116185
0.020108504 0.327714026 0.003943000
0.059000939 0.335443765 0.003943000
0.102316260 0.341361403 0.003943000
0.139577508 0.347007990 0.003943000
0.157398254 0.348399013 0.003943000
0.170234770 0.352974385 0.003943000
0.184776515 0.354452014 0.003943000
0.202515528 0.357500523 0.003943000
0.226071000 0.363307536 0.003943000
0.259372503 0.370602340 0.003943000
0.312185854 0.382783353 0.003943000
0.407986432 0.418242395 0.003943000
0.534006000 0.461777270 0.003943000
0.658247590 0.499026954 0.004484752
0.714000404 0.498926133 0.006801503
0.738359928 0.479119241 0.009906252
0.753197491 0.456850529 0.012223000
0.019911688 0.362334073 0.003943000
0.074484624 0.367930293 0.003943000
0.128028303 0.375029951 0.003943000
0.163123325 0.379882067 0.003943000
0.182392687 0.384775251 0.003943000
0.197718382 0.387378037 0.003943000
0.211948380 0.390274376 0.003943000
0.228088960 0.393321574 0.003943000
0.248380259 0.397530288 0.003943000
0.274515450 0.403672814 0.003943000
0.310955375 0.410697013 0.003943000
0.363215983 0.423921078 0.003943000
0.447625160 0.452818066 0.003943000
0.571222007 0.496365964 0.003943000
0.687612176 0.531077027 0.003943002
0.747499347 0.536684632 0.006013128
0.768559575 0.518775105 0.008773062
0.053717125 0.396821737 0.003943000
0.107462063 0.402250618 0.003943000
0.152360618 0.408629626 0.003943000
0.188147008 0.414118618 0.003943000
0.209901124 0.417938739 0.003943000
0.225700498 0.421543300 0.003943000
0.242545366 0.425722122 0.003943000
0.256619006 0.429386497 0.003943000
0.275664002 0.432515144 0.003943000
0.297289491 0.437672824 0.003943000
0.325711757 0.441778123 0.003943000
0.364231378 0.451057613 0.003943000
0.410328269 0.460538149 0.003943000
0.491012424 0.490291506 0.003943000
0.611692250 0.531429052 0.003943000
0.711106479 0.561248064 0.003943000
0.775561631 0.572283387 0.005224125
0.078696378 0.429751307 0.003400563
0.135444194 0.435732335 0.003943000
0.180146798 0.442264676 0.003943000
0.215796635 0.448886126 0.003943000
0.238514438 0.453190058 0.003943000
0.255508065 0.456809074 0.003943000
0.271938443 0.460556865 0.003943000
0.288957715 0.464581370 0.003943000
0.305514425 0.467654675 0.003943000
0.325669885 0.473441482 0.003943000
0.349539161 0.477398068 0.003943000
0.377393186 0.484151393 0.003943000
0.412967145 0.490478337 0.003943000
0.453858614 0.498887360 0.003943000
0.538085222 0.528209865 0.003943000
0.650297046 0.562438369 0.003943000
0.733389020 0.588336766 0.003943000
0.116033763 0.459539235 0.005520000
0.169971645 0.464590490 0.003943000
0.212023377 0.473788738 0.003943000
0.247709453 0.478867173 0.003943000
0.269046009 0.483036280 0.003943000
0.288996190 0.488403946 0.003943000
0.305509627 0.490687013 0.003943000
0.323487461 0.495108962 0.003943000
0.339617252 0.498608500 0.003943000
0.357935995 0.504109740 0.003943000
0.379028141 0.509842515 0.003943000
0.397871822 0.511931539 0.003943000
0.424347758 0.518328011 0.003943000
0.459280044 0.525955141 0.003943000
0.501565158 0.531816721 0.003943000
0.582309902 0.558945417 0.003943000
0.678883016 0.590086758 0.003943000
0.166678429 0.489048034 0.003006248
0.207777664 0.494956702 0.003943000
0.243277907 0.499369711 0.003943000
0.278732270 0.508463204 0.003943000
0.303410470 0.512530208 0.003943000
0.319767028 0.517628551 0.003943000
0.337557465 0.520075679 0.003943000
0.357985646 0.526108563 0.003943000
0.373563796 0.528373837 0.003943000
0.390379310 0.533385754 0.003943000
0.404381514 0.536207259 0.003943000
0.422367603 0.539456129 0.003943000
0.444894165 0.545878828 0.003943000
0.469852030 0.548411787 0.003943000
0.501115382 0.555988193 0.003943000
0.546947539 0.564534307 0.003943000
0.625556231 0.590039909 0.003943000
0.204389796 0.516775250 0.010842518
0.246050164 0.521438658 0.003943000
0.275796533 0.525989950 0.003943000
0.312732518 0.535756469 0.003943000
0.334528416 0.539747536 0.003943000
0.351762652 0.542709351 0.003943000
0.370797396 0.546753228 0.003943000
0.386319518 0.551258743 0.003943000
0.400620550 0.553444862 0.003943000
0.416401148 0.557774723 0.003943000
0.432121396 0.561380625 0.003943000
0.447584838 0.565051556 0.003943000
0.466468155 0.568951368 0.003943000
0.484175265 0.573152959 0.003943000
0.509474516 0.577644944 0.003943000
0.545163512 0.584453642 0.003943000
0.590506494 0.591718376 0.003943000
0.247495353 0.546032488 0.026861254
0.283043951 0.546992540 0.011138568
0.314037472 0.553844929 0.007935253
0.345664710 0.561859488 0.004238687
0.366811454 0.565628946 0.003943000
0.381502062 0.567074955 0.003943000
0.397810340 0.572670996 0.003943000
0.413599014 0.574830472 0.003943000
0.427962840 0.578644276 0.003943000
0.444819152 0.582544088 0.003943000
0.458657324 0.586231828 0.003943000
0.472667098 0.587770402 0.003943000
0.485502303 0.590698719 0.003943000
0.502291381 0.594256282 0.003943000
0.526270270 0.598625481 0.003943000
0.553841054 0.605120778 0.003943000
0.589093566 0.609221816 0.003943000
0.291608989 0.572857976 0.022869000
0.323456764 0.576535344 0.011878250
0.351058990 0.581451476 0.004829625
0.377387822 0.586005032 0.003943000
0.395817757 0.589618981 0.003943000
0.409746557 0.593492866 0.003943000
0.426214755 0.596723258 0.003943000
0.441939563 0.599659622 0.003943000
0.456533998 0.602603495 0.003943000
0.471063882 0.605342150 0.003943000
0.484224021 0.609232843 0.003943000
0.495874375 0.609744728 0.003943000
0.510644972 0.613323212 0.003943000
0.526277184 0.616815507 0.003943000
0.543691754 0.620876491 0.003943000
0.565728843 0.623895526 0.003943000
0.595107973 0.629002988 0.003943000
0.012715563 0.032036249 0.130093187
0.036767311 0.015820311 0.038689688
0.110410005 0.027452186 0.015672499
0.269101530 0.030064566 0.013553751
0.381057352 0.038539249 0.017250311
0.453705907 0.044689376 0.019566312
0.504876435 0.048811816 0.021291999
0.539993703 0.052099127 0.022573125
0.556970596 0.053367060 0.022869000
0.568952084 0.054295000 0.023657000
0.575054288 0.054933999 0.023657000
0.578358769 0.054933999 0.023657000
0.581945360 0.055567998 0.023657000
0.582953572 0.055567998 0.023657000
0.582179010 0.055567998 0.023657000
0.582420349 0.055567998 0.023657000
0.582865179 0.055567998 0.023657000
0.011829000 0.091501117 0.111841880
0.023706313 0.076037005 0.071878567
0.098491259 0.075487502 0.057088941
0.236186266 0.085385002 0.042787809
0.339991301 0.079493433 0.025283437
0.411560446 0.070152313 0.018334251
0.467434019 0.055152558 0.019714002
0.506547511 0.047329560 0.021291999
0.537958145 0.049193501 0.022080000
0.558937609 0.052057438 0.022869000
0.574422181 0.054534625 0.023657000
0.582627535 0.055528373 0.023657000
0.590079546 0.056156751 0.024396688
0.593506038 0.056156751 0.024396688
0.595960557 0.056781001 0.024445999
0.596177697 0.056781001 0.024445999
0.597356319 0.056781001 0.024445999
0.011829000 0.146472380 0.095316872
0.015869625 0.138621002 0.076960936
0.067611374 0.139155611 0.066786498
0.150533468 0.147877946 0.055356685
0.228623822 0.155761808 0.046889000
0.289819241 0.163038000 0.039563812
0.351595014 0.166002378 0.026565183
0.419896483 0.171391368 0.018975062
0.479432464 0.170760691 0.018777939
0.523628116 0.162490383 0.021390500
0.560886919 0.149873257 0.023213750
0.589918017 0.132426322 0.024396688
0.610486925 0.117791563 0.025135500
0.624921620 0.102309048 0.025234001
0.633714557 0.090266235 0.025924375
0.638532162 0.080005243 0.025924375
0.639463663 0.069048874 0.025924375
0.011829000 0.194814131 0.086968996
0.011829000 0.190469950 0.074879564
0.063994557 0.193772823 0.060814872
0.113096192 0.198047817 0.060617626
0.154753119 0.206162438 0.052928746
0.238360748 0.227302939 0.032873563
0.334820598 0.238725573 0.016411934
0.393416554 0.233410016 0.015820371
0.447739094 0.235680014 0.013504563
0.505811930 0.239993691 0.015475499
0.547174811 0.239846319 0.017890876
0.581670642 0.238165885 0.020207124
0.614527285 0.235364810 0.021784687
0.639054716 0.227848336 0.024051376
0.654690742 0.221295878 0.026022999
0.670266449 0.213675946 0.026762689
0.676252902 0.204626441 0.027452249
0.011829000 0.224902675 0.085428938
0.011829000 0.223754182 0.071117565
0.061321065 0.226799190 0.055287875
0.117552511 0.232632861 0.050663374
0.140025690 0.234827384 0.049867433
0.172994494 0.242501363 0.048884563
0.262353837 0.270643562 0.022178931
0.378501803 0.292916387 0.006012811
0.445401341 0.289983273 0.008477126
0.501631021 0.282420218 0.011582437
0.550977707 0.279675484 0.014391249
0.584830105 0.278147101 0.016559999
0.617853999 0.277639091 0.018531501
0.646688640 0.276025176 0.020700250
0.666630089 0.271964878 0.022277251
0.682506621 0.266995460 0.023804938
0.696656942 0.261384517 0.025234001
0.011829000 0.253554255 0.080196500
0.011829000 0.252886683 0.066165939
0.063687190 0.259161502 0.049916059
0.127913997 0.266494364 0.040083814
0.150833890 0.269608349 0.043011125
0.169454008 0.271833479 0.041077003
0.201438457 0.278050393 0.038289867
0.284608573 0.303350717 0.013947928
0.411299229 0.338035882 0.004435438
0.500552952 0.343384892 0.006308750
0.555094004 0.332246065 0.010497876
0.593039930 0.322647810 0.013307124
0.622402251 0.316046447 0.016017562
0.654879212 0.314586073 0.017743003
0.677648246 0.311847925 0.019714002
0.694698095 0.309219956 0.020798877
0.708580732 0.305732191 0.021735501
0.011829000 0.283895463 0.075991936
0.014539312 0.287953705 0.062120564
0.060998566 0.292733520 0.044966683
0.135964006 0.299771011 0.032381244
0.164282084 0.303983808 0.028339434
0.179716870 0.304308504 0.029620619
0.202129140 0.310165048 0.030852810
0.234041855 0.313836753 0.024347121
0.313272625 0.338271946 0.009857127
0.439032584 0.379203707 0.003597813
0.546473742 0.396585524 0.005322749
0.602098584 0.384907216 0.008970186
0.631958067 0.368876755 0.012321500
0.662693977 0.358520210 0.014637814
0.690343916 0.354167700 0.016954502
0.708454370 0.350713700 0.018432876
0.722246706 0.347806096 0.019221500
0.011829000 0.316726506 0.071529813
0.015032250 0.322476417 0.059050746
0.070637636 0.329771519 0.040219057
0.148948714 0.337093204 0.027501430
0.179990187 0.340576291 0.023016373
0.196472019 0.342514783 0.019369435
0.215560585 0.344706655 0.020552248
0.241102263 0.350511760 0.022326622
0.274207294 0.356900185 0.020552622
0.342648923 0.374308854 0.009561129
0.457267135 0.414616793 0.003943000
0.589419365 0.445657611 0.004533999
0.645371377 0.438362896 0.007639436
0.672726095 0.416047305 0.011040000
0.700490057 0.401912868 0.013356313
0.721309125 0.393398821 0.015377002
0.735921800 0.387565464 0.016905185
0.011829000 0.348720193 0.069334812
0.019862065 0.352556944 0.052407499
0.087143749 0.360661328 0.032725938
0.161418140 0.369902462 0.022917688
0.195959941 0.375422150 0.020404812
0.216723680 0.378233671 0.016806688
0.236072406 0.382284164 0.016708188
0.256094873 0.385280669 0.020010309
0.282934427 0.391610682 0.018136937
0.316620290 0.397312671 0.013800187
0.379609674 0.412515312 0.005963751
0.483476162 0.448141813 0.003943000
0.621333957 0.484740943 0.003943000
0.683797479 0.486455500 0.006653750
0.712869763 0.467335314 0.009167127
0.736079872 0.449663341 0.011877814
0.750487328 0.433262438 0.013799999
0.012223001 0.382118672 0.069844753
0.039625816 0.388824552 0.054731064
0.102131881 0.395603448 0.032430187
0.178996950 0.403932124 0.023952935
0.216275677 0.410993814 0.017989438
0.238712132 0.414213300 0.014046250
0.258246124 0.417099327 0.012173561
0.279860675 0.421931893 0.010793563
0.301903754 0.426271617 0.010744313
0.328553557 0.430358052 0.010005062
0.364095300 0.436574876 0.006161062
0.417360634 0.449519396 0.005717313
0.514856696 0.481232852 0.004090750
0.647969365 0.520847797 0.003943000
0.718356788 0.528759301 0.005273440
0.749152064 0.513735235 0.008329252
0.767405808 0.494177550 0.010300750
0.019073687 0.417246014 0.070825003
0.044935063 0.423490882 0.052075189
0.125546381 0.428507805 0.028782938
0.200281188 0.437766373 0.016313747
0.238334566 0.443681240 0.008329062
0.263641298 0.447745651 0.004731375
0.284887522 0.451243222 0.002611937
0.305604637 0.455461144 0.004238499
0.325568259 0.458457589 0.004534375
0.349154294 0.464528888 0.005963500
0.374943733 0.469543695 0.008773000
0.407554984 0.474009722 0.009561438
0.458522469 0.485217631 0.006456749
0.549811065 0.516876578 0.003943000
0.672461390 0.554123342 0.003943000
0.748958170 0.569392145 0.003943002
0.780915201 0.555648327 0.006456375
0.029461751 0.450172514 0.073367186
0.089552872 0.455060124 0.051195625
0.159853622 0.460568428 0.025924373
0.225124627 0.471620202 0.017989561
0.261974424 0.477319539 0.013060750
0.288247049 0.482928246 0.012321750
0.310250401 0.485676646 0.010842687
0.332436502 0.490222424 0.011286501
0.351645947 0.493300647 0.010990938
0.372136682 0.497750431 0.012370687
0.391944736 0.501811624 0.013159376
0.417855561 0.507104814 0.012962125
0.450765282 0.511305153 0.009265499
0.497282565 0.519207478 0.005766744
0.592740119 0.552968919 0.003943000
0.692964435 0.581645489 0.003943000
0.773005009 0.602413654 0.003943000
0.084150068 0.479641885 0.079634435
0.132629737 0.482730240 0.057342943
0.190090939 0.490872830 0.037011690
0.254293203 0.501423061 0.030261438
0.287969410 0.506785572 0.024051687
0.314546943 0.512308419 0.020946814
0.340286195 0.518264949 0.020010060
0.361684740 0.521436036 0.015919311
0.377947658 0.524040878 0.014686998
0.395690441 0.527980506 0.012666499
0.414498627 0.532619417 0.012173811
0.434560180 0.537053525 0.007540874
0.459372699 0.541370273 0.004140001
0.490985304 0.546452761 0.004140003
0.538098693 0.553849876 0.003597566
0.626786351 0.581867635 0.003943000
0.716367006 0.608060360 0.003943000
0.117353730 0.506299019 0.091304064
0.169995025 0.511332154 0.071440756
0.225987241 0.517748356 0.050289445
0.280016124 0.525908470 0.036519304
0.314636916 0.534460068 0.027403116
0.341253340 0.540111482 0.021045305
0.364183933 0.543125749 0.016165867
0.385901451 0.547561884 0.013109991
0.403165340 0.549975038 0.010448677
0.420139909 0.554874957 0.008230867
0.435129970 0.556855679 0.005520303
0.454141736 0.562159896 0.003203309
0.474717587 0.566362202 0.005125382
0.500304222 0.570652246 0.007146257
0.531313002 0.576213837 0.008329578
0.583835721 0.585234702 0.007688514
0.661217570 0.609791517 0.004238694
0.169924363 0.535484910 0.099456817
0.217740864 0.538846195 0.080284312
0.262353331 0.542787850 0.053113125
0.311194986 0.553295791 0.033563629
0.345446974 0.559288025 0.023854192
0.368923903 0.563873351 0.019566379
0.388356686 0.567046344 0.012568017
0.409083009 0.571614683 0.011237137
0.427661389 0.575322866 0.009955633
0.444316775 0.578371048 0.008132450
0.459016442 0.581397653 0.010300325
0.474462152 0.584762216 0.012173885
0.491962820 0.589732289 0.019320203
0.513600290 0.595094562 0.025431518
0.538560212 0.597619712 0.025628708
0.576262951 0.606082261 0.025530137
0.622038484 0.612254918 0.017299701
0.225550741 0.563331246 0.116623901
0.257737100 0.565790117 0.092417389
0.296936423 0.568860114 0.056579642
0.345344275 0.579099715 0.041814338
0.371421307 0.581754327 0.033758465
0.391092032 0.587009966 0.033314962
0.413045943 0.590552449 0.032282274
0.432847977 0.594706297 0.031838585
0.450730652 0.598207533 0.028930526
0.466289222 0.600107253 0.029275712
0.478964865 0.602635920 0.028635023
0.493468136 0.603911638 0.028437775
0.509484410 0.608037472 0.034351449
0.527298689 0.613309562 0.038924892
0.551639974 0.618545949 0.040728439
0.581101060 0.624448299 0.034056313
0.617453635 0.628936946 0.024839751
0.272374451 0.588962138 0.131787926
0.300428689 0.590762496 0.109075494
0.339630008 0.594923019 0.079185560
0.372686058 0.601452410 0.071025439
0.397043020 0.605453014 0.065912560
0.417000622 0.609592736 0.064909562
0.436379075 0.613076806 0.060618065
0.455198854 0.616857529 0.058104619
0.473071307 0.619593680 0.055388063
0.487541944 0.621702492 0.053058624
0.501719415 0.624291301 0.050996002
0.515401959 0.626575708 0.047247063
0.528602183 0.628894091 0.044856064
0.547760189 0.634059310 0.046228372
0.567478597 0.637464643 0.043096177
0.591896117 0.641817510 0.034993120
0.618166149 0.646859944 0.024987627
0.011829000 0.073330000 0.230330378
0.019714063 0.016510688 0.106722876
0.085214131 0.023262750 0.082943998
0.161907271 0.036520813 0.032380752
0.239335880 0.035584502 0.027205750
0.312849492 0.030606624 0.019812750
0.391811669 0.038540002 0.019615497
0.455241919 0.044689313 0.019714002
0.506921768 0.049153376 0.021291999
0.540629148 0.052057810 0.022523813
0.563707352 0.053973000 0.023263000
0.576003492 0.054933999 0.023657000
0.584787011 0.055567998 0.023657002
0.588983536 0.056196000 0.024445999
0.591139853 0.056196000 0.024445999
0.592437029 0.056196000 0.024445999
0.592820883 0.056196000 0.024445999
0.011829000 0.141456932 0.220487624
0.011828938 0.123528808 0.171222374
0.035830505 0.088527933 0.135410130
0.130829379 0.095657244 0.105067559
0.223391682 0.105303064 0.098264568
0.319264174 0.101287879 0.091574438
0.418762118 0.067357801 0.066337496
0.488789678 0.033415742 0.042117555
0.536564589 0.034866065 0.028733626
0.565999031 0.047986813 0.027205750
0.585076749 0.053605378 0.024347374
0.593573630 0.055803500 0.025036875
0.597766697 0.057283625 0.025036875
0.596861362 0.056742001 0.024445999
0.596625626 0.056742001 0.024445999
0.596100450 0.056742001 0.024445999
0.593810081 0.056156751 0.024396688
0.011829000 0.170721501 0.215687990
0.011829000 0.158875734 0.187324613
0.031148752 0.159704372 0.166746885
0.145734787 0.162176117 0.153369874
0.258224726 0.170422256 0.144591630
0.344223380 0.173715264 0.129407868
0.424180537 0.169567496 0.110354617
0.496736556 0.160774380 0.085674301
0.540947616 0.142942756 0.060605370
0.576972365 0.118613869 0.034598812
0.601041257 0.102450378 0.027501624
0.618244946 0.091117568 0.025825875
0.628787875 0.077791877 0.025924373
0.635148644 0.071112052 0.025234001
0.638364732 0.064421237 0.025924375
0.638612390 0.058622491 0.025924375
0.640526235 0.059717249 0.025924375
0.011829000 0.216975942 0.207984746
0.011829000 0.211989328 0.186299682
0.021538373 0.212694824 0.173497260
0.112117015 0.219899774 0.159943759
0.197853059 0.227103204 0.157928377
0.273935378 0.234273210 0.149651751
0.345094711 0.239642248 0.137033626
0.407790452 0.244207501 0.122141369
0.476823032 0.249130249 0.102448136
0.537865579 0.247908011 0.075692192
0.580468297 0.242471009 0.050198697
0.617728174 0.234415516 0.030655880
0.644077420 0.223405004 0.025875188
0.661549687 0.211903557 0.026023000
0.674182355 0.200168937 0.027452249
0.680006742 0.187209502 0.027452249
0.688093841 0.191065058 0.027600000
0.011829000 0.247224629 0.200099885
0.011829000 0.246062011 0.184867993
0.019615499 0.249049246 0.172099859
0.111919142 0.254278570 0.153236002
0.172176123 0.260699481 0.157133996
0.219489738 0.266633004 0.153581679
0.318289131 0.283731997 0.135931626
0.391512781 0.285144746 0.124241121
0.449587375 0.285125107 0.113854378
0.510486782 0.290271759 0.099558629
0.562527537 0.289910018 0.078361623
0.601905704 0.286723346 0.054725252
0.641093314 0.282375008 0.036274623
0.666710794 0.275775403 0.026466366
0.685560703 0.268234879 0.023755625
0.699353099 0.259267509 0.025480567
