public/lut/16.cube
TITLE "17x17x17 Adobe/IRIDAS cube 3D LUT exported with GrossGrade v0.2.2 (beta) 64 bit"
DOMAIN_MIN 0 0 0
DOMAIN_MAX 1 1 1
LUT_3D_SIZE 17
0.011829000 0.007886000 0.003943000
0.087251253 0.019516874 0.013356688
0.168513119 0.021291999 0.010251000
0.249685898 0.017644685 0.007097001
0.310513765 0.012026000 0.008477001
0.343387693 0.012617000 0.008674000
0.372285992 0.012617001 0.009463000
0.400337070 0.013406000 0.009463000
0.426870525 0.013406000 0.009857001
0.450149238 0.014194000 0.010251000
0.472071767 0.014194000 0.010251000
0.494246572 0.014440563 0.011040000
0.508294225 0.014983000 0.011040000
0.522713423 0.014983000 0.011040000
0.539760828 0.014983000 0.011138627
0.554553688 0.015771000 0.011829000
0.566937983 0.015771000 0.011829000
0.011878250 0.033317562 0.011829000
0.043324687 0.045266125 0.012617000
0.094326496 0.051202562 0.012666313
0.152441949 0.052631691 0.010103250
0.204145819 0.049840812 0.007343500
0.244396865 0.048410878 0.007097000
0.275530666 0.045014501 0.007886000
0.313076347 0.041256499 0.008329251
0.349648207 0.035042122 0.008674000
0.382780194 0.028881500 0.009463000
0.419138700 0.022376126 0.009758500
0.456210941 0.018186750 0.010251000
0.490929514 0.015672436 0.011040000
0.525262833 0.015721750 0.011040001
0.555753291 0.014341940 0.011829000
0.581626058 0.017939877 0.011829000
0.605209410 0.021045562 0.012617000
0.012617000 0.087542124 0.013307375
0.058387876 0.102503754 0.013307375
0.113215379 0.114522882 0.009758750
0.178961575 0.129930928 0.007195625
0.229919508 0.130783245 0.007097000
0.267957479 0.129742876 0.007886000
0.301364750 0.127024755 0.007886001
0.332479388 0.121404871 0.008674000
0.370603770 0.118702628 0.009068501
0.404234111 0.109484255 0.009463000
0.438317895 0.102642626 0.010251000
0.475329578 0.096167877 0.010497563
0.509991944 0.087066129 0.011040000
0.542918205 0.081490874 0.011730376
0.575053096 0.075597756 0.011829000
0.602364123 0.073835187 0.012518501
0.621984422 0.073785625 0.012617000
0.016707936 0.147429392 0.014194000
0.072476745 0.163851082 0.011286500
0.133295372 0.177287832 0.006555375
0.194428399 0.191291898 0.006949250
0.253696769 0.203267902 0.007688750
0.291453928 0.209660456 0.007886000
0.326838434 0.211036578 0.008674000
0.364241898 0.209733397 0.009117814
0.402591318 0.206692830 0.009463000
0.437832057 0.200828001 0.010251000
0.471976817 0.194378436 0.010251000
0.504909456 0.184977010 0.011040000
0.541005731 0.175200015 0.011681062
0.573301256 0.167584181 0.011829000
0.603339553 0.159446329 0.012469251
0.630057514 0.153178021 0.012617000
0.649802506 0.152003139 0.012617001
0.018728750 0.189855993 0.011829000
0.083197311 0.206150636 0.007886000
0.148698509 0.222650751 0.007097000
0.212036580 0.236340135 0.007097000
0.266876996 0.247178257 0.007886000
0.306233406 0.255648136 0.007886000
0.340936631 0.262545228 0.008674000
0.377443582 0.267009735 0.009463000
0.418389022 0.268433005 0.009463000
0.455165118 0.264968395 0.010251000
0.491955012 0.257759750 0.011040000
0.526715815 0.250308931 0.011040000
0.563173473 0.240208253 0.011829000
0.596378207 0.230980620 0.011976752
0.626277685 0.219681621 0.012617000
0.651100218 0.211275324 0.012666316
0.670653999 0.204217255 0.013406000
0.020207124 0.227337807 0.009709250
0.094601311 0.244786754 0.007097000
0.160369515 0.258974075 0.007639437
0.223470122 0.275409847 0.007886000
0.278951019 0.285443425 0.007886000
0.317245185 0.295011133 0.008427750
0.353704810 0.302968830 0.008674000
0.389884710 0.307036132 0.009463000
0.428887218 0.313772380 0.009857001
0.470895708 0.317923427 0.010251000
0.508016407 0.311065912 0.011040000
0.543502688 0.306760371 0.011582438
0.579203427 0.294627815 0.011829000
0.613407016 0.283971071 0.012617000
0.642873526 0.273449063 0.012617000
0.669469535 0.263163120 0.013406000
0.689721704 0.254286438 0.013406000
0.035486124 0.272078782 0.008378500
0.109220572 0.285067260 0.007886000
0.175938889 0.299823403 0.007886001
0.237830713 0.314706802 0.008378500
0.288982987 0.324917138 0.008674000
0.329592437 0.334392577 0.008674000
0.363467395 0.341542542 0.008674001
0.399106354 0.348427325 0.009463000
0.438610375 0.356124878 0.010251000
0.483774632 0.362160742 0.010596188
0.521424055 0.364646137 0.011040000
0.557096362 0.361993849 0.011829000
0.596685410 0.357031018 0.012026001
0.631829858 0.345766366 0.012617000
0.661884427 0.333653003 0.013406000
0.690969944 0.321866959 0.013406000
0.709028482 0.310519636 0.013406001
0.042823140 0.308417767 0.008674000
0.133166701 0.326492161 0.008674000
0.193795890 0.338901341 0.008674000
0.254808068 0.355006784 0.008674001
0.307516247 0.366887659 0.009117814
0.343081295 0.373621851 0.009216438
0.376921982 0.379981905 0.009463000
0.410197854 0.386616975 0.009463001
0.450533926 0.395397276 0.010251000
0.492532074 0.403646439 0.011040000
0.531331122 0.409254760 0.011040000
0.567643940 0.411785156 0.011829000
0.609531999 0.412020028 0.012617000
0.646807432 0.404954851 0.012764940
0.681709409 0.398044735 0.013406000
0.709264159 0.383237302 0.013455253
0.729088664 0.373549730 0.014194000
0.078009009 0.355745018 0.009463000
0.156328574 0.369576126 0.009068501
0.213141635 0.380840033 0.009463000
0.272506714 0.396160811 0.009463000
0.323280245 0.406163514 0.009463000
0.358226120 0.415682256 0.009463000
0.387361646 0.419358373 0.009857000
0.423064262 0.426571727 0.009906251
0.461391002 0.434698522 0.010251000
0.500819743 0.442268491 0.011040000
0.540431499 0.449785769 0.011335875
0.578820109 0.454927564 0.011829000
0.619535208 0.459829271 0.012617000
0.659082413 0.458415151 0.013406000
0.694291830 0.454206884 0.013406000
0.723048449 0.443188608 0.014194000
0.746638477 0.434092999 0.014194000
0.104341939 0.397522867 0.010251000
0.178917319 0.409204900 0.009463000
0.235173255 0.421666563 0.009807750
0.291305363 0.434672266 0.010251000
0.341246665 0.447031707 0.010251000
0.373633087 0.454448044 0.010251000
0.403818071 0.459856600 0.010251000
0.435647100 0.465991557 0.010251000
0.473591179 0.473236352 0.010596188
0.512375176 0.482016981 0.011040000
0.550745606 0.488920808 0.011829000
0.590198576 0.495818138 0.012075250
0.629530370 0.503162801 0.012617000
0.667706966 0.504733741 0.013406000
0.702935696 0.503750324 0.013504501
0.735241354 0.502120733 0.014194000
0.759261072 0.491521865 0.014194000
0.140527248 0.437180132 0.009463000
0.208744124 0.449947387 0.010251000
0.259950489 0.461545378 0.010251000
0.311565816 0.471715033 0.010251000
0.358155251 0.482311606 0.010546875
0.389183313 0.489129245 0.011040000
0.417547762 0.496132135 0.011040000
0.450038910 0.503090441 0.011040000
0.485991508 0.510320127 0.011040000
0.524420381 0.518466592 0.011040000
0.559415042 0.524273634 0.011829000
0.596533239 0.530446708 0.012075250
0.636767924 0.537447989 0.012617001
0.675878882 0.544001937 0.013406000
0.712773561 0.548727214 0.014194000
0.743406355 0.548642397 0.014194000
0.771703243 0.544062138 0.014983000
0.180403128 0.478236377 0.011040000
0.236377239 0.487628132 0.010990688
0.284481317 0.499788016 0.011040000
0.333457112 0.510218322 0.011040000
0.376687706 0.522006869 0.011040000
0.407122999 0.526769578 0.011040000
0.434659958 0.532981694 0.011286562
0.465223104 0.538861692 0.011286562
0.498857915 0.546093524 0.011829000
0.533515632 0.552416325 0.011829000
0.567795038 0.558088064 0.011829000
0.605651259 0.566710830 0.012617000
0.643174767 0.573737025 0.012617001
0.683566570 0.579435587 0.013406000
0.719137311 0.585458517 0.014194000
0.752827227 0.588411093 0.014194000
0.778665602 0.589628518 0.014983000
0.215872005 0.516968489 0.011040000
0.267773688 0.524416089 0.011040001
0.311134756 0.534750283 0.011237251
0.357578307 0.544714928 0.011829000
0.397781789 0.554144979 0.011829000
0.425871581 0.560838223 0.011829000
0.452449262 0.567725122 0.011829000
0.481973648 0.572275400 0.011829000
0.514383554 0.579819977 0.011829000
0.546420217 0.585366964 0.011829001
0.579405725 0.593502343 0.012026000
0.613559127 0.597700715 0.012617000
0.652482271 0.604831755 0.012814250
0.689799905 0.613280654 0.013406000
0.724613786 0.618705511 0.014194000
0.758228540 0.623587251 0.014194000
0.786707997 0.627378464 0.014983000
0.253036797 0.549498260 0.010694633
0.295867294 0.557941735 0.011829000
0.339696854 0.568790138 0.011829000
0.380546719 0.576460183 0.011829000
0.417747378 0.582735658 0.011829000
0.443436861 0.588840246 0.011829001
0.469044983 0.593558013 0.011976752
0.498624086 0.601742208 0.012617000
0.529303014 0.606852472 0.012617000
0.556121409 0.613520741 0.012617000
0.585556388 0.618887246 0.012617000
0.622393191 0.628316760 0.012617000
0.658902943 0.632618785 0.013406000
0.694108367 0.639687359 0.013406001
0.729468405 0.646951377 0.014194000
0.763313353 0.651703000 0.014243315
0.790609002 0.655371070 0.014983000
0.289491415 0.583005190 0.018432759
0.331681818 0.588667989 0.012617001
0.365655303 0.596241295 0.012715628
0.403778076 0.604279220 0.012617000
0.438682675 0.611386538 0.012617000
0.463515282 0.617413521 0.012617000
0.488657027 0.622007251 0.012617000
0.516810834 0.627939880 0.012617000
0.543544352 0.634318471 0.012617000
0.567327857 0.638560295 0.012617000
0.598816633 0.646483898 0.012715626
0.631329060 0.652833700 0.012715627
0.666515887 0.657108545 0.013406000
0.702140331 0.664894998 0.013406001
0.732204199 0.669069469 0.014194000
0.765539706 0.675255716 0.014243315
0.793411136 0.679536879 0.014983000
0.330052406 0.617972195 0.020355117
0.360281467 0.618035614 0.016559999
0.393686533 0.627051592 0.015672432
0.432616353 0.634927690 0.012617000
0.464959413 0.642541468 0.012617000
0.488224894 0.647375286 0.012617000
0.511842787 0.652442217 0.012666316
0.535878658 0.656617820 0.013406000
0.560177624 0.662106812 0.013406000
0.583868444 0.667237341 0.013406000
0.610657752 0.672356486 0.013406000
0.644218028 0.677849948 0.013406000
0.678198397 0.683436811 0.013406000
0.707824826 0.687414289 0.013553753
0.740434468 0.695997715 0.014194000
0.772289276 0.697553515 0.014983000
0.797515154 0.704898179 0.014983000
0.366706014 0.645457983 0.029177001
0.397407770 0.648010254 0.012617000
0.425122857 0.653947890 0.011829000
0.460459948 0.661984980 0.011829000
0.489828259 0.668295264 0.011829000
0.512396097 0.672925889 0.012617000
0.531352639 0.676260889 0.011829000
0.551490188 0.682111442 0.012617000
0.572792530 0.683467507 0.012617000
0.598230600 0.688893437 0.012617000
0.624712765 0.694085479 0.012617000
0.655223072 0.700314820 0.012617000
0.685319543 0.706417978 0.012617000
0.716814041 0.710653722 0.013406000
0.747958958 0.715085030 0.014194000
0.776469648 0.720751524 0.014194000
0.799888015 0.722096980 0.014983000
0.012617000 0.012617000 0.046228372
0.049468376 0.016510688 0.056411188
0.128886625 0.021242686 0.061730754
0.216384262 0.017792435 0.059996311
0.282407403 0.012764937 0.050322186
0.323136628 0.011829000 0.046841376
0.353908777 0.012617000 0.041097935
0.385225564 0.013406000 0.037112501
0.414623231 0.013406000 0.031247186
0.440835923 0.014194000 0.025283750
0.466595173 0.014194000 0.020404687
0.490864515 0.014440563 0.014440687
0.507375300 0.014983000 0.011779687
0.525228322 0.014983000 0.011631747
0.539986014 0.014983000 0.010398939
0.551113009 0.015721746 0.011089313
0.561701715 0.015771000 0.011829000
0.011829000 0.027255001 0.031789813
0.032676440 0.050821371 0.055245873
0.095346883 0.066583745 0.060166124
0.181811526 0.077741317 0.058983248
0.262697130 0.080268688 0.051383935
0.315829307 0.072134182 0.041418001
0.358998448 0.048288051 0.023952747
0.399613410 0.014588747 0.010694997
0.458262354 0.014194000 0.010251000
0.476172715 0.014194000 0.010251000
0.490522206 0.014194000 0.011040000
0.505390704 0.014983000 0.011040000
0.517303824 0.014983000 0.011040000
0.530738533 0.014983000 0.011040000
0.540613055 0.014983000 0.011779687
0.551113009 0.015721750 0.011829000
0.561040282 0.015771000 0.011829000
0.012617000 0.068538696 0.046669502
0.030359814 0.107624188 0.064015061
0.094101064 0.124811746 0.066681370
0.182911456 0.130470321 0.070298500
0.245305240 0.128295243 0.062513746
0.290048718 0.127056256 0.054157250
0.331686944 0.126214370 0.044891935
0.380559653 0.121168122 0.032282367
0.417500436 0.106578872 0.015475497
0.450464636 0.077761374 0.010201749
0.468058556 0.030409375 0.010251000
0.498346299 0.023459939 0.011040000
0.527093112 0.019073499 0.011040001
0.554468274 0.015672438 0.011829000
0.578755021 0.019467752 0.011829000
0.600604355 0.021735009 0.012567750
0.621540785 0.023953125 0.012617000
0.013406001 0.136871576 0.067592949
0.021932185 0.168424875 0.067333624
0.102905191 0.185976684 0.065344438
0.185781062 0.202119693 0.064225435
0.257279217 0.209428072 0.062000062
0.301241994 0.207967266 0.052814439
0.338367105 0.202219635 0.040153742
0.378693283 0.194434270 0.027698617
0.420538694 0.185557127 0.015130559
0.457695186 0.171593398 0.010251000
0.489783168 0.155758962 0.010990688
0.523137331 0.143821582 0.011040000
0.551648676 0.132415012 0.011829000
0.579118013 0.121340320 0.011829000
0.604106903 0.111809775 0.012567750
0.627508879 0.108762763 0.012617000
0.645834625 0.110384636 0.012617000
0.014194000 0.190839872 0.081513882
0.015377313 0.206038430 0.064352751
0.102975190 0.229125261 0.057358190
0.190115064 0.245302632 0.052227937
0.261425763 0.256488025 0.048987061
0.308810174 0.265126795 0.045609377
0.349601805 0.267462730 0.032578308
0.389231801 0.263383001 0.020059558
0.433609635 0.257483542 0.009462499
0.473369181 0.247648552 0.010251000
0.508263290 0.236749932 0.011040000
0.542013526 0.222348079 0.011631751
0.573894024 0.210336179 0.011829000
0.602676630 0.195731372 0.012567750
0.628397942 0.183869973 0.012617000
0.650994360 0.174905002 0.012666315
0.667236686 0.170574248 0.013406000
0.016116437 0.236810699 0.090529621
0.018383875 0.243314505 0.063535191
0.100956440 0.263139606 0.046894874
0.198088765 0.281908482 0.038010310
0.264832735 0.293824881 0.031641502
0.311589479 0.302797914 0.027403250
0.354293346 0.309389889 0.025135810
0.394431233 0.312994063 0.014440933
0.441259176 0.312389851 0.010448249
0.483441502 0.308420569 0.010596188
0.521126568 0.299394816 0.011040000
0.557610095 0.288125157 0.011829000
0.590760231 0.272391886 0.012026000
0.622258067 0.258211523 0.012617000
0.649294913 0.243887812 0.012715627
0.669340193 0.232031614 0.013406000
0.687021554 0.222727239 0.013406000
0.015377128 0.282555819 0.095531501
0.022721000 0.283143073 0.063144684
0.104341626 0.299511731 0.030941993
0.202269703 0.318479866 0.020108808
0.271397740 0.333132923 0.015869996
0.318138748 0.343951941 0.015525059
0.358958274 0.350241959 0.012370872
0.402501464 0.356206328 0.010005062
0.448164254 0.361846298 0.010251000
0.493496388 0.364604980 0.011040000
0.532543421 0.361480594 0.011040001
0.569611669 0.352160543 0.011829000
0.607428312 0.343127131 0.012617000
0.638329446 0.325254261 0.012617000
0.668313622 0.310846895 0.013406000
0.691709936 0.296153843 0.013406000
0.709311903 0.284091264 0.013406001
0.029670388 0.326677114 0.099919811
0.036612641 0.325034410 0.062415063
0.107984446 0.334432632 0.012518368
0.210685089 0.354684889 0.010005061
0.277955681 0.369355977 0.008821938
0.323520571 0.377959192 0.009167126
0.365482628 0.387260228 0.009463000
0.405272305 0.393791199 0.009463000
0.452081770 0.400460839 0.009955501
0.497288048 0.405735850 0.011040000
0.539063334 0.410037220 0.011335875
0.576994121 0.408335149 0.011829000
0.619683564 0.405076087 0.012617000
0.655739188 0.394149125 0.013060814
0.687453568 0.382554442 0.013406000
0.713292301 0.366947711 0.013849251
0.729869246 0.349639237 0.014194000
0.037972748 0.371346533 0.106122941
0.054040059 0.370097458 0.060832627
0.119030066 0.369873941 0.009265688
0.222209632 0.390432447 0.009463000
0.289649814 0.406018794 0.009463000
0.334674239 0.415541142 0.009463000
0.370884210 0.422198206 0.009857001
0.411780447 0.429698497 0.009906251
0.456291765 0.437502831 0.010251000
0.500555933 0.444857240 0.011040000
0.544230282 0.451632679 0.011434501
0.585286260 0.456196159 0.011829000
0.627064824 0.457565665 0.012617000
0.666315258 0.453322768 0.013406000
0.700877130 0.445071518 0.013406000
0.729022264 0.431278318 0.014194000
0.750867426 0.421792090 0.014194000
0.066485994 0.414933324 0.113038123
0.078069873 0.410936117 0.062410124
0.144184321 0.411507040 0.009610875
0.242984578 0.429906547 0.010103250
0.306209475 0.443012029 0.010251000
0.349042892 0.454004377 0.010251000
0.384288162 0.461072624 0.010251000
0.421569377 0.467445761 0.010251000
0.463430345 0.474576980 0.010251000
0.508538365 0.484511733 0.011040000
0.550645947 0.490803838 0.011829000
0.592920840 0.497028232 0.012075250
0.634999990 0.503686607 0.012617000
0.673560858 0.503366232 0.013406000
0.708371341 0.498754054 0.013504502
0.740927398 0.494686604 0.014194000
0.763421893 0.482399523 0.014194000
0.106343314 0.455672503 0.118717372
0.127877310 0.452494770 0.063176557
0.179554880 0.449165553 0.010201750
0.265206218 0.468497247 0.010251000
0.324694484 0.481105179 0.010546875
0.363007754 0.488130212 0.011040000
0.397312850 0.495782733 0.011040000
0.433209985 0.503530145 0.011040000
0.473105907 0.512106597 0.011040000
0.516658068 0.519928575 0.011040000
0.556234121 0.526017010 0.011829000
0.596540630 0.531979799 0.012075250
0.639501631 0.538495481 0.012617001
0.680111945 0.544608772 0.013406000
0.717477024 0.547546148 0.014194000
0.748809457 0.545329869 0.014194000
0.774871886 0.538841128 0.014983000
0.132681251 0.497703016 0.126144439
0.154862612 0.492767304 0.067726187
0.208154187 0.488974988 0.011089313
0.289351940 0.506191432 0.011040000
0.345657796 0.517272472 0.011040000
0.380623549 0.527057469 0.011040000
0.413273633 0.532415986 0.011286562
0.448514849 0.539925218 0.011286563
0.485098124 0.546247184 0.011829000
0.524110258 0.554071128 0.011829000
0.563088179 0.560162544 0.011829000
0.603511095 0.568328261 0.012617000
0.643562496 0.575053155 0.012617001
0.686017513 0.580210149 0.013406000
0.722852468 0.585886359 0.014194000
0.756461263 0.587342381 0.014194000
0.782793045 0.586884558 0.014983000
0.183418140 0.538682222 0.135833934
0.198230520 0.532571793 0.081768930
0.242235094 0.524196625 0.011040000
0.314465374 0.539073765 0.011237251
0.365999013 0.550440490 0.011829000
0.399948567 0.557967782 0.011829000
0.430940211 0.565576673 0.011829000
0.463333249 0.572012126 0.011829000
0.499572098 0.579371691 0.011829000
0.536380470 0.586270094 0.011829001
0.573050737 0.594360054 0.012026000
0.609386444 0.599097669 0.012617000
0.651180744 0.605965316 0.012814250
0.690331757 0.614261568 0.013406000
0.726763189 0.619387746 0.014194000
0.761579692 0.623711467 0.014243315
0.790086865 0.626895666 0.014983000
0.231491610 0.576546669 0.151835769
0.239624277 0.567990184 0.090891197
0.276169479 0.557259023 0.012026126
0.342537224 0.572615385 0.011829000
0.388058007 0.580680609 0.011829000
0.419186801 0.585891008 0.011829001
0.446867496 0.592331290 0.011976752
0.478601813 0.598986089 0.012321502
0.514841974 0.607861876 0.012617000
0.546431065 0.613069475 0.012617000
0.579194844 0.620140612 0.012617000
0.616044581 0.628586709 0.012617000
0.656001985 0.633542240 0.012814251
0.693812847 0.640950561 0.013406001
0.730429173 0.647688866 0.014194000
0.765353382 0.652141035 0.014243315
0.793588698 0.655717373 0.014983000
0.274210900 0.610018313 0.164660782
0.281403661 0.601685047 0.102693766
0.310840309 0.587262332 0.013849130
0.367981911 0.599286616 0.012715628
0.411544502 0.608938694 0.012617000
0.439561456 0.614505529 0.012617000
0.466699153 0.620781898 0.012617000
0.497814596 0.626250505 0.012617000
0.530882657 0.633453965 0.012617000
0.557872832 0.639256954 0.012617000
0.590086758 0.646305978 0.012715626
0.625156879 0.653517306 0.012715627
0.663025856 0.658729494 0.013406000
0.700091720 0.665593386 0.013406001
0.732050002 0.669838190 0.014194000
0.766332567 0.675710320 0.014243315
0.794706702 0.679737449 0.014983000
0.317707956 0.642440915 0.183815271
0.325350136 0.637890160 0.129415408
0.343874335 0.619525790 0.019024558
0.395651370 0.630000770 0.014982931
0.438692272 0.638406694 0.012617000
0.465802401 0.645191908 0.012617000
0.490926206 0.650401771 0.012666315
0.520402074 0.656640768 0.013406000
0.546086133 0.661186934 0.013406000
0.574240923 0.666877925 0.013406000
0.602545857 0.672798693 0.013406000
0.636869669 0.678413630 0.013406000
0.673182249 0.684404910 0.013406000
0.705747187 0.688410997 0.013553753
0.739579499 0.696356773 0.014194000
0.772555232 0.698274195 0.014983000
0.798249304 0.705237925 0.014983000
0.357077539 0.670686066 0.201787755
0.361304939 0.662218332 0.151726127
0.378829449 0.646559536 0.014932748
0.427798063 0.656442642 0.011927499
0.465776980 0.665145755 0.012469251
0.489637852 0.670212507 0.011829000
0.514116049 0.675201893 0.012617000
0.537061989 0.679528236 0.012567750
0.559911847 0.685317755 0.012617000
0.587039888 0.687570155 0.012617000
0.614753127 0.692974687 0.012617000
0.648465991 0.700621963 0.012617000
0.679593265 0.705816209 0.012617000
0.713324666 0.711060464 0.012764940
0.746450543 0.716103375 0.014194000
0.775474012 0.721133709 0.014194000
0.800029755 0.722625852 0.014983000
0.013307375 0.013406000 0.104634129
0.043226123 0.013406000 0.125726625
0.118099123 0.015278750 0.140739620
0.200204134 0.014440436 0.147434562
0.267025739 0.011829000 0.148711994
0.308243126 0.011829000 0.147253633
0.343340248 0.012617000 0.143130124
0.376456708 0.013060814 0.139610067
0.408475399 0.013406000 0.134261131
0.440344572 0.014194000 0.126831502
0.466230750 0.014194000 0.118274629
0.492202371 0.014440563 0.106841564
0.514094591 0.014983000 0.099194497
0.532487512 0.014983000 0.088428430
0.548344254 0.015672499 0.077651240
0.562425792 0.015771000 0.068875872
0.572988629 0.015771000 0.061384499
0.012617000 0.039379187 0.087604500
0.019763311 0.060383376 0.146441057
0.092870377 0.068173751 0.166472241
0.172278374 0.075273618 0.158495635
0.250500083 0.072413184 0.152834177
0.305859506 0.060906686 0.144154012
0.353596449 0.041757800 0.137168065
0.398288697 0.014884622 0.125897616
0.451363742 0.014194000 0.126258194
0.474851280 0.014194000 0.109983250
0.495346308 0.014884375 0.095012069
0.512386024 0.014983000 0.082276314
0.527328789 0.014983000 0.066981807
0.540361285 0.014983001 0.053115495
0.554303885 0.015672499 0.043626741
0.564031005 0.015771000 0.033218808
0.573815584 0.015771000 0.026417501
0.012617000 0.064633124 0.078813501
0.015869623 0.101346560 0.123822555
0.084778123 0.136975497 0.148693010
0.146696091 0.152616814 0.150873631
0.244838640 0.165876508 0.156198621
0.298644572 0.170639008 0.152190819
0.344304144 0.175089121 0.150631383
0.399513930 0.180998817 0.147473633
0.448448509 0.178552374 0.136391625
0.497488976 0.169738755 0.122238129
0.538968265 0.147313878 0.098071009
0.564939797 0.092213750 0.058614571
0.560220599 0.016461749 0.015672874
0.545637369 0.014983001 0.011138625
0.554772496 0.015771000 0.011138625
0.564673305 0.015771000 0.011829000
0.570750773 0.015771000 0.011829000
0.012617001 0.101273134 0.090530939
0.014095500 0.132355556 0.114149496
0.080038503 0.194203705 0.156866565
0.169724837 0.214305431 0.164154068
0.237007827 0.225378200 0.162799448
0.302672088 0.223512396 0.171559632
0.343387246 0.226566195 0.167735994
0.392018020 0.231813371 0.164441884
0.439776152 0.235801503 0.156566754
0.485498995 0.236628383 0.143212885
0.534237385 0.233255208 0.126967013
0.578834176 0.221787065 0.097484559
0.616074204 0.202092066 0.059153803
0.642019928 0.163552269 0.018186241
0.633340597 0.082752272 0.012518501
0.623108566 0.024101015 0.012617000
0.639177918 0.021932213 0.012617000
0.013406000 0.140320629 0.105258375
0.013406000 0.155253634 0.109735690
0.073464505 0.231422126 0.155829251
0.176253825 0.259902507 0.167698875
0.236279622 0.272712618 0.161498368
0.302988350 0.277706057 0.167796984
0.348864913 0.274420619 0.167099386
0.389967203 0.268652380 0.162125796
0.433508754 0.265048265 0.154037118
0.478838623 0.260330796 0.143238872
0.521688998 0.254895240 0.122884378
0.567024052 0.246705174 0.098266877
0.605918765 0.229732618 0.060990743
0.635277033 0.199737579 0.019024611
0.642887115 0.147462040 0.012617000
0.644402742 0.112565055 0.012617000
