public/lut/16.cube
TITLE "17x17x17 Adobe/IRIDAS cube 3D LUT exported with GrossGrade v0.2.2 (beta) 64 bit"
DOMAIN_MIN 0 0 0
DOMAIN_MAX 1 1 1
LUT_3D_SIZE 5
0.011829000 0.007886000 0.003943000
0.310513765 0.012026000 0.008477001
0.426870525 0.013406000 0.009857001
0.508294225 0.014983000 0.011040000
0.566937983 0.015771000 0.011829000
0.018728750 0.189855993 0.011829000
0.266876996 0.247178257 0.007886000
0.418389022 0.268433005 0.009463000
0.563173473 0.240208253 0.011829000
0.670653999 0.204217255 0.013406000
0.078009009 0.355745018 0.009463000
0.323280245 0.406163514 0.009463000
0.461391002 0.434698522 0.010251000
0.619535208 0.459829271 0.012617000
0.746638477 0.434092999 0.014194000
0.215872005 0.516968489 0.011040000
0.397781789 0.554144979 0.011829000
0.514383554 0.579819977 0.011829000
0.652482271 0.604831755 0.012814250
0.786707997 0.627378464 0.014983000
0.366706014 0.645457983 0.029177001
0.489828259 0.668295264 0.011829000
0.572792530 0.683467507 0.012617000
0.685319543 0.706417978 0.012617000
0.799888015 0.722096980 0.014983000
0.014194000 0.011040000 0.184565246
0.248716235 0.011631751 0.261111498
0.401907265 0.013406000 0.270980477
0.522583246 0.014983000 0.247171015
0.587218761 0.015771000 0.201238260
0.013997000 0.130716503 0.157602996
0.218112499 0.291889757 0.299644232
0.437093526 0.329654038 0.319152474
0.656432807 0.360612273 0.306354761
0.782462060 0.330222487 0.232976496
0.014983000 0.256324500 0.203583255
0.227013484 0.433978498 0.308370739
0.428613514 0.486086249 0.318907768
0.643077016 0.482401490 0.311473012
0.779347956 0.426294506 0.202228755
0.061584998 0.495083511 0.318350762
0.285732508 0.605442762 0.315744519
0.467493773 0.633660257 0.291709483
0.656468987 0.664378703 0.304370731
0.808140993 0.657088757 0.196114764
0.297218770 0.695593476 0.420996994
0.360318244 0.698052764 0.304166257
0.514263749 0.713119209 0.229578257
0.671787024 0.739237785 0.217970014
0.809748769 0.760371268 0.237663016
0.015771000 0.011434501 0.307086527
0.247566015 0.013406000 0.412509263
0.400538504 0.013406000 0.429055512
0.535120785 0.014983001 0.440624475
0.618605494 0.016559999 0.432382017
0.016559999 0.195376992 0.354600728
0.201376528 0.311489522 0.516615272
0.442432016 0.337454796 0.561031282
0.634975553 0.327323258 0.552032471
0.742985487 0.213872999 0.493651271
0.015771000 0.241228014 0.301986516
0.112616502 0.386034995 0.450281501
0.414210498 0.522072017 0.547673464
0.643510044 0.555476248 0.566771984
0.809004009 0.580800533 0.556798995
0.017151749 0.356439233 0.337407768
0.089129001 0.455450773 0.407268286
0.393690258 0.616434753 0.527016044
0.630671263 0.716030002 0.585557580
0.818782806 0.722701550 0.611001015
0.059500992 0.546927512 0.432109505
0.116478227 0.594174027 0.444033474
0.435486019 0.723289013 0.536509514
0.662904263 0.798396945 0.579330087
0.815850019 0.815761983 0.592396021
0.017348999 0.019517502 0.403445005
0.253053248 0.014983000 0.500579238
0.409177512 0.014983000 0.524188280
0.552155256 0.015771000 0.537185252
0.643717229 0.016559999 0.544675231
0.018137001 0.240697756 0.488798499
0.131607249 0.322133005 0.632875800
0.466349006 0.334678739 0.683725715
0.659887314 0.320899755 0.671781540
0.754349709 0.232666254 0.646559477
0.018137001 0.323708504 0.472404003
0.046865251 0.395317972 0.560762942
0.407626510 0.530873179 0.664909244
0.651631296 0.581561506 0.714149714
0.805828452 0.583195984 0.704705238
0.017349001 0.361977011 0.420013279
0.038123749 0.424093515 0.477667004
0.338733524 0.586368501 0.614236712
0.625810802 0.730056763 0.701303959
0.819175959 0.755510747 0.723364294
0.043819748 0.468214005 0.448784500
0.049837500 0.477637500 0.448803723
0.299765497 0.635196745 0.572998285
0.613404751 0.779223263 0.685197234
0.817384243 0.835669458 0.741222262
0.018137001 0.048985001 0.458344012
0.262294263 0.016559999 0.547641277
0.418721497 0.015771000 0.573550522
0.563904762 0.015771000 0.587663233
0.661988020 0.017348999 0.598004997
0.018926000 0.272161722 0.551736474
0.170652002 0.345253021 0.673839808
0.463755488 0.372855514 0.711590528
0.663589001 0.352678776 0.718863487
0.763629198 0.259534001 0.696906984
0.019714000 0.370689988 0.559252977
0.020502999 0.408864975 0.618927479
0.411468506 0.549220085 0.725972533
0.657765508 0.599308252 0.755439997
0.807440996 0.603785038 0.757474005
0.018926000 0.417846501 0.518656254
0.019911250 0.437000990 0.544600725
0.311117023 0.585353732 0.663232267
0.639093280 0.729067206 0.758746743
0.815130234 0.767769516 0.782218993
0.035486002 0.459518999 0.481651008
0.037062999 0.464091480 0.484748483
0.272347987 0.617269516 0.612468481
0.600515068 0.771466792 0.729577005
0.805765986 0.841971993 0.778367996
