public/lut/17.cube
TITLE "17x17x17 Adobe/IRIDAS cube 3D LUT exported with GrossGrade v0.2.2 (beta) 64 bit"
DOMAIN_MIN 0 0 0
DOMAIN_MAX 1 1 1
LUT_3D_SIZE 17
0.038640000 0.044737998 0.044737998
0.060552623 0.045462999 0.041089125
0.092704877 0.049497128 0.040896874
0.123547502 0.053529315 0.042374063
0.152345002 0.056664001 0.042516001
0.180003569 0.060277749 0.042516001
0.207376391 0.063522875 0.042516001
0.234841272 0.065958753 0.043264002
0.262346983 0.068393998 0.044371501
0.289413750 0.070763566 0.045777123
0.314417750 0.073648997 0.047596000
0.337954551 0.075824626 0.049198750
0.359019279 0.077889249 0.051851250
0.380040228 0.080149248 0.054414816
0.399917275 0.081950001 0.056274004
0.417164266 0.081950001 0.057438999
0.432267994 0.082415998 0.058053002
0.040167753 0.058429003 0.044737998
0.067277625 0.071558870 0.046891998
0.108717307 0.078344814 0.045371875
0.149542332 0.084342495 0.046090811
0.188348755 0.088637933 0.046090811
0.223178685 0.092396311 0.046090811
0.256023407 0.096153565 0.046802685
0.287198246 0.099168874 0.047507562
0.315782517 0.101980254 0.047901001
0.341564059 0.104958564 0.049880125
0.365273237 0.107381560 0.051559936
0.387311012 0.109212250 0.053122561
0.406775624 0.110632688 0.054853812
0.423024684 0.111282624 0.056273755
0.435261697 0.109785557 0.056781001
0.449095398 0.107739754 0.057361621
0.461925149 0.106356621 0.057438999
0.038640000 0.082507871 0.048118751
0.066173688 0.098305315 0.051476311
0.120958373 0.117117502 0.048985001
0.167091951 0.124815568 0.050809126
0.219543636 0.133080631 0.050935999
0.264124453 0.138338253 0.051518749
0.303857535 0.142529622 0.052181125
0.340020001 0.145529568 0.053405374
0.371690392 0.148699746 0.054692499
0.398605049 0.151197940 0.055958375
0.420791119 0.152286112 0.057205126
0.439544559 0.152356625 0.057898875
0.455431610 0.152199373 0.059265502
0.469072521 0.151133865 0.060907498
0.479403108 0.147720888 0.061422247
0.486224830 0.141270056 0.059792876
0.493165493 0.135546252 0.059191376
0.040217001 0.106390566 0.055329312
0.060811937 0.121350132 0.057166688
0.109118491 0.144656122 0.055368934
0.176561341 0.166952014 0.054693438
0.235538304 0.178701580 0.054853812
0.294803113 0.187813014 0.057510313
0.346421063 0.194946453 0.059527688
0.389718771 0.200409263 0.061050750
0.424314886 0.202561751 0.062185939
0.452877253 0.204057947 0.064337626
0.476704687 0.205111071 0.065430000
0.496503115 0.205384150 0.066230439
0.511320412 0.204278827 0.067025498
0.521856606 0.200732276 0.068421751
0.530862749 0.195368513 0.068354249
0.537447095 0.186834991 0.066302314
0.535623729 0.173438892 0.063629374
0.037852000 0.129180744 0.058963500
0.055550124 0.146192938 0.060164750
0.091963626 0.168878615 0.060833499
0.156338692 0.200134203 0.057400312
0.242702752 0.228843018 0.058356252
0.314595610 0.243460879 0.062728316
0.377675623 0.252968490 0.066128001
0.436035395 0.262304187 0.068589754
0.476091504 0.266254783 0.070261754
0.505793869 0.267026395 0.073064432
0.531239331 0.267092526 0.075595126
0.552984476 0.266505569 0.076774001
0.569590569 0.265309989 0.078363746
0.580724835 0.262150764 0.080467254
0.588345349 0.255059630 0.080585375
0.593614399 0.244499922 0.078183249
0.589552760 0.226587757 0.074271999
0.037062999 0.150995567 0.063594565
0.052664123 0.170841441 0.065116934
0.086497121 0.194820061 0.066339001
0.132309884 0.220654443 0.065605685
0.213921636 0.257208437 0.063413620
0.321516544 0.294795990 0.067906499
0.401478142 0.312513560 0.074340880
0.466179729 0.321230322 0.076927252
0.518200755 0.328743994 0.082452871
0.552352726 0.331380367 0.087414004
0.578530908 0.330557495 0.089525752
0.601961434 0.328893244 0.091219880
0.620910525 0.328152329 0.094364814
0.634136677 0.325975806 0.097822122
0.643041193 0.319008052 0.097426377
0.648184359 0.307114840 0.094543613
0.644767523 0.287669510 0.088653870
0.037852000 0.173204884 0.069066502
0.052664123 0.195315152 0.069568373
0.083014749 0.222386509 0.071123622
0.122677326 0.246410742 0.072554626
0.187983751 0.279881001 0.070133120
0.290212065 0.322526991 0.069864564
0.411588669 0.364759386 0.079748504
0.495964229 0.382826209 0.088324063
0.546667755 0.386388272 0.094439633
0.588606000 0.390556335 0.102703758
0.620753348 0.391432524 0.108684130
0.643550634 0.388896704 0.111935504
0.662684619 0.387239158 0.115445383
0.679237306 0.386490583 0.119843647
0.689737022 0.380147517 0.120959260
0.695232689 0.367413044 0.117260501
0.695315123 0.348590255 0.110619135
0.039083812 0.197837338 0.072685063
0.052951127 0.220458642 0.073167317
0.078189939 0.248867631 0.075166062
0.119512133 0.276022702 0.078008816
0.174721628 0.305455506 0.076258123
0.263500273 0.346451193 0.073199689
0.383087724 0.391863704 0.080963008
0.509001255 0.434326738 0.096816011
0.579647005 0.446607083 0.109016694
0.617935359 0.444324136 0.117456697
0.655592740 0.447605819 0.127384499
0.684327960 0.448103160 0.134832650
0.703894079 0.445453584 0.139035955
0.719350338 0.442518294 0.143280074
0.733577311 0.438551605 0.147180080
0.741262674 0.427636057 0.145537317
0.739427328 0.407063961 0.136825517
0.040605500 0.223352998 0.078613997
0.052707750 0.246166319 0.078613997
0.076690629 0.274297625 0.080236003
0.115415759 0.301481307 0.082704186
0.170468509 0.330640256 0.083338253
0.251763344 0.366776764 0.079549491
0.365020037 0.411656260 0.083496377
0.483583570 0.452873826 0.099365070
0.594077051 0.489264488 0.120865509
0.649841428 0.496658802 0.133610398
0.685339451 0.497345507 0.143365264
0.718212366 0.500136077 0.155113697
0.741278470 0.499601007 0.163496524
0.758300424 0.496561408 0.168784082
0.772131622 0.491746783 0.172908634
0.785253704 0.485832453 0.174940884
0.783194005 0.464723021 0.166613013
0.042090189 0.249164447 0.086149558
0.053359374 0.270882070 0.085024685
0.076624006 0.298572630 0.086347312
0.112319954 0.324075758 0.088887312
0.170373067 0.353820235 0.091181502
0.253367454 0.390925050 0.087460622
0.355386674 0.429945201 0.087420501
0.466865748 0.469832659 0.102627829
0.573027670 0.505268335 0.123554692
0.666815162 0.535186052 0.147467509
0.712181330 0.540636957 0.159979925
0.742874324 0.540384293 0.171258062
0.767742038 0.540631056 0.181568325
0.788988292 0.541865885 0.191546455
0.804249704 0.539146781 0.198245004
0.817151189 0.532925785 0.200790882
0.823059559 0.519285500 0.197557569
0.043541875 0.274325252 0.093789876
0.053402126 0.293459117 0.091926813
0.075644001 0.320228010 0.093217000
0.111348324 0.345444769 0.095545501
0.166856244 0.372672617 0.097727127
0.248680741 0.409064054 0.094465561
0.351528555 0.449492902 0.094410129
0.464403331 0.489132285 0.108420193
0.572227538 0.525061667 0.130041137
0.660254419 0.553390503 0.152966499
0.729651511 0.574802220 0.174022496
0.765201449 0.577104509 0.185931057
0.788841367 0.575908005 0.197978377
0.809017658 0.576421976 0.209495515
0.825891495 0.576357365 0.220129624
0.838199615 0.570616782 0.223923862
0.847404003 0.560159385 0.222884119
0.045462999 0.297858506 0.101573437
0.054247998 0.314623922 0.098002873
0.075396501 0.339490950 0.099568248
0.111560702 0.366056442 0.101694815
0.167533264 0.392432928 0.104560502
0.243369803 0.425190300 0.102056876
0.346127629 0.466082960 0.101788118
0.461203277 0.506886780 0.115659878
0.569886804 0.542292833 0.136773378
0.657269359 0.570322871 0.160033882
0.724273801 0.592064917 0.181775704
0.780157983 0.607792318 0.200454131
0.808019400 0.608729541 0.212406322
0.825887620 0.607039094 0.224215209
0.842444718 0.607186377 0.237053573
0.855743289 0.604865015 0.246025190
0.865603805 0.595627964 0.245457500
0.046181001 0.318085998 0.109075248
0.055914126 0.333425522 0.103758134
0.076888248 0.357768387 0.105245881
0.110544883 0.382908314 0.107383817
0.166093498 0.408942759 0.111233756
0.243575245 0.440742612 0.109505311
0.343337148 0.479604155 0.108801126
0.455909550 0.519940913 0.121270694
0.566093326 0.556295753 0.143503755
0.660050273 0.586430430 0.168600678
0.731051266 0.609881222 0.191999257
0.784864843 0.627122462 0.212057516
0.821455538 0.635375977 0.225518018
0.841303408 0.636036277 0.238164842
0.856928647 0.635938764 0.251402378
0.872105896 0.637119591 0.265322387
0.882185519 0.630033255 0.269627243
0.047596000 0.335617959 0.116297573
0.057161689 0.349531353 0.109935939
0.078801624 0.373678267 0.111369446
0.109908007 0.396579504 0.113048948
0.164187744 0.422576457 0.117126323
0.247482628 0.455952168 0.117487013
0.345119953 0.492708206 0.116849571
0.451565921 0.531093717 0.127130449
0.558892727 0.567560077 0.150242254
0.658068180 0.599500418 0.176847383
0.735222042 0.625404298 0.202730894
0.787365615 0.642812192 0.223545700
0.825339854 0.653907061 0.238204271
0.851897717 0.659646928 0.250919878
0.868832409 0.662393570 0.265134335
0.883935630 0.663667321 0.279325306
0.897843122 0.664333284 0.293119788
0.049753878 0.353153408 0.124244258
0.057854008 0.364053249 0.115890756
0.081688493 0.388428003 0.117235012
0.111736700 0.410309404 0.118835136
0.167686135 0.437686861 0.124442130
0.253886938 0.471379220 0.126292631
0.350589782 0.507524848 0.125758260
0.450862199 0.543280721 0.133975595
0.555271506 0.578920960 0.157007009
0.656319022 0.611925542 0.183968574
0.735285282 0.638966143 0.210969865
0.789811492 0.658374429 0.233866453
0.831095994 0.672420025 0.251872391
0.859158456 0.679894567 0.265268147
0.877306521 0.683696032 0.276313126
0.892115951 0.686137259 0.290781498
0.906829774 0.688622653 0.307100743
0.051727317 0.369650483 0.131290510
0.060157999 0.378311753 0.121118568
0.084774747 0.402796566 0.123096131
0.118601203 0.426216483 0.125263244
0.174970135 0.453200102 0.130849570
0.259271741 0.485725164 0.133719310
0.355123639 0.521718204 0.134127945
0.454628795 0.557461023 0.141831011
0.557008445 0.591760397 0.164210379
0.654726148 0.624105394 0.189905182
0.729175210 0.650103986 0.215772375
0.786114514 0.671532333 0.240551800
0.835366666 0.690300465 0.264192879
0.866799951 0.701272428 0.280062318
0.883685052 0.704862773 0.291052550
0.898570180 0.707725704 0.302126557
0.913208842 0.710878074 0.318258435
0.054295000 0.385944992 0.138595000
0.061341561 0.392487288 0.125879318
0.086668000 0.417346120 0.128661379
0.125853762 0.442679435 0.131934553
0.185098499 0.470541000 0.138664246
0.261530012 0.498948306 0.141164005
0.355909169 0.535359740 0.142709002
0.457641512 0.572194874 0.150953069
0.557356536 0.605308533 0.171446502
0.649595499 0.635987043 0.195330873
0.722427845 0.661767364 0.220565870
0.781441748 0.683858454 0.246006802
0.831907988 0.703846753 0.270880997
0.867897570 0.719448984 0.292009383
0.889027476 0.728262126 0.306889892
0.904458046 0.731429279 0.317797750
0.916368008 0.731970012 0.328247994
0.037112311 0.045462999 0.059716187
0.057696376 0.048206374 0.063048936
0.091318250 0.049583063 0.062428877
0.123547502 0.053488377 0.060786374
0.154964000 0.056156751 0.060118373
0.183495387 0.059642375 0.059106499
0.209662199 0.061422877 0.058348812
0.236184642 0.063129999 0.057737313
0.263279140 0.065365501 0.057777878
0.288729757 0.066996187 0.059259124
0.312516749 0.068934001 0.060791250
0.334016114 0.069503315 0.061418626
0.355431765 0.071713999 0.062728815
0.375840336 0.073265001 0.064446874
0.394166112 0.074252874 0.065468498
0.411046773 0.074221119 0.064942561
0.425536811 0.074221119 0.064942561
0.035584562 0.061302561 0.067898370
0.063428938 0.076965377 0.076008253
0.107427254 0.079847939 0.075601876
0.150056571 0.082589246 0.072136872
0.187783822 0.086184442 0.070999190
0.223911136 0.089330502 0.069246568
0.258215874 0.092143312 0.068944134
0.288395792 0.095396817 0.068980820
0.315734148 0.098581940 0.069517002
0.341075003 0.101482376 0.070615813
0.364339054 0.103930563 0.072379127
0.385395706 0.106166191 0.073921993
0.403313249 0.107350498 0.074970439
0.418136567 0.107028499 0.075380936
0.429929554 0.105915569 0.075318314
0.441930830 0.104252875 0.074438743
0.453649998 0.101957753 0.072941124
0.034647748 0.084229313 0.072949432
0.060180001 0.100308381 0.080763631
0.117395565 0.120666243 0.084817119
0.170259148 0.125721812 0.081143372
0.221989200 0.131138995 0.081062749
0.267859787 0.134922445 0.079336502
0.307517380 0.138306186 0.077708066
0.341298074 0.140508130 0.077862814
0.369720459 0.141738757 0.078413934
0.394871294 0.143440127 0.078897685
0.416422546 0.145102888 0.079203382
0.433352768 0.145092577 0.079686001
0.446848869 0.143423811 0.079569250
0.459302396 0.141345054 0.079511434
0.469118953 0.137971640 0.078247570
0.474374026 0.131968752 0.076220490
0.481012791 0.125466257 0.073389120
0.035486002 0.108773693 0.080242373
0.054079063 0.126184613 0.084368125
0.103338875 0.148289189 0.086570181
0.184309319 0.173620015 0.085414998
0.243445069 0.181768820 0.087318502
0.303451180 0.189855203 0.088256069
0.353597492 0.194840059 0.088149130
0.392270267 0.197135761 0.087851189
0.423611194 0.197835118 0.088235438
0.449804902 0.197591573 0.088674374
0.470580250 0.197585762 0.089519873
0.486107260 0.195748001 0.089519873
0.497180939 0.191598907 0.088654436
0.504316986 0.184993386 0.086446501
0.510188758 0.177624181 0.083992131
0.514071107 0.168618754 0.080438308
0.513218045 0.156151891 0.075351059
0.034697000 0.134004563 0.087354437
0.050797567 0.151572943 0.090083502
0.090165876 0.172490373 0.091257945
0.157789901 0.201500013 0.089704432
0.254849315 0.233987615 0.093078747
0.323618501 0.245064497 0.095285684
0.385502130 0.253081262 0.096738756
0.437306851 0.258820832 0.099632941
0.473808676 0.260702193 0.101244621
0.500988364 0.259667128 0.101271316
0.524055243 0.258522093 0.102627374
0.541874409 0.256371886 0.103915811
0.554685593 0.251977623 0.102916315
0.561047912 0.243411809 0.099568993
0.562764823 0.230940431 0.095400363
0.562969983 0.216956168 0.090716682
0.560125172 0.199912310 0.084304377
0.035486002 0.157663003 0.093608819
0.046841249 0.175133944 0.092694119
0.079658501 0.196928799 0.092696562
0.136745393 0.225901380 0.095162630
0.224024490 0.265693933 0.093791254
0.334532440 0.302534163 0.100541063
0.408083826 0.314100116 0.105000317
0.465978146 0.319894195 0.108721375
0.515488923 0.325443894 0.114443563
0.548276663 0.325608015 0.117166691
0.571188033 0.322753131 0.118788630
0.590557516 0.319568843 0.120565064
0.606717229 0.315561742 0.121324681
0.616501868 0.307339996 0.118210115
0.618821323 0.293892622 0.113278992
0.617837906 0.276849240 0.106456690
0.613786817 0.255982876 0.098006561
0.035535250 0.180938393 0.098927312
0.045278810 0.197971508 0.095092818
0.073074125 0.222216576 0.094268374
0.124162517 0.250843585 0.098131374
0.195978314 0.286782742 0.097155876
0.300664097 0.329646230 0.098525882
0.420173526 0.370480537 0.110795572
0.493182808 0.382930428 0.119145565
0.541081607 0.385196775 0.126145810
0.583406031 0.387489974 0.132700697
0.612429798 0.386362195 0.137402266
0.632089019 0.382453144 0.139867008
0.648980677 0.377478659 0.140869766
0.662843585 0.370093107 0.140165076
0.668520153 0.356971830 0.135675073
0.670085311 0.339565188 0.127750114
0.666020572 0.316739023 0.117475569
0.037506811 0.206307516 0.104846694
0.045325562 0.221784949 0.099698566
0.069075435 0.246697575 0.098830126
0.116913565 0.277535141 0.101842873
0.178974077 0.308215797 0.102856256
0.270997047 0.350116938 0.099989817
0.387508065 0.393563002 0.109286383
0.506660938 0.433716476 0.129294574
0.571127951 0.442165583 0.140559748
0.609300494 0.439763397 0.147806153
0.644668698 0.441393793 0.156753272
0.670884609 0.441079468 0.163674265
0.687776446 0.435375303 0.165652007
0.701001704 0.426801413 0.164380893
0.711430490 0.416253448 0.161180139
0.716262758 0.400851995 0.154265121
0.712994099 0.376984954 0.141737640
0.039429002 0.231936067 0.111321375
0.045998689 0.246621266 0.105179943
0.066764116 0.270341486 0.103022441
0.108030573 0.299605757 0.105228320
0.173364878 0.333334595 0.108761057
0.255667239 0.369823873 0.105671622
0.365605772 0.413352102 0.107577756
0.478161186 0.452568024 0.127922148
0.587756753 0.488622308 0.152665824
0.641400993 0.493909329 0.164895445
0.672195196 0.489856958 0.173918694
0.701391518 0.490151048 0.183951691
0.724159360 0.488801926 0.191040173
0.738895476 0.481085122 0.191668078
0.749080896 0.469252020 0.186983570
0.758987963 0.458096504 0.183887377
0.755526364 0.433464527 0.170527756
0.041328687 0.257296264 0.118604064
0.046757374 0.270186931 0.110413812
0.065968379 0.293858230 0.106767938
0.102307081 0.320432216 0.108719498
0.163823515 0.353207886 0.113296568
0.246221319 0.390132099 0.112083562
0.350661725 0.430573076 0.110936508
0.461714804 0.470724225 0.126881257
0.568166375 0.506703913 0.153057948
0.661632061 0.536289454 0.179060057
0.703095138 0.537858844 0.190925121
0.728634298 0.533763826 0.201267868
0.752501369 0.533196926 0.211317763
0.773235202 0.531415939 0.218376234
0.784078181 0.519116104 0.214768752
0.792739749 0.506511629 0.210956559
0.796770513 0.488728613 0.202453449
0.043264002 0.282043815 0.126232684
0.047462687 0.291872412 0.116365686
0.066078626 0.314557582 0.111886375
0.102356128 0.340893954 0.113273814
0.155297503 0.369017065 0.117003188
0.236130685 0.405393600 0.117769316
0.342317075 0.447748691 0.117568500
0.457322448 0.488458127 0.130488634
0.560384631 0.523359537 0.154156387
0.649837792 0.552391052 0.182288751
0.721201181 0.573759496 0.205537617
0.754626691 0.575103164 0.218692124
0.776728809 0.572361410 0.228816316
0.796530962 0.569826484 0.237590209
0.812376559 0.564346790 0.241323441
0.822415292 0.552707195 0.238462120
0.830675900 0.539399564 0.233461261
0.044964559 0.305719882 0.134648487
0.049067937 0.313238353 0.123826563
0.066667937 0.333554208 0.117619626
0.101655446 0.360079587 0.118987747
0.152456686 0.385941386 0.121820316
0.231698141 0.420687437 0.124647558
0.336631984 0.463388383 0.125298560
0.453036278 0.504711807 0.136380270
0.557372749 0.539025545 0.157548457
0.646621883 0.568336070 0.185344487
0.720220625 0.592174828 0.213807195
0.770171404 0.605203152 0.232416615
0.796238482 0.605311573 0.243648455
0.814686120 0.601905704 0.252968431
0.832294166 0.599724054 0.260902464
0.846210122 0.595091403 0.265594929
0.855452299 0.583683968 0.262235850
0.046847560 0.325855076 0.142484128
0.050849624 0.331926942 0.130493879
0.067183562 0.349936724 0.122127190
0.100029439 0.375959247 0.123427249
0.151972070 0.402264267 0.126476750
0.230433807 0.434732944 0.130264252
0.332616419 0.475797653 0.131190181
0.446183980 0.517449319 0.140688956
0.554317117 0.553409696 0.163317323
0.649814427 0.584425151 0.188440129
0.724362314 0.609399676 0.219028622
0.776557446 0.625493526 0.242100000
0.809705138 0.632325947 0.256610870
0.830873132 0.631653965 0.267215490
0.847716689 0.629590154 0.275845021
0.863583386 0.628808141 0.286287725
0.873794079 0.620820403 0.288291365
0.048250377 0.343177140 0.149205506
0.052179627 0.348425001 0.135779008
0.067766495 0.366221458 0.125945747
0.099330135 0.390908122 0.127440929
0.152079493 0.417858243 0.131008625
0.233428746 0.450621754 0.136253998
0.330441296 0.488503933 0.136560619
0.438857764 0.528786063 0.144852147
0.546315670 0.565900922 0.168085203
0.646437705 0.598284304 0.194330126
0.726012647 0.624740541 0.220505193
0.779179335 0.642697453 0.247830823
0.816262424 0.652907491 0.266302228
0.844108939 0.658588529 0.279863924
0.860806048 0.657361627 0.289530486
0.876353443 0.656881928 0.300302625
0.891163409 0.657477260 0.314158797
0.050432004 0.360363722 0.155663252
0.053567067 0.363460809 0.140639007
0.069347128 0.380715430 0.129883125
0.101311766 0.405704498 0.131372944
0.153033882 0.432206154 0.135263115
0.235990077 0.464813441 0.142153442
0.332962602 0.502633214 0.143197939
0.437721938 0.540907741 0.150115013
0.543898106 0.577331305 0.172485188
0.641243517 0.609514773 0.198332816
0.724042177 0.637833059 0.224658057
0.783804536 0.659540296 0.251117736
0.826738834 0.675020576 0.275846273
0.852609694 0.681114137 0.290627480
0.872153401 0.683993101 0.301934540
0.887520611 0.684577227 0.314545751
0.903433263 0.687190294 0.330468804
0.053042565 0.377485871 0.163002446
0.055407625 0.378090739 0.146868959
0.071428873 0.393844217 0.133146733
0.106257379 0.420870095 0.135524243
0.156293198 0.446490526 0.139853060
0.237042814 0.477571130 0.146849319
0.336072505 0.516693115 0.149636507
0.440460384 0.554968238 0.157045692
0.544562161 0.590035319 0.177375138
0.636769474 0.621123791 0.201732382
0.714926302 0.648324788 0.227310121
0.780358016 0.672347546 0.251996309
0.829761744 0.691915512 0.280780494
0.860262930 0.703291297 0.301558942
0.879281580 0.706775904 0.314144135
0.895885348 0.709497094 0.326745868
0.910799265 0.712642252 0.343276501
0.055567998 0.393214107 0.168474615
0.056702126 0.392811269 0.152104869
0.074790940 0.408995330 0.137151316
0.112503581 0.436918885 0.140849993
0.166427448 0.464117140 0.145912871
0.243678689 0.492744505 0.152837753
0.336508751 0.529398203 0.155866742
0.442171514 0.568433344 0.163401499
0.542318463 0.602485716 0.181864321
0.633254409 0.633393407 0.206332073
0.710272551 0.660384357 0.231471866
0.777626991 0.685054183 0.257007420
0.827472925 0.704593003 0.279603124
0.862660944 0.721528709 0.308532834
0.886120796 0.731567681 0.328612179
0.901639342 0.734268129 0.341427118
0.914929390 0.734867215 0.352943510
0.034795627 0.046181001 0.085379995
0.052175190 0.048250377 0.089601748
0.088026881 0.053488001 0.092874251
0.122665375 0.057166439 0.093656503
0.158731014 0.059642125 0.090915121
0.191559374 0.062552065 0.089138120
0.220282137 0.064802498 0.087046631
0.249626383 0.066926062 0.085340753
0.276900351 0.068596251 0.084520623
0.302374452 0.070168257 0.084092319
0.325574487 0.071452625 0.083723128
0.347387880 0.072653189 0.083495125
0.368143141 0.074346870 0.083669752
0.387332141 0.076197565 0.084471501
0.403705031 0.077031501 0.084018126
0.418992937 0.076600119 0.081851624
0.432336628 0.076600119 0.080466501
0.034697000 0.062508941 0.096833378
0.057067625 0.075575128 0.103961192
0.099679373 0.082615003 0.110818066
0.148789316 0.084795192 0.108671375
0.191843688 0.087518305 0.102775820
0.227800056 0.089384310 0.097084433
0.260823995 0.091399685 0.093833439
0.290021628 0.093064442 0.091736242
0.316098303 0.094526745 0.089704186
0.339257389 0.095785566 0.088291436
0.361722946 0.097760998 0.088320196
0.381867498 0.099183694 0.088349625
0.398513108 0.099877313 0.087748624
0.411981612 0.099039122 0.086613193
0.423885942 0.097593375 0.085014999
0.436128676 0.096383311 0.083646938
0.446350187 0.093214557 0.080558501
0.033810377 0.087380871 0.107922502
0.054028813 0.104369119 0.119093880
0.100886248 0.123282380 0.125988990
0.164404064 0.130550548 0.130803749
0.216945380 0.132141382 0.122631997
0.262062103 0.134208620 0.116423815
0.302346259 0.136533752 0.112678252
0.338189662 0.138082370 0.109403253
0.369245142 0.139578000 0.107286379
0.393639952 0.140988052 0.106324755
0.414506853 0.141930997 0.105628878
0.431509793 0.141727015 0.104156375
0.445701271 0.139960632 0.102370627
0.456996739 0.137523621 0.100607187
0.465128481 0.133698642 0.097914375
0.468189120 0.127262920 0.093963556
0.474090636 0.120820999 0.089480743
0.034697000 0.112668313 0.116314128
0.049437188 0.130927369 0.123909943
0.096708059 0.152917892 0.133281440
0.170813650 0.176594451 0.140387625
0.238469690 0.182172015 0.132404700
0.298768818 0.187802255 0.128573745
0.349238634 0.191525191 0.126656309
0.390023947 0.192963004 0.122599691
0.422289252 0.193072021 0.119506128
0.446542650 0.191880509 0.118825004
0.466731608 0.190939635 0.117735632
0.482571632 0.189001828 0.115544118
0.494283676 0.185124084 0.112635314
0.500398576 0.177816436 0.108250491
0.504775643 0.169282883 0.103403933
0.505618155 0.160243988 0.098239310
0.503712237 0.147870466 0.091464564
0.034697000 0.139846742 0.124272875
0.048105188 0.157397240 0.128017306
0.085741386 0.179519489 0.132343516
0.147799194 0.203125730 0.135091573
0.247900248 0.235594511 0.139026001
0.320172608 0.245928630 0.137855873
0.381115526 0.253403276 0.138774753
0.432352513 0.256943583 0.139467999
0.468915224 0.257368386 0.138546988
0.494712442 0.255248547 0.136853755
0.516864479 0.252916008 0.135542005
0.534426808 0.249188244 0.132668078
0.545644522 0.242768496 0.128687486
0.550430000 0.232430354 0.122788548
0.549731553 0.216882229 0.114194125
0.546480715 0.201188371 0.105480798
