public/lut/17.cube
TITLE "17x17x17 Adobe/IRIDAS cube 3D LUT exported with GrossGrade v0.2.2 (beta) 64 bit"
DOMAIN_MIN 0 0 0
DOMAIN_MAX 1 1 1
LUT_3D_SIZE 5
0.038640000 0.044737998 0.044737998
0.152345002 0.056664001 0.042516001
0.262346983 0.068393998 0.044371501
0.359019279 0.077889249 0.051851250
0.432267994 0.082415998 0.058053002
0.037852000 0.129180744 0.058963500
0.242702752 0.228843018 0.058356252
0.476091504 0.266254783 0.070261754
0.569590569 0.265309989 0.078363746
0.589552760 0.226587757 0.074271999
0.040605500 0.223352998 0.078613997
0.170468509 0.330640256 0.083338253
0.594077051 0.489264488 0.120865509
0.741278470 0.499601007 0.163496524
0.783194005 0.464723021 0.166613013
0.046181001 0.318085998 0.109075248
0.166093498 0.408942759 0.111233756
0.566093326 0.556295753 0.143503755
0.821455538 0.635375977 0.225518018
0.882185519 0.630033255 0.269627243
0.054295000 0.385944992 0.138595000
0.185098499 0.470541000 0.138664246
0.557356536 0.605308533 0.171446502
0.831907988 0.703846753 0.270880997
0.916368008 0.731970012 0.328247994
0.034697000 0.049669001 0.123671502
0.152072504 0.064236253 0.147835255
0.292435497 0.074915498 0.142324999
0.387477994 0.079101250 0.134545743
0.442328244 0.079102002 0.119819000
0.037852000 0.141476750 0.187230006
0.203407764 0.243008018 0.237693503
0.455703288 0.258704752 0.223334253
0.540927231 0.233350515 0.185197502
0.540158987 0.178658262 0.140119493
0.044917248 0.280543745 0.247439757
0.134996265 0.342276514 0.223923013
0.539698720 0.490151018 0.290731728
0.697996974 0.484859735 0.305239230
0.715943515 0.381488770 0.222767264
0.055406749 0.374197513 0.279514760
0.125750497 0.411824226 0.225533262
0.488634527 0.544395030 0.259818763
0.769604504 0.629285455 0.360919982
0.860504210 0.607226253 0.374031514
0.067439497 0.438533723 0.296906769
0.225626752 0.518204749 0.271980762
0.508432031 0.624596238 0.337497234
0.778087258 0.729091227 0.449911267
0.920526266 0.771823764 0.511770785
0.038640000 0.066749007 0.195238009
0.123935997 0.069061249 0.228193015
0.305990517 0.098324001 0.259074509
0.417258024 0.102825500 0.252804250
0.455722988 0.089164495 0.211572498
0.042890001 0.165489495 0.276324987
0.170648754 0.260720015 0.354791254
0.439288765 0.313890755 0.395923495
0.565950513 0.276185989 0.341580987
0.564625740 0.191529751 0.241329253
0.049666498 0.279080003 0.348801494
0.173620254 0.390620738 0.413256764
0.455743492 0.495249033 0.452285528
0.667991757 0.487468004 0.440431029
0.689383507 0.333885014 0.285932004
0.077884495 0.423155248 0.432683259
0.181996256 0.480811238 0.432332277
0.425955772 0.555212498 0.436754763
0.723035574 0.647671700 0.518960476
0.859398246 0.608947515 0.453763008
0.110771000 0.513393521 0.468791008
0.257442772 0.567510724 0.427475512
0.452403009 0.624241531 0.426021039
0.745065272 0.742717505 0.529945016
0.916321993 0.800930977 0.613619506
0.044737998 0.108972505 0.278435767
0.111625746 0.083568253 0.283133775
0.286842257 0.117986754 0.338027507
0.438995510 0.138013244 0.353377491
0.488923490 0.120494254 0.320166767
0.049156003 0.210654497 0.356797516
0.153114006 0.285357475 0.413265258
0.358934999 0.316362023 0.458353490
0.576449513 0.349820256 0.484414786
0.614453495 0.257803261 0.397333771
0.054132752 0.288958997 0.399711251
0.179566503 0.400996000 0.472233742
0.436695516 0.499689966 0.534648776
0.642544746 0.537420034 0.578009963
0.725405693 0.398073792 0.461237282
0.075286746 0.405476034 0.474470526
0.205912769 0.496504754 0.522683978
0.476520002 0.591734767 0.584480524
0.653767705 0.657177508 0.611507773
0.839125276 0.603296995 0.572118759
0.147048250 0.551285028 0.563151240
0.378025293 0.641906500 0.591969013
0.533573270 0.694948256 0.619132280
0.710231304 0.766453743 0.660370529
0.909329534 0.831121743 0.734572530
0.050347999 0.157962993 0.352623999
0.095460251 0.097927749 0.318058014
0.244977504 0.130118996 0.382738501
0.430240512 0.178491250 0.431832492
0.513558984 0.149404004 0.400615990
0.054774247 0.249941260 0.418153226
0.131269515 0.302534521 0.457481742
0.273115009 0.310708016 0.485687256
0.516895771 0.369436234 0.547879815
0.659104705 0.338492006 0.527390003
0.060166001 0.318659008 0.454831511
0.159808517 0.405243009 0.516770005
0.347048044 0.468493998 0.578438520
0.566408277 0.511406004 0.621841550
0.759069502 0.500904024 0.631129503
0.074660249 0.400474012 0.503502250
0.205481261 0.492865503 0.564284444
0.437286258 0.584351778 0.640484035
0.646860242 0.650462270 0.703293025
0.842058778 0.661316037 0.731213033
0.143129006 0.541413009 0.595160007
0.431247026 0.658835769 0.671854019
0.599032521 0.727030993 0.729982018
0.748582721 0.795130253 0.791772723
0.902463973 0.859445989 0.845598996
