public/lut/18.cube
TITLE "17x17x17 Adobe/IRIDAS cube 3D LUT exported with GrossGrade v0.2.2 (beta) 64 bit"
DOMAIN_MIN 0 0 0
DOMAIN_MAX 1 1 1
LUT_3D_SIZE 5
0.023657000 0.019714000 0.019714000
0.357436001 0.016559999 0.015771000
0.499143004 0.015771000 0.015771000
0.563250303 0.015771000 0.015771000
0.616894007 0.015771000 0.015771000
0.019714000 0.285240263 0.015771000
0.280768514 0.241605759 0.015771000
0.412861258 0.187874496 0.015771000
0.456489742 0.122029252 0.015771000
0.527226508 0.102018252 0.015771000
0.112043515 0.522466004 0.015771000
0.401422501 0.512239039 0.015771000
0.536536455 0.466156542 0.015771000
0.646099925 0.433543265 0.015771000
0.661864519 0.332221031 0.015771000
0.332794011 0.661428452 0.014785750
0.509745777 0.672572494 0.015771000
0.611068487 0.648497522 0.015771000
0.688256264 0.608717561 0.015771000
0.762202501 0.586747766 0.015771000
0.463820010 0.734108984 0.053002000
0.581765532 0.747388721 0.017348999
0.667278051 0.740399480 0.015771000
0.727512240 0.717705250 0.015771000
0.770856023 0.685716987 0.015771000
0.019714000 0.018531250 0.147872254
0.206353009 0.028191749 0.074997246
0.388813019 0.015771000 0.032922748
0.514872789 0.015771000 0.020700250
0.580463767 0.015771000 0.017151749
0.019714000 0.116778255 0.123229504
0.226511270 0.263365746 0.228708014
0.494705021 0.303471774 0.246978253
0.638809443 0.321251243 0.230198503
0.743259251 0.341029257 0.223835006
0.024248749 0.451160491 0.296695530
0.362569004 0.553418040 0.334197760
0.528186798 0.494173765 0.257452756
0.593784273 0.391347528 0.208008736
0.605959773 0.309269756 0.165073007
0.277212262 0.717949748 0.429524750
0.528466582 0.766045690 0.419458985
0.664246023 0.751075029 0.352101028
0.698580027 0.655949235 0.247548014
0.749612749 0.596503794 0.201905757
0.470346749 0.800621986 0.460907996
0.605874956 0.821150005 0.442544997
0.720394492 0.831718981 0.404843271
0.772580206 0.801169038 0.327831984
0.788398981 0.734851480 0.230529502
0.019714000 0.014983000 0.272299498
0.302548498 0.015771000 0.409180254
0.386903495 0.016559999 0.214266509
0.475986511 0.015771000 0.114147499
0.557647467 0.015771000 0.086701497
0.019714000 0.081820503 0.149677247
0.209593743 0.256178498 0.413665742
0.485423982 0.291033506 0.450842738
0.553383231 0.240215242 0.275499761
0.687236249 0.251316488 0.276325732
0.025628500 0.201279998 0.220577508
0.277099550 0.432441235 0.437489271
0.468424499 0.516982496 0.472741991
0.687002718 0.557718515 0.510372758
0.794915497 0.581063032 0.505450010
0.084005743 0.493639499 0.401055008
0.346626759 0.620949507 0.492708266
0.544070959 0.687427282 0.536873758
0.670385480 0.671719491 0.501150787
0.766527772 0.631171048 0.476877034
0.303190470 0.720937014 0.534011960
0.502124488 0.786133528 0.585697234
0.655893564 0.826841950 0.607895494
0.746005535 0.823721528 0.566840470
0.782070518 0.770817995 0.493303001
0.019714000 0.018531250 0.362944514
0.279614270 0.015771000 0.514185250
0.513431549 0.015771000 0.518760324
0.515015006 0.015771000 0.340022981
0.556986272 0.015771000 0.218015522
0.019714000 0.126543492 0.314262986
0.178860754 0.236082509 0.493505508
0.494180560 0.315568745 0.606871068
0.630317926 0.277172476 0.553342938
0.593399465 0.218367502 0.336876273
0.025037251 0.121810757 0.172943994
0.152959496 0.320301771 0.437578499
0.473686814 0.520830810 0.609893978
0.669656277 0.555815756 0.647444010
0.743803978 0.497349530 0.523437023
0.035614755 0.298168004 0.320315003
0.251086742 0.474007010 0.482632518
0.530366421 0.654119253 0.625349820
0.636826992 0.692756057 0.629462540
0.780183017 0.709852934 0.652040005
0.132768750 0.541518509 0.471648991
0.349196017 0.645135522 0.548623264
0.532795727 0.725223482 0.615969062
0.659802794 0.765701950 0.647059560
0.750235260 0.765015483 0.639800489
0.019714000 0.031543002 0.430999994
0.266581744 0.015771000 0.565027475
0.504855514 0.017348999 0.611438990
0.636970043 0.015771000 0.587846518
0.607261002 0.015771000 0.438073993
0.019714000 0.161069259 0.439429253
0.187562257 0.253443748 0.576157033
0.479838014 0.315599263 0.661728740
0.683744192 0.354219735 0.701103449
0.723623991 0.278934985 0.617361248
0.019714000 0.178710505 0.319823503
0.108916998 0.315005004 0.505440772
0.440138519 0.492176026 0.664440513
0.656229019 0.546717525 0.719857216
0.785952985 0.551622510 0.719141483
0.040791754 0.162922755 0.209887743
0.139157772 0.325698763 0.408443511
0.406201005 0.535831988 0.606442750
0.646035790 0.695633233 0.708964765
0.758890748 0.716617286 0.733283043
0.081481002 0.371892005 0.392964005
0.256116748 0.508798003 0.511902750
0.476680040 0.659308493 0.633717000
0.672086000 0.765300989 0.709902048
0.725093007 0.777957976 0.700564027
