public/lut/18.cube
TITLE "17x17x17 Adobe/IRIDAS cube 3D LUT exported with GrossGrade v0.2.2 (beta) 64 bit"
DOMAIN_MIN 0 0 0
DOMAIN_MAX 1 1 1
LUT_3D_SIZE 17
0.023657000 0.019714000 0.019714000
0.166906446 0.027600000 0.019812625
0.233122870 0.026121626 0.017644623
0.303339124 0.016855687 0.015771000
0.357436001 0.016559999 0.015771000
0.405612618 0.016313437 0.015771000
0.443426996 0.015771000 0.015771000
0.474568427 0.015771000 0.015771000
0.499143004 0.015771000 0.015771000
0.517157793 0.015771000 0.015771000
0.533137619 0.015771000 0.015771000
0.548685610 0.015771000 0.015771000
0.563250303 0.015771000 0.015771000
0.578120649 0.015771000 0.015771000
0.590952158 0.015771000 0.015771000
0.603612483 0.015771000 0.015771000
0.616894007 0.015771000 0.015771000
0.019714000 0.095504247 0.027600000
0.095299065 0.083830498 0.023657000
0.128915057 0.081326500 0.023657000
0.153346568 0.071418934 0.023016751
0.174321428 0.060229063 0.020601561
0.201566935 0.056441873 0.019714000
0.230575249 0.051503628 0.019763310
0.267794281 0.049569625 0.015771000
0.306875348 0.046475876 0.015771000
0.346389890 0.043719001 0.015771000
0.381486297 0.041555125 0.015771000
0.410732239 0.037507001 0.015771000
0.443154454 0.034549501 0.015771000
0.473068953 0.032725748 0.015771000
0.500741482 0.031099372 0.015771000
0.526581705 0.030409059 0.015771000
0.551573992 0.029818125 0.015771000
0.019714000 0.148461372 0.025431251
0.107760377 0.127649680 0.023657000
0.145757124 0.128102615 0.020798750
0.190562263 0.128558755 0.018235626
0.219355375 0.114315249 0.017644625
0.241193056 0.097516939 0.018087875
0.263988405 0.085169248 0.016954375
0.286425114 0.076808363 0.015771000
0.311136007 0.069107629 0.015771000
0.343239993 0.064280808 0.015771000
0.374216974 0.060448501 0.015771000
0.404993266 0.058874376 0.015771000
0.434089750 0.055307999 0.015771000
0.462273091 0.052772436 0.015771000
0.485418797 0.050241370 0.015771000
0.510091066 0.048961002 0.015771000
0.531647980 0.046866376 0.015771000
0.019714000 0.216363505 0.020798685
0.129354447 0.192469820 0.019221686
0.168233618 0.185221434 0.016707936
0.211784631 0.183682635 0.015918937
0.255790263 0.181819066 0.015771000
0.298383385 0.172949448 0.015771000
0.320696652 0.151010633 0.015771000
0.334004104 0.132270455 0.015771000
0.350209296 0.115152448 0.015771000
0.370443016 0.102047510 0.015771000
0.389317751 0.092857517 0.015771000
0.410378188 0.087126568 0.015771000
0.432137817 0.081318572 0.015771000
0.457937658 0.079155445 0.015771000
0.484105676 0.077080071 0.015771000
0.505240440 0.074443869 0.015771000
0.526744425 0.074506693 0.015771000
0.019714000 0.285240263 0.015771000
0.152250946 0.266845137 0.015771000
0.194116756 0.256772876 0.015771000
0.233067319 0.247438014 0.015771000
0.280768514 0.241605759 0.015771000
0.331232488 0.244712502 0.015771000
0.370768249 0.232682630 0.015771000
0.397336602 0.212081730 0.015771000
0.412861258 0.187874496 0.015771000
0.425319374 0.167211443 0.015771000
0.435259610 0.149552509 0.015771000
0.444125563 0.134013385 0.015771000
0.456489742 0.122029252 0.015771000
0.471780598 0.113668621 0.015771000
0.489452541 0.107593372 0.015771000
0.506935835 0.104701929 0.015771000
0.527226508 0.102018252 0.015771000
0.020749561 0.350521624 0.015771000
0.175510943 0.339980870 0.015771000
0.221846059 0.331936181 0.015771000
0.266548753 0.320219427 0.015771000
0.306815058 0.309791446 0.015771000
0.352810055 0.304669559 0.015771000
0.400321573 0.304829687 0.015771000
0.444386542 0.297842950 0.015771000
0.470391899 0.277994424 0.015771000
0.483335137 0.251010060 0.015771000
0.490374058 0.225402176 0.015771000
0.496058494 0.201951131 0.015771000
0.501995087 0.183451310 0.015771000
0.509308577 0.167735681 0.015771000
0.517812133 0.154244855 0.015771000
0.527571797 0.143778607 0.015771000
0.538021028 0.136300057 0.015771000
0.035978630 0.411338151 0.015771000
0.205301642 0.409996003 0.015771000
0.252483130 0.403632641 0.015771000
0.297235608 0.391666472 0.015771000
0.339482874 0.380561143 0.015771000
0.378313184 0.367622137 0.015771000
0.417458922 0.362327397 0.015771000
0.462979227 0.360959083 0.015771000
0.507079184 0.361521155 0.015771000
0.533444762 0.341766655 0.015771000
0.546135128 0.318487287 0.015771000
0.553150773 0.288911790 0.015771000
0.556758285 0.261959016 0.015771000
0.559177816 0.238472685 0.015771000
0.563222229 0.216861516 0.015771000
0.565987885 0.200845808 0.015771000
0.569429874 0.185016274 0.015771000
0.051882342 0.476023048 0.015771000
0.238665760 0.475155234 0.015771000
0.283550829 0.468091279 0.015771000
0.330177248 0.460979372 0.015771000
0.370479971 0.450008601 0.015771000
0.408437252 0.435122013 0.015771000
0.443331271 0.423394650 0.015771000
0.479657888 0.414081931 0.015771000
0.520468473 0.410824865 0.015771000
0.554745317 0.409207821 0.015771000
0.583519697 0.399832726 0.015771000
0.599635422 0.379000276 0.015771000
0.609493256 0.355534166 0.015771000
0.614217877 0.326957077 0.015771000
0.613343418 0.298655182 0.015771000
0.613101244 0.274191678 0.015771000
0.614400148 0.253325343 0.015771000
0.112043515 0.522466004 0.015771000
0.270750940 0.529986739 0.015771000
0.318674892 0.527412653 0.015771000
0.364080727 0.523600221 0.015771000
0.401422501 0.512239039 0.015771000
0.438002408 0.498196006 0.015771000
0.470519125 0.485341758 0.015771000
0.503683150 0.473381251 0.015771000
0.536536455 0.466156542 0.015771000
0.568413198 0.458098173 0.015771000
0.600435019 0.456584394 0.015771000
0.626632094 0.449736416 0.015771000
0.646099925 0.433543265 0.015771000
0.656725287 0.411429167 0.015771000
0.660414279 0.384806871 0.015771000
0.663973272 0.361074567 0.015771000
0.661864519 0.332221031 0.015771000
0.167849064 0.568949878 0.015771000
0.309018642 0.574898541 0.015771000
0.350095272 0.575476468 0.015771000
0.394848049 0.574222803 0.015771000
0.429878235 0.565037608 0.015771000
0.468497217 0.558930159 0.015771000
0.496204734 0.541836679 0.015771000
0.528623879 0.529375315 0.015771000
0.556373715 0.515939116 0.015771000
0.579478920 0.506060243 0.015771000
0.608574986 0.501601756 0.015771000
0.638380468 0.497920156 0.015771000
0.667056680 0.497184813 0.015771000
0.685532093 0.483147234 0.015771000
0.696266294 0.463747293 0.015771000
0.702129900 0.441284150 0.015771000
0.704248071 0.417002171 0.015771000
0.231919006 0.604637504 0.015771000
0.346809566 0.613639772 0.015771000
0.382287621 0.614194393 0.015771000
0.422152817 0.611380458 0.015771000
0.456668884 0.609273016 0.015771000
0.493456423 0.602939725 0.015771000
0.527275324 0.594335735 0.015771000
0.550526798 0.580693126 0.015771000
0.574134469 0.568081498 0.015771000
0.596999943 0.554669321 0.015771000
0.622710526 0.547503531 0.015771000
0.648039997 0.538131416 0.015771000
0.673141599 0.535903096 0.015771000
0.698134243 0.532279134 0.015771000
0.716724873 0.524534106 0.015771000
0.728281736 0.510149002 0.015771000
0.734426498 0.489532501 0.015771000
0.283771425 0.634803712 0.016313437
0.380992562 0.643341660 0.015771000
0.414340436 0.645522118 0.015771000
0.448886514 0.646021008 0.015771000
0.483440876 0.644903362 0.015771000
0.519206166 0.639985025 0.015771000
0.547535419 0.631911278 0.015771000
0.572866619 0.622320533 0.015771000
0.594108582 0.611935019 0.015771000
0.617130637 0.603382766 0.015771000
0.639085829 0.590390205 0.015771000
0.657591999 0.580066919 0.015771000
0.680191219 0.570846200 0.015771000
0.701893330 0.567010522 0.015771000
0.722358465 0.562687278 0.015771000
0.741934776 0.559892178 0.015771000
0.752711177 0.546042323 0.015771000
0.332794011 0.661428452 0.014785750
0.412276834 0.669689655 0.015771000
0.441727489 0.671490252 0.015771000
0.475482643 0.673110485 0.015771000
0.509745777 0.672572494 0.015771000
0.539301991 0.670352876 0.015771000
0.566128910 0.664898217 0.015771000
0.591062307 0.658004582 0.015771000
0.611068487 0.648497522 0.015771000
0.633150041 0.640068829 0.015771000
0.652260900 0.628188372 0.015771000
0.670875669 0.618392587 0.015771000
0.688256264 0.608717561 0.015771000
0.708316565 0.601421654 0.015771000
0.724341631 0.594850123 0.015771000
0.744569421 0.592489660 0.015771000
0.762202501 0.586747766 0.015771000
0.370359421 0.684067786 0.015130754
0.439585567 0.691607296 0.015771000
0.469733089 0.694034517 0.015771000
0.498382479 0.695657134 0.015771000
0.530184329 0.695799470 0.015771000
0.558462143 0.694631755 0.015771000
0.582839131 0.690102637 0.015771000
0.607394814 0.685633123 0.015771000
0.626074970 0.678710461 0.015771000
0.645502508 0.669673443 0.015771000
0.666079760 0.661077380 0.015771000
0.683478296 0.648515463 0.015771000
0.700761557 0.642061830 0.015771000
0.715564430 0.632480621 0.015771000
0.732062697 0.625546634 0.015771000
0.746292591 0.620595694 0.015771000
0.762952268 0.616392493 0.015771000
0.404650658 0.704209507 0.021686262
0.466263324 0.709894955 0.015672497
0.494682789 0.714088202 0.015771000
0.521786213 0.714433610 0.015771000
0.548686385 0.715901256 0.015771000
0.574506104 0.715002894 0.015771000
0.597999871 0.711517096 0.015771000
0.621447325 0.707767010 0.015771000
0.642334402 0.701886535 0.015771000
0.659302711 0.697337508 0.015771000
0.678700984 0.688944757 0.015771000
0.694967866 0.680421054 0.015771000
0.710702479 0.669753492 0.015771000
0.723281026 0.662207246 0.015771000
0.736394286 0.652804732 0.015771000
0.750901520 0.645505607 0.015771000
0.764828801 0.641583145 0.015771000
0.437238097 0.720857203 0.034992769
0.492245406 0.726791263 0.016658567
0.516838372 0.728742063 0.016559999
0.543482363 0.731878042 0.015721746
0.565994501 0.732636213 0.015721746
0.588607609 0.731564939 0.015771000
0.612583339 0.729887664 0.015771000
0.634837508 0.728059828 0.015771000
0.654242218 0.722596765 0.015771000
0.672705710 0.718417108 0.015771000
0.691749454 0.713089883 0.015771000
0.707640886 0.705503464 0.015771000
0.718130410 0.695366859 0.015771000
0.732122719 0.686922133 0.015771000
0.742577970 0.677911282 0.015771000
0.755123436 0.669718146 0.015771000
0.768550634 0.664537251 0.015771000
0.463820010 0.734108984 0.053002000
0.515859962 0.741257966 0.025283312
0.541208267 0.744958103 0.022967501
0.556359231 0.744728863 0.018284937
0.581765532 0.747388721 0.017348999
0.602527022 0.745148301 0.015771000
0.624826252 0.744523287 0.015771000
0.645408452 0.743087649 0.015771000
0.667278051 0.740399480 0.015771000
0.684964657 0.735780895 0.015771000
0.700673342 0.730704129 0.015771000
0.714598775 0.724324942 0.015771000
0.727512240 0.717705250 0.015771000
0.740933776 0.710072279 0.015771000
0.749558508 0.700011849 0.015771000
0.761851966 0.693067014 0.015771000
0.770856023 0.685716987 0.015771000
0.019714000 0.019714000 0.058308251
0.083468691 0.026713375 0.031444438
0.125949740 0.027600000 0.029275564
0.188682213 0.026959751 0.026861187
0.252159566 0.021784687 0.023607749
0.316545635 0.015771000 0.019073687
0.366028935 0.015771000 0.016017562
0.410183728 0.015771000 0.015771000
0.450679958 0.015771000 0.015771000
0.483617514 0.015771000 0.015771000
0.510095358 0.015771000 0.015771000
0.529853404 0.015771000 0.015771000
0.544765770 0.015771000 0.015771000
0.560012221 0.015771000 0.015771000
0.571807861 0.015771000 0.015771000
0.582919002 0.015771000 0.015771000
0.594817221 0.015771000 0.015771000
0.019714000 0.046571188 0.049315002
0.073850185 0.088666499 0.075578809
0.135896191 0.099577866 0.084817126
0.183104202 0.107028194 0.084449939
0.232384562 0.115871385 0.081793435
0.288273692 0.123251870 0.080314375
0.343451649 0.130655065 0.075232930
0.400532335 0.134728685 0.071157686
0.453834534 0.141589627 0.068683252
0.502324700 0.147678554 0.063834563
0.540364504 0.150490314 0.058082312
0.579030693 0.154572442 0.052179627
0.609393537 0.154844508 0.044707440
0.637721539 0.159928575 0.045241997
0.660176992 0.158896446 0.037260428
0.678950965 0.164342940 0.035830505
0.695084512 0.170566306 0.037260562
0.019714000 0.095761061 0.071957380
0.091646999 0.129478186 0.089822561
0.137210190 0.128527179 0.087363437
0.180660650 0.122467935 0.083866872
0.210314989 0.117388196 0.078398630
0.243024990 0.115765192 0.072746560
0.276852220 0.117951006 0.068283625
0.316560030 0.122169003 0.063746996
0.371293277 0.128089368 0.061060183
0.421665013 0.134001195 0.056898065
0.467651457 0.140530989 0.052758437
0.509471953 0.143914625 0.046227127
0.546636879 0.147470683 0.040929247
0.581010699 0.153576881 0.038541745
0.609299898 0.154832065 0.033169620
0.632046819 0.158109933 0.029374558
0.657339215 0.163520247 0.026466999
0.019714000 0.164456576 0.100362882
0.118641317 0.204805523 0.109973006
0.160740837 0.200058326 0.098888077
0.204958886 0.185077459 0.091417752
0.236384317 0.162573636 0.084141746
0.254726708 0.143221825 0.077937692
0.269202083 0.128834128 0.069234632
0.294701576 0.127717689 0.064203069
0.323640645 0.128011495 0.060991935
0.363936752 0.130717114 0.056366816
0.409810841 0.136175260 0.051991999
0.448379487 0.141511634 0.049887188
0.483220279 0.145313382 0.044798061
0.520632029 0.149445131 0.041026369
0.552193820 0.152285814 0.036175806
0.579908371 0.155187950 0.032627124
0.607562780 0.160292193 0.030211937
0.019714000 0.270013422 0.134552822
0.151847884 0.306024462 0.127549931
0.201493442 0.293707699 0.111579247
0.240130767 0.268487424 0.099594504
0.277838558 0.246602744 0.086589754
0.313935190 0.227020249 0.082552440
0.322466642 0.194761738 0.073678061
0.326204389 0.168773860 0.067758746
0.332889855 0.150506750 0.063276306
0.356477052 0.146594390 0.058144063
0.392471373 0.147935584 0.055186372
0.426911980 0.149952188 0.052195940
0.457204193 0.152546927 0.047126561
0.486941636 0.153887123 0.043333620
0.516562939 0.157516122 0.039625686
0.542629957 0.158848763 0.036323622
0.567662418 0.160552934 0.033317499
0.019714000 0.374887198 0.157342628
0.188544437 0.404116839 0.139224693
0.246089190 0.399654627 0.120617934
0.292645484 0.372517645 0.104341120
0.320960283 0.334733427 0.089420065
0.354770750 0.315012753 0.079419501
0.390075058 0.297465801 0.071529120
0.402527183 0.266148210 0.066358253
0.400451243 0.227560610 0.063626125
0.401242256 0.199480563 0.060097374
0.413611352 0.183137745 0.055814501
0.433230460 0.174718931 0.052731749
0.455822945 0.170683995 0.047438689
0.480641007 0.172734752 0.044937998
0.507479012 0.172095373 0.041172747
0.532945335 0.174184114 0.038640305
0.552861929 0.173431188 0.034500003
0.028092939 0.452963710 0.163594186
0.224720135 0.487428576 0.143133551
0.288738281 0.487901896 0.124975681
0.341532707 0.466690660 0.105678111
0.376056969 0.437569290 0.087529004
0.398518771 0.401004136 0.074670121
0.424609900 0.374592006 0.062015995
0.458003104 0.359511942 0.054339241
0.481425405 0.335930645 0.050212871
0.485787690 0.301151901 0.049721997
0.481523871 0.264977545 0.047278501
0.484113336 0.238496587 0.047299623
0.486582011 0.218140393 0.046190497
0.498715729 0.205212191 0.044076059
0.512476504 0.197011933 0.041271307
0.530083477 0.193183258 0.037359059
0.550764382 0.191288829 0.035141002
0.030212130 0.513051867 0.161412746
0.258000463 0.549708486 0.145666942
0.319188058 0.550308824 0.121686317
0.375670940 0.541598320 0.104571939
0.414078832 0.516359389 0.085103869
0.442402482 0.485482544 0.064582631
0.461668789 0.451419592 0.052647121
0.485190243 0.425509095 0.039206684
0.519895256 0.418103039 0.033119991
0.545179725 0.404560775 0.032972116
0.555842757 0.374927580 0.034845050
0.555139601 0.338313371 0.036077306
0.551574171 0.303319484 0.036126617
0.552309513 0.276576936 0.035337940
0.553860784 0.256026864 0.034401495
0.557599545 0.238112748 0.032923121
0.566904843 0.226817086 0.032676935
0.073615149 0.562471688 0.163250625
0.286557734 0.592116117 0.142443940
0.345630765 0.598355174 0.120452687
0.399337053 0.594776392 0.103128366
0.442211419 0.576553941 0.079692371
0.474941075 0.554512382 0.062396932
0.500455558 0.527562559 0.049435496
0.521456361 0.500780463 0.042090371
0.540208519 0.476475477 0.029078685
0.566314101 0.465607435 0.017841563
0.598173201 0.460723311 0.016559999
0.613171816 0.436849564 0.020010123
0.616689861 0.405037135 0.024692498
0.614969969 0.370712161 0.027994627
0.613009214 0.343329906 0.031592183
0.609751642 0.314674884 0.029669996
0.608012974 0.289898515 0.028191563
0.140848815 0.605646133 0.171812057
0.325035542 0.633702397 0.148237258
0.367284089 0.632612109 0.115823567
0.422916740 0.633083701 0.098873124
0.467415899 0.627564371 0.077361941
0.503565907 0.612298071 0.059775122
0.530708313 0.592144787 0.044753183
0.551595926 0.566620648 0.037062876
0.565551519 0.538044751 0.034105748
0.585857511 0.521411121 0.028487001
0.611296952 0.510011375 0.023607999
0.637475967 0.503515363 0.018137436
0.657976270 0.489335209 0.016116187
0.667562187 0.464851975 0.016165501
0.668118596 0.437020898 0.018137502
0.662985623 0.403667837 0.021734815
0.661057651 0.375131369 0.025431374
0.194249883 0.640007257 0.180241555
0.353756547 0.663460076 0.155100241
0.398350596 0.666704476 0.128155068
0.447554886 0.669304907 0.110255063
0.492999375 0.666448653 0.092251748
0.529986441 0.656717598 0.066563055
0.553582251 0.640722394 0.041777939
0.576969564 0.624570727 0.033514559
0.594930351 0.602098346 0.020601561
0.609631360 0.578137696 0.026565062
0.625742435 0.558976054 0.027206186
0.647021353 0.545737743 0.022917937
0.673323333 0.542209625 0.021094751
0.694414675 0.533470690 0.019073624
0.706436336 0.515217721 0.018580500
0.708896637 0.489816606 0.015870187
0.707870424 0.461397946 0.015327750
0.263806522 0.669223309 0.185723633
0.384113401 0.688248992 0.163482875
0.423878878 0.691397786 0.139706627
0.471074492 0.697211385 0.130296633
0.514954329 0.696191847 0.107702874
0.548925102 0.691677094 0.087717935
0.574828327 0.679785013 0.059956867
0.596864462 0.666334808 0.039493181
0.617645800 0.650608420 0.027008936
0.632505000 0.630708456 0.019664938
0.648352921 0.613874912 0.016165499
0.663884878 0.595206976 0.020404438
0.682214618 0.582235932 0.021538062
0.702522993 0.575304806 0.019960687
0.722695112 0.570542514 0.019221313
0.735955179 0.557437062 0.019221310
0.742390215 0.539037228 0.018975062
0.317923188 0.694441259 0.198845118
0.417020380 0.711749494 0.177608624
0.451534063 0.714139044 0.154805869
0.496964395 0.719639003 0.145030305
0.534823358 0.720228851 0.127731442
0.564618587 0.716290772 0.104717821
0.592730880 0.710651040 0.089812428
0.614749074 0.701642454 0.063753933
0.633859098 0.687145412 0.040104061
0.652086556 0.672440171 0.028437817
0.667561412 0.657390893 0.023608126
0.680874109 0.640636027 0.015426190
0.695800900 0.626440465 0.014292562
0.708864808 0.612972498 0.015574002
0.726539850 0.603778183 0.016412063
0.744338810 0.600559473 0.017053124
0.758514225 0.590567946 0.017053124
0.355596155 0.715599775 0.209171578
0.445513189 0.730820358 0.188722581
0.475566447 0.731887579 0.161859944
0.516582429 0.737635612 0.153678462
0.550198734 0.739083886 0.137749270
0.580214977 0.738560557 0.121992335
0.606241524 0.732939243 0.105004445
0.629162729 0.725829482 0.083276443
0.651394486 0.717550933 0.065165013
0.667338371 0.706155419 0.045234017
0.684559822 0.690423965 0.030163145
0.695895791 0.677231669 0.022917822
0.708068371 0.662601411 0.018038571
0.719466209 0.649589062 0.014440501
0.732303262 0.639511228 0.014292562
0.746284485 0.630319595 0.014884311
0.763134062 0.626359284 0.015032250
0.396223605 0.734352767 0.225424200
0.471355796 0.746334076 0.199243397
0.499392629 0.747720003 0.176898465
0.533325076 0.753115654 0.166554883
0.565455258 0.755095661 0.153352574
0.594619095 0.756120265 0.139329389
0.620181441 0.752857566 0.118261695
0.643074095 0.746821582 0.096207067
0.664682388 0.741032779 0.079715878
0.683612406 0.730148554 0.063473441
0.698820233 0.721186340 0.052202135
0.709832251 0.709539950 0.037112206
0.720813096 0.695691228 0.023460258
0.730577528 0.681439817 0.018482376
0.740270853 0.670043051 0.016510753
0.751119316 0.659599602 0.015820378
0.764595091 0.651931465 0.015771000
0.432070464 0.751703858 0.241514191
0.498385012 0.761402369 0.215093330
0.523059189 0.762760580 0.194019094
0.549598575 0.765900075 0.184701383
0.579156101 0.769027889 0.176419467
0.606702268 0.768410861 0.154976636
0.632808149 0.768806040 0.136954963
0.655756354 0.764760494 0.110374391
0.677403092 0.759786963 0.088172384
0.693715453 0.751059771 0.070831515
0.706946969 0.743181348 0.059939638
0.718136430 0.732586384 0.051718820
0.730377674 0.720994592 0.040383328
0.741178691 0.709930897 0.029916316
0.750097036 0.698945880 0.021439310
0.758146584 0.686196744 0.017102562
0.768519580 0.676810265 0.016412124
0.461315066 0.764334261 0.252726376
0.521295011 0.771678746 0.229394063
0.542917550 0.774349213 0.211861312
0.565787196 0.775713682 0.201331556
0.595517933 0.781600296 0.196592569
0.618188679 0.780965209 0.177271992
0.644422591 0.781670630 0.157905996
0.672085106 0.781047523 0.138950929
0.689302325 0.776862741 0.108564563
0.703757107 0.770243764 0.085301191
0.715916991 0.761380196 0.066482313
0.729681075 0.753077626 0.058476999
0.740185499 0.744259417 0.051956501
0.750625789 0.733893096 0.046056800
0.759305835 0.723629296 0.034253798
0.767384291 0.712634563 0.021636434
0.775862038 0.701543987 0.018679563
0.019714000 0.019714000 0.084895745
0.088636808 0.027501499 0.057110816
0.118544631 0.027600000 0.038344249
0.164182082 0.027600000 0.033810437
0.223499373 0.025628500 0.029177126
0.285886228 0.017743187 0.024741687
0.340279669 0.015771000 0.020010000
0.389192581 0.015771000 0.017250372
0.429589540 0.015771000 0.015771000
0.465473175 0.015771000 0.015771000
0.494109631 0.015771000 0.015771000
0.518718719 0.015771000 0.015771000
0.538289726 0.015771000 0.015771000
0.553694308 0.015771000 0.015771000
0.567842245 0.015771000 0.015771000
0.578666329 0.015771000 0.015771000
0.589364409 0.015771000 0.015771000
0.019714000 0.036767311 0.046526749
0.078907251 0.095496126 0.101952001
0.125687435 0.105711125 0.110001877
0.185915768 0.113070562 0.102525063
0.253966808 0.124970004 0.107210748
0.322278559 0.136952564 0.108206935
0.393183023 0.153973758 0.107509308
0.449759275 0.159659132 0.107089378
0.498502702 0.163304329 0.105626374
0.544445932 0.164612800 0.101049691
0.582793653 0.169738874 0.096691370
0.619785130 0.177148938 0.096277058
0.648007452 0.178103879 0.090804622
0.673428893 0.182063967 0.088850744
0.693772316 0.190627575 0.089536808
0.708338261 0.191362515 0.085816875
0.726446509 0.200830013 0.089356691
0.019714000 0.068709008 0.070171624
0.086175062 0.128943563 0.115343258
0.117900506 0.138433501 0.113861002
0.190417081 0.147266239 0.126799569
0.251978636 0.159502611 0.128633872
0.304216385 0.166880310 0.124165505
0.354499131 0.171873882 0.119721249
0.407214344 0.179788888 0.116958871
0.452296138 0.183250502 0.111005753
0.496849984 0.189192072 0.107986495
0.539843261 0.193047881 0.103355378
0.580572009 0.201326624 0.102979369
0.613238633 0.204045132 0.097441882
0.642177999 0.208854809 0.095998116
0.666876793 0.210864887 0.089289628
0.691392958 0.218220264 0.090510741
0.708731532 0.222822741 0.089859620
0.019714000 0.125082761 0.100780569
0.095685013 0.179837435 0.131597131
0.140465245 0.187522501 0.133078501
0.196134120 0.191346765 0.134524688
0.252498418 0.179126203 0.127649754
0.286876202 0.170746505 0.117778003
0.321432561 0.169282183 0.111208059
0.347459674 0.166105002 0.102157556
0.379694879 0.165509388 0.096165188
0.417944252 0.169199318 0.091419309
0.456397831 0.172266185 0.088361442
0.499590784 0.180460751 0.085208185
0.540864646 0.185382009 0.082186691
0.574407339 0.190619126 0.079378553
0.605759621 0.195627004 0.075892627
0.631896079 0.200447991 0.072612926
0.657442868 0.205060124 0.069167748
0.019714000 0.207102865 0.135441884
0.115928754 0.268685699 0.161067560
0.171957895 0.268929631 0.156860128
0.219606265 0.266009748 0.143922627
0.272165149 0.248343244 0.133423135
0.315094054 0.230295449 0.124500491
0.336165130 0.204843625 0.114235744
0.349569052 0.185326323 0.103679806
0.369153023 0.177815020 0.097069003
0.388795078 0.172098681 0.089370370
0.413344592 0.170575127 0.084879883
0.443977565 0.171717316 0.080283508
0.477668613 0.176597744 0.076916501
0.515364945 0.182106376 0.074942991
0.544654369 0.186286122 0.070267498
0.577205420 0.191809312 0.068769068
