public/lut/19.cube
TITLE "17x17x17 Adobe/IRIDAS cube 3D LUT exported with GrossGrade v0.2.2 (beta) 64 bit"
DOMAIN_MIN 0 0 0
DOMAIN_MAX 1 1 1
LUT_3D_SIZE 5
0.000000000 0.000000000 0.000000000
0.298357993 0.003943000 0.003943000
0.460020006 0.006309000 0.006309000
0.534983516 0.007097000 0.007097000
0.587381005 0.007886000 0.007886000
0.047178503 0.189115003 0.002366000
0.262067497 0.226793006 0.003745750
0.460615516 0.219257250 0.006309000
0.585898757 0.188656256 0.007886001
0.658087254 0.171697751 0.009265751
0.185562015 0.373815536 0.007491501
0.354235470 0.405826032 0.005520000
0.527329981 0.434588015 0.007097000
0.667994261 0.432681769 0.009463000
0.742739022 0.394286513 0.010251000
0.355196267 0.557081521 0.107588015
0.457949758 0.573740304 0.063007258
0.592240214 0.596630514 0.037059754
0.716895044 0.611189246 0.010054000
0.806228757 0.619074762 0.012223252
0.511129022 0.694362998 0.260776997
0.580537021 0.702508509 0.235730007
0.678413510 0.719082952 0.215604991
0.763519287 0.730623484 0.193437502
0.842948020 0.736801982 0.167731002
0.010251000 0.003943000 0.202666000
0.265823990 0.003943000 0.178589493
0.472923756 0.006309000 0.162462518
0.575467527 0.007886000 0.150677755
0.636923730 0.008674000 0.151349008
0.002366000 0.157865748 0.129918754
0.222613245 0.280023247 0.239835501
0.492616743 0.292385757 0.240642488
0.650983810 0.292016745 0.224338263
0.741835773 0.309106231 0.236874491
0.028980006 0.378706008 0.238037750
0.323008269 0.463824987 0.289925754
0.527719021 0.488115519 0.273082495
0.681487799 0.467148781 0.256570280
0.780256748 0.470309258 0.288282514
0.329265296 0.613070250 0.356198251
0.443694770 0.631214261 0.343175739
0.595687509 0.651737750 0.317916244
0.729057074 0.666444778 0.307885498
0.826721966 0.689529300 0.389293015
0.509265482 0.732413769 0.427339256
0.633676767 0.770354509 0.506897986
0.705894291 0.782821298 0.515613317
0.786612272 0.800229490 0.545108736
0.849346459 0.816461265 0.600366473
0.004731000 0.026023004 0.355216503
0.251173973 0.008871501 0.363301277
0.483096004 0.007886000 0.361815035
0.604579210 0.007491500 0.353015512
0.669783473 0.006702999 0.351299524
0.005520000 0.264014244 0.408803254
0.234268010 0.314735234 0.445153773
0.492213249 0.335138500 0.454273522
0.669217765 0.337311476 0.448192030
0.762130976 0.354703009 0.447367013
0.003943000 0.261776507 0.254711509
0.084240995 0.425483257 0.406411022
0.479671001 0.538118958 0.476584017
0.709578037 0.551579595 0.506820798
0.808966994 0.559360981 0.500873029
0.005125746 0.434882522 0.311609745
0.265550226 0.574673533 0.427950263
0.590089321 0.698242307 0.539755940
0.736475706 0.714553714 0.535864711
0.832344472 0.717411280 0.555974245
0.371361464 0.695807517 0.489811003
0.567728996 0.760161281 0.576021552
0.704082012 0.805051982 0.633955002
0.789522767 0.821170509 0.652844965
0.849853992 0.833071470 0.686241984
0.006506000 0.123653010 0.481428742
0.261354029 0.094625011 0.510806561
0.497884005 0.091906250 0.522406518
0.633326530 0.068889260 0.521246254
0.707390785 0.074408263 0.522168756
0.007886000 0.311004490 0.551910281
0.255001992 0.357146502 0.592265010
0.516723990 0.374779493 0.613837481
0.679877281 0.374666750 0.606959820
0.771609247 0.387676477 0.606254935
0.007294250 0.421032250 0.539063036
0.163690746 0.497906983 0.605864525
0.531507313 0.575443745 0.647355020
0.704948068 0.588390827 0.658060193
0.812718809 0.591341257 0.657498002
0.004731000 0.347541034 0.354712248
0.006309000 0.468799502 0.463202745
0.410361528 0.666548729 0.622923851
0.689731300 0.749023497 0.665543199
0.838129759 0.759674013 0.697977006
0.006309000 0.466840476 0.366048753
0.294269979 0.649031758 0.524389744
0.566117048 0.755887032 0.632183492
0.777999997 0.831771255 0.715350270
0.851929545 0.845564723 0.749204278
0.007886000 0.215156004 0.571358025
0.277913272 0.206184506 0.609545708
0.525925994 0.209471002 0.629961967
0.667048514 0.219486743 0.640927017
0.740001023 0.203802004 0.637540996
0.008674000 0.360094994 0.633812547
0.283565998 0.401507258 0.677312493
0.539864242 0.421040267 0.697954297
0.696261764 0.428918719 0.703157246
0.784097254 0.433107495 0.703582764
0.009463000 0.504914045 0.668967009
0.274791002 0.557352245 0.711559713
0.580778956 0.607940555 0.746519446
0.727073014 0.614852726 0.749351263
0.817357540 0.619431496 0.748391032
0.008674000 0.551983774 0.629807234
0.078240000 0.607907534 0.670027018
0.529386997 0.721321285 0.751045525
0.759627998 0.769542754 0.780724227
0.842191517 0.777326763 0.781421244
0.006309000 0.450913996 0.462366998
0.065113254 0.621842027 0.606469274
0.417026013 0.737429023 0.696837544
0.732804298 0.841591954 0.782912254
0.843419015 0.859413028 0.796566010
