public/lut/19.cube
TITLE "17x17x17 Adobe/IRIDAS cube 3D LUT exported with GrossGrade v0.2.2 (beta) 64 bit"
DOMAIN_MIN 0 0 0
DOMAIN_MAX 1 1 1
LUT_3D_SIZE 17
0.000000000 0.000000000 0.000000000
0.118288994 0.010152437 0.003252563
0.187995628 0.009561500 0.002366000
0.245269015 0.004090749 0.003154001
0.298357993 0.003943000 0.003943000
0.356749743 0.004731000 0.004731000
0.401016384 0.005520000 0.005520000
0.433126122 0.006309000 0.006309000
0.460020006 0.006309000 0.006309000
0.485410690 0.006653750 0.006653750
0.505464613 0.007097000 0.007097000
0.521513700 0.007097000 0.007097000
0.534983516 0.007097000 0.007097000
0.548536241 0.007886000 0.007886000
0.562195241 0.007886000 0.007886000
0.576634765 0.007886000 0.007886000
0.587381005 0.007886000 0.007886000
0.013406000 0.069021255 0.006407563
0.072234683 0.070744246 0.004731000
0.113857068 0.066052809 0.004829625
0.158055767 0.064814687 0.002464563
0.211220756 0.059794251 0.003104750
0.268954247 0.058128066 0.003893687
0.317988127 0.049780495 0.004681750
0.369839638 0.038626745 0.005174813
0.420711488 0.023657124 0.005914500
0.455960482 0.016707812 0.006309000
0.486091942 0.011927251 0.007047750
0.513982475 0.008822313 0.007097000
0.539900124 0.006555250 0.007294250
0.559630036 0.008624750 0.007886000
0.577253699 0.009364437 0.007886000
0.592009902 0.007836685 0.007886000
0.608945787 0.006456812 0.008674000
0.016954625 0.112059504 0.004041500
0.089141935 0.121373877 0.001626312
0.136193991 0.131539494 0.001577000
0.181021512 0.132804632 0.002366000
0.233058259 0.131197006 0.003154000
0.288176507 0.122247994 0.003943000
0.334203780 0.113526374 0.004731000
0.381525040 0.108762808 0.005520000
0.432456017 0.099158250 0.006210375
0.471943945 0.090040125 0.006309000
0.501429498 0.083384246 0.007097000
0.528125226 0.074713752 0.007097000
0.554618895 0.068512745 0.007886000
0.574910760 0.059441619 0.007886000
0.592468619 0.053014494 0.007886000
0.607126713 0.052051943 0.008674000
0.623607874 0.054744627 0.008674000
0.026368378 0.145906627 0.002366000
0.106616877 0.160866126 0.002366000
0.149392754 0.168106630 0.002366000
0.195523143 0.176655650 0.002366001
0.250078946 0.184453756 0.003154001
0.306461364 0.182668820 0.003943000
0.354071140 0.174099699 0.004731001
0.396266848 0.166493207 0.005520000
0.443235904 0.154788017 0.006309000
0.485813379 0.146271706 0.006949250
0.518082201 0.140881956 0.007097000
0.542849600 0.136032760 0.007738062
0.569442272 0.128048882 0.007886000
0.592298508 0.124388069 0.008033752
0.608164668 0.118066691 0.008674000
0.624812603 0.115710326 0.008674000
0.637970090 0.111763820 0.008674000
0.047178503 0.189115003 0.002366000
0.125422865 0.202442124 0.002957000
0.169342756 0.209739134 0.003055500
0.212275833 0.219725564 0.003154000
0.262067497 0.226793006 0.003745750
0.321743488 0.236361250 0.004484750
0.370661139 0.235593766 0.005224125
0.414786279 0.227256745 0.005520001
0.460615516 0.219257250 0.006309000
0.504189432 0.211207449 0.007097000
0.537075281 0.202459753 0.007392875
0.560797036 0.194333196 0.007886000
0.585898757 0.188656256 0.007886001
0.610256135 0.181856126 0.008674000
0.627763510 0.177601755 0.008674000
0.644148350 0.174059883 0.008674000
0.658087254 0.171697751 0.009265751
0.079030998 0.231219068 0.003154000
0.150199264 0.242918178 0.003154000
0.192785189 0.252241611 0.003154000
0.229801774 0.260500312 0.003696437
0.282412380 0.270369828 0.003943000
0.339024752 0.281381756 0.004731000
0.387920260 0.288211942 0.005520000
0.434506416 0.287529498 0.006309000
0.476568073 0.282068193 0.006703000
0.524856329 0.275064439 0.007097000
0.555913031 0.264156997 0.007886000
0.582339406 0.254518807 0.007886000
0.603325307 0.244847313 0.008674000
0.627070069 0.237351060 0.008674000
0.647877932 0.232984319 0.008674000
0.665451884 0.229344636 0.009463000
0.679611921 0.227419496 0.009463000
0.113337383 0.274355501 0.003943000
0.178443938 0.285474479 0.003943000
0.217849135 0.294001520 0.003943000
0.256455183 0.301222622 0.003943001
0.302858621 0.311483383 0.004435500
0.354760945 0.322176516 0.004731000
0.404026270 0.330785900 0.005520000
0.448490024 0.335530400 0.006309000
0.494208783 0.338405430 0.007097000
0.542219281 0.334546149 0.007442188
0.576462805 0.327209145 0.007886000
0.604390740 0.316687405 0.008674000
0.624513626 0.306517005 0.008674000
0.646852791 0.297872126 0.008674001
0.667834878 0.289793253 0.009463000
0.684668601 0.283628136 0.009463000
0.699614644 0.278412640 0.009463000
0.150116324 0.324341208 0.005174813
0.207950398 0.332189053 0.004731000
0.246945262 0.342465162 0.004731000
0.285232067 0.349658728 0.004731000
0.327249616 0.357565522 0.004731001
0.372695863 0.366959274 0.005273438
0.418805271 0.373973370 0.005963813
0.464271098 0.379716754 0.006309001
0.509458840 0.386471838 0.007097000
0.558156967 0.390261412 0.007886000
0.595033407 0.386015832 0.008181500
0.626181602 0.379916400 0.008674000
0.646849930 0.370142102 0.008674001
0.669258237 0.360918224 0.009463000
0.691258192 0.353907853 0.009463000
0.707157314 0.342066824 0.009512253
0.722526431 0.336691022 0.010251000
0.185562015 0.373815536 0.007491501
0.245023936 0.383937895 0.005520000
0.277171373 0.388750613 0.005520000
0.314368069 0.397089332 0.005520000
0.354235470 0.405826032 0.005520000
0.395645082 0.413882405 0.005520000
0.438377500 0.419654399 0.006309000
0.481415421 0.427998006 0.006752250
0.527329981 0.434588015 0.007097000
0.573510528 0.441029847 0.007886000
0.612907887 0.444642395 0.008674000
0.646496952 0.442669272 0.008674000
0.667994261 0.432681769 0.009463000
0.688821554 0.425597578 0.009463000
0.711063981 0.414096773 0.009857001
0.728800535 0.405000836 0.010251000
0.742739022 0.394286513 0.010251000
0.227756381 0.420292735 0.013306937
0.277442396 0.427796811 0.005963813
0.312023640 0.434902877 0.005963813
0.345100701 0.442553997 0.006309000
0.378383934 0.448202103 0.006309000
0.417556703 0.456571698 0.006309000
0.458538711 0.463107109 0.006309000
0.494576275 0.467415869 0.007097000
0.541316152 0.474299371 0.007491501
0.589338303 0.483672708 0.008230750
0.625922740 0.486991465 0.008674000
0.661208630 0.491467297 0.009463000
0.684110463 0.489271998 0.009463000
0.705058515 0.481835872 0.009463001
0.729729414 0.475274980 0.010251000
0.748516381 0.466904759 0.010251000
0.763955593 0.458853185 0.010251000
0.269748390 0.470298499 0.033514626
0.316507995 0.477793992 0.018432749
0.348280609 0.483214498 0.015869999
0.375447363 0.487701863 0.013603124
0.404977381 0.493285626 0.008969875
0.440495878 0.499694169 0.007639437
0.476248384 0.504738271 0.007097000
0.514300048 0.512129605 0.007097000
0.558988988 0.518408775 0.007886000
0.602400005 0.524505734 0.008230750
0.638865888 0.528933108 0.008674000
0.672812045 0.533105314 0.009463000
0.695586622 0.533555508 0.009463000
0.720485926 0.533349931 0.010251000
0.744391143 0.531206727 0.010251000
0.763974249 0.525104046 0.010300313
0.779609501 0.514804125 0.011040000
0.313019484 0.516492784 0.063851938
0.356094360 0.522648692 0.039971188
0.379177809 0.527447402 0.030311126
0.403150827 0.531115532 0.024100684
0.431901038 0.537204862 0.011729937
0.464085191 0.542004466 0.008034000
0.497257948 0.547201574 0.008280249
0.533291936 0.553171456 0.008329188
0.573219717 0.559636533 0.008329188
0.616555810 0.565123677 0.008871625
0.653230488 0.569762707 0.009166813
0.683814168 0.573543966 0.009463000
0.708831966 0.575129449 0.010251000
0.731986642 0.577242970 0.010251000
0.755184114 0.578892469 0.010251000
0.778585911 0.575471044 0.011040000
0.794288635 0.569706738 0.011040000
0.355196267 0.557081521 0.107588015
0.386957884 0.560448408 0.080324635
0.411925137 0.567038000 0.077215888
0.432067573 0.570152640 0.069125518
0.457949758 0.573740304 0.063007258
0.484960079 0.578375578 0.056981824
0.516642213 0.584187746 0.052365880
0.553094685 0.590042472 0.044732690
0.592240214 0.596630514 0.037059754
0.628544807 0.602861881 0.028733563
0.664584160 0.609128118 0.015475748
0.693954229 0.612097621 0.009807499
0.716895044 0.611189246 0.010054000
0.740621984 0.615310550 0.010201750
0.766362906 0.616086662 0.010448251
0.789338470 0.619327307 0.010645504
0.806228757 0.619074762 0.012223252
0.395232052 0.596449256 0.153493419
0.425221413 0.598935962 0.132626474
0.440414578 0.599284172 0.125927359
0.460615754 0.604107201 0.119903855
0.483886510 0.607733786 0.114185788
0.508474410 0.611815572 0.105001166
0.537576854 0.616310418 0.092623107
0.575453937 0.623301029 0.078236781
0.610721886 0.628475368 0.060515538
0.644768119 0.633197844 0.046835616
0.678921282 0.639397442 0.032713436
0.702615440 0.640191436 0.025677882
0.728131354 0.644500673 0.030205622
0.750738263 0.647936344 0.032094747
0.774091005 0.651584923 0.034419686
0.797664404 0.653650522 0.037202861
0.817164123 0.655065119 0.040835295
0.437183142 0.633862019 0.197633401
0.460088551 0.635009348 0.175138056
0.473665297 0.635781229 0.168240428
0.489908457 0.638833046 0.165543914
0.511832833 0.642284155 0.160610795
0.538048029 0.646642745 0.153395250
0.568625510 0.652205050 0.143883556
0.600554109 0.656577110 0.132761240
0.633026004 0.660334170 0.122065812
0.665187418 0.666889787 0.115348563
0.693911493 0.670575440 0.109133318
0.717080295 0.674488246 0.103366129
0.740011752 0.675475359 0.099028811
0.762621045 0.679153979 0.095656484
0.785908878 0.679887772 0.086512297
0.808364034 0.683950067 0.084068164
0.825846732 0.684769511 0.081974901
0.472954303 0.666401148 0.227371961
0.493318141 0.667285025 0.212327287
0.508331716 0.668549180 0.208857715
0.523572206 0.671384096 0.208203286
0.542838633 0.675128937 0.202167779
0.569346011 0.678994596 0.197916403
0.598328471 0.685229480 0.191578403
0.628382444 0.688896298 0.184437647
0.654464245 0.692570031 0.176736474
0.685101211 0.697832227 0.171343967
0.707885146 0.701803863 0.163680494
0.729457974 0.702502728 0.157456800
0.750355303 0.703752041 0.147234485
0.775065243 0.707076669 0.139205232
0.798457384 0.710641921 0.132219106
0.817903399 0.714927256 0.124548972
0.835660815 0.713911712 0.117176540
0.511129022 0.694362998 0.260776997
0.528514206 0.692307115 0.243697554
0.543856621 0.695973337 0.240005746
0.559633136 0.699087381 0.239475995
0.580537021 0.702508509 0.235730007
0.602825999 0.706876457 0.231029242
0.628274262 0.710743010 0.226623878
0.650676966 0.715173721 0.221267626
0.678413510 0.719082952 0.215604991
0.703674674 0.722477257 0.210386559
0.722276390 0.725967228 0.204375505
0.741375148 0.726779282 0.199616820
0.763519287 0.730623484 0.193437502
0.786610961 0.733915448 0.187525004
0.806784987 0.735105515 0.180445492
0.825092196 0.737788975 0.174140379
0.842948020 0.736801982 0.167731002
0.009413688 0.005470688 0.070969440
0.084612496 0.009413688 0.037802123
0.156991825 0.009561500 0.032972563
0.225289583 0.004238687 0.029423811
0.283703864 0.003943000 0.025185127
0.342017651 0.004731000 0.019566249
0.397343695 0.005520000 0.015376874
0.435871392 0.005963813 0.011040186
0.464840233 0.006309000 0.008132187
0.493326664 0.007097000 0.007836687
0.515427828 0.007097000 0.006358250
0.534076095 0.007097000 0.006358250
0.549975097 0.007886000 0.007097000
0.563387930 0.007886000 0.007244939
0.578988850 0.007886000 0.007836687
0.593872964 0.007886000 0.008624750
0.606155157 0.008674000 0.008624750
0.003548313 0.060995065 0.029965438
0.057652880 0.077670380 0.045686252
0.118140317 0.079154626 0.047240939
0.166703701 0.083585940 0.043153126
0.225034326 0.088111304 0.038687438
0.289062887 0.092888251 0.034894504
0.343466908 0.092824996 0.027994435
0.397390723 0.090180494 0.021045497
0.451202601 0.088038251 0.016658498
0.493746996 0.080983624 0.013405687
0.522014141 0.072226807 0.008871312
0.552715600 0.068161316 0.010300751
0.578649819 0.062027689 0.007836688
0.599553764 0.058248997 0.008575439
0.616333723 0.054260880 0.009315126
0.632380426 0.056976430 0.010053875
0.647596836 0.062114872 0.010842876
0.001626312 0.104544438 0.036422312
0.076949246 0.134273991 0.060278751
0.132808000 0.136063620 0.054930001
0.180231959 0.134289637 0.050320499
0.234271064 0.133491114 0.044430621
0.294091284 0.135131180 0.038441002
0.349050224 0.135345310 0.031345807
0.399300843 0.134461805 0.023953058
0.454831839 0.132563695 0.017595123
0.497294486 0.129396439 0.012222750
0.530446172 0.125635937 0.010448375
0.558612585 0.122193880 0.009068563
0.586136460 0.117889866 0.007146312
0.609908044 0.114837125 0.007294252
0.627554774 0.113937758 0.007886000
0.643977046 0.114518255 0.008624750
0.658302486 0.110574752 0.008674000
0.001823501 0.151094764 0.058533940
0.090620883 0.175752893 0.066291310
0.144091114 0.182742581 0.055514380
0.194771454 0.189403638 0.052792504
0.248096704 0.185283631 0.046471067
0.306308508 0.182454884 0.039225437
0.357537448 0.179856136 0.031986747
0.409266204 0.178983256 0.027008560
0.459674120 0.176759318 0.019615810
0.504616082 0.171576694 0.014538936
0.539840460 0.168144494 0.009906312
0.567681551 0.164425001 0.007639437
0.595669329 0.161981136 0.006604563
0.620477319 0.160310641 0.007146312
0.640937209 0.157782376 0.007935250
0.654045522 0.156547830 0.008674001
0.669056714 0.154995024 0.009315064
0.007097063 0.205803260 0.078649625
0.106198445 0.221277386 0.073208123
0.157673508 0.228900582 0.059897505
0.204723403 0.233131140 0.053081438
0.263356239 0.243054122 0.049786121
0.323226273 0.244166806 0.039595939
0.373142034 0.238226131 0.032429934
0.419378310 0.230997890 0.026318561
0.468504816 0.227433264 0.018827312
0.517141938 0.225473136 0.013060500
0.554893374 0.221432567 0.008772687
0.581681848 0.216323882 0.008082813
0.606729984 0.212916702 0.006604565
0.634148300 0.208483696 0.009856751
0.652182102 0.205647826 0.010596438
0.670456648 0.204781935 0.010645754
0.684902966 0.201649323 0.012419876
0.029374313 0.256346703 0.092585124
0.126463190 0.265202075 0.077597126
0.175625876 0.273053616 0.067059562
0.222751766 0.281732410 0.058415249
0.277247310 0.290416747 0.053154185
0.338790566 0.299706638 0.044166066
0.391457319 0.301712573 0.033268187
0.437774032 0.295773119 0.028634995
0.483913302 0.287795812 0.020552561
0.531524777 0.280560255 0.014539188
0.567964494 0.273242295 0.012814000
0.596864641 0.268012404 0.013454750
0.621628881 0.264758438 0.014194436
0.647408783 0.260064870 0.012962313
0.667629480 0.256537139 0.013159563
0.687487543 0.253422499 0.012124309
0.700063109 0.249774873 0.009463000
0.065066010 0.301449567 0.101782262
0.154245004 0.313378006 0.089258194
0.201269194 0.318905771 0.074471876
0.244737148 0.325438708 0.068231940
0.297240436 0.333751768 0.054776691
0.351976871 0.343244433 0.047587439
0.405554205 0.352087706 0.042555869
0.451679349 0.354243904 0.028339129
0.499714941 0.351335883 0.024100753
0.547849953 0.346089810 0.023065940
0.584701359 0.335552722 0.020453749
0.614295006 0.326830506 0.019073624
0.637843251 0.318384290 0.017644433
0.661557138 0.312277406 0.014243370
0.684061944 0.307433456 0.009857185
0.701220691 0.302748412 0.008230813
0.716764927 0.299528897 0.008723314
0.105446465 0.350845993 0.113498010
0.186136514 0.362352937 0.101614006
0.227844760 0.366388023 0.086133450
0.271007568 0.373218894 0.078599378
0.319164515 0.379715651 0.065448813
0.370584309 0.389993131 0.058041759
0.420033991 0.396432579 0.049205504
0.466456354 0.401340902 0.041250315
0.516600132 0.406020164 0.033464938
0.564168930 0.406935900 0.023854624
0.602202058 0.399635166 0.017496563
0.632721066 0.388917357 0.011828686
0.655679166 0.380011916 0.011927379
0.676671922 0.369558275 0.008575952
0.701349974 0.363407910 0.011976446
0.717746019 0.356654406 0.015229451
0.734856665 0.351731509 0.018974824
0.152578205 0.397034556 0.129463822
0.219395384 0.408271164 0.115367189
0.260227412 0.412753731 0.100539759
0.298063397 0.419980764 0.094131634
0.344880134 0.428768337 0.085186943
0.389938474 0.435353011 0.073047817
0.435972959 0.442152143 0.062950186
0.479737192 0.447324067 0.052972183
0.529245317 0.454807580 0.041988745
0.579010844 0.460806072 0.027402753
0.616500497 0.460672200 0.024396628
0.650792539 0.454824984 0.025382128
0.672769189 0.443139642 0.025234383
0.695229769 0.433305383 0.028684445
0.718052387 0.423375130 0.030162882
0.735428452 0.413385242 0.033859380
0.752122700 0.404510915 0.036520749
0.198421255 0.448065251 0.149504066
0.257739067 0.454581171 0.133860126
0.295823395 0.459121823 0.119491808
0.329833031 0.464055210 0.112035066
0.370698243 0.471333057 0.102820434
0.411258936 0.479090452 0.094590001
0.452602863 0.482975096 0.077728063
0.495402455 0.490383953 0.068944439
0.541999519 0.495851994 0.062416308
0.591054380 0.502854824 0.058376752
0.630507231 0.507043540 0.053922124
0.664567709 0.508908451 0.048542563
0.688974738 0.503233075 0.046426564
0.710798502 0.496451288 0.043097746
0.733975768 0.485860616 0.039619811
0.752523541 0.477675050 0.038979124
0.771002352 0.467914701 0.037161998
0.248986423 0.495290995 0.170008987
0.298091948 0.502078772 0.156189442
0.332376868 0.506304562 0.140749872
0.362251520 0.509970009 0.134724379
0.395771593 0.515171111 0.127332136
0.434991479 0.521474302 0.117464691
0.471749127 0.526844442 0.107861191
0.511426330 0.532233238 0.098177806
0.557724893 0.538307130 0.092663184
0.604123473 0.544129193 0.087309562
0.642290056 0.549329400 0.075358562
0.676691532 0.551493645 0.066048622
0.699848711 0.551523983 0.052932374
0.724408209 0.549756408 0.049995810
0.747409284 0.543534756 0.045036618
0.767733514 0.535676122 0.040773258
0.786647201 0.528365016 0.044668064
0.295781940 0.540183663 0.193393946
0.338918328 0.544792891 0.179095119
0.365517318 0.548278451 0.164469123
0.391566664 0.552689493 0.161564499
0.422491491 0.556945801 0.155825257
0.456951261 0.562712431 0.148185059
0.491390586 0.567248344 0.139237761
0.530268729 0.572687685 0.129286915
0.573923707 0.579764128 0.116587438
0.615631640 0.585327566 0.108734563
0.654187381 0.589440942 0.098667249
0.687423944 0.592292488 0.090403497
0.710384727 0.593040049 0.078941561
0.734032869 0.594985068 0.073166564
0.759431124 0.594291747 0.073415756
0.782496035 0.591045797 0.074183322
0.802086830 0.586346209 0.082023688
0.344369948 0.579374671 0.216664433
0.376785368 0.582782447 0.204745322
0.399163872 0.584692180 0.191249326
0.421898872 0.588734388 0.187393695
0.451254815 0.594002962 0.184190631
0.480059922 0.597928882 0.177495837
0.512775600 0.603764296 0.171032012
0.550681293 0.609229803 0.161080554
0.591404617 0.614290953 0.147420317
0.629628241 0.619905233 0.135960370
0.665748596 0.625240624 0.133470327
0.696301401 0.630578756 0.133469313
0.721493542 0.632676840 0.132855326
0.744567573 0.634368181 0.126119062
0.771323919 0.637295485 0.120713189
0.794687390 0.639426529 0.118345939
0.814463139 0.639099717 0.115739070
0.388251811 0.614582002 0.239493906
0.416680157 0.618552089 0.227572083
0.436475217 0.621024966 0.218485460
0.454689175 0.623482406 0.214648470
0.478544533 0.627549350 0.211751908
0.507191598 0.631747961 0.207979083
0.538784266 0.636729002 0.201002151
0.575648308 0.642765045 0.193918094
0.615798116 0.649076462 0.186883032
0.647082984 0.653454363 0.178162664
0.681876600 0.657098591 0.171612218
0.708446562 0.662164688 0.172144711
0.731986821 0.663893521 0.166887969
0.756627679 0.667324901 0.159737900
0.781901300 0.668601632 0.153590024
0.804868937 0.671252251 0.151271284
0.824363410 0.674909234 0.143983901
0.434555978 0.648729861 0.264103591
0.455008596 0.650600731 0.251357019
0.468631804 0.649613082 0.240851581
0.489146918 0.654977322 0.238786161
0.510020375 0.658006847 0.236991212
0.536286056 0.662028849 0.231978893
0.568948388 0.667623103 0.226217657
0.601748347 0.672931790 0.220801771
0.635841370 0.678032398 0.214248970
0.667874753 0.682350576 0.205655023
0.695212185 0.684705496 0.197653219
0.719323337 0.689105630 0.196348786
0.743272960 0.691883743 0.196181342
0.767080009 0.694390416 0.193096101
0.791326344 0.698499978 0.187868908
0.813910484 0.701292574 0.187555775
0.832306564 0.701734662 0.180201352
0.472461402 0.679458380 0.284854472
0.491875648 0.681460083 0.275265902
0.505327523 0.680471539 0.263541520
0.520750582 0.685121059 0.262926221
0.541597486 0.687814057 0.260804474
0.569661319 0.691302121 0.255491406
0.600243568 0.698386252 0.253822088
0.626796305 0.701685011 0.247667789
0.656121671 0.706663072 0.241958484
0.686090171 0.709406853 0.234888643
0.710427582 0.713706017 0.230163604
0.730361402 0.714884281 0.223260462
0.755390882 0.719416201 0.227569208
0.776916981 0.722700119 0.224705279
0.803059459 0.725558758 0.223729342
0.822264612 0.729119062 0.221714079
0.841110945 0.729998350 0.218627647
0.511954010 0.704785943 0.313538134
0.528525770 0.705620706 0.300800145
0.540404856 0.706931531 0.289723635
0.557476699 0.710536122 0.289122999
0.577421188 0.712378263 0.285386145
0.601960957 0.718176425 0.282573104
0.627366781 0.721735895 0.278328001
0.651590884 0.726770818 0.275715560
0.679619312 0.730584860 0.271316797
0.702665567 0.733103395 0.266641259
0.722733021 0.735281289 0.261007130
0.743250191 0.737913549 0.255469561
0.764062941 0.739981115 0.251487702
0.790360153 0.744717956 0.252740800
0.811004460 0.748332202 0.251810253
0.827411354 0.749765456 0.248929560
0.845288634 0.751044214 0.245279372
0.009463000 0.002366000 0.126674369
0.076912999 0.007047750 0.095034055
0.147600487 0.009561500 0.089021742
0.213599131 0.005174624 0.085225880
0.278952360 0.003943000 0.081799254
0.336508185 0.004731000 0.073513560
0.396633774 0.005520000 0.067293622
0.438951194 0.005963813 0.064085312
0.470017016 0.006309000 0.056579247
0.498700321 0.007097000 0.051970378
0.524867475 0.007097000 0.045199625
0.542114377 0.007886000 0.040809188
0.558955908 0.007886000 0.038541503
0.574892342 0.007886000 0.040186249
0.589643240 0.007886000 0.039714001
0.605059147 0.008674000 0.042591691
0.617537022 0.008674000 0.041144378
0.001577000 0.088767618 0.111707628
0.061537877 0.093623124 0.102395631
0.113112628 0.096220627 0.105464995
0.167824253 0.100168690 0.102419816
0.234687939 0.107644819 0.103664629
0.299529999 0.113352805 0.097055443
0.355023146 0.111730687 0.090403065
0.412129045 0.112683557 0.088122807
0.466989130 0.108463183 0.079956181
0.508102775 0.101650819 0.072107248
0.539821684 0.099043623 0.068181626
0.570267916 0.094502002 0.064445503
0.597580850 0.092256248 0.060508251
0.618085742 0.086552560 0.056546815
0.635131776 0.087240562 0.058449559
0.651541471 0.088792190 0.059664503
0.666101456 0.085806310 0.060904376
0.001577000 0.101977877 0.066778876
0.056576125 0.145869568 0.117443442
0.110627502 0.154391125 0.111964121
0.176606312 0.152933702 0.116739877
0.240979999 0.157742605 0.114669256
0.304238319 0.164190561 0.111165375
0.362047285 0.167814866 0.105473250
0.414226174 0.169533998 0.098795749
0.472384036 0.168777734 0.090920635
0.517855287 0.166023448 0.083931006
0.551455736 0.163619623 0.077491008
0.580161572 0.159722120 0.071146436
0.609888494 0.158140004 0.068568245
0.633177042 0.155977130 0.064637564
0.653407276 0.156298384 0.065526992
0.669382989 0.155097246 0.065713808
0.683781743 0.154139742 0.064928629
0.001577000 0.128986880 0.063034445
0.066399686 0.186929390 0.127363190
0.128336862 0.195686147 0.128531814
0.181874275 0.200097769 0.126783445
0.250943244 0.198911950 0.121491812
0.311294228 0.199099645 0.115467630
0.367358595 0.199682638 0.106387876
0.418206334 0.200360522 0.098953500
0.474562943 0.200279638 0.092526376
0.520330667 0.199644521 0.082819127
0.557660997 0.196782574 0.078079753
0.586396396 0.194028944 0.071370810
0.615394473 0.193727002 0.067710936
0.639946163 0.191622645 0.064030498
0.661448002 0.189175442 0.061123870
0.677347541 0.189395130 0.059983939
0.696669757 0.197742641 0.072898068
0.002366000 0.181867629 0.090044625
0.078045815 0.234031886 0.143271998
0.145695120 0.244591504 0.142160878
0.192941949 0.250276089 0.130383939
0.260198772 0.255690515 0.129329503
0.324099571 0.253617495 0.121637307
0.376664042 0.249013498 0.114446625
0.425777346 0.246960372 0.109413683
0.479569525 0.245415628 0.102821752
0.527931511 0.243741244 0.091608249
0.568081260 0.242405117 0.086800501
0.595519722 0.237896740 0.079873130
0.621623397 0.234995753 0.074606128
0.648599088 0.232610121 0.068618685
0.669373572 0.230246380 0.064465374
0.687859893 0.230227634 0.065390497
