public/lut/20.cube
TITLE "17x17x17 Adobe/IRIDAS cube 3D LUT exported with GrossGrade v0.2.2 (beta) 64 bit"
DOMAIN_MIN 0 0 0
DOMAIN_MAX 1 1 1
LUT_3D_SIZE 17
0.035486002 0.043264002 0.044737998
0.053876311 0.045417689 0.041853063
0.087142371 0.050851125 0.040994000
0.121794380 0.057205938 0.040994000
0.153965503 0.061496250 0.041185249
0.185203254 0.065852940 0.041758999
0.214175507 0.069269001 0.042516001
0.241168454 0.071876504 0.043264002
0.266779006 0.074157998 0.044004999
0.290385246 0.076103434 0.045462999
0.312267125 0.077829003 0.046891998
0.332974374 0.079102002 0.047814123
0.354008496 0.081714749 0.049838752
0.375581026 0.085790373 0.052469816
0.398636788 0.089761503 0.054374877
0.422876209 0.092616312 0.056235004
0.448428005 0.095499001 0.058053002
0.035535250 0.055366687 0.051559936
0.058751561 0.065209500 0.048337188
0.107331686 0.072883748 0.042516001
0.150761008 0.079862125 0.042516001
0.190840825 0.086524561 0.043217253
0.226624325 0.092119001 0.044462625
0.258795083 0.097103685 0.046090811
0.289895058 0.101574816 0.046802685
0.315508455 0.104518250 0.047552001
0.337774009 0.107085377 0.048898187
0.358473867 0.109055683 0.050262813
0.378977001 0.111171685 0.051186126
0.398479521 0.114012629 0.052919749
0.417462379 0.117701449 0.055012938
0.437125176 0.120894559 0.056858379
0.459009230 0.122533001 0.058623940
0.482101560 0.124108255 0.060389187
0.034697000 0.074455753 0.057820875
0.050030187 0.083276935 0.057244375
0.127296880 0.108138755 0.039814878
0.187782884 0.115487687 0.039624628
0.236433133 0.122087374 0.039624628
0.280006021 0.128760561 0.040943939
0.315600157 0.134745762 0.043169625
0.346018881 0.139173374 0.044689313
0.371626258 0.142979756 0.046800621
0.393471330 0.146697626 0.049155377
0.411707520 0.149058387 0.051017001
0.428225994 0.150853008 0.052836377
0.445907146 0.154313505 0.054933999
0.463828444 0.158731371 0.057554130
0.482495278 0.161805496 0.059867378
0.501157463 0.162466437 0.062226191
0.521351516 0.162334129 0.064943500
0.035486002 0.096770316 0.065886810
0.045313749 0.105419561 0.064235441
0.114913628 0.138967693 0.044305313
0.227841839 0.164261445 0.028684685
0.286726266 0.169900835 0.031148370
0.334234387 0.174438834 0.032676809
0.370226264 0.178852007 0.034352437
0.402959108 0.183869377 0.036372874
0.430046737 0.187671006 0.038689435
0.452238321 0.190949574 0.040648062
0.471293628 0.193607390 0.043213125
0.488660246 0.195750624 0.045955308
0.505224109 0.198401436 0.048159190
0.521597326 0.202139199 0.051516503
0.539473057 0.205572635 0.055523381
0.555778444 0.207450882 0.060904756
0.568074346 0.205340147 0.066408813
0.034106001 0.120225251 0.072748750
0.043757875 0.129908055 0.070300564
0.114512123 0.172784626 0.049933001
0.243928522 0.212641060 0.014884498
0.337215990 0.227396742 0.013602749
0.389037311 0.229152501 0.020206936
0.425707757 0.231037751 0.021784624
0.456697315 0.234349310 0.024889562
0.484031975 0.237310752 0.027994500
0.506562591 0.239535749 0.030557498
0.526642501 0.242370754 0.034204371
0.545745134 0.245175123 0.037901059
0.563537240 0.247806013 0.041942004
0.579803050 0.251312882 0.047200006
0.596819341 0.254427999 0.051352382
0.613024414 0.255728066 0.056429692
0.623805761 0.250730753 0.062950000
0.033909000 0.142375872 0.077000938
0.042312875 0.152472928 0.073169000
0.114366688 0.200837374 0.056377437
0.250069618 0.253259629 0.007590248
0.365213871 0.280730128 0.000443562
0.441959381 0.290757418 0.002858812
0.479755998 0.288220853 0.009068252
0.508729577 0.288146496 0.013800190
0.535721660 0.290455371 0.016904876
0.558474839 0.292396009 0.021143749
0.577517450 0.293767244 0.027107188
0.596650124 0.296001732 0.032282375
0.616331577 0.299252093 0.037161626
0.633743405 0.302241266 0.043028947
0.650609076 0.304482460 0.049155381
0.665549576 0.302966326 0.053972069
0.676655591 0.298004746 0.061643001
0.033909000 0.162105769 0.077950999
0.042125877 0.173161685 0.073520809
0.113290995 0.225825384 0.059982624
0.251845270 0.287493706 0.005569371
0.379465252 0.319975644 0.000000000
0.467355102 0.338499844 0.000000000
0.524891734 0.344748497 0.000789000
0.556548238 0.342697710 0.005421438
0.580481231 0.341582894 0.011335875
0.604130089 0.343301058 0.016412063
0.624589622 0.344719023 0.022474375
0.643163383 0.345944017 0.028881812
0.661516488 0.348817497 0.035880253
0.679343879 0.351185709 0.042464007
0.696023226 0.351640910 0.049581382
0.712290406 0.349186331 0.056076571
0.725766480 0.344846517 0.062948875
0.034697000 0.181073457 0.079581998
0.042175189 0.192222446 0.074252434
0.113025315 0.249244630 0.061905500
0.249111637 0.315479696 0.004632998
0.384382516 0.351672739 0.000000000
0.482165784 0.377315998 0.000000000
0.549580932 0.389253855 0.000000000
0.594838560 0.393506736 0.002020814
0.620613396 0.390506327 0.007885502
0.640466034 0.388274729 0.015574311
0.663021564 0.390604317 0.024199503
0.683585346 0.392948300 0.031148627
0.700599611 0.393661141 0.039130319
0.718410134 0.393798113 0.045494318
0.736537516 0.395470083 0.054401889
0.752348423 0.393598408 0.063048199
0.765860140 0.387819886 0.071532696
0.035486002 0.197842509 0.081009999
0.041796688 0.208526015 0.074757934
0.106686376 0.264429748 0.064078003
0.235461324 0.332295299 0.005667623
0.371566504 0.371274501 0.000000000
0.474925578 0.400214314 0.000000000
0.561724901 0.422481894 0.000000000
0.612754464 0.430434525 0.000000000
0.652359962 0.434871525 0.007491503
0.676759362 0.433718324 0.017594690
0.695127487 0.431438625 0.027994253
0.714964271 0.432604134 0.038974125
0.735532761 0.434656501 0.047732756
0.753121376 0.434945524 0.055580888
0.771770835 0.434593260 0.063079134
0.788410962 0.432634890 0.070915386
0.798307002 0.427571505 0.091483504
0.036274001 0.212316811 0.083284378
0.040748313 0.220696881 0.076752506
0.096656442 0.275746554 0.067944750
0.215491965 0.343031824 0.013799932
0.352849454 0.384769499 0.000000000
0.452528238 0.413718045 0.000000000
0.549990892 0.441722691 0.000000000
0.622181475 0.460154802 0.000000000
0.666996658 0.466868073 0.002020816
0.703077734 0.472510189 0.022129001
0.724864483 0.471576184 0.038035501
0.742391169 0.469570667 0.049832188
0.762828469 0.470793605 0.060310625
0.783340096 0.472166657 0.069240697
0.800746262 0.469509929 0.076210633
0.817159712 0.466000438 0.083009452
0.827206552 0.467584878 0.122061811
0.036569875 0.225760505 0.088506877
0.039281126 0.231092870 0.081857443
0.078693382 0.279135257 0.072748125
0.179722890 0.341397762 0.036538176
0.313796014 0.389449596 0.000000000
0.418732762 0.419806004 0.000000000
0.515987039 0.449601620 0.000000000
0.606304646 0.475754499 0.000000000
0.673408628 0.492837846 0.000788502
0.711834669 0.499834567 0.021192688
0.745414853 0.506207466 0.048533499
0.767974496 0.506198943 0.065135375
0.786099255 0.503716469 0.074867003
0.805128515 0.502331793 0.084287070
0.825853646 0.501850426 0.090854511
0.843284428 0.499198675 0.099299252
0.851344764 0.507169604 0.165298507
0.038640000 0.241370693 0.095441625
0.039379690 0.243072569 0.089132309
0.061090749 0.278037131 0.079036124
0.145316526 0.333322912 0.062392302
0.266954809 0.391405761 0.005322623
0.386988491 0.424359620 0.000000000
0.482870460 0.454686850 0.000000000
0.578006625 0.484067619 0.000000000
0.661539435 0.509184003 0.001577502
0.716909945 0.524315178 0.022277500
0.750396430 0.530522645 0.051844876
0.783134818 0.535564363 0.078553252
0.805081010 0.534102321 0.092695504
0.823844135 0.531716108 0.101967886
0.845009506 0.531915784 0.111644506
0.862686157 0.530884624 0.121917136
0.866065383 0.546397150 0.227145255
0.039429002 0.256224513 0.106218010
0.039429002 0.255621612 0.099435315
0.052226003 0.279752612 0.088937759
0.115404509 0.327715188 0.079959065
0.219316497 0.386654258 0.032314755
0.348551095 0.427790791 0.000000000
0.454710394 0.458504498 0.000000000
0.546353340 0.489123881 0.000000001
0.636756063 0.518656254 0.003942755
0.709023535 0.541700959 0.026368193
0.753583670 0.553664625 0.058992252
0.786047459 0.557902992 0.086015008
0.818415225 0.562108755 0.111617014
0.840803862 0.561472416 0.122798383
0.860132813 0.559543014 0.130996764
0.875647247 0.560034394 0.149178088
0.878725767 0.587522745 0.297199011
0.041137442 0.272593468 0.121210761
0.041137442 0.271660894 0.115362957
0.049052626 0.289672434 0.103910074
0.093311131 0.328446329 0.092344083
0.185633987 0.380560964 0.064241648
0.304655850 0.432970703 0.004879018
0.421972513 0.465088010 0.000000000
0.521790981 0.496458560 0.000000002
0.609635293 0.525866926 0.010153197
0.688062489 0.552767396 0.037764508
0.748961210 0.573677957 0.070234515
0.787554264 0.583139479 0.106472082
0.819890797 0.586387932 0.130225584
0.850582123 0.588510394 0.146174356
0.872175455 0.587515473 0.154434934
0.888030589 0.589698195 0.176227137
0.891913593 0.624739647 0.345131576
0.044096626 0.294859797 0.142486274
0.044096626 0.293734074 0.137273774
0.050088003 0.305977792 0.124704026
0.083898447 0.336067259 0.109328896
0.162031233 0.378059775 0.093562156
0.268660963 0.434570670 0.035516981
0.384464115 0.475055158 0.001281516
0.496935129 0.506625593 0.002415077
0.589075863 0.534960270 0.015278766
0.664952278 0.561572850 0.044827700
0.731576383 0.586722672 0.082840145
0.784470260 0.606842816 0.127130568
0.820275009 0.613538861 0.157611161
0.853392601 0.615594923 0.171745121
0.882841408 0.618460774 0.185506180
0.899296939 0.621233523 0.207520813
0.903212607 0.665041924 0.398655951
0.049836405 0.325944304 0.172835752
0.049836405 0.324761868 0.168120176
0.055950906 0.332146257 0.156529695
0.084929913 0.355722725 0.139126077
0.151447400 0.388726324 0.122949310
0.241760567 0.436409324 0.078647450
0.347026318 0.482193410 0.027403060
0.457308114 0.515578151 0.017742865
0.554387808 0.545202792 0.032378428
0.637533605 0.572692811 0.059860729
0.712024212 0.599512577 0.097829536
0.770499945 0.621155620 0.136172712
0.820942879 0.639992893 0.185160637
0.857921541 0.646609426 0.212413132
0.885276496 0.650160909 0.228613406
0.908814549 0.654729187 0.245650277
0.913493097 0.709373593 0.455955952
0.250220001 0.507391989 0.360244006
0.251973808 0.508083820 0.360250205
0.260411620 0.511377633 0.361108392
0.279310107 0.518252969 0.363069385
0.313943505 0.529622257 0.366221011
0.358054876 0.543651104 0.371509790
0.410489380 0.560916483 0.378088862
0.463213235 0.588104427 0.371709943
0.529332042 0.618667006 0.359000504
0.602642715 0.644265711 0.359192252
0.671011865 0.665609241 0.374279767
0.729511261 0.682214200 0.385597229
0.789035499 0.701937497 0.411684513
0.841812670 0.721826196 0.448042482
0.876356721 0.736851156 0.483303398
0.899482071 0.751043856 0.521700323
0.913681984 0.765235007 0.566430986
0.030803312 0.042516001 0.058915999
0.045904625 0.044692185 0.066802621
0.079383068 0.049497128 0.066908248
0.114722751 0.055248812 0.061883189
0.147179008 0.059115749 0.059180684
0.176479682 0.062479064 0.056653876
0.202704579 0.064908750 0.054248001
0.227770582 0.066028126 0.053444564
0.252071679 0.066824503 0.052466188
0.274979383 0.068461247 0.052836124
0.295916528 0.069536440 0.053121503
0.315940410 0.069569379 0.053729441
0.337242842 0.070893943 0.054971747
0.359286666 0.073423877 0.057437193
0.382467091 0.076413445 0.059716187
0.406897396 0.079701126 0.061531004
0.432736605 0.083457187 0.063808620
0.030015251 0.055325374 0.065806128
0.049315002 0.066802621 0.068980813
0.095841624 0.073494934 0.066975497
0.143450767 0.080214880 0.062536255
0.183360875 0.084953807 0.060118373
0.218527675 0.088466249 0.057930131
0.251322329 0.092546999 0.056733876
0.280251145 0.096551001 0.057161689
0.305781692 0.099628255 0.057202250
0.328614205 0.102358878 0.057818130
0.350044817 0.105418816 0.059261188
0.371183306 0.109220430 0.061013374
0.392151326 0.112993069 0.062728815
0.412310779 0.116136566 0.065500058
0.432637841 0.119054630 0.068183936
0.454514474 0.121068753 0.070329875
0.478584856 0.122011878 0.071872123
0.033070747 0.076888002 0.072086059
0.043952812 0.084742807 0.075582005
0.114442632 0.108504124 0.065585688
0.182597831 0.117082059 0.060775250
0.231592804 0.123192564 0.058496505
0.273805976 0.128234059 0.056614250
0.308268994 0.132523194 0.056617502
0.336638302 0.137220576 0.057664312
0.361734122 0.140529558 0.058238439
0.383038163 0.143375680 0.059638500
0.402185827 0.146064684 0.061086752
0.419621527 0.148875624 0.063124813
0.438449889 0.152202129 0.064973436
0.457598776 0.155523196 0.067162380
0.476666421 0.157686621 0.069763631
0.495044649 0.157738999 0.072323687
0.516347587 0.156587943 0.073834494
0.034598500 0.099570125 0.078057691
0.040166315 0.106514260 0.079829752
0.094570495 0.134175390 0.070279375
0.219289958 0.167970240 0.050271373
0.283176750 0.173912466 0.050364435
0.330305606 0.177214071 0.048965059
0.369191289 0.181376815 0.047630686
0.400158048 0.185216635 0.047585372
0.427111208 0.188360691 0.048457809
0.449864388 0.190868765 0.049191810
0.468899876 0.193656698 0.052133936
0.484932423 0.195939273 0.055324502
0.500626147 0.198429570 0.058541812
0.516628444 0.201382771 0.062072314
0.533215046 0.204433829 0.067125320
0.548556328 0.205153465 0.072195567
0.560378194 0.201259464 0.076810062
0.033909000 0.122177064 0.085412309
0.039182562 0.130008817 0.085833244
0.094307564 0.162782758 0.079084679
0.220523164 0.209693506 0.039474372
0.329514712 0.230847180 0.035042062
0.383859247 0.232663319 0.038781311
0.424722582 0.234747499 0.036717813
0.455973208 0.237302110 0.036668435
0.482749760 0.239596650 0.039083753
0.506127417 0.241429314 0.040840186
0.527303278 0.244543999 0.043812312
0.545783281 0.247734010 0.047587935
0.562264085 0.250315756 0.052214622
0.578498006 0.252517521 0.056346439
0.594535053 0.254929125 0.060570002
0.609569728 0.254748195 0.065185636
0.620136738 0.248621628 0.071220003
0.033119999 0.143421367 0.089237683
0.037654813 0.151706129 0.088801131
0.091258749 0.188008815 0.082607068
0.219211504 0.247389808 0.033233680
0.348906308 0.280960560 0.013011687
0.433699012 0.294669509 0.020059187
0.476211786 0.292263359 0.025382005
0.506772578 0.291847140 0.028881501
0.533874929 0.294001639 0.030064501
0.557739139 0.295780569 0.033613000
0.578025877 0.296822876 0.037851498
0.596730828 0.299032629 0.042694502
0.615895331 0.302292675 0.047499750
0.633728564 0.304491818 0.052007694
0.649806201 0.305623233 0.057548877
0.663776100 0.303799272 0.062618695
0.675508380 0.297816634 0.068728499
0.033859689 0.163798317 0.090371996
0.037654813 0.171589196 0.087981746
0.086722568 0.210860759 0.081413440
0.214711785 0.278630555 0.030070491
0.356488317 0.317241907 0.006505937
0.456782520 0.339891344 0.004287998
0.520312369 0.348456770 0.012913125
0.552724540 0.346372426 0.020749751
0.577010989 0.345219344 0.026910000
0.602160871 0.347024769 0.030064188
0.623866141 0.348468900 0.034647875
0.642070889 0.349325746 0.040403187
0.659649611 0.351269066 0.047358438
0.678163886 0.352869570 0.052821696
0.695097744 0.352643311 0.059364699
0.710772991 0.350121647 0.065597445
0.724257171 0.344619930 0.070426069
0.034302939 0.182916582 0.092447437
0.037704125 0.190392464 0.088478252
0.086425811 0.233196646 0.080561191
0.209304288 0.303537607 0.031074241
0.358519077 0.348030061 0.003992249
0.467341930 0.375648886 0.000295874
0.542069972 0.390000254 0.003154062
0.590041578 0.396214932 0.015032065
0.615835309 0.393422842 0.024396442
0.636785567 0.391669661 0.032085251
0.660314381 0.393855691 0.038147129
0.680843353 0.395789146 0.044378690
0.698473215 0.395800591 0.050778572
0.716594696 0.396117896 0.057215389
0.734807789 0.397038639 0.065101191
0.750910461 0.394573271 0.072793268
0.763830900 0.388179839 0.082085818
0.035436690 0.199724823 0.093706809
0.038147375 0.206614062 0.088943563
0.081701249 0.248656765 0.079488747
0.197555527 0.318154126 0.033287428
0.344389260 0.367741078 0.001971374
0.462335080 0.399521381 0.000000000
0.553251624 0.422756881 0.000000000
0.609010935 0.432658315 0.005865193
0.647863388 0.437945068 0.023903817
0.671933532 0.436666042 0.035584439
0.690615773 0.433883637 0.043256626
0.711574256 0.435127646 0.052541941
0.732822418 0.437131912 0.059635382
0.750735044 0.437215894 0.067059949
0.769848645 0.436346531 0.073488511
0.786439300 0.434083074 0.081487760
0.796677351 0.428620577 0.102812134
0.036224753 0.214571252 0.095514305
0.038541440 0.220896751 0.091473699
0.075629637 0.261977822 0.080204815
0.184155837 0.328684151 0.041172050
0.326574206 0.381750435 0.000443625
0.443147987 0.414170921 0.000000000
0.542526782 0.442334563 0.000000000
0.619641244 0.462123871 0.000640942
0.663428783 0.469578505 0.015820505
0.698741734 0.474969059 0.038955811
0.720458686 0.473721057 0.054251753
0.738966763 0.471634090 0.063483812
0.760145068 0.472864121 0.072857320
0.780935645 0.473657817 0.079994887
0.798717737 0.470698565 0.085535318
0.816142917 0.467393577 0.091346256
0.826008022 0.469206631 0.133470193
0.037358873 0.228377193 0.099265628
0.038590752 0.233136445 0.095749065
0.064007878 0.268177360 0.083423249
0.158874407 0.328968287 0.060760237
0.292016834 0.387047231 0.001626498
0.413844824 0.421615690 0.000000000
0.511486530 0.451071233 0.000000000
0.605039120 0.477840126 0.000000000
0.672264695 0.495619297 0.009019192
0.708822668 0.502399206 0.034993313
0.742167950 0.508404791 0.063715376
0.765044272 0.508029163 0.078315683
0.782760262 0.504939735 0.086933881
0.802836061 0.503603637 0.094353817
0.824337721 0.503185034 0.100141630
0.842412829 0.500637233 0.107671253
0.849999487 0.509135842 0.176617444
0.038640000 0.243473753 0.104978688
0.038886562 0.246576130 0.102748066
0.053411372 0.270374149 0.089727066
0.133209705 0.324781716 0.079796933
0.249630585 0.387031376 0.017102184
0.381627023 0.426020235 0.000000000
0.477973610 0.456150830 0.000000000
0.574866593 0.485941976 0.000000000
0.660758793 0.511441052 0.006899879
0.714303792 0.526445091 0.035042625
0.747933865 0.532365978 0.064325936
0.780936122 0.537069678 0.089789741
0.802901685 0.535286307 0.102506876
0.822187364 0.533101916 0.111571580
0.843831062 0.533201635 0.120484203
0.861515343 0.531934083 0.129696935
0.865028501 0.548290730 0.236942932
0.039626002 0.257856250 0.114738941
0.040411249 0.260305941 0.112820253
0.046924811 0.274380296 0.098840877
0.104085259 0.322798193 0.089483254
0.207408056 0.381043255 0.048732691
0.342229486 0.429010689 0.000197251
0.450285017 0.460141242 0.000000000
0.542807758 0.490826875 0.001380190
0.634319663 0.520442009 0.012370819
0.706946433 0.543558598 0.037374627
0.751565516 0.555053592 0.069114007
0.784147143 0.559245646 0.095189244
0.816680253 0.563336790 0.119941510
0.839238822 0.562499344 0.130932584
0.858846426 0.560453057 0.138623387
0.874628782 0.561110973 0.156449780
0.878295422 0.588782549 0.302885950
0.041137442 0.274696320 0.128337950
0.041900940 0.277051777 0.126948506
0.046484813 0.286712438 0.113475330
0.085788824 0.324006945 0.099834263
0.177705795 0.375347883 0.078506403
0.299464285 0.432684630 0.011385151
0.418136984 0.466727167 0.000000000
0.518476903 0.498027831 0.001182943
0.606685877 0.527021229 0.017299322
0.685370564 0.553981781 0.046119131
0.747052193 0.574915290 0.078314073
0.785706639 0.584318578 0.114296027
0.818334818 0.587335587 0.137235835
0.849619746 0.589400709 0.152339041
0.871372938 0.588504136 0.160521790
0.887585342 0.590813518 0.182172254
0.891815960 0.625257730 0.347222924
0.044187251 0.297206342 0.148853958
0.045507438 0.299392462 0.147829518
0.048290629 0.305102408 0.133512139
0.078819387 0.333547443 0.116938144
0.156046540 0.375534505 0.103245214
0.262910336 0.432708919 0.046795860
0.380187184 0.475361377 0.005815834
0.493234634 0.506942451 0.006653454
0.584020734 0.535240531 0.022178579
0.660936177 0.562184036 0.051442321
0.729113877 0.587486029 0.089602381
0.782603502 0.607670248 0.133516684
0.819036186 0.614439905 0.163234085
0.852548361 0.616406977 0.177003413
0.882287741 0.619198263 0.189990118
0.898990154 0.622007668 0.211822376
0.903238893 0.665525734 0.400151491
0.050513905 0.328009635 0.178720698
0.051765468 0.329927623 0.178694561
0.055399716 0.332806230 0.165776998
0.081607416 0.355133116 0.146615759
0.146718159 0.387496561 0.130219802
0.237276629 0.434291214 0.089983448
0.342552483 0.481479347 0.035573434
0.454136163 0.515728414 0.022376239
0.550576925 0.545427442 0.037726428
0.633571208 0.572952569 0.065698229
0.709250212 0.599961281 0.103120089
0.768794537 0.621755958 0.140744910
0.819843650 0.640732110 0.189679459
0.857305050 0.647350729 0.216449410
0.884857833 0.650923193 0.232072338
0.908664405 0.655403137 0.248498932
0.913405836 0.709576428 0.456672639
0.249638632 0.507590055 0.361207336
0.251406640 0.508277774 0.361398190
0.259683371 0.511609733 0.362413585
0.278052032 0.518229485 0.364237607
0.312969625 0.529847205 0.367539614
0.356765121 0.543784440 0.372699380
0.409579277 0.560927093 0.379878998
0.462391913 0.587805867 0.373781890
0.528625965 0.618741989 0.361153752
0.601963162 0.644522846 0.360918611
0.670299649 0.665746868 0.375264704
0.729028702 0.682557106 0.387160182
0.788514733 0.702169836 0.412896365
0.841427803 0.722008705 0.448928922
0.876156867 0.737196863 0.484300077
0.899362028 0.751234829 0.522422552
0.913652003 0.765351355 0.566885531
0.030754000 0.044646375 0.081979506
0.038590685 0.044737998 0.089223810
0.067550130 0.048898626 0.104070507
0.106667757 0.054052562 0.104140505
0.144054994 0.059039626 0.096678130
0.177065492 0.063093439 0.090502560
0.205698505 0.065294623 0.084171869
0.233390078 0.065958753 0.079010122
0.259057492 0.066756003 0.075700372
0.282319486 0.067851998 0.073591128
0.303752869 0.068393998 0.072339378
0.323826492 0.068393998 0.071888752
0.344186753 0.069603249 0.073369749
0.365268916 0.071681499 0.075489312
0.388665915 0.074284256 0.078959621
0.413267404 0.077277571 0.081692807
0.438548982 0.081068873 0.083954751
0.030704750 0.057163563 0.090780623
0.040017691 0.063503683 0.093124434
0.076983191 0.068980813 0.106941938
0.129167318 0.075456440 0.104410693
0.174697205 0.081665680 0.095441997
0.210282117 0.084189557 0.088030003
0.240808129 0.086420059 0.082261875
0.266974360 0.088166371 0.077552252
0.290129691 0.088822000 0.074542880
0.311090529 0.089909554 0.073369436
0.333145440 0.092416883 0.073403187
0.353919834 0.095275693 0.074104995
0.373846829 0.097434439 0.076018363
0.393326700 0.100168817 0.077503249
0.414422214 0.103194565 0.079860620
0.437383205 0.105747566 0.081696190
0.461195886 0.107281126 0.082256749
0.030655500 0.076393127 0.102156252
0.038639247 0.089858815 0.107922189
0.084911123 0.107771382 0.112456247
0.155327260 0.121329635 0.117189817
0.210442752 0.126863003 0.106281497
0.254622251 0.129958883 0.097335935
0.291816741 0.133799747 0.092480004
0.322393447 0.136739567 0.088372752
0.349255770 0.139578015 0.086027622
0.372409523 0.142639697 0.085471749
0.393401116 0.145362005 0.086088248
0.412435502 0.147950009 0.087014630
0.430695504 0.150827378 0.088313252
0.449433655 0.153514266 0.089653432
0.468949020 0.154881746 0.091402501
0.487372160 0.153088450 0.092255250
0.508621514 0.150649011 0.092255250
0.033119999 0.104392566 0.111497313
0.037112314 0.113251954 0.113934435
0.077383630 0.134994432 0.123690881
0.177225530 0.167215452 0.120764688
0.260126650 0.176885575 0.111135811
0.312349319 0.181317747 0.102039315
0.353818864 0.185251951 0.093897060
0.385785103 0.187304020 0.087537870
0.411928833 0.189616814 0.085849002
0.433961511 0.191863567 0.085688315
0.453682899 0.194487259 0.086558506
0.470449954 0.196811527 0.088226750
0.485948771 0.198662013 0.090157188
0.501447141 0.200237751 0.092635371
0.518721700 0.201340765 0.095442683
0.534728765 0.198492587 0.097324997
0.550085127 0.191771582 0.096516006
0.033119999 0.125970870 0.115695879
0.036964439 0.134181872 0.116975501
0.069293626 0.158955246 0.124104254
0.152965069 0.193978265 0.118220374
0.293442130 0.233723253 0.105226628
0.363677621 0.240470290 0.101519130
0.410787642 0.243198767 0.090879247
0.447880775 0.245176390 0.082080625
0.476894140 0.246785507 0.079387747
0.499993712 0.248284072 0.078637749
0.521440387 0.250229001 0.077761628
0.539881587 0.252400577 0.079378247
0.555459917 0.253464133 0.082250625
0.569634318 0.253955752 0.086025193
0.583798647 0.254012495 0.090262383
0.596131325 0.250843942 0.095289379
