public/lut/20.cube
TITLE "17x17x17 Adobe/IRIDAS cube 3D LUT exported with GrossGrade v0.2.2 (beta) 64 bit"
DOMAIN_MIN 0 0 0
DOMAIN_MAX 1 1 1
LUT_3D_SIZE 5
0.035486002 0.043264002 0.044737998
0.153965503 0.061496250 0.041185249
0.266779006 0.074157998 0.044004999
0.354008496 0.081714749 0.049838752
0.448428005 0.095499001 0.058053002
0.034106001 0.120225251 0.072748750
0.337215990 0.227396742 0.013602749
0.484031975 0.237310752 0.027994500
0.563537240 0.247806013 0.041942004
0.623805761 0.250730753 0.062950000
0.035486002 0.197842509 0.081009999
0.371566504 0.371274501 0.000000000
0.652359962 0.434871525 0.007491503
0.735532761 0.434656501 0.047732756
0.798307002 0.427571505 0.091483504
0.039429002 0.256224513 0.106218010
0.219316497 0.386654258 0.032314755
0.636756063 0.518656254 0.003942755
0.818415225 0.562108755 0.111617014
0.878725767 0.587522745 0.297199011
0.250220001 0.507391989 0.360244006
0.313943505 0.529622257 0.366221011
0.529332042 0.618667006 0.359000504
0.789035499 0.701937497 0.411684513
0.913681984 0.765235007 0.566430986
0.031543002 0.047596000 0.122049004
0.119038254 0.050852001 0.157369509
0.266903281 0.062805250 0.145839751
0.359017015 0.064662002 0.136135757
0.457570016 0.078739755 0.152653009
0.033909000 0.127302006 0.180525497
0.192374751 0.233240247 0.234546006
0.443777978 0.260925025 0.215066761
0.526885509 0.256803989 0.186055258
0.592596471 0.242204994 0.177483261
0.035486002 0.220434517 0.212263256
0.172047749 0.318109244 0.215444759
0.586111963 0.462123245 0.256487250
0.714404762 0.469228268 0.243031263
0.784447789 0.452519029 0.252310753
0.041567750 0.288636774 0.223955765
0.116270259 0.355977774 0.210865512
0.545737505 0.525241256 0.187442750
0.787231743 0.581173778 0.264164507
0.875375032 0.602492332 0.360626757
0.254891276 0.518406272 0.387552232
0.293594241 0.534270763 0.393603235
0.511426270 0.617467999 0.406488746
0.776044786 0.707799554 0.441385984
0.911516786 0.769863009 0.582028747
0.034303002 0.057436503 0.188584507
0.085883260 0.048639499 0.211766243
0.285362482 0.056196000 0.257248491
0.395743787 0.059567500 0.266596496
0.473158479 0.072622001 0.272437513
0.037852000 0.138200745 0.253178507
0.094061755 0.209857747 0.299023479
0.411315739 0.281364769 0.381286502
0.522707999 0.257552505 0.353982747
0.578888774 0.225474507 0.321518242
0.040605500 0.243613511 0.331678510
0.102478504 0.331022501 0.369059741
0.441568017 0.470380992 0.434070528
0.652117968 0.495197475 0.449906498
0.739511967 0.448448479 0.390975535
0.056181505 0.365821242 0.389510244
0.131188005 0.416745752 0.392724484
0.440128773 0.526412249 0.448042989
0.727812290 0.624914527 0.488824010
0.868354499 0.642081738 0.490496516
0.262427002 0.550235510 0.468672991
0.307724237 0.566960692 0.472983778
0.467238009 0.622696996 0.499059498
0.732329726 0.727099538 0.533362746
0.904275000 0.789315462 0.640475035
0.037062999 0.074915245 0.240760252
0.069270752 0.054134000 0.242891744
0.256617993 0.057588752 0.300335228
0.420180023 0.070925757 0.333480507
0.485262483 0.079341501 0.339713991
0.040217001 0.155839503 0.306623995
0.063769996 0.196121752 0.324791253
0.263277531 0.220330268 0.385389268
0.514493763 0.259066761 0.430250496
0.545081735 0.174706250 0.382147014
0.042890001 0.250419259 0.376177251
0.075843260 0.312216252 0.398609489
0.350845516 0.445219487 0.478693783
0.616227448 0.515802979 0.552563488
0.713820279 0.444858253 0.502151966
0.057431754 0.384027749 0.464459240
0.149249762 0.449798495 0.480628759
0.424661011 0.552568257 0.537815690
0.611099005 0.627306461 0.568051457
0.829156041 0.652086258 0.605689049
0.335271508 0.604510725 0.559064031
0.387984753 0.624599278 0.571738243
0.514624000 0.673787713 0.604871452
0.698762238 0.750430226 0.649210513
0.885575712 0.815376520 0.734054506
0.038640000 0.090892002 0.277844012
0.057083253 0.058053002 0.265479237
0.225512028 0.059265003 0.323719978
0.403129518 0.087738998 0.372223258
0.494298011 0.083802998 0.381545991
0.041758999 0.169534504 0.344843984
0.048284002 0.167859763 0.338329732
0.153133258 0.137915760 0.351200521
0.407771766 0.116229489 0.389440268
0.495900244 0.083802998 0.382697999
0.045462999 0.264783978 0.416184485
0.053795751 0.285934001 0.422665477
0.221442029 0.392495990 0.498211026
0.513918519 0.435901523 0.563453794
0.681269526 0.401350021 0.552878976
0.056506753 0.374689519 0.488393515
0.086484507 0.405924737 0.495970488
0.346904546 0.535877287 0.582211018
0.595360756 0.619304299 0.666068017
0.800837994 0.645628989 0.698645532
0.094676003 0.503162980 0.564173996
0.390263259 0.642032981 0.641346991
0.553439498 0.706775486 0.695203543
0.722979009 0.777449489 0.758089244
0.874256015 0.836596012 0.817987978
