public/lut/21.cube
TITLE "17x17x17 Adobe/IRIDAS cube 3D LUT exported with GrossGrade v0.2.2 (beta) 64 bit"
DOMAIN_MIN 0 0 0
DOMAIN_MAX 1 1 1
LUT_3D_SIZE 17
0.037062999 0.037062999 0.037852000
0.059397936 0.040896188 0.038640000
0.100779250 0.048634499 0.040798374
0.149100646 0.056466375 0.042516001
0.208084762 0.061348252 0.040994000
0.267230868 0.065470688 0.038886562
0.322860777 0.067304999 0.036569875
0.372932404 0.069235504 0.034253750
0.415902525 0.072620496 0.033909000
0.454030812 0.076877683 0.033909000
0.488486230 0.079461247 0.032824498
0.520871103 0.083629876 0.032331999
0.547530532 0.088618249 0.032331999
0.572232068 0.093507186 0.033119999
0.591137230 0.095190495 0.033909000
0.610227406 0.096314996 0.034697000
0.624105990 0.095087998 0.035486002
0.044599123 0.057037812 0.050762001
0.059438877 0.063921809 0.047462687
0.105492249 0.078535810 0.048117064
0.158115327 0.090861008 0.046179689
0.221635804 0.103389315 0.042795189
0.289447069 0.114204004 0.036767125
0.352588326 0.122748502 0.031394996
0.408896446 0.129958436 0.027255310
0.455447823 0.137320563 0.025381876
0.497264445 0.144964635 0.023854187
0.534252286 0.151293188 0.022277126
0.567362428 0.157620430 0.021489125
0.594678760 0.165200830 0.021686126
0.619180501 0.171046004 0.023016812
0.638798058 0.172828004 0.023804875
0.657875896 0.173197493 0.024643129
0.670002818 0.168721750 0.026959812
0.045462999 0.096040629 0.070841752
0.065174438 0.105089061 0.067803189
0.098389626 0.118527621 0.058509126
0.158636689 0.138252571 0.054254439
0.224128753 0.153767496 0.045275621
0.292685151 0.169500753 0.037703753
0.362816513 0.184664875 0.029275872
0.428310513 0.199070811 0.022769935
0.479876757 0.211245894 0.019911250
0.524221301 0.222386941 0.017890874
0.566458106 0.234289885 0.015574126
0.604122579 0.246144935 0.015869625
0.633817792 0.256266505 0.016855875
0.660132945 0.263649613 0.018235626
0.681416273 0.266618758 0.018334255
0.700852394 0.266618550 0.019714000
0.713147342 0.258336395 0.021390500
0.047596000 0.139352381 0.092126004
0.060344625 0.144364327 0.085837185
0.096963495 0.161589831 0.079839252
0.138949901 0.175889447 0.061275560
0.213128999 0.198473141 0.049367748
0.277000666 0.210555568 0.042181686
0.345500648 0.226277962 0.032923188
0.418011725 0.246832952 0.024987999
0.481979638 0.267086923 0.021143747
0.533887923 0.282603621 0.017792251
0.577965796 0.295090079 0.016905187
0.618718207 0.307749897 0.016559999
0.651804686 0.320426315 0.018778063
0.682774782 0.330975741 0.020355064
0.705159247 0.333112568 0.022030881
0.726482093 0.332200378 0.024002377
0.740689278 0.325361997 0.026516126
0.044737998 0.182429254 0.107329004
0.056697439 0.189077005 0.098846190
0.084230617 0.205405638 0.092480369
0.131876767 0.225192130 0.081588559
0.186162755 0.241570994 0.055249501
0.256453753 0.255326122 0.047900062
0.331288755 0.271701872 0.039917249
0.401117533 0.289134502 0.030261686
0.468229741 0.310848475 0.025234250
0.530035377 0.330574095 0.022918001
0.582550883 0.346139491 0.020601625
0.626022577 0.358889282 0.020305749
0.659816027 0.369979501 0.022474751
0.690558314 0.378658563 0.025628751
0.717968583 0.384284645 0.028093254
0.742652178 0.385565013 0.029621005
0.758756280 0.379394233 0.032725751
0.044004999 0.216727674 0.119476438
0.054291688 0.225188494 0.111938313
0.079788312 0.243417442 0.106544122
0.117349267 0.261637986 0.101274431
0.175530627 0.284207016 0.081815004
0.239366993 0.301575124 0.052347001
0.314312160 0.315275639 0.044140998
0.387099326 0.330210477 0.037260123
0.455887079 0.348230422 0.032775126
0.518236756 0.368182689 0.030261187
0.573641956 0.385638177 0.027896186
0.622051120 0.398771375 0.026860625
0.660766602 0.408051461 0.028093187
0.694681525 0.417304933 0.031198129
0.723532438 0.423900187 0.034302816
0.752156317 0.428147256 0.036619503
0.770207465 0.421720833 0.038936190
0.044004999 0.248426765 0.133930266
0.051766500 0.258619964 0.127303436
0.071623996 0.276828378 0.122452125
0.104915068 0.296272010 0.117896132
0.160190493 0.320444763 0.112322882
0.221671104 0.343730181 0.085374080
0.293537259 0.358888000 0.054053500
0.367532223 0.371567160 0.047152188
0.437792629 0.384882390 0.042505380
0.504556477 0.400253087 0.040111251
0.561406374 0.416426241 0.037752755
0.610398293 0.429137766 0.036718190
0.651535034 0.437819123 0.036373004
0.688759506 0.444693446 0.038541757
0.719321012 0.448039621 0.039722756
0.748983622 0.451056004 0.041945253
0.772083521 0.445782870 0.042983502
0.044737998 0.277777433 0.150482759
0.050262813 0.290682495 0.144893214
0.062217940 0.307340860 0.141283900
0.091637686 0.327793300 0.138010442
0.140768424 0.352930605 0.136405900
0.203478232 0.377179623 0.125451192
0.271070659 0.397575647 0.089344017
0.344112247 0.410811990 0.059473567
0.414401144 0.421914160 0.057986759
0.479571879 0.431694716 0.054756008
0.543634534 0.443782002 0.048014756
0.599423528 0.457532436 0.048836008
0.641966045 0.466100127 0.048312757
0.681703627 0.472713619 0.050752193
0.712279916 0.469244450 0.047282312
0.742460430 0.469070315 0.046976939
0.767631650 0.463278830 0.046580940
0.045462999 0.303841501 0.170175016
0.049880125 0.316214204 0.165261567
0.060085874 0.332753986 0.162379876
0.076516062 0.351250708 0.161266312
0.117140003 0.374460757 0.160798267
0.181369692 0.401768059 0.162692443
0.249937639 0.424459368 0.144465625
0.315182894 0.440334678 0.105207123
0.382889509 0.449714482 0.075620502
0.452068239 0.461879134 0.075738505
0.517869234 0.472246766 0.066927388
0.579115868 0.481955290 0.063175693
0.630002737 0.491075009 0.062929504
0.673466563 0.499169558 0.065696992
0.705284178 0.495079875 0.060515251
0.737138033 0.489467889 0.055157252
0.762000501 0.479218990 0.051017001
0.046891998 0.327221572 0.191350505
0.050262813 0.336591482 0.187108681
0.059224062 0.354144454 0.185306698
0.071568251 0.371686131 0.185688555
0.098882444 0.394874632 0.188622698
0.158309624 0.422951132 0.193592742
0.228892028 0.446635604 0.194112942
0.293119520 0.464667499 0.168777674
0.354357719 0.477435201 0.128097236
0.419117808 0.485049754 0.097990938
0.488840282 0.497419864 0.095261507
0.552463114 0.506327927 0.089738183
0.606753588 0.510787725 0.079716749
0.657872379 0.518218279 0.079323813
0.696853817 0.518704593 0.076978751
0.733265519 0.516197085 0.073399670
0.757626057 0.496811628 0.058762435
0.047857750 0.349368244 0.213568866
0.050935563 0.356833935 0.209069014
0.057512127 0.371462375 0.208470762
0.068552010 0.388871819 0.209444568
0.089231625 0.411576748 0.216447487
0.134563565 0.438610554 0.224008814
0.202367902 0.465389997 0.230118141
0.277643770 0.488358319 0.231512994
0.338090777 0.503529906 0.201788992
0.395854503 0.513507903 0.159477502
0.456503391 0.519114733 0.128341615
0.523905933 0.529874206 0.125134617
0.581013918 0.533774257 0.111871623
0.637036383 0.537870347 0.103286490
0.687019467 0.540240526 0.097484246
0.728096843 0.540128410 0.093657732
0.753476381 0.518358409 0.073998123
0.049669001 0.370468080 0.236828312
0.052264065 0.376577675 0.230888367
0.056663502 0.387093693 0.230512053
0.067498438 0.405305326 0.234787941
0.085337184 0.427207828 0.243127376
0.121257938 0.453399062 0.253196985
0.180531532 0.481113076 0.263869882
0.256203324 0.508405328 0.273134887
0.329088837 0.528382480 0.272345781
0.385095626 0.539528728 0.236203507
0.439754814 0.547712386 0.194355950
0.495585620 0.551928878 0.165425554
0.558758080 0.559173703 0.158157066
0.618877947 0.563869357 0.150079429
0.671720803 0.562878966 0.130880848
0.720406175 0.562832415 0.118223108
0.749338567 0.542758286 0.094756246
0.051851250 0.390321016 0.260760486
0.054414500 0.395622075 0.253616214
0.058051124 0.404250026 0.253267020
0.068013743 0.419985354 0.257946819
0.084231496 0.441215515 0.267618477
0.116791070 0.467479706 0.282146245
0.170519516 0.495377004 0.294704020
0.240029156 0.522298098 0.307012796
0.319623500 0.548591793 0.318046272
0.388834685 0.565034807 0.309731305
0.442195356 0.575174332 0.272631645
0.491304815 0.581621885 0.235539332
0.541618466 0.584307015 0.212053508
0.600912154 0.590018213 0.206259757
0.654520690 0.589196861 0.184424743
0.705291390 0.585353553 0.155532300
0.748499751 0.573217034 0.128817007
0.055052876 0.409126401 0.285686105
0.056897067 0.412634164 0.276403725
0.061530631 0.421472907 0.276928663
0.069164000 0.433430493 0.281096071
0.084855437 0.454149365 0.291960150
0.117131874 0.481716365 0.310273826
0.164495766 0.509681821 0.328136861
0.231647909 0.536858916 0.342262894
0.307774454 0.562667131 0.357043862
0.385456115 0.584840715 0.364840358
0.443888694 0.598570526 0.349002302
0.492542684 0.608403325 0.318411946
0.539144516 0.613544524 0.286608189
0.590321302 0.614661932 0.262831777
0.641988754 0.615458667 0.247055173
0.695693016 0.613623261 0.219879165
0.746073604 0.605625987 0.177349061
0.058887258 0.429102898 0.310768783
0.059867129 0.429239780 0.300060302
0.065083131 0.438012034 0.300829172
0.071839198 0.448341668 0.304879785
0.088635631 0.468915492 0.318534166
0.119923010 0.496268392 0.338186532
0.164211527 0.524515092 0.359013021
0.228136778 0.552727342 0.378904909
0.304684520 0.578862250 0.395262539
0.384636134 0.601583600 0.409155220
0.451898128 0.618384004 0.411438286
0.505475640 0.633827627 0.392809540
0.554983139 0.642943978 0.364355534
0.603518605 0.646547675 0.338799268
0.646991313 0.646835923 0.319629431
0.696368396 0.644814372 0.296252877
0.744384468 0.636516571 0.251831084
0.066339009 0.453015774 0.339040220
0.065154195 0.448206902 0.325655043
0.069334194 0.454533786 0.324956954
0.076809637 0.465419769 0.330303341
0.093400702 0.484245360 0.346054465
0.124504939 0.510547817 0.365949035
0.169726208 0.540308952 0.388377279
0.233082280 0.569160879 0.411752671
0.307432830 0.596047103 0.432935953
0.384633750 0.618710995 0.448532224
0.452809364 0.635643601 0.456737965
0.515611529 0.653533638 0.458099067
0.568398237 0.669828057 0.438825369
0.613675535 0.677753806 0.416215897
0.659407973 0.679547787 0.397849172
0.704245567 0.679986179 0.379414558
0.747435629 0.670621216 0.336916953
0.077155001 0.479988009 0.370842993
0.074157998 0.474389553 0.356032133
0.075606376 0.475115240 0.352420509
0.086285882 0.486690819 0.358803332
0.103287004 0.504430771 0.374375254
0.129579812 0.526300907 0.393776983
0.175702140 0.556151271 0.416872740
0.236941904 0.584980190 0.441631794
0.308905005 0.612396002 0.466441989
0.385507733 0.637258351 0.488279611
0.455376744 0.655772507 0.499612600
0.522111177 0.671793222 0.506690919
0.579378724 0.690947771 0.505314469
0.627661407 0.705355704 0.492506981
0.675216019 0.710847974 0.473350078
0.719114959 0.710737765 0.454418153
0.755110025 0.708468974 0.430840999
0.037852000 0.037852000 0.042468689
0.054005876 0.039429002 0.043864623
0.092589378 0.044600062 0.048029438
0.138334140 0.052672002 0.051390748
0.193175435 0.056585249 0.052793689
0.251291454 0.059754997 0.051474001
0.305728018 0.059341811 0.048764877
0.356379509 0.057205062 0.047679123
0.397769868 0.057319999 0.045278814
0.433794945 0.059452001 0.044551812
0.466826677 0.060422871 0.043816812
0.497450829 0.060902558 0.043585252
0.523880243 0.065078065 0.041613374
0.548821032 0.069297187 0.041420620
0.569155991 0.071413562 0.040896188
0.588294744 0.072325438 0.041662626
0.603862226 0.071870439 0.040896188
0.040217001 0.052707750 0.057079438
0.054689374 0.060038187 0.060038187
0.105466180 0.068808816 0.058913000
0.162678272 0.078261435 0.058348812
0.224298805 0.086161248 0.057194564
0.290219367 0.091354825 0.053520378
0.348841429 0.096877500 0.050297566
0.400598407 0.102107376 0.047633316
0.442637950 0.104378879 0.044821188
0.480472684 0.108397312 0.043073565
0.514152944 0.113049820 0.042743817
0.542908728 0.115960747 0.041324999
0.567377508 0.117371246 0.039872184
0.588727593 0.117651127 0.037753373
0.606207192 0.116633259 0.036964439
0.623436868 0.116313934 0.037013687
0.635523498 0.110180937 0.037802685
0.041806310 0.089192122 0.082319558
0.062431879 0.099203497 0.083677247
0.100468315 0.112112805 0.074011557
0.165988684 0.128091693 0.071529999
0.232984737 0.139680147 0.064398691
0.305413336 0.150962576 0.055830561
0.370404422 0.161811262 0.049145497
0.428349733 0.170568511 0.044265743
0.474335670 0.174349383 0.039574377
0.514633894 0.181062132 0.036865875
0.551540852 0.188936189 0.035830751
0.584361970 0.195267320 0.033859625
0.609839499 0.198204488 0.032775123
0.631631553 0.196721628 0.030704813
0.649413645 0.194155499 0.029916689
0.665267348 0.189084351 0.029966000
0.675964057 0.177588060 0.031543002
0.043356128 0.131685883 0.106959820
0.058009811 0.146070763 0.107304379
0.093256436 0.161504015 0.100327075
0.154669270 0.182319716 0.085493445
0.235330686 0.201950833 0.075898372
0.309487611 0.214905813 0.062460814
0.379809022 0.229124635 0.052040063
0.442985505 0.242986247 0.043799624
0.496153623 0.253509820 0.037063189
0.541700482 0.263797134 0.034401312
0.581255138 0.273819834 0.033957999
0.615813971 0.281910717 0.032036249
0.645438790 0.287892997 0.030359814
0.670303464 0.289255619 0.029571626
0.689041853 0.285702050 0.028881377
0.705245793 0.279686093 0.029719502
0.716053069 0.262855649 0.027600063
0.040459067 0.174181625 0.127711684
0.053768754 0.188269526 0.124239191
0.080623001 0.201801568 0.118409254
0.143263772 0.228295952 0.113931686
0.207917884 0.247326136 0.087356500
0.293933868 0.263906658 0.075330622
0.365564346 0.277059495 0.062238187
0.429083347 0.288131595 0.050570872
0.488878071 0.301027954 0.043244936
0.540596187 0.313218981 0.038985252
0.586736917 0.326698720 0.038689751
0.624495268 0.335762262 0.037654500
0.655516863 0.341111809 0.035387062
0.682690799 0.344089717 0.034253560
0.706789255 0.344737023 0.034154873
0.727650881 0.342431426 0.035781186
0.740715027 0.325631320 0.032676436
0.040265564 0.211028069 0.143746629
0.051559940 0.227030754 0.139414012
0.074034818 0.242083490 0.133558244
0.122518130 0.267047822 0.130639553
0.192872941 0.294000626 0.117065504
0.265312165 0.310929954 0.085452937
0.346037984 0.322515219 0.076414056
0.417886823 0.334486663 0.067058861
0.478068173 0.343921810 0.051950246
0.530024111 0.355403066 0.047482252
0.580491245 0.368956953 0.046552312
0.623578608 0.378500164 0.045615561
0.660071492 0.384523004 0.042775061
0.688443422 0.387851298 0.041600440
0.713561952 0.387418181 0.040357061
0.738850832 0.387370795 0.041178562
0.754870892 0.372378707 0.038097877
0.040994000 0.244162574 0.160475194
0.050429627 0.261052459 0.155785948
0.069582000 0.277506322 0.149864823
0.108184323 0.301799208 0.148553446
0.170728430 0.326869935 0.144426450
0.244558752 0.352365017 0.120647699
0.320303828 0.366372347 0.090548873
0.394300222 0.375912786 0.082597315
0.464592695 0.386981249 0.071627200
0.522156715 0.395198196 0.059668195
0.571685076 0.406361490 0.057241570
0.617169082 0.416611969 0.055303067
0.657048762 0.423597515 0.052603442
0.692209959 0.426877469 0.050328128
0.717926145 0.424195737 0.047365628
0.744610488 0.424404055 0.048110813
0.764420092 0.411868334 0.044138502
0.042516001 0.275281310 0.178446695
0.050219625 0.290917605 0.173093647
0.065140255 0.309225917 0.170575261
0.096129254 0.332217276 0.169837326
0.148667127 0.357924491 0.169793397
0.221372187 0.381881297 0.163555875
0.296946853 0.404684871 0.133120641
0.368046522 0.415011048 0.104571134
0.436873525 0.422292501 0.096011445
0.502946138 0.430563658 0.086284697
0.561686695 0.440136194 0.076373257
0.607859910 0.447394222 0.070150442
0.648530364 0.453976125 0.068279572
0.686627209 0.458602846 0.065543935
0.716394722 0.453647196 0.056954194
0.745104969 0.451905459 0.055794187
0.766100228 0.440780252 0.051639251
0.044371501 0.302820444 0.198266879
0.049922563 0.315666556 0.191783890
0.061489377 0.334412605 0.190849707
0.083956629 0.355851591 0.190829948
0.126942620 0.381349266 0.193868130
0.198124364 0.410320282 0.198413312
0.273868591 0.432833552 0.185965985
0.341492981 0.448830456 0.151821196
0.408369064 0.456867516 0.124359444
0.475310892 0.463910639 0.115624264
0.538698912 0.471404999 0.106566578
0.597487926 0.479487419 0.097809196
0.640289307 0.482465267 0.088682875
0.679363966 0.486965358 0.084133059
0.710451245 0.481963634 0.074560001
0.741673648 0.474031448 0.066056930
0.764296353 0.459526062 0.057583191
0.045821998 0.327842385 0.219763324
0.050262813 0.338250458 0.210610494
0.060899064 0.356863171 0.210538447
0.077068388 0.376671761 0.211279362
0.113045067 0.402347326 0.216148317
0.174831808 0.431218326 0.224430069
0.254382759 0.458543897 0.229268625
0.322358131 0.476381749 0.210009798
0.386623502 0.489400864 0.176085874
0.448540360 0.495948434 0.151764378
0.513438702 0.503111780 0.145030692
0.574215829 0.508889079 0.134965807
0.628346860 0.512968898 0.120563433
0.673480809 0.515409768 0.106521174
0.708126783 0.511863291 0.096436553
0.740763307 0.505082071 0.090266667
0.761631250 0.479030371 0.066626497
0.047857750 0.351973116 0.242752567
0.051602375 0.358678281 0.230958939
0.059525687 0.375048786 0.230839193
0.074295074 0.394382387 0.232610181
0.099908009 0.418076694 0.239114180
0.152869761 0.446647197 0.249982476
0.229177907 0.477587342 0.262528300
0.305690050 0.500040948 0.264341980
0.370908082 0.515921652 0.243663818
0.430444717 0.526393771 0.212296814
0.488267809 0.531076372 0.188052550
0.550272584 0.537790656 0.178976133
0.607810557 0.541657150 0.162320614
0.663387775 0.544758677 0.147231728
0.705369651 0.542160928 0.127722800
0.739704370 0.535894096 0.118016973
0.760680079 0.506000578 0.086544439
0.049881186 0.375325471 0.266769260
0.053729437 0.379185021 0.253209502
0.059038188 0.391190708 0.251849055
0.072279818 0.410293192 0.255385995
0.093969323 0.432482928 0.263161510
0.137911499 0.461056411 0.277041137
0.207659662 0.492483765 0.292369962
0.285963535 0.519830465 0.303970933
0.355872005 0.537702739 0.303141445
0.420448095 0.552822351 0.284551978
0.477017254 0.561688423 0.254229873
0.529918432 0.564288855 0.231752738
0.588765621 0.568784535 0.219349951
0.645679235 0.571700990 0.200170979
0.694676399 0.569782794 0.172509119
0.736666203 0.564805627 0.151553974
0.762050807 0.538871825 0.117860436
0.052510753 0.395473063 0.290453970
0.055605188 0.398213506 0.275721312
0.060386501 0.407492459 0.272479653
0.071794383 0.424244493 0.276443779
0.091474317 0.445761889 0.285620987
0.128517315 0.473881572 0.302601576
0.192518324 0.504728317 0.319022804
0.266925097 0.532721698 0.333819509
0.344868511 0.557489872 0.344357073
0.413434446 0.574075341 0.342379332
0.473568857 0.588356197 0.324668139
0.526242614 0.595814228 0.298140138
0.574181497 0.596941411 0.280077308
0.628968060 0.599213362 0.263778001
0.676678658 0.596202433 0.233802795
0.729939044 0.592946529 0.199915230
0.765231609 0.573750913 0.160549134
0.055170629 0.414022893 0.313278288
0.058621317 0.416919947 0.298210472
0.063839316 0.425658584 0.293664455
0.072611064 0.438277334 0.297082156
0.091239192 0.458918124 0.306590527
0.126088366 0.487004548 0.325603515
0.180412650 0.516719460 0.345378399
0.250901639 0.545104682 0.361951679
0.327170432 0.569667935 0.376177102
0.401553482 0.590737700 0.385436714
0.465991437 0.608676136 0.383741796
0.521615803 0.621918559 0.367639750
0.573642612 0.628947496 0.346235484
0.618486643 0.629293263 0.329073191
0.667618036 0.627202034 0.305898875
0.719142318 0.623157144 0.274141699
0.765012085 0.610489547 0.219246015
0.060647134 0.435842514 0.336317331
0.062765762 0.436155200 0.321150213
0.067570001 0.442670971 0.315125108
0.074811190 0.453373492 0.318531424
0.092569128 0.472673446 0.329399288
0.127197430 0.500492454 0.349683017
0.175828710 0.529906869 0.371758133
0.243068457 0.558465779 0.392278522
0.319819659 0.583803296 0.408396512
0.397424966 0.606209636 0.423215091
0.463038474 0.623896122 0.428547680
0.526002824 0.644096494 0.426921755
0.580629587 0.656651676 0.409392834
0.626365900 0.661227822 0.397357166
0.665719390 0.662032008 0.383790076
0.714361906 0.657917738 0.355154306
0.758135080 0.645709813 0.302148759
0.070629321 0.462281138 0.362195790
0.068963505 0.457851142 0.346341819
0.071282625 0.459090739 0.336925805
0.080341756 0.470521390 0.341776907
0.095692448 0.486791849 0.353899240
0.128527999 0.513462782 0.374105811
0.177624896 0.544207096 0.397475421
0.242824152 0.573323727 0.421714276
0.317488074 0.599680662 0.442923099
0.392869771 0.622642338 0.459573925
0.460096866 0.640274763 0.469776869
0.524061918 0.658684075 0.474489480
0.585862458 0.680486619 0.475127459
0.633509576 0.691281140 0.463894606
0.675167322 0.694054663 0.455178738
0.719880641 0.695727229 0.441617250
0.761210322 0.683535695 0.394207329
0.083226621 0.489911616 0.392816961
0.080293879 0.484253496 0.376187384
0.078825943 0.479782164 0.362602741
0.087860443 0.489199579 0.366530389
0.104534134 0.505729675 0.379494011
0.132267505 0.528201461 0.399564177
0.180510953 0.558503330 0.423784703
0.243556097 0.587714016 0.448760718
0.317470700 0.615186989 0.473739117
0.394160628 0.640635490 0.496748507
0.463221431 0.659907460 0.509970903
0.527430713 0.675323129 0.515986264
0.587473571 0.695613742 0.521375000
0.645320117 0.716011584 0.526332438
0.691292226 0.722668886 0.518582344
0.730678260 0.724491000 0.508852184
0.768092096 0.723013580 0.488925725
0.039330378 0.038640000 0.054444749
0.053922873 0.041662626 0.057502437
0.080089875 0.044553749 0.060526498
0.124342814 0.048724562 0.067959502
0.177773505 0.053488001 0.071823999
0.236068815 0.056703001 0.075236499
0.294992894 0.055881500 0.073938496
0.348102897 0.054012623 0.071166128
0.390436262 0.053651001 0.067005627
0.427160442 0.053083126 0.064111002
0.459592760 0.052590501 0.061332125
0.489353925 0.052795187 0.059665751
0.514435351 0.055881500 0.056729626
0.537436604 0.057667501 0.054760810
0.556969345 0.059110254 0.050507996
0.576413870 0.060162876 0.049961556
0.592138469 0.060756750 0.048634499
0.040217001 0.053922873 0.071710378
0.057082061 0.059997622 0.074686497
0.090520062 0.064497687 0.078059942
0.149998456 0.069950126 0.079510689
0.210184067 0.077044256 0.080974437
0.273668587 0.080427684 0.078890190
0.331424326 0.083781816 0.074637681
0.381778210 0.085344940 0.071562305
0.423694372 0.084746435 0.068134502
0.459213346 0.086381622 0.064356185
0.491149217 0.089868873 0.060819685
0.518302202 0.090920873 0.058156062
0.541716337 0.090409249 0.056104500
0.562841833 0.089604437 0.053073999
0.582639575 0.088846624 0.047807559
0.600100994 0.087589249 0.045234438
0.614006817 0.083531439 0.045188125
0.037161626 0.082723625 0.097605877
0.055518750 0.094507940 0.102610558
0.090694748 0.108718127 0.106342874
0.167791441 0.120561868 0.104981869
0.236559138 0.129732117 0.100078002
0.304676622 0.136656806 0.093585059
0.369305283 0.141936615 0.086951256
0.423633903 0.146726355 0.081272312
0.468938410 0.151887134 0.077881247
0.504936457 0.154191628 0.072881065
0.536998093 0.155592620 0.068748757
0.563310087 0.154321253 0.062804937
0.588838458 0.156407505 0.059833370
0.607720733 0.152851254 0.055143498
0.623057723 0.145317599 0.050156496
0.634312212 0.133206606 0.044319805
0.646877170 0.124241002 0.044460248
0.039429002 0.125685692 0.128963426
0.051098876 0.139865264 0.130990073
0.091736250 0.157729894 0.131899506
0.159417644 0.176689446 0.124306299
0.239499390 0.190535337 0.117746070
0.315368354 0.201714829 0.104816131
0.385314107 0.211818084 0.093678437
0.442506313 0.217952073 0.085251376
0.492822289 0.225925565 0.080561504
0.534360647 0.231249318 0.074100688
0.569287717 0.233897954 0.069031812
0.597491443 0.232537642 0.062467188
0.624908626 0.236464962 0.059670374
0.646924794 0.233824819 0.054293185
0.663182318 0.224654064 0.048609246
0.674830496 0.208258852 0.041984186
0.686632156 0.194502831 0.039871316
0.038049001 0.168230385 0.151435122
0.047853187 0.183683440 0.151801109
0.081448123 0.203310505 0.153387636
0.141534388 0.225467205 0.150687128
0.225115880 0.249815762 0.135200128
0.313008249 0.264880508 0.122439809
0.385523379 0.277497232 0.106813245
0.449754864 0.286062002 0.093614005
0.504585624 0.296101272 0.086673498
0.549549103 0.303670704 0.078721315
0.589066267 0.310590625 0.074002996
0.621100187 0.311451256 0.068149939
0.650531471 0.315568745 0.065923244
0.675127983 0.314112246 0.059926305
0.696225345 0.308169246 0.051569864
0.710677981 0.292243689 0.043345809
