public/lut/21.cube
TITLE "17x17x17 Adobe/IRIDAS cube 3D LUT exported with GrossGrade v0.2.2 (beta) 64 bit"
DOMAIN_MIN 0 0 0
DOMAIN_MAX 1 1 1
LUT_3D_SIZE 5
0.037062999 0.037062999 0.037852000
0.208084762 0.061348252 0.040994000
0.415902525 0.072620496 0.033909000
0.547530532 0.088618249 0.032331999
0.624105990 0.095087998 0.035486002
0.044737998 0.182429254 0.107329004
0.186162755 0.241570994 0.055249501
0.468229741 0.310848475 0.025234250
0.659816027 0.369979501 0.022474751
0.758756280 0.379394233 0.032725751
0.045462999 0.303841501 0.170175016
0.117140003 0.374460757 0.160798267
0.382889509 0.449714482 0.075620502
0.630002737 0.491075009 0.062929504
0.762000501 0.479218990 0.051017001
0.051851250 0.390321016 0.260760486
0.084231496 0.441215515 0.267618477
0.319623500 0.548591793 0.318046272
0.541618466 0.584307015 0.212053508
0.748499751 0.573217034 0.128817007
0.077155001 0.479988009 0.370842993
0.103287004 0.504430771 0.374375254
0.308905005 0.612396002 0.466441989
0.579378724 0.690947771 0.505314469
0.755110025 0.708468974 0.430840999
0.044554748 0.044737998 0.096489504
0.145001501 0.053325001 0.108404748
0.378650516 0.048466749 0.124847502
0.507496476 0.043634504 0.107754998
0.583441019 0.046358749 0.071565002
0.038442999 0.159903497 0.202311754
0.200223252 0.248467520 0.234753743
0.506800056 0.276678026 0.211110249
0.634052813 0.265847266 0.164581001
0.679945767 0.179473504 0.081299253
0.040605500 0.298930228 0.279440522
0.187071502 0.398703992 0.302168995
0.491446495 0.476638258 0.306400508
0.659941494 0.482104003 0.250981987
0.769776225 0.421869993 0.140481263
0.054613251 0.409563988 0.366074026
0.170140758 0.484113276 0.374689758
0.458633035 0.579733253 0.441051245
0.645000279 0.619895279 0.430417478
0.805870295 0.588713765 0.310636044
0.119580001 0.529560506 0.460428238
0.374406248 0.637535453 0.546159506
0.529675484 0.686250269 0.592758238
0.704224467 0.748925269 0.657433748
0.844192982 0.784759283 0.680580974
0.046181001 0.046891998 0.202712506
0.178459495 0.053000502 0.201168001
0.361325502 0.051020000 0.214141488
0.498977721 0.045462999 0.211719245
0.588802516 0.041758999 0.148444504
0.040994000 0.142940491 0.290520728
0.224000752 0.237897009 0.337109774
0.469348758 0.251897752 0.352103472
0.600834489 0.214057267 0.313181013
0.653182507 0.130971760 0.166695759
0.043634500 0.289987028 0.367453516
0.197668508 0.412987232 0.413661242
0.473772496 0.491541475 0.450583041
0.674498320 0.488480806 0.424980044
0.778344035 0.379193544 0.242359519
0.052673001 0.405029505 0.429016531
0.231830016 0.518329024 0.463067472
0.499544263 0.588556051 0.504509032
0.680882335 0.633683443 0.522921205
0.832565784 0.616657019 0.423115253
0.131952003 0.546540022 0.513302982
0.479252517 0.672489524 0.601364493
0.601348519 0.716923475 0.642227530
0.732226014 0.763626456 0.683828771
0.866032958 0.803532481 0.727543950
0.044004999 0.048812252 0.274753243
0.163939014 0.050008498 0.281550497
0.369078279 0.058813252 0.287940502
0.492042750 0.053812001 0.293568492
0.582939267 0.053325251 0.250494242
0.041948251 0.111908503 0.335936487
0.159407750 0.174243242 0.371572226
0.417256773 0.202530503 0.399343252
0.569173992 0.216785252 0.405907989
0.660992265 0.159546494 0.314642519
0.045822002 0.268344522 0.416572988
0.181757003 0.383952022 0.470941991
0.481849998 0.480584979 0.512727499
0.659975231 0.501809716 0.537408531
0.760593772 0.359721780 0.395399541
0.051186502 0.381861746 0.471736014
0.198680267 0.511303246 0.520058036
0.502462029 0.598825693 0.567817032
0.639664769 0.650797546 0.600103974
0.849226236 0.631615758 0.550480485
0.087736249 0.510148525 0.533742487
0.483232498 0.680652022 0.635541975
0.627665997 0.731754303 0.681012988
0.754889786 0.783604264 0.721990049
0.881443024 0.823046982 0.760942996
0.044737998 0.048985001 0.310512006
0.109795004 0.048119500 0.322483003
0.343110025 0.055881999 0.352114975
0.474736273 0.067851998 0.366705745
0.563607991 0.074663997 0.375865012
0.044737998 0.070528500 0.341198742
0.096683748 0.080399498 0.357902765
0.259803772 0.082960002 0.381467998
0.492475510 0.134897009 0.428171217
0.656123221 0.245223507 0.483726501
0.046181001 0.180079505 0.415808499
0.090726748 0.184610516 0.427250266
0.291509509 0.181041509 0.453582525
0.538231492 0.275023758 0.514433980
0.746339500 0.477286041 0.607015014
0.053812001 0.342846006 0.499756247
0.153001264 0.402456999 0.536048770
0.392843008 0.442239016 0.576143801
0.630216300 0.490273029 0.627478242
0.819649220 0.669519544 0.721704781
0.066756003 0.466995001 0.554795980
0.364319265 0.647780001 0.648824215
0.556335509 0.715007544 0.703952491
0.748353004 0.792856514 0.779250264
0.900031984 0.857805014 0.842544973
