public/lut/22.cube
TITLE "17x17x17 Adobe/IRIDAS cube 3D LUT exported with GrossGrade v0.2.2 (beta) 64 bit"
DOMAIN_MIN 0 0 0
DOMAIN_MAX 1 1 1
LUT_3D_SIZE 17
0.018137001 0.048294000 0.049669001
0.036570124 0.051686000 0.046313062
0.090167880 0.058961123 0.041853625
0.156897321 0.068421751 0.038787939
0.226111993 0.077026501 0.034894250
0.283589125 0.085053563 0.033119999
0.330118388 0.091792375 0.033119999
0.376091152 0.098027684 0.032676749
0.415209532 0.103019997 0.032331999
0.447351635 0.107478000 0.032676749
0.477527022 0.111770250 0.034992874
0.506081343 0.115225315 0.038098250
0.534265518 0.117404997 0.041948251
0.560416877 0.119608760 0.045730941
0.584310710 0.121077999 0.050515253
0.609546959 0.121754438 0.053731192
0.630576015 0.117404997 0.054295000
0.017348999 0.054813247 0.051020000
0.032725748 0.062508941 0.049027748
0.086965628 0.072990306 0.043402437
0.156528577 0.084722742 0.038787939
0.230589002 0.099264815 0.034106001
0.296465427 0.112250313 0.031543002
0.351772875 0.122298688 0.030261500
0.403741241 0.130466938 0.027255312
0.445875973 0.135296807 0.025727062
0.480888486 0.139008880 0.026121562
0.515991688 0.142745942 0.027255312
0.549097478 0.145928815 0.029522125
0.579434454 0.148419008 0.031888127
0.609193921 0.150105566 0.034992818
0.637615085 0.151594698 0.038196944
0.662135422 0.151774809 0.041230004
0.679977417 0.145106688 0.040407438
0.017348999 0.069388255 0.054692499
0.038048625 0.081946127 0.054692123
0.084129624 0.093068875 0.046269875
0.154294997 0.109448195 0.040410500
0.228998750 0.126096994 0.034992751
0.303346425 0.144040376 0.031000562
0.367988765 0.158379748 0.027994372
0.425252080 0.167937130 0.023410875
0.473015875 0.173419133 0.020995999
0.513907433 0.176631182 0.019467875
0.552501023 0.179420874 0.019911250
0.588447571 0.182194009 0.021489125
0.624035120 0.186198875 0.023164624
0.658143222 0.190340251 0.025529750
0.687173784 0.192027390 0.028191380
0.711530805 0.191129312 0.033465065
0.729929626 0.185190246 0.034204625
0.020996125 0.098304071 0.066123374
0.040977068 0.110007815 0.065673247
0.092768751 0.129744634 0.053608686
0.152147889 0.140320078 0.045597624
0.226121321 0.158074260 0.038886502
0.305326104 0.179061711 0.034007501
0.375658303 0.195900455 0.028832437
0.438887775 0.206600770 0.022769935
0.493033648 0.211807951 0.018531499
0.539315403 0.215202078 0.016707936
0.582217216 0.219467700 0.015918937
0.621476889 0.223269254 0.016707934
0.658841252 0.227428138 0.017496750
0.694740713 0.231788516 0.019369442
0.724839270 0.234340265 0.022326566
0.749567747 0.234010443 0.026269503
0.769096136 0.225860640 0.027255438
0.031937249 0.134436250 0.077026501
0.060181752 0.148235202 0.074692249
0.104825750 0.170342997 0.060674872
0.166525394 0.188679188 0.050388809
0.229313508 0.198583752 0.042703003
0.303261697 0.215302065 0.035584562
0.381180018 0.233336627 0.028980372
0.449652523 0.245463565 0.022178933
0.507432997 0.252253264 0.017151499
0.558369100 0.255751014 0.014637812
0.607769132 0.260019004 0.013406000
0.651152134 0.264251322 0.012814250
0.689587474 0.269033730 0.014194001
0.725007057 0.273371369 0.015968250
0.756179214 0.275988996 0.018432880
0.782333732 0.276169956 0.021784816
0.801048517 0.268018246 0.023657000
0.055645190 0.175658762 0.087456934
0.088772312 0.190115124 0.082413249
0.133704320 0.212752804 0.064859062
0.181102827 0.230130926 0.053810440
0.242197514 0.245186880 0.045774937
0.304119587 0.254487872 0.039132815
0.373244464 0.267814130 0.032183688
0.448570609 0.281320810 0.023657434
0.515806198 0.290321440 0.017742999
0.572552204 0.295286745 0.013849250
0.623636246 0.299174428 0.011829000
0.671740353 0.303476334 0.012617000
0.714821279 0.308708549 0.013603000
0.751893997 0.314247191 0.015524752
0.783318043 0.316999286 0.017546128
0.810652018 0.316689998 0.020601567
0.831112802 0.309853315 0.022326563
0.092980765 0.221663386 0.098224133
0.128306136 0.237389505 0.087237127
0.173097774 0.257349283 0.067143001
0.215977460 0.273555994 0.055802748
0.262720883 0.287410259 0.046882000
0.326025069 0.300889611 0.039132811
0.381337792 0.307520270 0.033711370
0.446384668 0.316268027 0.024692122
0.516254187 0.324900270 0.018531499
0.580084920 0.331829637 0.015130749
0.637085795 0.336282372 0.011829000
0.686202347 0.340001762 0.012075250
0.732464790 0.345891148 0.013603001
0.774248838 0.352673203 0.016707940
0.807365477 0.355855912 0.019418502
0.834262967 0.354913771 0.021883067
0.857325256 0.348355532 0.022869002
0.141260713 0.271725267 0.102637000
0.177254975 0.286476284 0.084535055
0.221901774 0.302230597 0.064254433
0.264369458 0.316313088 0.053114682
0.304545581 0.329804808 0.044132188
0.353774846 0.342372328 0.035535000
0.411459148 0.352258593 0.030606626
0.458782673 0.355220765 0.025924373
0.517698109 0.359754771 0.018925501
0.583285809 0.365715235 0.015524876
0.646706104 0.371320784 0.012617001
0.700366557 0.375600785 0.012617001
0.746877074 0.381124288 0.015180001
0.790500581 0.385995775 0.017003814
0.827150464 0.390345782 0.019911256
0.855246603 0.391087711 0.024150066
0.878798485 0.384973347 0.024889253
0.195623010 0.321226001 0.099322498
0.232701212 0.333689392 0.079235494
0.278147280 0.346054256 0.062654376
0.315342486 0.357042521 0.051513311
0.353744507 0.369232535 0.042320497
0.391285211 0.380196452 0.034007311
0.439367890 0.389945507 0.029472874
0.491318017 0.396333218 0.027156748
0.530053020 0.395368516 0.021685999
0.584735632 0.397834957 0.016609313
0.650279641 0.403153121 0.014292626
0.709566593 0.407986760 0.014194000
0.759596050 0.412769735 0.016362751
0.804112375 0.417219490 0.018284939
0.840925336 0.420894504 0.021390503
0.874109626 0.423892558 0.025283316
0.898267031 0.420326531 0.027994500
0.254582316 0.368493497 0.092457123
0.292638093 0.377884746 0.075413875
0.334027797 0.386680305 0.063161001
0.366963118 0.395467609 0.052464370
0.401906669 0.405793756 0.042651687
0.439614445 0.416206628 0.035189811
0.474636137 0.424516380 0.031049874
0.518952250 0.431348503 0.028290374
0.564335167 0.434441119 0.025973687
0.598102868 0.430868626 0.020502999
0.650714517 0.431874126 0.016905187
0.713410676 0.436260045 0.016214812
0.766809285 0.440916985 0.017743250
0.814986885 0.445981205 0.020354878
0.853990316 0.450026244 0.023066130
0.887172580 0.453094006 0.027206065
0.915573835 0.453953147 0.030754000
0.311036259 0.410702616 0.088729002
0.347005814 0.416756004 0.076999374
0.385431856 0.423403263 0.066405751
0.417413563 0.430587381 0.055008061
0.448102474 0.438755631 0.044823874
0.483283728 0.448041022 0.037605435
0.519183338 0.456326753 0.032923002
0.555529356 0.463408381 0.030261498
0.599071085 0.468805343 0.029078500
0.636945963 0.467342257 0.024396688
0.667298794 0.462157995 0.019714000
0.715811193 0.462694615 0.018432876
0.772334635 0.467614353 0.019418750
0.821844697 0.472527057 0.023164691
0.864819169 0.477290750 0.027107500
0.899775565 0.480458856 0.029522130
0.929563880 0.482869625 0.033415876
0.362100422 0.448039949 0.090730496
0.396163434 0.452532619 0.079879373
0.433146209 0.457263201 0.070660695
0.465050757 0.463091195 0.059597813
0.494437069 0.470251322 0.048548311
0.525576055 0.478253186 0.041180748
0.560489476 0.486297756 0.036816437
0.595804155 0.493457079 0.034401812
0.633468211 0.499919504 0.033366561
0.673766375 0.502722800 0.031592436
0.704351008 0.497297257 0.025431313
0.731749296 0.491648644 0.023115251
0.776524663 0.492758214 0.023312500
0.829997838 0.498042136 0.025776256
0.874825656 0.502597332 0.029275630
0.910166383 0.506979406 0.032430567
0.940019250 0.509925067 0.035732251
0.404070020 0.481514007 0.094984002
0.438030899 0.485606372 0.082791559
0.474650651 0.489579737 0.074661627
0.505243003 0.493575573 0.064901814
0.533217788 0.499731272 0.055088501
0.562616944 0.507097661 0.047369562
0.595580161 0.514340758 0.041848376
0.630267739 0.520967960 0.039820254
0.667215526 0.527889490 0.039034251
0.706425667 0.533873200 0.038689502
0.739922285 0.532156467 0.034007374
0.766991854 0.526315868 0.030360252
0.791929781 0.519969225 0.027206251
0.836272359 0.521745563 0.028092943
0.881817341 0.527370214 0.031937383
0.918662369 0.532695413 0.034992822
0.947068989 0.536756992 0.040411249
0.442372203 0.512035549 0.099742882
0.475958586 0.515622735 0.087766252
0.512102962 0.519147933 0.080175444
0.541380048 0.522124708 0.071219251
0.568288922 0.527211607 0.062073629
0.598589897 0.534490049 0.054727260
0.629776418 0.541097224 0.049623072
0.663524151 0.547147751 0.046888258
0.700808585 0.553881347 0.045504376
0.737071872 0.560349524 0.044093132
0.769637108 0.563393950 0.042514320
0.796036541 0.558263719 0.037901133
0.819942057 0.552038431 0.035732385
0.845316947 0.545363843 0.032627694
0.886546969 0.549621463 0.035042074
0.923404574 0.556706131 0.038196947
0.954227924 0.563406289 0.042656254
0.482492268 0.541607499 0.105481386
0.514394522 0.544433177 0.094053134
0.549460053 0.547717392 0.087848008
0.578692734 0.550400376 0.079698257
0.605174065 0.554334342 0.070457757
0.635089159 0.560912490 0.063053131
0.665422916 0.567254245 0.058201257
0.696988702 0.572958827 0.054812193
0.732427597 0.579282522 0.052918009
0.768466592 0.586304426 0.051642384
0.800735235 0.591426969 0.049239382
0.826182425 0.590350807 0.046087317
0.850560129 0.584706903 0.042607505
0.874341547 0.578294396 0.039720260
0.897575021 0.572880089 0.037358757
0.928145766 0.579472661 0.041993447
0.957059205 0.587832510 0.046980001
0.517490745 0.569754064 0.111258693
0.549218178 0.572083652 0.099249326
0.584415317 0.575375617 0.094932444
0.614559054 0.578009546 0.087902188
0.638976634 0.580539167 0.079366200
0.666272044 0.585617065 0.071677946
0.696839154 0.592188358 0.066200130
0.728681207 0.598424315 0.062875688
0.761426151 0.604688108 0.060313445
0.795265555 0.611307383 0.059151947
0.827958524 0.617102087 0.057322010
0.855883300 0.620902061 0.054892138
0.878485203 0.617905319 0.050976947
0.897988796 0.612788975 0.049025822
0.918334961 0.607640326 0.046313070
0.936869264 0.602838159 0.045552317
0.958742261 0.611239612 0.051061630
0.554738998 0.600413978 0.118418001
0.587438822 0.602236629 0.103831381
0.620982349 0.605383873 0.102348998
0.651828766 0.608154178 0.098154247
0.676531017 0.610340476 0.090136245
0.699028552 0.613643706 0.081594691
0.727638364 0.619329095 0.076226249
0.759138346 0.625235319 0.072038129
0.789597034 0.630672991 0.068663999
0.819616973 0.636544585 0.067612685
0.850117981 0.642425895 0.065646000
0.878164589 0.646937311 0.063774563
0.900498509 0.649051011 0.061934248
0.919352710 0.646809876 0.058053002
0.936182141 0.641964972 0.056038246
0.951611519 0.635990798 0.054254748
0.963460982 0.631799996 0.054295000
0.015771000 0.047552001 0.061380252
0.027353562 0.054173250 0.066399753
0.074313253 0.058431439 0.066325501
0.137081385 0.065886810 0.064715624
0.199225321 0.072264254 0.063000686
0.248886243 0.075917251 0.064695254
0.292530566 0.080593184 0.066649690
0.333034635 0.084713750 0.066135004
0.370833963 0.089731187 0.066448189
0.406566769 0.094751686 0.067823559
0.438894451 0.098776624 0.069144003
0.468928754 0.101209745 0.069811754
0.497095913 0.104019940 0.071330883
0.522654474 0.105970688 0.075366624
0.548541546 0.106992498 0.077812873
0.574704170 0.106946245 0.077172875
0.595019519 0.101646751 0.073320560
0.015032250 0.055448189 0.065880373
0.024248874 0.068008557 0.072668813
0.076214060 0.080241129 0.075671248
0.145364076 0.092286937 0.074874125
0.209816441 0.103936687 0.075403623
0.269214988 0.114481933 0.074828878
0.323247075 0.124051251 0.075403623
0.372429252 0.132510692 0.075903185
0.416190326 0.139270201 0.076895997
0.456550807 0.144648999 0.078157380
0.496395409 0.148985192 0.079576626
0.531661212 0.152099118 0.081447743
0.563537121 0.155278251 0.084801681
0.595044553 0.158057302 0.088758506
0.624173284 0.159236133 0.092539877
0.650021136 0.158356518 0.093693748
0.669262230 0.151439995 0.090303808
0.014933689 0.072890177 0.075455755
0.028733501 0.090142816 0.085969813
0.074277066 0.104621194 0.081861816
0.147322699 0.120530576 0.078364506
0.221670568 0.136452749 0.076957010
0.290146589 0.151437566 0.074137934
0.349864841 0.163775697 0.072893746
0.404766768 0.172329262 0.071111314
0.455040336 0.178501502 0.069921628
0.498956978 0.184071615 0.069991626
0.540145516 0.187872946 0.070516564
0.579167783 0.191210881 0.072287187
0.616049826 0.195164993 0.076027565
0.648378849 0.198996425 0.080760255
0.676355839 0.200332016 0.084818073
0.700956881 0.198407084 0.087314941
0.718651414 0.190493003 0.084657058
0.017201062 0.102461189 0.089668505
0.038246129 0.121522687 0.098651379
0.092722811 0.140195578 0.091869622
0.156124964 0.155145437 0.079995811
0.229173243 0.172999009 0.077082880
0.304989100 0.190963030 0.072962873
0.372695655 0.204775453 0.068278380
0.432700872 0.214602515 0.063942499
0.487397015 0.221795589 0.060677499
0.537803531 0.228129566 0.059219752
0.584190607 0.233457834 0.058951184
0.624698997 0.238070264 0.060522497
0.662929893 0.242840022 0.064927131
0.698301315 0.247316763 0.070939444
0.727312267 0.250229448 0.076826379
0.750692487 0.247610003 0.080041751
0.767871678 0.237051263 0.080497809
0.019418312 0.137222618 0.103988566
0.062540129 0.162106752 0.112402871
0.109794691 0.179923326 0.106099308
0.175986126 0.200479552 0.088084310
0.237595439 0.212009504 0.078522749
0.307813615 0.226627201 0.072909065
0.381150901 0.242488191 0.066748127
0.448278040 0.254504532 0.060534872
0.506743729 0.262747079 0.055127248
0.560054600 0.269614756 0.052302502
0.613034010 0.277047127 0.050765000
0.657995701 0.283199698 0.052744564
0.697236061 0.288508564 0.056718502
0.732207477 0.293658525 0.062386822
0.763057888 0.297004938 0.069417074
0.788023174 0.294742972 0.074292809
0.806086004 0.283014864 0.074582689
0.034007441 0.175909266 0.115502499
0.095954128 0.205014631 0.125132307
0.145517871 0.224978507 0.113891311
0.200098440 0.244656757 0.094995879
0.262753338 0.260517985 0.082206190
0.318815321 0.268812299 0.072198875
0.384278893 0.279574215 0.064131752
0.456289977 0.292449057 0.057052996
0.520275056 0.301750839 0.051728062
0.576697469 0.309119076 0.048207127
0.629671097 0.315917581 0.046404377
0.677682042 0.322876185 0.048201062
0.721874893 0.330136657 0.051916376
0.758996665 0.335857779 0.057339005
0.789658248 0.339865357 0.064638004
0.816733599 0.337667525 0.068945125
0.835488260 0.327174574 0.070546128
0.063057892 0.219366759 0.126114741
0.137198076 0.250823081 0.134040117
0.190774843 0.272337943 0.115347691
0.237897635 0.288394421 0.096531942
0.289241135 0.302758127 0.083427742
0.348596156 0.315799147 0.072748877
0.397899359 0.320902258 0.063065812
0.460150033 0.329308391 0.054700933
0.526169956 0.338245064 0.049291875
0.586940050 0.345601529 0.045966625
0.642816007 0.352615178 0.043652311
0.691387773 0.359031647 0.045288187
0.737020075 0.366614074 0.048892938
0.779068470 0.374390334 0.055438198
0.811585367 0.378856331 0.062505387
0.838410556 0.377127141 0.066565998
0.861915231 0.368864238 0.068344377
0.110160336 0.266486287 0.135995001
0.186879098 0.298845679 0.137855068
0.238873601 0.317340136 0.114199251
0.283088177 0.330372274 0.097667441
0.325323462 0.343568861 0.084707811
0.373896480 0.355626941 0.071931377
0.431221902 0.366416216 0.063022248
0.474575400 0.368547201 0.053300183
0.529427290 0.372753114 0.046639811
0.590592265 0.379025191 0.044068560
0.650130391 0.385860205 0.042679314
0.702857494 0.393081665 0.044110436
0.749149024 0.399604261 0.047935814
0.791852295 0.406648368 0.053195633
0.829424500 0.414074451 0.061188005
0.858010411 0.414490461 0.066839501
0.882015765 0.407533079 0.069256127
0.165781647 0.315345883 0.142851308
0.236656263 0.345161587 0.133906633
0.288172513 0.359748662 0.110660806
0.329110146 0.369720191 0.097402178
0.370926768 0.382250488 0.084580876
0.410968095 0.394018531 0.072118692
0.459707975 0.404766023 0.060785621
0.511828601 0.412203014 0.055455621
0.547040582 0.410141140 0.046328746
0.596152246 0.412391007 0.041599564
0.654593587 0.417682260 0.042585813
0.710714042 0.423310012 0.043049812
0.760253727 0.429955482 0.046628188
0.803872466 0.436821938 0.052216321
0.842349887 0.443935931 0.059409693
0.876572371 0.448611021 0.065566696
0.900553942 0.443621963 0.069559187
0.221716926 0.364266932 0.138406694
0.284081370 0.387618929 0.129640862
0.335678965 0.400005519 0.110588253
0.373397797 0.407529026 0.097552121
0.412435621 0.417752653 0.085282996
0.452021301 0.428881615 0.073622815
0.492276490 0.439410120 0.062966615
0.539037466 0.447863191 0.055570062
0.583774984 0.451360554 0.052315809
0.615149140 0.447534144 0.043521810
0.661261320 0.448474705 0.040453311
0.717088580 0.453004956 0.042817373
0.768584251 0.458597511 0.046503000
0.815020323 0.465664387 0.052635819
0.855791211 0.472801894 0.058164760
0.889702618 0.477919608 0.065114379
0.918186545 0.477766693 0.070059434
0.276133627 0.407242626 0.133469805
0.326835245 0.424730241 0.126931936
0.377305627 0.435322404 0.112225689
0.414895743 0.442167521 0.099788696
0.450683445 0.450070113 0.087957755
0.489099890 0.460110456 0.076782569
0.529266059 0.470622629 0.066350557
0.569354117 0.479460895 0.058760684
0.614594519 0.485989332 0.055759188
0.651180744 0.485626400 0.050986815
0.679573357 0.480805129 0.043521810
0.723302901 0.481644750 0.043009438
0.776615620 0.486941934 0.046014193
0.824949026 0.493253440 0.052340444
0.867047489 0.501021981 0.059716884
0.901647806 0.506350756 0.065645568
0.932171345 0.508494914 0.070360504
0.324902624 0.445266485 0.131854117
0.369468242 0.459518284 0.127243996
0.418810278 0.468172312 0.115577631
0.456041336 0.474008888 0.103818193
0.490258694 0.480714470 0.092262752
0.525763154 0.489659071 0.081145443
0.565137684 0.499761999 0.070934810
0.603783607 0.508833408 0.063863121
0.643433392 0.515400350 0.058760688
0.684761763 0.519658864 0.056658000
0.715066135 0.516871870 0.051654376
0.741252422 0.511830509 0.046376251
0.783253789 0.513026237 0.046770751
0.832677901 0.519356608 0.053334508
0.874756277 0.526826501 0.060094129
0.911030769 0.533527970 0.066480570
0.940616906 0.536727130 0.072133251
0.365667135 0.479442388 0.132026300
0.406830430 0.490913212 0.129264250
0.455681026 0.498738587 0.117959440
0.492354006 0.503399014 0.107901998
0.526498735 0.509421527 0.096828252
0.559622943 0.517380297 0.085714877
0.596569598 0.526910663 0.076847248
0.636209488 0.535884619 0.070374250
0.674516082 0.543068528 0.064754061
0.713660359 0.548483849 0.060008876
0.748609543 0.550506294 0.057561748
0.775479734 0.547303140 0.054577373
0.799064934 0.541252911 0.050535250
0.840314686 0.543883741 0.052028820
0.881223500 0.551510155 0.059006568
0.917773426 0.558935463 0.066828571
0.947194993 0.563558340 0.073520184
0.404072911 0.510392606 0.134318128
0.440572202 0.519830406 0.131157070
0.490044832 0.527895927 0.119921938
0.525542855 0.531599760 0.111265756
0.559378326 0.536720634 0.101795882
0.592386603 0.544273853 0.091880441
0.626451313 0.552667022 0.082927324
0.664529860 0.561392546 0.077153392
0.703190088 0.568949580 0.072213568
0.740160525 0.575033128 0.067052379
0.775928497 0.579493821 0.061785318
0.805419207 0.580551744 0.061679691
0.830316126 0.576378345 0.059007194
0.853004277 0.570370674 0.055935193
0.888957918 0.575072587 0.058975190
0.922352910 0.583104372 0.066798009
0.953147590 0.590889752 0.073685810
0.444503546 0.539987922 0.138542250
0.475020081 0.548152745 0.133956760
0.523379326 0.555848002 0.122041754
0.559560239 0.559519231 0.115054198
0.592818141 0.563969851 0.107687883
0.625151575 0.570772409 0.097930193
0.658157110 0.578540087 0.090130374
0.692413747 0.586387694 0.083713636
0.729340136 0.593469024 0.078886509
0.765854478 0.599762499 0.074204631
0.801059008 0.605392158 0.068920135
0.832172453 0.608649075 0.065950438
0.859428167 0.608669460 0.066270508
0.880295157 0.604907453 0.064742073
0.899494648 0.600375354 0.061803628
0.929456830 0.606787264 0.066386260
0.955142140 0.616536677 0.073660746
0.479720324 0.568659663 0.144382641
0.507665873 0.575332522 0.136866122
0.556533098 0.582930267 0.124508247
0.594845951 0.587149739 0.118040569
0.627686560 0.591053903 0.112169132
0.656593323 0.596399546 0.103707626
0.689507127 0.604108155 0.096426137
0.722998381 0.611657500 0.090644382
0.756658018 0.618291378 0.085765436
0.791337848 0.624492943 0.081075191
0.825857520 0.630178392 0.075997442
0.858578622 0.634631634 0.069666386
0.883537829 0.638365149 0.071249686
0.905087113 0.639180005 0.072236501
0.921789050 0.636128485 0.070473820
0.937859833 0.631448388 0.067998946
0.959748387 0.639112175 0.073695377
0.518709481 0.599790215 0.149991885
0.545053482 0.604373515 0.139432192
0.596418917 0.611665726 0.127365366
0.633515716 0.616159260 0.124956377
0.667105079 0.619909585 0.119080186
0.691266716 0.623291612 0.110043123
0.719993651 0.629457414 0.103379749
0.752486527 0.636668265 0.098611943
0.783944964 0.643079400 0.093885690
0.814951718 0.648898542 0.089007370
0.846748948 0.654633760 0.084299125
0.878001332 0.659110188 0.079362750
0.902778387 0.661017120 0.073392935
0.922411561 0.667418301 0.078667760
0.939673126 0.668157458 0.079404816
0.953116417 0.664567232 0.077564619
0.964244783 0.660214007 0.074238248
0.015672499 0.052754249 0.087262124
0.020404438 0.055997688 0.090723246
0.058593128 0.062438753 0.096779875
0.115675077 0.066582628 0.102136500
0.181338996 0.070333876 0.106458381
0.231203556 0.073040433 0.109755754
0.274024010 0.075479999 0.112111628
0.314686388 0.079248749 0.112952754
0.352043658 0.083453745 0.112905003
0.388338625 0.088507749 0.112752751
0.421915114 0.092534371 0.111761257
0.453537673 0.095497623 0.110401936
0.481874764 0.097828873 0.111628257
0.508005977 0.099816814 0.115266435
0.534432948 0.100845873 0.116215870
0.561492324 0.100845873 0.114057615
0.582816839 0.096416369 0.108585499
0.015672499 0.062903561 0.097046874
0.020404438 0.073014311 0.101271570
0.059029125 0.081283182 0.107409246
0.125843212 0.089630127 0.112109870
0.193407252 0.097451374 0.115135126
0.249127626 0.104376942 0.114272691
0.298852772 0.111877441 0.114756197
0.345198214 0.118958309 0.116221622
0.387720376 0.125358313 0.114931129
0.427637011 0.130502313 0.112952374
0.466867924 0.134515315 0.113959566
0.501922369 0.137813747 0.115863249
0.532720089 0.140077367 0.116714127
0.563539088 0.142547488 0.117295630
0.593165278 0.143508554 0.119561806
0.619121015 0.142076746 0.119439557
0.639370859 0.134684309 0.112483248
0.015672499 0.077739626 0.106020875
0.018876689 0.093398690 0.113414004
0.059029121 0.110676743 0.119475499
0.142026648 0.128806502 0.129557014
0.213646129 0.142222881 0.130658373
0.274841338 0.152914494 0.130045637
0.332120001 0.163105875 0.129239127
0.387199044 0.172323748 0.128628254
0.438535392 0.180584624 0.128048509
0.484287679 0.187448323 0.128047630
0.526219249 0.192677632 0.129209504
0.566802502 0.197891250 0.131411627
0.603398323 0.202021495 0.135284498
0.635986447 0.205251127 0.139157310
0.663870335 0.206596002 0.141741753
0.688065529 0.203861624 0.142539620
0.707126200 0.195049629 0.136876002
0.016412063 0.107506946 0.120929569
0.025382252 0.126878902 0.130815819
0.083536759 0.148980767 0.139866635
0.150763392 0.166704699 0.136067614
0.225663632 0.180542827 0.131969437
0.298934698 0.195410013 0.129357129
0.363998324 0.208010375 0.126862988
0.422546238 0.218693152 0.124777250
0.476951122 0.227823645 0.123227000
0.529435158 0.235317200 0.122191750
0.576817036 0.241617575 0.122752368
0.617711604 0.247336134 0.125316679
0.654544055 0.252360880 0.129835382
0.688629687 0.257291496 0.135807380
0.718042493 0.259466767 0.140400007
0.740425110 0.254845262 0.141207308
0.758227527 0.242449507 0.137213990
0.017940000 0.142536879 0.135221735
0.041004188 0.163737983 0.142282143
0.112901755 0.191722125 0.154595867
0.179947570 0.211120874 0.143580496
0.239843756 0.221237630 0.133565888
0.309286386 0.235849619 0.128719375
0.380309910 0.251453757 0.124880001
0.445788980 0.264300883 0.120384745
0.503954351 0.274281263 0.116364993
0.558748305 0.282152712 0.113729440
0.611916244 0.289916396 0.113545127
0.657447815 0.297550619 0.116861686
0.695805788 0.303429008 0.122675128
0.730062604 0.308132321 0.129302129
0.761849701 0.310882598 0.136089265
0.786157012 0.306700915 0.138691425
