public/lut/22.cube
TITLE "17x17x17 Adobe/IRIDAS cube 3D LUT exported with GrossGrade v0.2.2 (beta) 64 bit"
DOMAIN_MIN 0 0 0
DOMAIN_MAX 1 1 1
LUT_3D_SIZE 5
0.018137001 0.048294000 0.049669001
0.226111993 0.077026501 0.034894250
0.415209532 0.103019997 0.032331999
0.534265518 0.117404997 0.041948251
0.630576015 0.117404997 0.054295000
0.031937249 0.134436250 0.077026501
0.229313508 0.198583752 0.042703003
0.507432997 0.252253264 0.017151499
0.689587474 0.269033730 0.014194001
0.801048517 0.268018246 0.023657000
0.195623010 0.321226001 0.099322498
0.353744507 0.369232535 0.042320497
0.530053020 0.395368516 0.021685999
0.759596050 0.412769735 0.016362751
0.898267031 0.420326531 0.027994500
0.404070020 0.481514007 0.094984002
0.533217788 0.499731272 0.055088501
0.667215526 0.527889490 0.039034251
0.791929781 0.519969225 0.027206251
0.947068989 0.536756992 0.040411249
0.554738998 0.600413978 0.118418001
0.676531017 0.610340476 0.090136245
0.789597034 0.630672991 0.068663999
0.900498509 0.649051011 0.061934248
0.963460982 0.631799996 0.054295000
0.017151749 0.061348252 0.139147252
0.135712519 0.071584001 0.160625011
0.297185004 0.069068000 0.179794490
0.449506998 0.080534250 0.182615742
0.557472765 0.084257752 0.179999754
0.018728750 0.155851007 0.201218501
0.218079001 0.240682006 0.233100742
0.486125022 0.289907992 0.250301242
0.669762254 0.321652025 0.261557251
0.778469503 0.315492988 0.264875233
0.076818511 0.319614768 0.243085012
0.350097269 0.414322287 0.284076273
0.527001739 0.452786505 0.251351982
0.747674108 0.487860501 0.262484491
0.895193994 0.516698956 0.316358000
0.258274734 0.463621497 0.274746239
0.454668254 0.541630268 0.304594755
0.619624794 0.578103006 0.278583020
0.769215822 0.603255749 0.245763272
0.932113528 0.660824299 0.371452004
0.412208736 0.587823510 0.284934759
0.612456024 0.691932499 0.398115516
0.719529510 0.723899484 0.441923022
0.838739991 0.762484550 0.478354007
0.943390250 0.788990498 0.502895772
0.022474501 0.091526501 0.226458505
0.115716003 0.081597753 0.228498995
0.238870502 0.070796497 0.236209005
0.360728264 0.070000753 0.260873228
0.470456004 0.072879501 0.279578507
0.033711750 0.216584757 0.324013770
0.188850760 0.292048991 0.367509007
0.388611257 0.300941288 0.376648754
0.560454607 0.309493244 0.389413476
0.716205239 0.311723262 0.389729768
0.047925003 0.344585508 0.391847998
0.242043510 0.432325721 0.433259726
0.461842537 0.491991520 0.465706527
0.698799849 0.531351805 0.498235017
0.850149512 0.530689001 0.488689512
0.140641004 0.485722750 0.429707527
0.326363504 0.546607018 0.458530247
0.546360731 0.615516484 0.513114452
0.726810277 0.664944530 0.524648488
0.921640754 0.712520301 0.557343245
0.270341486 0.581268013 0.426178992
0.506698251 0.669042289 0.502794743
0.681092501 0.749076009 0.560310006
0.820603728 0.790521264 0.602965534
0.931458473 0.824614525 0.655388951
0.026023000 0.135824010 0.324864000
0.106739007 0.091531999 0.293761253
0.232868001 0.089489505 0.309851289
0.303585500 0.065085001 0.302972227
0.404804498 0.080415249 0.343640000
0.034499999 0.256897748 0.423591495
0.152372509 0.335896522 0.470143020
0.320378006 0.326898754 0.466170758
0.453917503 0.320005238 0.464039743
0.616836727 0.335970521 0.500057220
0.052344002 0.375671744 0.496914983
0.185166746 0.458557248 0.537981808
0.407806993 0.525202990 0.570806742
0.573300779 0.536330521 0.584728539
0.770550489 0.535025477 0.603392959
0.095078751 0.496582985 0.545066714
0.251589775 0.573464513 0.580356300
0.471001744 0.634376764 0.619002938
0.668766260 0.694012523 0.652674735
0.893563032 0.734148979 0.708518505
0.189271241 0.606048703 0.560827255
0.433269739 0.691506505 0.612189233
0.603580773 0.746469259 0.663939476
0.774164498 0.809879184 0.718522787
0.915237248 0.849470735 0.771218538
0.026812000 0.182866007 0.419945002
0.070840999 0.114055999 0.358555257
0.198418513 0.109891996 0.383111000
0.295049012 0.116127744 0.409068227
0.318322986 0.063382000 0.374357998
0.034499999 0.290660024 0.503368497
0.116105005 0.367159754 0.548173249
0.237478510 0.355840743 0.541308522
0.380516529 0.355612993 0.545201063
0.485300750 0.324784517 0.536975980
0.050344504 0.404401004 0.566878498
0.136319250 0.478216499 0.604142010
0.346505523 0.555708528 0.654926538
0.497242540 0.551952481 0.649853706
0.623839498 0.534207463 0.646207511
0.079334505 0.506831288 0.610633016
0.199513525 0.580790997 0.648655772
0.423737764 0.658467054 0.699668765
0.678279996 0.730471969 0.758237779
0.779978275 0.732756972 0.763935745
0.149671003 0.611822009 0.646694005
0.404732764 0.712386489 0.705510736
0.587027013 0.765728474 0.750624537
0.760139763 0.821151972 0.806032240
0.906508982 0.866227984 0.849004984
