public/lut/23.cube
TITLE "17x17x17 Adobe/IRIDAS cube 3D LUT exported with GrossGrade v0.2.2 (beta) 64 bit"
DOMAIN_MIN 0 0 0
DOMAIN_MAX 1 1 1
LUT_3D_SIZE 5
0.026812000 0.043264002 0.056820001
0.283778995 0.066197254 0.035683002
0.529558003 0.119246006 0.047925003
0.669276714 0.162553251 0.115434006
0.758942008 0.186498001 0.164864004
0.038443249 0.136235505 0.058963500
0.357079744 0.174737245 0.035091247
0.654158711 0.256603003 0.022080250
0.833136499 0.307833254 0.026220001
0.914472222 0.339097738 0.054613248
0.079524010 0.304388016 0.120402500
0.558087230 0.392280519 0.069189005
0.782775521 0.397983015 0.056810506
0.946035028 0.439069539 0.061481003
1.000000000 0.481101006 0.103126511
0.238686249 0.497322023 0.178544998
0.693635762 0.556309938 0.105477251
0.997052193 0.599584460 0.139146522
1.000000000 0.561036229 0.145087510
1.000000000 0.606145501 0.214189246
0.374641001 0.629495025 0.219267994
0.801394284 0.654340267 0.138161495
1.000000000 0.678670049 0.232862502
1.000000000 0.699792027 0.300929010
1.000000000 0.679517984 0.286457002
0.023460001 0.034697000 0.136439502
0.146083742 0.045642499 0.167325497
0.393886745 0.053479753 0.224515989
0.535936236 0.080374502 0.260442495
0.655251503 0.101726003 0.263768256
0.023657000 0.118382752 0.186419740
0.269939512 0.264685005 0.241837487
0.550827980 0.341447234 0.269203782
0.721358538 0.383891970 0.289460987
0.826842964 0.417793274 0.294200003
0.024445999 0.260298252 0.275666475
0.402471036 0.470842272 0.321282983
0.653224766 0.474512011 0.293428510
0.831821799 0.518211722 0.314046264
0.924463749 0.546069980 0.332690477
0.048258252 0.434510529 0.355823755
0.501856804 0.623747468 0.381102502
0.793766737 0.652847409 0.352269262
0.922911465 0.635297000 0.331802249
0.968471527 0.671254992 0.425713271
0.147769004 0.585317254 0.397762507
0.683611214 0.768263519 0.518147945
0.826377749 0.780762792 0.536807775
0.942285776 0.802829504 0.576622963
0.992548764 0.786099732 0.538224757
0.025234001 0.041376501 0.215334505
0.062523000 0.042326748 0.224714488
0.270502508 0.040994000 0.247304499
0.397784263 0.035879999 0.262476474
0.510725498 0.037851498 0.273831010
0.026023000 0.134545252 0.278064996
0.207845762 0.293046743 0.349432468
0.451211810 0.320514262 0.371145248
0.612487793 0.343374759 0.377576262
0.726352513 0.389037251 0.372599483
0.027994500 0.231501520 0.345129520
0.235112518 0.430258512 0.423307240
0.541616559 0.528721511 0.480527520
0.739964247 0.555425465 0.477208793
0.869203568 0.580119014 0.459909499
0.033317249 0.356445491 0.446252227
0.336985707 0.588598251 0.506289005
0.652349472 0.679627299 0.530722976
0.816036761 0.680571556 0.545773208
0.931774497 0.698006511 0.534689486
0.046529498 0.497085512 0.501609981
0.600809216 0.759474516 0.631033003
0.779945552 0.812893987 0.662361979
0.897424519 0.829037249 0.700682461
0.951968491 0.834231496 0.720008969
0.026812000 0.058506753 0.250371516
0.027008750 0.038048748 0.220450744
0.197229013 0.041376501 0.254927754
0.319182277 0.039429002 0.259611994
0.397812486 0.034106001 0.259757996
0.027600000 0.155585498 0.322218001
0.155288503 0.314492524 0.410144985
0.358786523 0.318692505 0.410840005
0.505815268 0.313042760 0.411540270
0.643989503 0.337873787 0.419934511
0.029966000 0.243825763 0.390781254
0.166477501 0.415630519 0.482562482
0.491121262 0.530581951 0.545006812
0.642931521 0.541614711 0.553739667
0.798326015 0.553689241 0.534414768
0.032529000 0.316763759 0.463299513
0.192726254 0.530696034 0.560236990
0.539892554 0.648792028 0.626946986
0.721337795 0.719070256 0.668256998
0.911212742 0.747742236 0.671766281
0.040217001 0.427021742 0.573882461
0.504488766 0.735806227 0.698412776
0.696888268 0.799614727 0.748900771
0.865282059 0.845330477 0.789996028
0.931170225 0.853444517 0.792683482
0.026812000 0.088729002 0.285544008
0.026023000 0.037852000 0.222425997
0.082476512 0.042516001 0.249528006
0.247022510 0.045098498 0.281823993
0.305373013 0.039429002 0.260196000
0.029966000 0.186895013 0.376930982
0.095189504 0.312447965 0.475029767
0.232143998 0.303464502 0.461454511
0.400301278 0.318556249 0.470670283
0.534349501 0.320320010 0.470939249
0.034303002 0.268054485 0.461083502
0.114730254 0.407550007 0.560299039
0.423666537 0.522516012 0.642368495
0.532079279 0.516746998 0.623801708
0.709902525 0.532856464 0.618841529
0.037062999 0.319150746 0.522774518
0.167059273 0.514765739 0.634293258
0.459032029 0.625339508 0.706991553
0.714614272 0.726023734 0.764196277
0.844888747 0.729431033 0.755408525
0.040217001 0.371796995 0.578536987
0.381785274 0.692954004 0.741593957
0.592243493 0.760516524 0.783587456
0.804652750 0.832335472 0.831292510
0.912804008 0.869334996 0.851764023
