public/lut/23.cube
TITLE "17x17x17 Adobe/IRIDAS cube 3D LUT exported with GrossGrade v0.2.2 (beta) 64 bit"
DOMAIN_MIN 0 0 0
DOMAIN_MAX 1 1 1
LUT_3D_SIZE 17
0.026812000 0.043264002 0.056820001
0.052439690 0.043958686 0.049753439
0.110741504 0.048118751 0.045552749
0.187990636 0.057088189 0.039722439
0.283778995 0.066197254 0.035683002
0.363029540 0.078514814 0.033909000
0.429689884 0.092837378 0.033119999
0.484839529 0.106961697 0.036816880
0.529558003 0.119246006 0.047925003
0.569208860 0.131169558 0.062731124
0.607185245 0.142597616 0.081806377
0.643048286 0.154695496 0.100853875
0.669276714 0.162553251 0.115434006
0.694255173 0.170764312 0.130236387
0.715217710 0.176735759 0.141760752
0.737857819 0.182067618 0.154388145
0.758942008 0.186498001 0.164864004
0.039133251 0.053444564 0.050513875
0.054342061 0.053402126 0.051727310
0.118530445 0.062789500 0.043538876
0.204050407 0.074228570 0.032923371
0.310502261 0.090373375 0.023558876
0.397588938 0.104179375 0.017003687
0.461702317 0.117967002 0.014933563
0.513890386 0.133278757 0.016461249
0.565465927 0.149073333 0.019664999
0.613266766 0.164923117 0.024839813
0.656597257 0.180156067 0.035232622
0.693664908 0.195123434 0.049357623
0.719442546 0.204658821 0.059286758
0.743970871 0.212491497 0.070870139
0.763058424 0.216493994 0.083690695
0.781969786 0.218293875 0.098181017
0.800482750 0.222297877 0.107596561
0.055958375 0.076327249 0.047683250
0.085574754 0.078582250 0.052428875
0.124768995 0.080438003 0.046357878
0.211632282 0.095572382 0.035978872
0.330016136 0.116956629 0.025037374
0.419089198 0.132431492 0.017743187
0.483986139 0.146049753 0.014095500
0.537573755 0.161180392 0.014095500
0.593403518 0.180526122 0.014490001
0.647371173 0.198917806 0.014983000
0.699419379 0.215858623 0.017348500
0.739869118 0.230762199 0.023854688
0.765693665 0.240340248 0.031148877
0.787789404 0.248287573 0.039843634
0.803959250 0.252076626 0.048530880
0.820845485 0.254095376 0.059189826
0.837928116 0.259792894 0.072244503
0.050722808 0.108313441 0.054052562
0.100277752 0.118655697 0.040101316
0.162426874 0.123009384 0.051808875
0.221760511 0.122772194 0.042656247
0.339707434 0.143536121 0.030409561
0.433440179 0.162058443 0.022425063
0.505211294 0.180228889 0.018778063
0.564886630 0.199116468 0.017841313
0.622461259 0.217338458 0.017841313
0.676392913 0.235417947 0.017989250
0.728774309 0.250613570 0.017989250
0.774213672 0.264272451 0.019812811
0.803274393 0.275063992 0.024051251
0.828793347 0.283901334 0.028339321
0.845944047 0.289102316 0.037506696
0.861434639 0.292419136 0.047328446
0.877116084 0.298764437 0.056148123
0.038443249 0.136235505 0.058963500
0.095221438 0.154472798 0.043993875
0.179467142 0.169336379 0.042863626
0.282743037 0.176273063 0.048291497
0.357079744 0.174737245 0.035091247
0.449193567 0.194718257 0.028487563
0.525973260 0.216270894 0.024051750
0.590947986 0.238635957 0.023262748
0.654158711 0.256603003 0.022080250
0.710732102 0.271405637 0.021341000
0.759158731 0.283630639 0.021094749
0.803094029 0.296471566 0.022721000
0.833136499 0.307833254 0.026220001
0.859749019 0.318831056 0.032233194
0.882466853 0.327370614 0.037753254
0.900509775 0.333088994 0.046133570
0.914472222 0.339097738 0.054613248
0.033909000 0.169430748 0.066611253
0.095315374 0.194007188 0.051918063
0.203984752 0.217381239 0.022917876
0.336434215 0.235164061 0.053448189
0.428124994 0.240263492 0.044551808
0.476067007 0.232195750 0.034697000
0.550443649 0.253375858 0.031099500
0.618057489 0.274769932 0.030261187
0.684590101 0.292044044 0.028684188
0.741222084 0.307176828 0.028093187
0.791240036 0.319193572 0.028437939
0.832850277 0.329691231 0.028684501
0.860892236 0.339698821 0.032035876
0.887746632 0.350774318 0.036471386
0.911026537 0.360617936 0.042226505
0.932687700 0.370471865 0.050762262
0.945737839 0.377371371 0.060684748
0.039815754 0.208323136 0.081282757
0.109020703 0.240098760 0.065871254
0.235243142 0.266301394 0.023361752
0.374034703 0.288248718 0.054981753
0.488299906 0.302068025 0.057814758
0.543481827 0.297781080 0.047151566
0.586685121 0.293493390 0.040111255
0.653307319 0.312340647 0.038097940
0.714434266 0.327056378 0.036866128
0.772049427 0.341407329 0.036175750
0.820365131 0.353302896 0.036964752
0.859311879 0.363388389 0.038541753
0.888031006 0.372107387 0.040302504
0.913327932 0.380989939 0.043300193
0.936915398 0.391464263 0.048370507
0.959991932 0.402670681 0.055245947
0.974400640 0.412111014 0.065011121
0.056810010 0.255058080 0.101358131
0.143687218 0.291445017 0.078137197
0.285001159 0.318757445 0.026072128
0.405850232 0.335550338 0.057932749
0.523029625 0.350288153 0.064725064
0.605734169 0.360562831 0.062903002
0.652506948 0.357376158 0.054321505
0.690397918 0.351865590 0.048454065
0.750231385 0.363317430 0.046345629
0.803042054 0.374429911 0.044904817
0.849138498 0.386307001 0.046662815
0.888078868 0.396241546 0.047758255
0.916696727 0.405274004 0.050296195
0.943920851 0.415303022 0.053273384
0.963462055 0.423596770 0.057117574
0.983742416 0.433825791 0.063338451
0.996107459 0.444390595 0.073881820
0.079524010 0.304388016 0.120402500
0.187332839 0.343099326 0.086964376
0.337013006 0.367732376 0.029276000
0.445722401 0.380129099 0.061825249
0.558087230 0.392280519 0.069189005
0.662255347 0.410380840 0.076651007
0.724073410 0.416880667 0.071310125
0.760417223 0.409999549 0.064116627
0.782775521 0.397983015 0.056810506
0.835103035 0.408232629 0.056135632
0.879710734 0.418968022 0.056493506
0.916963577 0.429430783 0.058951505
0.946035028 0.439069539 0.061481003
0.973168135 0.448922515 0.064434133
0.989774525 0.456935287 0.068642139
0.999691486 0.466638744 0.081021711
1.000000000 0.481101006 0.103126511
0.108147308 0.353913873 0.136750683
0.237338930 0.391909003 0.089561746
0.382168859 0.412174672 0.031148875
0.489415199 0.423546135 0.068994507
0.593873918 0.435054690 0.076028936
0.697462022 0.449837446 0.086923003
0.787139654 0.468601495 0.088599630
0.829916716 0.467074126 0.082651503
0.852314889 0.455681950 0.075086311
0.865281761 0.440834135 0.067864940
0.910603404 0.452120245 0.069222562
0.948102117 0.462666005 0.070547499
0.972554684 0.470572859 0.072931498
0.994470000 0.480340898 0.077804327
1.000000000 0.491321802 0.093928523
1.000000000 0.502811253 0.115219273
1.000000000 0.517531037 0.136407495
0.149886131 0.405279756 0.152036250
0.283896863 0.437739104 0.093031190
0.427187026 0.457337141 0.032232754
0.532581210 0.468538880 0.073039129
0.630777419 0.481177628 0.085382998
0.730235338 0.493404597 0.096187748
0.824612498 0.509330928 0.103909753
0.891051710 0.521630287 0.103909381
0.920932770 0.515016496 0.097112492
0.932178974 0.499250412 0.088575192
0.938928843 0.483066112 0.081336625
0.972311378 0.493198633 0.083270431
0.993157983 0.501523256 0.087258630
0.999966264 0.512134612 0.104559459
1.000000000 0.526761353 0.127672762
1.000000000 0.537441730 0.146479875
1.000000000 0.551464021 0.166651741
0.200988561 0.454939008 0.166789055
0.328819901 0.480254948 0.096950687
0.470527083 0.500203967 0.037915751
0.569859326 0.511347234 0.075016007
0.665600121 0.522778809 0.096177943
0.760972142 0.533096611 0.105556443
0.853226244 0.544320107 0.116818435
0.927390814 0.559952497 0.118824311
0.974430025 0.565302074 0.117792696
0.985495567 0.551972806 0.111126065
0.989882052 0.536212683 0.102977872
0.990944028 0.520774424 0.095987879
1.000000000 0.531700790 0.111394696
1.000000000 0.543704033 0.135629088
1.000000000 0.558138490 0.157933325
1.000000000 0.569056273 0.175131455
1.000000000 0.581448913 0.192452192
0.238686249 0.497322023 0.178544998
0.370233566 0.520068109 0.102792814
0.510269403 0.538826466 0.045412250
0.602569938 0.548151493 0.079654887
0.693635762 0.556309938 0.105477251
0.787122369 0.565095544 0.113716945
0.874945641 0.573964715 0.125748754
0.949141502 0.586692095 0.129217625
0.997052193 0.599584460 0.139146522
1.000000000 0.601870060 0.166291952
1.000000000 0.589014649 0.164138019
1.000000000 0.574683428 0.155070513
1.000000000 0.561036229 0.145087510
1.000000000 0.571640134 0.163714960
1.000000000 0.585751534 0.183865771
1.000000000 0.597462773 0.201217204
1.000000000 0.606145501 0.214189246
0.271530479 0.536177993 0.190464333
0.405474037 0.555722475 0.108164325
0.540965915 0.571895659 0.052497629
0.630882382 0.579320312 0.083522953
0.719232202 0.584417462 0.113134824
0.810750961 0.591381192 0.120553136
0.893938839 0.599879205 0.132336751
0.965932310 0.610350311 0.139275014
0.999731541 0.624999106 0.166883543
1.000000000 0.638664961 0.213834032
1.000000000 0.635519922 0.223713547
1.000000000 0.623243809 0.216198862
1.000000000 0.610764682 0.206124917
1.000000000 0.598861158 0.195622355
1.000000000 0.610372722 0.211604804
1.000000000 0.620072901 0.224894911
1.000000000 0.628398061 0.235216707
0.306558162 0.572891176 0.203127518
0.438498527 0.586920142 0.112798251
0.571276486 0.601893783 0.058481760
0.660439968 0.607992709 0.089324012
0.745367646 0.609503686 0.120622002
0.833775938 0.614965081 0.126897499
0.913507164 0.623206496 0.138260871
0.979294121 0.630180955 0.147684515
0.999972999 0.644907892 0.190838158
1.000000000 0.658104420 0.236370325
1.000000000 0.664690733 0.256293178
1.000000000 0.659906209 0.256578118
1.000000000 0.648762465 0.248464644
1.000000000 0.638379872 0.240115047
1.000000000 0.630537033 0.233306795
1.000000000 0.639780819 0.246124715
1.000000000 0.648481131 0.256538510
0.342255652 0.602766931 0.213613749
0.468936652 0.612489939 0.120547816
0.601959169 0.626324594 0.065932438
0.689587593 0.631853759 0.102134466
0.770249963 0.631981730 0.129799575
0.855145633 0.636133611 0.134051248
0.930260301 0.642701566 0.143662378
0.989242136 0.648288608 0.155697778
1.000000000 0.661101341 0.210066155
1.000000000 0.672918141 0.251765937
1.000000000 0.679561019 0.271313697
1.000000000 0.683436275 0.280606717
1.000000000 0.680664420 0.281322151
1.000000000 0.673005939 0.276181132
1.000000000 0.666035950 0.270874470
1.000000000 0.659200370 0.266313970
1.000000000 0.666426301 0.274651825
0.374641001 0.629495025 0.219267994
0.502020180 0.636675000 0.123838939
0.636655092 0.649864733 0.072156876
0.723071575 0.654877782 0.117253758
0.801394284 0.654340267 0.138161495
0.880477607 0.658079565 0.141760930
0.947576761 0.663126886 0.149400502
0.997590661 0.669235528 0.169673473
1.000000000 0.678670049 0.232862502
1.000000000 0.687153101 0.265352309
1.000000000 0.693343639 0.284622610
1.000000000 0.697671175 0.294986457
1.000000000 0.699792027 0.300929010
1.000000000 0.698389232 0.301978260
1.000000000 0.692627370 0.297217637
1.000000000 0.685730517 0.291265994
1.000000000 0.679517984 0.286457002
0.027550749 0.042516001 0.063199624
0.043669686 0.043217253 0.062041998
0.097265758 0.044004500 0.064081252
0.170651644 0.049497131 0.068262316
0.259593695 0.056505062 0.064738877
0.335662663 0.063018441 0.066334940
0.395541161 0.076396942 0.073336318
0.447396219 0.093674637 0.083168253
0.494726926 0.105869561 0.100380756
0.542311132 0.114808381 0.119068682
0.584014297 0.124955997 0.137094185
0.617849827 0.133900374 0.149348557
0.645430982 0.138191134 0.161809877
0.671873033 0.144128874 0.173779815
0.694328606 0.150527835 0.181647927
0.717749953 0.156612128 0.185681492
0.739529431 0.158020556 0.189699754
0.029965999 0.053486563 0.065432310
0.049951565 0.065730751 0.069089502
0.111863501 0.076642945 0.068977438
0.196089938 0.092356756 0.066272005
0.292229205 0.109506622 0.061635122
0.377841681 0.124722622 0.062338188
0.435579568 0.140107557 0.071259752
0.485273838 0.155828997 0.086061820
0.532481015 0.171156779 0.103035755
0.580703616 0.187136069 0.113969378
0.624372423 0.202049062 0.126234949
0.657866478 0.213332251 0.139829487
0.684015632 0.220055699 0.154019445
0.709719718 0.226521298 0.164560691
0.734624565 0.232182756 0.172452137
0.759006739 0.236741513 0.180383429
0.781575978 0.241112679 0.187035248
0.036421940 0.071435191 0.064194687
0.068849251 0.091371372 0.067857310
0.116664685 0.094118811 0.067932121
0.205828592 0.113029569 0.061391685
0.313290775 0.132634386 0.051521562
0.403224021 0.150503129 0.047099560
0.462216407 0.166138500 0.049955685
0.516636372 0.183107957 0.054115567
0.567173243 0.202001140 0.062901564
0.617896974 0.220210686 0.070448622
0.664967239 0.237709627 0.081668749
0.700965345 0.250916749 0.095633879
0.728526235 0.258850336 0.110304132
0.752928853 0.265350610 0.121645316
0.776148200 0.271062523 0.130985945
0.798761904 0.275633633 0.142823890
0.820639312 0.281223327 0.154087141
0.028092936 0.096088134 0.071433686
0.074718937 0.126021191 0.074040934
0.139232069 0.132263452 0.070296369
0.217286468 0.136893824 0.063670434
0.327360630 0.158856779 0.052264374
0.425552428 0.178789005 0.044471189
0.493846297 0.197997272 0.043367062
0.552954853 0.216831103 0.044732064
0.607556939 0.234193131 0.045984313
0.658965588 0.250181824 0.050805122
0.706865489 0.266691327 0.060624935
0.743444562 0.279986769 0.073130250
0.770238400 0.289677680 0.085489251
0.795321941 0.298003078 0.096119881
0.815020621 0.304184079 0.107784688
0.834814966 0.309284270 0.117299505
0.855620325 0.318244666 0.127137244
0.023952812 0.122615308 0.079011939
0.072141051 0.162257761 0.086140193
0.160789624 0.179651514 0.058091938
0.265737236 0.189454332 0.071026750
0.344473630 0.191043571 0.054828998
0.442636520 0.211934820 0.047733814
0.515193105 0.234363571 0.045911189
0.579286993 0.254969060 0.046045814
0.638693750 0.271179795 0.045996502
0.691616297 0.285558820 0.048061002
0.738390326 0.298970193 0.052632563
0.774743021 0.311523080 0.061990499
0.803609848 0.322210193 0.074568443
0.829908669 0.331362635 0.085379638
0.851680696 0.339494437 0.096515253
0.873556554 0.345956624 0.105412260
0.891505003 0.354307801 0.119820565
0.024445999 0.158431679 0.095407620
0.077730812 0.205657572 0.103299439
0.182647869 0.229666755 0.066014186
0.300275475 0.244979307 0.075046375
0.400177449 0.251477808 0.067978129
0.465365261 0.249381438 0.051159628
0.535704851 0.268460840 0.050393376
0.601595819 0.288370699 0.049923066
0.665674329 0.306513518 0.050340064
0.719710231 0.320876002 0.051592249
0.769021571 0.333339930 0.055182375
0.806732893 0.344672054 0.062144186
0.833947003 0.354427397 0.072227627
0.859394729 0.364260018 0.083168946
0.881820798 0.374375671 0.094994381
0.905829668 0.384341866 0.106357694
0.921568513 0.392170995 0.121448942
0.025234003 0.199255884 0.117132381
0.092888005 0.253824025 0.120391130
0.214931771 0.283558637 0.079544693
0.337426484 0.299242884 0.078836747
0.451987386 0.309037209 0.078098819
0.519027770 0.308088303 0.066404507
0.563644826 0.302871913 0.053179126
0.627020836 0.321124762 0.054342624
0.689070463 0.338411510 0.055565689
0.748244166 0.353710502 0.056346938
0.797110617 0.366046220 0.060181629
0.835739970 0.377595514 0.067167819
0.864037693 0.388208389 0.076298624
0.889803290 0.399113506 0.086669326
0.912804008 0.410753638 0.099255390
0.937405586 0.421716750 0.110479712
0.949253678 0.429108590 0.127563998
0.031444754 0.242884085 0.138633564
0.117785029 0.302779287 0.140016004
0.253244221 0.336157858 0.093437567
0.377546430 0.351090282 0.082790069
0.491223603 0.360770494 0.084379941
0.576413870 0.364784211 0.079664066
0.622399271 0.361394435 0.068837442
0.661000133 0.355920196 0.059052564
0.722511053 0.371656477 0.060993377
0.775821924 0.385289311 0.063701503
0.826417446 0.397764891 0.065776497
0.865758777 0.409566998 0.071914501
0.894668818 0.421439350 0.081489250
0.921923876 0.432946563 0.090507008
0.942824423 0.444630265 0.103055701
0.964657545 0.455630571 0.113933332
0.975630999 0.465208769 0.132777497
0.043552689 0.290521711 0.161916882
0.149155304 0.350013912 0.156677946
0.293211639 0.381239146 0.100858450
0.418446749 0.396163642 0.083035626
0.524644256 0.405292183 0.093548313
0.625969052 0.415342331 0.090054065
0.692420840 0.419107199 0.083738811
0.728186071 0.413977563 0.075856686
0.758432150 0.406145126 0.067986257
0.810735345 0.419006020 0.070825949
0.856766105 0.430584997 0.074174255
0.897007287 0.443046004 0.079581693
0.926609397 0.454420775 0.087408699
0.952822149 0.465797633 0.096040890
0.972159266 0.476246268 0.106181763
0.988609314 0.486357093 0.116349950
0.996503949 0.500357687 0.139836743
0.064248562 0.339702785 0.184344426
0.179933682 0.394990832 0.169071198
0.338136107 0.425383270 0.103687435
0.461272568 0.440706819 0.083510384
0.559617043 0.450218379 0.102382436
0.660793900 0.460620761 0.099576123
0.754078507 0.471688867 0.099834934
0.801818013 0.473609239 0.094307624
0.827235937 0.465945095 0.087598130
0.847658694 0.454753369 0.079866312
0.891558170 0.465967119 0.084028251
0.926022053 0.476750582 0.090126440
0.951554596 0.486408144 0.097403377
0.976297915 0.496338338 0.104029261
0.991704106 0.506417215 0.114219449
0.999731541 0.517570436 0.131882966
1.000000000 0.536151946 0.163871869
0.092777193 0.390064061 0.201430008
0.214944571 0.440954059 0.181753188
0.382537395 0.471120894 0.105302319
0.500907242 0.486265004 0.082633570
0.596705139 0.497334540 0.112148374
0.695160806 0.506252587 0.109807380
0.790251017 0.514546454 0.114248246
0.867067575 0.526393950 0.111106940
0.897977352 0.523816407 0.107154191
0.914239824 0.512848496 0.100431755
0.924469352 0.499212563 0.093159989
0.953671157 0.509066820 0.099149309
0.974289834 0.516917467 0.105216317
0.991897225 0.524316013 0.112628706
0.999758661 0.536741078 0.131107330
1.000000000 0.549323022 0.157616481
1.000000000 0.568551242 0.189765260
0.133174121 0.440665334 0.216198757
0.260225624 0.485915869 0.192694873
0.423256993 0.512710035 0.108216435
0.538826287 0.528256893 0.084476635
0.631529748 0.538106322 0.120265938
0.727043808 0.545859456 0.120318875
0.818098724 0.552250028 0.124264441
0.900736988 0.563089550 0.125388190
0.957816601 0.571087360 0.123228312
0.972647786 0.564335048 0.118758492
0.979415655 0.552690089 0.113323316
0.978452146 0.538068652 0.107529558
0.993434310 0.545738697 0.114915557
1.000000000 0.554144084 0.130937338
1.000000000 0.567045450 0.156271458
1.000000000 0.579626739 0.182165712
1.000000000 0.595562100 0.211048514
0.166911259 0.483960450 0.231085822
0.292852998 0.524844348 0.202332944
0.457807600 0.548475802 0.111132689
0.571561754 0.563527822 0.086947948
0.659748137 0.570942283 0.127323121
0.754543364 0.576728463 0.128224686
0.841016412 0.581742048 0.130971298
0.921775103 0.590136647 0.136332691
0.984035969 0.602548420 0.136979520
1.000000000 0.607780755 0.157785758
1.000000000 0.601485610 0.160478681
1.000000000 0.589336455 0.152927950
1.000000000 0.575412631 0.142610952
1.000000000 0.584549546 0.164966643
1.000000000 0.596647739 0.185362592
1.000000000 0.607473075 0.205440760
1.000000000 0.619222641 0.230210826
0.196818858 0.523029327 0.246876135
0.318942726 0.558042705 0.211113095
0.488552123 0.579683721 0.114178561
0.600552261 0.592955589 0.088375881
0.686160922 0.598414183 0.132856205
0.777851641 0.602501512 0.133937240
0.862068713 0.607771277 0.136642858
0.938522577 0.614509881 0.144077063
0.995194554 0.626346350 0.152189821
1.000000000 0.640764475 0.204814404
1.000000000 0.642572820 0.221267417
1.000000000 0.634629667 0.215608746
1.000000000 0.623747647 0.207064793
1.000000000 0.612080216 0.196873844
1.000000000 0.621465921 0.213200182
1.000000000 0.632140636 0.231472358
1.000000000 0.642511308 0.251649350
0.233317971 0.560329676 0.262240320
0.346229732 0.588908970 0.217566073
0.520674527 0.607492328 0.113143750
0.632044017 0.619597793 0.091923833
0.715021491 0.622517824 0.138482958
0.804142952 0.625463068 0.139557630
0.884269357 0.630923569 0.142770752
0.954396725 0.636653841 0.149482131
0.999436021 0.646258175 0.171223670
1.000000000 0.660564065 0.227573261
1.000000000 0.667598128 0.254715949
1.000000000 0.667727292 0.257867604
1.000000000 0.659842730 0.250769556
1.000000000 0.651824474 0.244280547
1.000000000 0.643800497 0.237886548
1.000000000 0.653778911 0.254082084
1.000000000 0.664644301 0.272115946
0.273881108 0.593210518 0.275146514
0.374224782 0.614728928 0.222109124
0.554433525 0.630069435 0.111377560
0.663179994 0.642391980 0.102261461
0.745475471 0.643527865 0.146313369
0.830960453 0.646480203 0.146531582
0.905693531 0.651238918 0.148910373
0.970375419 0.656293750 0.154676318
1.000000000 0.664350927 0.192144841
1.000000000 0.675658703 0.244965851
1.000000000 0.682594299 0.270528942
1.000000000 0.686473906 0.281329483
1.000000000 0.689968288 0.286314130
1.000000000 0.686115444 0.283389330
1.000000000 0.680121481 0.279091060
1.000000000 0.673745632 0.274561673
1.000000000 0.680684388 0.286307007
0.306820869 0.622116566 0.286723197
0.401722193 0.637470484 0.220766619
0.590851605 0.651068628 0.105053313
0.699588656 0.661869168 0.112175576
0.779589832 0.662884891 0.151536196
0.859692276 0.665757239 0.151224747
0.928486764 0.670387864 0.154609010
0.985511482 0.675143063 0.162856698
1.000000000 0.682363927 0.214195639
1.000000000 0.690359056 0.258028865
1.000000000 0.696180522 0.283939809
1.000000000 0.699357986 0.295197755
1.000000000 0.702830374 0.302558005
1.000000000 0.706425607 0.307363987
1.000000000 0.703255713 0.305183500
1.000000000 0.698087215 0.300128669
1.000000000 0.692827106 0.296060562
0.025332626 0.038738623 0.077445000
0.036274064 0.041806314 0.083403438
0.072508000 0.045372374 0.089281373
0.138272956 0.047375124 0.104281500
0.233773515 0.049498003 0.112385996
0.312499166 0.056585249 0.117444754
0.374217004 0.066950880 0.127873242
0.426830769 0.083187819 0.141538069
0.476099759 0.094821632 0.158982754
0.520018339 0.104182377 0.172713742
0.558184862 0.112339877 0.185718238
0.592439413 0.120081566 0.196443439
0.620614231 0.123515129 0.206113502
0.646960139 0.126917809 0.213143200
0.669719040 0.130460620 0.216859132
0.693873763 0.136096001 0.218725801
0.717171133 0.138333380 0.219469637
0.025431251 0.050259624 0.081727311
0.041701000 0.068396628 0.094675377
0.084706254 0.072459131 0.100181006
0.166635275 0.085818566 0.108778127
0.264036715 0.103230126 0.113926560
0.346094817 0.119090505 0.118308000
0.404056758 0.131824195 0.132482246
0.455689669 0.145624995 0.146642014
0.505253732 0.160852566 0.158083186
0.551702678 0.174354136 0.170577869
0.593345940 0.187288821 0.183357254
0.627549529 0.197212249 0.193364874
0.656196237 0.204227060 0.199325889
0.684325755 0.211224005 0.207491636
0.710983396 0.216071188 0.216917261
0.736632705 0.220975682 0.222078189
0.761571229 0.226926059 0.219794810
0.024643125 0.067838870 0.086101875
0.038971875 0.090602122 0.102330312
0.093068875 0.112247124 0.109857261
0.194698200 0.135557935 0.115053624
0.289931238 0.155583888 0.116893500
0.371005327 0.174155921 0.122814193
0.434429884 0.192736015 0.132427499
0.488737941 0.209489703 0.139887691
0.540006995 0.228220761 0.150490373
0.589092851 0.245746866 0.164224505
0.633550882 0.260577977 0.177196130
0.668784678 0.270741224 0.185399994
0.699962676 0.278087974 0.193159506
0.726042688 0.284243733 0.203601718
0.752163827 0.289701998 0.216907755
0.779008746 0.298052013 0.218265370
0.806782305 0.303447366 0.213745624
0.022967501 0.092244692 0.098954946
0.039703064 0.120469689 0.113324687
0.113862820 0.150124386 0.115832195
0.201743022 0.156724498 0.114200190
0.307614118 0.183828130 0.113670252
0.400064737 0.206323192 0.111170061
0.469195306 0.227675468 0.114670500
0.524504423 0.245168090 0.118980065
0.577131569 0.260351717 0.122423127
0.626983345 0.275788546 0.132093817
0.670158863 0.290761948 0.142850816
0.704879642 0.302086622 0.151865065
0.736978650 0.311577052 0.161990255
0.764100134 0.318765074 0.174834579
0.788758695 0.324250698 0.187728181
0.814353704 0.332471460 0.191079929
0.842149019 0.341743678 0.187383503
0.022869000 0.120081499 0.115688629
0.035582315 0.153444007 0.128829569
0.133331746 0.198072761 0.135112137
0.237876654 0.208262742 0.129108369
0.325636744 0.213932380 0.113146760
0.422272384 0.238869935 0.109997869
0.497144789 0.261179626 0.109095626
0.558175445 0.278471589 0.109787375
0.613019586 0.292956620 0.111443125
0.663638949 0.307170302 0.118563749
0.708164394 0.320804000 0.127566636
0.744295537 0.332218081 0.138892069
0.775988400 0.342746735 0.151465371
0.802449286 0.351273209 0.163368836
0.826084733 0.358260155 0.173320755
0.849262178 0.366472036 0.178846940
