public/lut/24.cube
TITLE "17x17x17 Adobe/IRIDAS cube 3D LUT exported with GrossGrade v0.2.2 (beta) 64 bit"
DOMAIN_MIN 0 0 0
DOMAIN_MAX 1 1 1
LUT_3D_SIZE 5
0.036274001 0.040994000 0.041758999
0.183231756 0.049669001 0.030360252
0.393369019 0.042890001 0.022869000
0.524071515 0.049325749 0.022869002
0.626586020 0.069470003 0.032331999
0.100202002 0.184161007 0.048807498
0.414811760 0.286381036 0.018531250
0.652392983 0.326586992 0.008279750
0.779995203 0.363561273 0.016757250
0.846126974 0.375243485 0.031346250
0.424438000 0.453317523 0.027994502
0.676237524 0.530492783 0.063474506
0.837251544 0.570179522 0.082136005
0.903139472 0.577206016 0.084579259
0.939720988 0.579743028 0.088267505
0.650042236 0.605306268 0.087398008
0.798520744 0.644508481 0.111933008
0.913653970 0.681047261 0.142630249
0.951674521 0.695537210 0.158389747
0.965192497 0.689734995 0.154248759
0.749137998 0.677420020 0.112919003
0.873369277 0.714855492 0.140733242
0.938292027 0.745496511 0.182539493
0.959837258 0.760848045 0.213931248
0.968460977 0.766417027 0.221028998
0.031345751 0.043076999 0.129409492
0.124349259 0.050852001 0.163976252
0.343285263 0.045461249 0.180420741
0.487061977 0.038245749 0.178192258
0.599537492 0.041185249 0.172506258
0.045820251 0.210510015 0.233844757
0.229164496 0.280020267 0.254610986
0.517147779 0.299610764 0.254175484
0.664731979 0.312067509 0.241686761
0.777393222 0.303881764 0.220042497
0.201550752 0.437112033 0.323674738
0.436779261 0.505490780 0.296906769
0.680174530 0.552648544 0.317632258
0.806293786 0.562758744 0.323280990
0.881798506 0.533272266 0.302291512
0.392611742 0.579419732 0.393098474
0.587252736 0.632697582 0.315751523
0.773013711 0.672491491 0.345153272
0.883919239 0.698185802 0.385992736
0.922677994 0.690273762 0.426605016
0.514265299 0.670587003 0.399329990
0.693289459 0.727661729 0.350785017
0.786095500 0.759760499 0.446642250
0.867610276 0.791153729 0.528448284
0.931352019 0.817162514 0.613681734
0.034697000 0.050683998 0.205791011
0.064198501 0.048812252 0.232597500
0.252996504 0.055567998 0.253687978
0.411379248 0.051353000 0.272690773
0.532400489 0.048985001 0.279313028
0.045820251 0.211751252 0.324022740
0.110259756 0.240339756 0.341495007
0.345888257 0.262317240 0.362030268
0.548518240 0.267908216 0.372666985
0.711216748 0.253136992 0.339969993
0.088498503 0.391728520 0.427973509
0.216390014 0.444055498 0.445510983
0.481646001 0.504924059 0.468900502
0.669357300 0.510086954 0.467168510
0.814549446 0.466929018 0.401831001
0.163566262 0.531514764 0.494335741
0.324572742 0.579909563 0.494650006
0.569239974 0.633838475 0.523720264
0.761449039 0.684079766 0.553701043
0.895855010 0.682275295 0.526502728
0.260373473 0.630107522 0.531481504
0.510699272 0.696032524 0.535359502
0.669080019 0.756525517 0.567295015
0.804025054 0.798300266 0.614991784
0.916985035 0.832422495 0.708971500
0.038640000 0.071579255 0.276143491
0.044545002 0.044737998 0.248379007
0.166470751 0.053973000 0.284723759
0.339044511 0.057438999 0.305792004
0.484833747 0.064236000 0.334729016
0.046181001 0.222630754 0.390196770
0.061614998 0.215278015 0.377998233
0.193589255 0.214554250 0.375816464
0.422292769 0.248206005 0.406902015
0.615464509 0.241406009 0.414618254
0.065222502 0.367620528 0.472047985
0.116288498 0.395820230 0.479193002
0.342827767 0.456472754 0.498720974
0.523070276 0.474303007 0.519538283
0.736214519 0.422803044 0.482354224
0.102637000 0.499873221 0.551132202
0.181061998 0.536910236 0.556376457
0.413345993 0.596032500 0.579385996
0.630855799 0.657061756 0.617441237
0.854483008 0.645218968 0.604331791
0.132165745 0.585494518 0.592628717
0.307405978 0.667597055 0.618114710
0.503983736 0.731199741 0.660540462
0.693998039 0.788617313 0.707264781
0.907851517 0.846234262 0.775925279
0.041758999 0.092168003 0.331440985
0.037654750 0.042516001 0.255932748
0.101412013 0.049669001 0.293004513
0.255130768 0.060311750 0.332283974
0.441713005 0.065085001 0.370555997
0.046001501 0.224676505 0.432672262
0.045462999 0.185767755 0.401259750
0.065328255 0.155777246 0.373510242
0.256709516 0.197358251 0.412570506
0.515127003 0.234314248 0.460935235
0.054614499 0.352497995 0.507936478
0.056816503 0.332823753 0.495425731
0.083273508 0.326908529 0.487942994
0.258811772 0.349492013 0.498454243
0.601315498 0.407875001 0.551738501
0.068663001 0.462192506 0.576129735
0.078345753 0.459289759 0.566524982
0.158895269 0.503774285 0.586293280
0.401157290 0.571369529 0.634279490
0.747623503 0.618447781 0.686468720
0.087851003 0.542841971 0.629936993
0.135130018 0.590249300 0.640741467
0.264603496 0.665495515 0.684988022
0.527354538 0.760176778 0.752672791
0.893368006 0.857837975 0.843015015
