public/lut/24.cube
TITLE "17x17x17 Adobe/IRIDAS cube 3D LUT exported with GrossGrade v0.2.2 (beta) 64 bit"
DOMAIN_MIN 0 0 0
DOMAIN_MAX 1 1 1
LUT_3D_SIZE 17
0.036274001 0.040994000 0.041758999
0.050672688 0.041041814 0.038738564
0.081663005 0.043170501 0.035584502
0.127992705 0.047330689 0.034056749
0.183231756 0.049669001 0.030360252
0.243506566 0.048294000 0.026269563
0.300704271 0.047857750 0.024741501
0.350140214 0.045055188 0.023657000
0.393369019 0.042890001 0.022869000
0.431200325 0.043588188 0.022869000
0.465544730 0.045009874 0.022869000
0.494631708 0.046181001 0.022869000
0.524071515 0.049325749 0.022869002
0.551729560 0.054414816 0.024593752
0.578031540 0.059416629 0.026910502
0.602602065 0.063453197 0.029177001
0.626586020 0.069470003 0.032331999
0.038590752 0.052136876 0.041758999
0.058142375 0.058875438 0.040265564
0.101789378 0.066107623 0.035633814
0.160015196 0.072368875 0.031049876
0.230696931 0.078678496 0.025677750
0.306247532 0.083617561 0.021636812
0.367734879 0.086302996 0.019320125
0.422914118 0.088339873 0.017496809
0.470898896 0.090982877 0.015918875
0.510100305 0.095390499 0.015130876
0.544926465 0.100272194 0.014391188
0.574383736 0.103739813 0.014341874
0.601715922 0.109045692 0.014341874
0.625956655 0.116136074 0.015278628
0.647625744 0.121683069 0.017496811
0.667478681 0.124996245 0.018334191
0.687485516 0.130293697 0.022227876
0.047238749 0.080784000 0.044646375
0.075507306 0.093977310 0.041758500
0.132358879 0.109191872 0.035683125
0.200970009 0.120686002 0.029571312
0.282988250 0.130804747 0.022572875
0.364916384 0.139813557 0.016461249
0.431213766 0.149095133 0.012518873
0.489843637 0.156011060 0.008526499
0.539163053 0.164488122 0.006604624
0.579766393 0.174241692 0.005717125
0.615655124 0.183495134 0.004928250
0.646618366 0.190948248 0.004928250
0.674017310 0.199546382 0.005125501
0.695452213 0.206888750 0.007442064
0.716536522 0.212308258 0.008969752
0.733041286 0.213842377 0.011138625
0.749628425 0.215297252 0.014391124
0.064562634 0.122965574 0.051435124
0.098114632 0.141817704 0.045639936
0.174116090 0.167391747 0.035140689
0.253202051 0.185612008 0.028832436
0.338957310 0.198675007 0.021094499
0.422944248 0.210525200 0.013257750
0.485266179 0.222338766 0.009117624
0.544927120 0.233083382 0.006653748
0.598577976 0.243587509 0.004731000
0.638828635 0.255826771 0.004287750
0.673301935 0.267608762 0.005372064
0.703246593 0.275230318 0.006161064
0.731226265 0.283469200 0.006998565
0.752276778 0.294178158 0.010596378
0.771205664 0.299494147 0.013060879
0.786347628 0.297034711 0.014736568
0.800527751 0.297552973 0.019270563
0.100202002 0.184161007 0.048807498
0.150611371 0.208336502 0.037107751
0.234225005 0.238292128 0.029768500
0.330913603 0.268545836 0.024938874
0.414811760 0.286381036 0.018531250
0.485539675 0.295842499 0.013258001
0.544686317 0.304313242 0.011434499
0.600541770 0.314716429 0.009413499
0.652392983 0.326586992 0.008279750
0.690334022 0.336669922 0.009659750
0.722981095 0.346091658 0.012321375
0.753122091 0.355612129 0.013849313
0.779995203 0.363561273 0.016757250
0.799612343 0.371264368 0.020798944
0.816516399 0.376569390 0.026023250
0.832322240 0.376905948 0.027649503
0.846126974 0.375243485 0.031346250
0.160439387 0.253908932 0.040393688
0.221955881 0.278786689 0.030064251
0.310802341 0.307567090 0.026368063
0.401391834 0.336666793 0.026417501
0.484628201 0.359495819 0.026220312
0.553267241 0.372420162 0.022917937
0.602357328 0.380672157 0.020601876
0.657359838 0.388957262 0.019517373
0.701357663 0.396577746 0.019122876
0.734668136 0.406101376 0.021439563
0.766139925 0.414540261 0.024544563
0.795588255 0.423680872 0.027403062
0.819976509 0.430515051 0.029916627
0.837598860 0.438099176 0.035732504
0.854206145 0.442529738 0.039861191
0.869493127 0.444342971 0.042065565
0.880226135 0.440286309 0.044542063
0.242269784 0.326826274 0.027994748
0.310107589 0.349881709 0.024741499
0.394522280 0.376269251 0.026023002
0.479331553 0.402900904 0.030655941
0.557509899 0.426459640 0.036668882
0.621179760 0.440711319 0.035830941
0.671516538 0.451196998 0.036570005
0.710159600 0.458374828 0.037359007
0.751738727 0.462384522 0.037359007
0.779450119 0.466664225 0.038782820
0.806282103 0.473626018 0.041807882
0.832461596 0.479554355 0.044233695
0.854675651 0.485047132 0.047458254
0.870619237 0.492624462 0.053053569
0.884989619 0.497429729 0.057100005
0.897193074 0.496922612 0.057954695
0.907616735 0.493397266 0.059097506
0.337082922 0.395027161 0.022869000
0.400234163 0.415006548 0.024051566
0.476747990 0.439124763 0.030557316
0.552692354 0.462742150 0.037950259
0.627003670 0.485525966 0.049363382
0.685204983 0.500462055 0.054222882
0.733220279 0.512854636 0.056850262
0.769664168 0.520917237 0.059259951
0.801176369 0.526829600 0.060745947
0.822892845 0.524998128 0.060511135
0.842646599 0.525167704 0.060781945
0.864832401 0.530938447 0.063412383
0.882774234 0.535088181 0.066853315
0.896600068 0.539569139 0.069906577
0.907069981 0.542577684 0.072572067
0.917781115 0.543987393 0.073912948
0.927151799 0.539602160 0.074389443
0.424438000 0.453317523 0.027994502
0.476760447 0.469468415 0.030261442
0.546384752 0.490981281 0.039509751
0.611341953 0.511136413 0.050814822
0.676237524 0.530492783 0.063474506
0.732129991 0.545623899 0.072098814
0.772072971 0.555375636 0.076679125
0.808289826 0.564777017 0.080310196
0.837251544 0.570179522 0.082136005
0.858522654 0.574575543 0.082416818
0.874194026 0.573077917 0.082206130
0.890528619 0.575603127 0.082853004
0.903139472 0.577206016 0.084579259
0.912866354 0.579991579 0.087762251
0.922444582 0.582194030 0.089238130
0.932102561 0.584940434 0.089550376
0.939720988 0.579743028 0.088267505
0.498731613 0.502522409 0.039226625
0.539869845 0.514329314 0.042114936
0.599188328 0.532237291 0.053335939
0.658154786 0.549753070 0.065115623
0.713047266 0.566442966 0.077757686
0.767415583 0.582801223 0.088671692
0.806087077 0.591847420 0.094159372
0.837456882 0.599923372 0.099123500
0.864762664 0.606309831 0.102342688
0.884505272 0.610591829 0.104123689
0.899300277 0.614572108 0.103638500
0.910534024 0.613225520 0.102967188
0.920248032 0.612654805 0.103604943
0.928006768 0.614082813 0.106713377
0.935526490 0.616607130 0.108530194
0.941008806 0.617428601 0.107023619
0.947030842 0.614222944 0.103911124
0.559908509 0.543277264 0.054024376
0.595794678 0.551960886 0.055310935
0.645118713 0.566535890 0.066725001
0.697520614 0.581907451 0.079045191
0.745434105 0.596584380 0.090493374
0.792435527 0.610771239 0.099799566
0.833622217 0.621859908 0.106861629
0.861718655 0.628918290 0.112898313
0.886329174 0.635810852 0.118773378
0.905363500 0.641050220 0.121240124
0.916950583 0.644693196 0.122893378
0.927516639 0.647955656 0.123295873
0.935199618 0.645545542 0.123776250
0.941329837 0.645006180 0.126154870
0.945343137 0.644602239 0.127164125
0.949845910 0.644233584 0.124007434
0.954148471 0.641835213 0.119695753
0.611140549 0.577939868 0.071459562
0.645446122 0.584638238 0.069881000
0.686624408 0.596804440 0.080927938
0.730470657 0.609408259 0.091244943
0.774194896 0.622372568 0.101222560
0.815498650 0.635103881 0.110529810
0.855516851 0.647602081 0.119283751
0.881469011 0.654605269 0.125883624
0.902380466 0.660926938 0.132997751
0.919247150 0.666592538 0.138422310
0.929997623 0.670411110 0.140905499
0.938587070 0.673571527 0.142188758
0.947295010 0.676156700 0.142428875
0.949615300 0.672095239 0.143694133
0.952656567 0.669671595 0.142555878
0.955880821 0.669307530 0.142435566
0.960665047 0.666765213 0.137622193
0.650042236 0.605306268 0.087398008
0.683769464 0.610972047 0.083502442
0.721956491 0.622380733 0.094147377
0.759235442 0.633121312 0.102555007
0.798520744 0.644508481 0.111933008
0.835847795 0.656028032 0.121579252
0.869711578 0.667092443 0.129152119
0.895654619 0.675636292 0.136129498
0.913653970 0.681047261 0.142630249
0.927348077 0.685472727 0.149261132
0.937769592 0.690008879 0.153436884
0.945879340 0.693103433 0.155646756
0.951674521 0.695537210 0.158389747
0.955672920 0.696481705 0.160560071
0.958099484 0.693614960 0.160423249
0.961414695 0.693398416 0.159911007
0.965192497 0.689734995 0.154248759
0.679286122 0.626884341 0.100426197
0.712082446 0.631474793 0.093681507
0.749546051 0.643063724 0.103727266
0.783460617 0.653252125 0.112753950
0.817923188 0.663486481 0.121642008
0.853013158 0.674322665 0.130880460
0.881981254 0.684025705 0.138477087
0.904572010 0.692872643 0.146820709
0.920199275 0.698453128 0.153964773
0.932614207 0.702485859 0.161193639
0.942291975 0.706653357 0.168373212
0.950274706 0.710453510 0.171262324
0.954273820 0.712656736 0.175801456
0.958601594 0.714876711 0.178444713
0.962513983 0.715454936 0.176954195
0.965295851 0.713908017 0.174928710
0.967773259 0.711524308 0.170435399
0.704920650 0.646466732 0.111636885
0.738640785 0.650593638 0.101742178
0.773389995 0.662555099 0.114876509
0.806191742 0.672536790 0.123477817
0.836863160 0.681720495 0.131797120
0.866865695 0.691120088 0.140661627
0.893398643 0.700330079 0.148797259
0.912262738 0.708579600 0.156086639
0.926115513 0.715041220 0.164312631
0.937738121 0.718868792 0.171464637
0.947363973 0.722901165 0.178929016
0.952428043 0.726233840 0.184323654
0.956632257 0.728926718 0.189189628
0.960757196 0.730849385 0.192324713
0.964059770 0.732922673 0.193206266
0.966698706 0.732634962 0.191788703
0.969213367 0.730601251 0.187466636
0.726034701 0.661808491 0.113248065
0.763136506 0.665571332 0.100793436
0.796292067 0.678917408 0.116722375
0.827913105 0.689132512 0.126192689
0.855993152 0.697916925 0.135971561
0.880769551 0.706464291 0.146109253
0.903936684 0.715575457 0.155334055
0.921092093 0.723598003 0.163451016
0.931569338 0.730117321 0.173879623
0.941977024 0.735396028 0.181560338
0.950382590 0.738877296 0.189959019
0.954666138 0.742233276 0.197862774
0.958280981 0.745448411 0.204517454
0.962865591 0.747461677 0.207290947
0.965890050 0.749212503 0.208757877
0.968147695 0.751058340 0.207821205
0.970739067 0.749774158 0.203871146
0.749137998 0.677420020 0.112919003
0.787870169 0.680090308 0.097674750
0.817690492 0.694355965 0.115174629
0.847538590 0.705819309 0.129081935
0.873369277 0.714855492 0.140733242
0.894933343 0.722881973 0.151403248
0.913439631 0.731716275 0.163189992
0.928836107 0.739489257 0.174591437
0.938292027 0.745496511 0.182539493
0.946994841 0.751051843 0.190839380
0.952948391 0.755022168 0.198618621
0.956484616 0.757858336 0.207751498
0.959837258 0.760848045 0.213931248
0.962881386 0.763119698 0.219753191
0.965220392 0.764523506 0.222578242
0.967319965 0.766123891 0.221357122
0.968460977 0.766417027 0.221028998
0.031641565 0.040217001 0.055283748
0.040896188 0.040994000 0.056499127
0.066297814 0.044600062 0.058796689
0.112806700 0.046001062 0.057072565
0.168912813 0.047596000 0.053349312
0.227560565 0.046181001 0.049438436
0.282913685 0.045009874 0.045260936
0.330391139 0.042090189 0.041980561
0.372672707 0.039034501 0.039822750
0.408641458 0.037901249 0.039379440
0.441150069 0.038640000 0.039822750
0.469639540 0.037901249 0.039822750
0.498059183 0.038147565 0.040791687
0.526671648 0.041232567 0.042925753
0.553782463 0.044232626 0.044496816
0.577152133 0.046313062 0.045183688
0.601711512 0.049795065 0.047979627
0.033218563 0.056457501 0.061223686
0.048719563 0.065654315 0.066764809
0.089579187 0.071381003 0.066828564
0.151219636 0.074979939 0.060135752
0.221139446 0.078409441 0.053588003
0.289274126 0.078949995 0.048874125
0.351543695 0.078466505 0.044987313
0.402774602 0.080375932 0.043571126
0.447634012 0.082340255 0.042403877
0.486925632 0.083272189 0.040982936
0.522156358 0.086112373 0.040600438
0.551974773 0.091775440 0.042359628
0.579200387 0.097558744 0.044307623
0.604218006 0.103234760 0.046737690
0.628977001 0.109244011 0.050701130
0.653447866 0.116046578 0.055230319
0.676260948 0.121266559 0.059397936
0.038442872 0.086513445 0.068159059
0.059767623 0.099034309 0.073795244
0.112028383 0.119155250 0.069542632
0.194143072 0.131061688 0.063560687
0.278353572 0.137167558 0.054144312
0.354933441 0.141957015 0.045564190
0.423472971 0.144874498 0.039278749
0.476155311 0.148978814 0.035978377
0.520545185 0.153071612 0.034352060
0.560448647 0.155926749 0.032824311
0.594328165 0.160232022 0.032824311
0.622983932 0.167208701 0.034647878
0.648352981 0.173793748 0.036915250
0.671480834 0.179888502 0.040641882
0.693669558 0.185420886 0.045156628
0.714059949 0.189094007 0.049295694
0.731010437 0.189016059 0.053219438
0.054543819 0.134654954 0.080820069
0.089574128 0.154572636 0.081908315
0.154330641 0.181440949 0.069033377
0.250147045 0.206085622 0.060392812
0.339123189 0.217241585 0.050941251
0.418564886 0.222845137 0.041872188
0.485533595 0.227081373 0.033760998
0.537817657 0.233960450 0.030064501
0.586415231 0.242153823 0.027945314
0.628756344 0.250343204 0.026023127
0.662460983 0.257688582 0.026614562
0.689516485 0.264007002 0.029571502
0.713814259 0.270364761 0.033317376
0.735359788 0.276401490 0.038097948
0.754249513 0.278866380 0.043365069
0.770981669 0.277796775 0.048288003
0.786385119 0.275652945 0.051602624
0.086794876 0.195603937 0.092037305
0.135803565 0.219482303 0.085031062
0.205014125 0.248480633 0.067335375
0.305023581 0.277128279 0.060087249
0.401139528 0.298617929 0.053242374
0.475374609 0.306930572 0.046491191
0.540690720 0.307195008 0.040254686
0.591617048 0.315610379 0.036669064
0.636117101 0.323703527 0.035337813
0.677552044 0.329504073 0.034746315
0.712288141 0.337369591 0.036668874
0.739813030 0.347093463 0.041470189
0.762824714 0.353432298 0.046152063
0.783499956 0.356126368 0.048987255
0.802363098 0.359765470 0.054258257
0.818387330 0.360108703 0.058486752
0.830560684 0.352240264 0.059781253
0.145253748 0.264454871 0.101409189
0.198642001 0.290162742 0.075573504
0.277336419 0.317135274 0.057555124
0.368690580 0.344046384 0.056583878
0.466936171 0.371871769 0.054692686
0.539315164 0.386394799 0.052745502
0.596502185 0.391140580 0.050861750
0.641129971 0.388681352 0.048913687
0.680908561 0.394521177 0.049749561
0.719937861 0.403383255 0.050763626
0.754858255 0.409794807 0.053105433
0.780546486 0.414764315 0.057263121
0.802224517 0.421051323 0.062322002
0.822125614 0.426441967 0.066644259
0.839511216 0.428336501 0.071485065
0.853915334 0.427206933 0.074352190
0.865045547 0.418792516 0.073404372
0.216913149 0.337282598 0.099101245
0.274442077 0.358396530 0.064699121
0.356923878 0.382478595 0.051691253
0.441803604 0.406964213 0.054613125
0.526522219 0.431848973 0.060289502
0.598033190 0.449406594 0.063709877
0.653245389 0.457997143 0.065347008
0.692851603 0.461575806 0.067274824
0.728402138 0.461773217 0.067348070
0.763093889 0.466688216 0.069069631
0.795584500 0.472981274 0.071639754
0.819658875 0.476754636 0.076066934
0.839864433 0.481533885 0.080361880
0.857153058 0.486820370 0.084635139
0.870668769 0.488109410 0.089179263
0.883487701 0.484880567 0.090399697
0.894689441 0.478245527 0.088728383
0.295302540 0.403512150 0.093823813
0.357074380 0.420550704 0.063333005
0.432697475 0.441055804 0.055435002
0.509381592 0.463218004 0.062596560
0.585592806 0.485249132 0.071640506
0.652782023 0.504088998 0.081811510
0.704119682 0.513190508 0.084434450
0.744471729 0.519181311 0.088305756
0.773900807 0.523715138 0.091678515
0.803726673 0.522766173 0.090880200
0.829755247 0.523910522 0.093438447
0.852108896 0.528681457 0.097563952
0.869201422 0.532230794 0.101592511
0.882972300 0.534306943 0.104698822
0.895701408 0.537040293 0.108213827
0.906980038 0.536121666 0.109374255
0.917348325 0.528156638 0.105757140
0.371414244 0.460117877 0.096774444
0.428871274 0.472694516 0.070527256
0.499953747 0.490346760 0.061319627
0.564875066 0.509704947 0.071089312
0.634186804 0.529230177 0.082494624
0.697874904 0.547789395 0.095330812
0.746908665 0.559134960 0.100812063
0.788532257 0.566165924 0.105043136
0.815225124 0.571191609 0.111921243
0.839522660 0.574838758 0.115295008
0.861747861 0.573619783 0.116819628
0.876551270 0.571953773 0.118945815
0.889197528 0.573695004 0.122433312
0.900807559 0.576108634 0.126827449
0.912755847 0.577473044 0.127994642
0.922617435 0.577297866 0.127925932
0.930504143 0.568477213 0.122786008
0.441537559 0.507807493 0.108795434
0.492009610 0.517355084 0.082279436
0.559364498 0.532867432 0.071747690
0.618567348 0.550151289 0.083086379
0.677041411 0.566568971 0.095399812
0.735348582 0.583283246 0.107318625
0.783731103 0.596415222 0.116356760
0.819943190 0.603147268 0.121197127
0.848799586 0.609664202 0.127487868
0.869288564 0.613662839 0.134108692
0.886074781 0.616303504 0.138332948
0.898184001 0.612808228 0.140079543
0.907371342 0.610866785 0.142972827
0.915896297 0.612290084 0.147947118
0.925074697 0.613143802 0.149327800
0.932053804 0.610387802 0.146060437
0.939726472 0.604724228 0.140455008
0.498474032 0.547344387 0.125087678
0.543193102 0.553836107 0.096973129
0.604188144 0.566156089 0.083307751
0.661144435 0.581832528 0.095016874
0.713115454 0.596071064 0.105908006
0.762010038 0.610286593 0.117507629
0.808953762 0.624166131 0.128502309
0.843687236 0.631779552 0.135810122
0.870691061 0.637729466 0.140472367
0.889966071 0.643188059 0.148808271
0.903761625 0.646042645 0.156265393
0.915582776 0.648726463 0.161546126
0.923842490 0.646336794 0.163803428
0.930452526 0.644549787 0.167277008
0.936242640 0.643395662 0.169506997
0.941621184 0.641226768 0.166058809
0.946722388 0.637041032 0.159727558
0.544938803 0.580879211 0.142873764
0.586891472 0.585305274 0.113490745
0.644547284 0.595009685 0.096604623
0.694259644 0.608386457 0.108359627
0.742773354 0.621296585 0.118696935
0.785514235 0.633746028 0.129343808
0.827017426 0.646259189 0.140244439
0.862866223 0.656233311 0.148672953
0.886853158 0.661489785 0.154664874
0.904187679 0.666398406 0.160502374
0.916507363 0.670176089 0.171188191
0.927140534 0.672794044 0.178122759
0.934167564 0.674759865 0.183713883
0.939736962 0.671548545 0.186196759
0.944294691 0.669902861 0.188145623
0.949024856 0.668924451 0.186388940
0.954499900 0.664882720 0.178819627
0.584304810 0.608558416 0.159740075
0.622809827 0.611143529 0.128379375
0.679337919 0.618268669 0.105803624
0.722020924 0.630478382 0.117417939
0.767288446 0.642513931 0.127406761
0.806776583 0.653753459 0.137246817
0.842390716 0.664599478 0.146970823
0.876018226 0.675584435 0.156840563
0.898701906 0.681523383 0.164845556
0.913827896 0.686038613 0.172230706
0.926828921 0.690542817 0.179595128
0.935113072 0.693268239 0.191266313
0.940806687 0.695244730 0.199147269
0.945901334 0.696402609 0.204000890
0.950497508 0.694401026 0.206962883
0.954655051 0.692847729 0.205131829
0.958887279 0.688315749 0.197768301
0.613618314 0.629657328 0.171064079
0.652600229 0.632047057 0.138989374
0.710426092 0.639023781 0.114469379
0.749111772 0.650906444 0.126154631
0.788747728 0.661824644 0.136264816
0.826877952 0.672650099 0.146109179
0.858632743 0.682820797 0.156071618
0.886751056 0.692714632 0.166378438
0.907986581 0.700618625 0.176298618
0.921501398 0.704630613 0.184142068
0.933153987 0.708550215 0.191278309
0.941297591 0.712192655 0.201370507
0.945590734 0.714430034 0.212409571
0.949752569 0.716354489 0.219996631
0.954171896 0.716320693 0.223784074
0.958177626 0.713542342 0.221151084
0.961874008 0.711126745 0.214852571
0.637871921 0.648100376 0.179570258
0.676280260 0.649987757 0.145491496
0.736756206 0.656877279 0.117798127
0.774836004 0.668924332 0.129730433
0.810069382 0.679581285 0.140988886
0.844708383 0.689447880 0.150819808
0.872532904 0.698619246 0.160507888
0.897069693 0.707692862 0.170755178
0.915282071 0.716110587 0.181979448
0.928472936 0.721202850 0.190370560
0.938674152 0.724650741 0.198042065
0.946301758 0.727812052 0.204502448
0.949598372 0.731011450 0.218184695
0.953028738 0.733225107 0.229026139
0.957378924 0.734949708 0.235844702
0.960898936 0.734202981 0.238174260
0.964723170 0.732417047 0.230981201
0.657447636 0.663396716 0.175806686
0.694969475 0.664537668 0.142390132
0.761293530 0.671611786 0.113326177
0.799394846 0.684268713 0.126679316
0.832710624 0.695329070 0.139746696
0.861286521 0.704645872 0.151187316
0.886544466 0.713569939 0.161807179
0.906608999 0.722472668 0.175172746
0.922800839 0.730452299 0.186323047
0.933801770 0.737206697 0.197526813
0.942531824 0.740958214 0.206649870
0.948746204 0.743997753 0.215291262
0.953163028 0.747178674 0.224000067
0.955907881 0.749849737 0.238395840
0.959431291 0.751586437 0.248242080
0.962752402 0.753587723 0.253797770
0.965762198 0.751491189 0.247853771
0.683641791 0.679504037 0.169399187
0.720028043 0.679629087 0.137495056
0.785826206 0.685390651 0.106000625
0.820744395 0.699667752 0.124618180
0.854044199 0.710946798 0.138892323
0.877997160 0.719945431 0.152087569
0.898327112 0.728795588 0.166693062
0.916327596 0.737372398 0.179928005
0.929678380 0.744695723 0.191281691
0.939362228 0.750780284 0.201508015
0.946199238 0.755772233 0.212320626
0.951873720 0.758910298 0.219495818
0.956160545 0.761835337 0.227573052
0.958383799 0.764678836 0.240010574
0.960044146 0.766609371 0.254577667
0.962678790 0.768097103 0.261874139
0.964548767 0.768754065 0.263081014
0.030754000 0.041663375 0.081383750
0.036224749 0.042373560 0.085049249
0.057339750 0.046000626 0.090147875
0.097284578 0.050809126 0.095450684
0.152133882 0.049837876 0.094830751
0.214256048 0.046935126 0.091706753
0.270464271 0.044279873 0.089483120
0.322843671 0.041423313 0.086029626
0.368150145 0.039034501 0.082977131
0.404607445 0.037852000 0.081134066
0.438696116 0.037852000 0.080456629
0.468862504 0.036816437 0.079832442
0.497357994 0.037062999 0.079685248
0.525566220 0.038886569 0.081959374
0.553183258 0.042609505 0.084125370
0.578462422 0.044096623 0.084617876
0.603161991 0.047067247 0.085677125
0.031543002 0.060559183 0.093039557
0.040941998 0.066173688 0.096556373
0.069530442 0.071943626 0.105645061
0.128463015 0.076845750 0.108353376
0.202002123 0.077003188 0.103531815
0.269206911 0.075390995 0.095053680
0.329407901 0.073237561 0.088367373
0.380484909 0.073039122 0.084342003
0.425254732 0.072742566 0.081245124
0.462833256 0.070986062 0.077768438
0.495815247 0.072411872 0.076180756
0.526590884 0.075681254 0.076402627
0.553327739 0.079052873 0.077325381
0.577875316 0.082300752 0.077751137
0.602436423 0.086585142 0.080261946
0.628059566 0.090900443 0.082653813
0.650015116 0.093858749 0.084012441
0.034499876 0.097090624 0.107567251
0.046567373 0.109965250 0.115534499
0.084911130 0.124310009 0.120436877
0.155934960 0.136874124 0.121855624
0.242577255 0.139002994 0.114121877
0.319700748 0.140562057 0.104942009
0.384602159 0.141960517 0.098806128
0.440103650 0.142698959 0.094069749
0.486884028 0.144921988 0.091368750
0.526017904 0.148248017 0.089300059
0.560262918 0.151341513 0.087415375
0.590832949 0.154607892 0.087551311
0.619184732 0.160766125 0.089883134
0.644755721 0.168746576 0.093958378
0.670033336 0.173920617 0.097599752
0.694741488 0.175087318 0.098885939
0.715738833 0.174335748 0.099707752
0.044226252 0.144889146 0.124665812
0.066157132 0.162064269 0.127107054
0.120022565 0.182243511 0.131735325
0.193894923 0.203297898 0.126358733
0.295359254 0.216198266 0.120692566
0.383343220 0.220884144 0.109848559
0.448751152 0.223785758 0.102064505
0.504963696 0.227476016 0.095324002
0.554086983 0.230485767 0.090637743
0.593060493 0.233815566 0.089456379
0.627169549 0.239790589 0.089890316
0.657139659 0.243910134 0.090795562
0.684063256 0.249051839 0.093061127
0.707049847 0.254616261 0.097110629
0.729619741 0.257736146 0.100334004
0.752059221 0.256149977 0.101466127
0.770871043 0.253170758 0.100483626
0.067538254 0.209455132 0.142915890
0.104086183 0.224718571 0.141613632
0.173296884 0.250276983 0.140185758
0.252782464 0.275292814 0.122475997
0.351918876 0.298189044 0.118943751
0.436931938 0.307276368 0.113396309
0.506354153 0.309185266 0.104998380
0.559345424 0.313852221 0.098810807
0.605308354 0.317674249 0.095281996
0.646852016 0.321938455 0.093541875
0.682580054 0.329190493 0.093771249
0.713939428 0.336279243 0.095617309
0.738428056 0.339941114 0.099072628
0.759629905 0.342387855 0.103304818
0.780455291 0.344257385 0.106640249
0.800215662 0.340275586 0.106655754
