public/lut/25.cube
TITLE "17x17x17 Adobe/IRIDAS cube 3D LUT exported with GrossGrade v0.2.2 (beta) 64 bit"
DOMAIN_MIN 0 0 0
DOMAIN_MAX 1 1 1
LUT_3D_SIZE 17
0.000000000 0.000000000 0.000000000
0.081068873 0.006949125 0.003943000
0.150317997 0.007886000 0.000000000
0.197962701 0.003449686 0.000000000
0.245221257 0.000000000 0.000000000
0.285797864 0.000000000 0.000000000
0.331443399 0.000000000 0.000000000
0.376385272 0.000000000 0.000000000
0.409132004 0.000000000 0.000000000
0.434375554 0.000000000 0.000000000
0.458700746 0.000000000 0.000000000
0.485593379 0.000000000 0.000000000
0.504853487 0.000000000 0.000000000
0.524756491 0.000000000 0.000000000
0.542578876 0.000000000 0.000000000
0.561943412 0.000000000 0.000000000
0.581049979 0.000000000 0.000000000
0.011829000 0.064855754 0.005667875
0.056362629 0.069228999 0.003943000
0.097765818 0.072439373 0.001823437
0.132005259 0.078107871 0.001724875
0.177747816 0.086468816 0.000000000
0.225722939 0.088958561 0.000000000
0.279177278 0.095405251 0.000000000
0.325525969 0.095282063 0.000000000
0.369597971 0.093200006 0.000000000
0.420090854 0.089952126 0.000000000
0.462445557 0.086342067 0.000000000
0.497581750 0.083292127 0.000000000
0.527471602 0.076512814 0.000000000
0.559359908 0.071224064 0.000000000
0.584227502 0.066677436 0.000000000
0.606154084 0.066475615 0.000000000
0.621538401 0.060605627 0.000000000
0.017151749 0.107853130 0.002563125
0.070686124 0.114376128 0.000197187
0.119232379 0.124619760 0.000000000
0.149438202 0.129484311 0.000000000
0.190865010 0.135407373 0.000000000
0.238374934 0.143629193 0.000000000
0.291933030 0.147505626 0.000000000
0.336702555 0.149781257 0.000000000
0.382142007 0.154925510 0.000000000
0.428334504 0.155345798 0.000000000
0.477799743 0.154334009 0.000000000
0.514655590 0.153313503 0.000000000
0.546606898 0.150170878 0.000000000
0.577829659 0.149743050 0.000000000
0.606325626 0.145395741 0.000000000
0.629404843 0.143997133 0.000000000
0.647918284 0.145472512 0.000000000
0.026860690 0.139864072 0.000000000
0.087008946 0.150326639 0.000000000
0.131894320 0.158271268 0.000000000
0.162264138 0.163048133 0.000000000
0.202658370 0.172283575 0.000000000
0.248599693 0.180677772 0.000000000
0.300790459 0.185865268 0.000000000
0.347421080 0.192374334 0.000000000
0.388738930 0.196575582 0.000000000
0.433977991 0.198592335 0.000000000
0.486263514 0.200850397 0.000000000
0.527205706 0.201984331 0.000000000
0.560948133 0.201677397 0.000000000
0.592400789 0.200772643 0.000000000
0.623674214 0.198750824 0.000000000
0.646456718 0.196626768 0.000000000
0.665703416 0.196408331 0.000000000
0.045608751 0.179617256 0.000000000
0.108828001 0.189908758 0.000000000
0.148932368 0.197662756 0.000000000
0.180825695 0.205325320 0.000000000
0.220171511 0.211437508 0.000000000
0.259492725 0.217791378 0.000000000
0.311982751 0.227131873 0.000000000
0.356110334 0.232819691 0.000000000
0.399677485 0.237208247 0.000000000
0.443458170 0.241812378 0.000000000
0.493914366 0.245366752 0.000000000
0.537721932 0.247838438 0.000000000
0.574129283 0.248629272 0.000000000
0.603717446 0.248017251 0.000000000
0.636987388 0.246671394 0.000000000
0.663119912 0.245227307 0.000000000
0.683719516 0.246357501 0.000000000
0.076918878 0.220602930 0.000000000
0.132811368 0.230184689 0.000000000
0.174023136 0.238042802 0.000000000
0.201734707 0.244493186 0.000000000
0.236474007 0.251676857 0.000000000
0.279759258 0.261190325 0.000000000
0.327227771 0.267951041 0.000000000
0.369748414 0.274682999 0.000000000
0.413751215 0.279953122 0.000000000
0.453253627 0.284448683 0.000000000
0.503143609 0.288320780 0.000000000
0.548002005 0.291587412 0.000000000
0.587447643 0.293221056 0.000000000
0.616934896 0.293495774 0.000000000
0.649982989 0.294284761 0.000000000
0.678978562 0.294684440 0.000000000
0.702096462 0.294544935 0.000000000
0.111353762 0.263728380 0.000789000
0.159867704 0.270865440 0.000000000
0.196058139 0.278738528 0.000000000
0.226453081 0.284282804 0.000000000
0.259860635 0.292702258 0.000000000
0.299353063 0.299327612 0.000000000
0.343540043 0.308926642 0.000000000
0.384914458 0.314694762 0.000000000
0.424357504 0.318735152 0.000000000
0.466066331 0.325715065 0.000000000
0.514568865 0.330497116 0.000000000
0.560375035 0.334875941 0.000000000
0.599696398 0.338852167 0.000000000
0.631144345 0.339221388 0.000000000
0.664109826 0.339455009 0.000000000
0.694356024 0.343392581 0.000000000
0.716529131 0.344195515 0.000000000
0.145223081 0.311241955 0.001232252
0.188141882 0.315876126 0.000000000
0.227583200 0.325030953 0.000000000
0.251797944 0.328349471 0.000000000
0.285310954 0.337133139 0.000000000
0.321248740 0.342892557 0.000000000
0.361403704 0.350360274 0.000000000
0.401546538 0.356154025 0.000000000
0.441619396 0.362252742 0.000000000
0.480042994 0.366787046 0.000000000
0.526247203 0.373593479 0.000000000
0.571548164 0.377760649 0.000000000
0.611014903 0.381341845 0.000000000
0.645415545 0.383910894 0.000000000
0.675283253 0.384596258 0.000000000
0.705360472 0.386006773 0.000000000
0.731277287 0.387346298 0.000000000
0.179959506 0.357084990 0.006308504
0.223860875 0.366159648 0.001183002
0.255799860 0.368098140 0.000394501
0.282016814 0.376309752 0.000000000
0.313180745 0.383546263 0.000000000
0.348530173 0.389390647 0.000000000
0.383763403 0.396240115 0.000000000
0.419249594 0.400417894 0.000000000
0.457913518 0.408088505 0.000000000
0.497985631 0.413388073 0.000000000
0.540822864 0.417836368 0.000000000
0.586168170 0.423723191 0.000000000
0.625776768 0.426844776 0.000000000
0.659200430 0.429672897 0.000000000
0.688667178 0.430255115 0.000000000
0.720987797 0.433583617 0.000000000
0.745198011 0.434460998 0.000000000
0.218531936 0.404680431 0.021981938
0.255069762 0.409966737 0.008477124
0.287731618 0.414286911 0.004140125
0.312262088 0.419545799 0.000493125
0.342096508 0.426647812 0.000000000
0.371746957 0.430773765 0.000000000
0.405044228 0.437922180 0.000000000
0.439129472 0.444326788 0.000000000
0.471699506 0.447824866 0.000000000
0.511662185 0.453121692 0.000000000
0.557583272 0.459392130 0.000000000
0.598635733 0.465527683 0.000000000
0.637954950 0.469164133 0.000000000
0.671009243 0.471563548 0.000000000
0.699855626 0.472362012 0.000000000
0.731909931 0.474347025 0.000000000
0.756703258 0.476689577 0.000000000
0.259581387 0.450332880 0.047622249
0.294019252 0.453512251 0.031197935
0.322828352 0.460379601 0.027304249
0.346395016 0.464925319 0.024396624
0.369126111 0.467621863 0.020995626
0.396497786 0.473429143 0.017003376
0.427092791 0.478012472 0.011927249
0.457738817 0.483019799 0.006801310
0.489638269 0.488897502 0.001971499
0.526050031 0.492929876 0.000000000
0.571296632 0.499797106 0.000000000
0.613149047 0.505143344 0.000000000
0.651302814 0.508873284 0.000000000
0.681821406 0.511676013 0.000000000
0.711305261 0.513186038 0.000000000
0.741669893 0.515886426 0.000000000
0.767124116 0.515818357 0.000000000
0.299996614 0.495964885 0.081170566
0.333616704 0.498891681 0.058985751
0.357760310 0.504650772 0.051014438
0.375722498 0.508780301 0.044222314
0.395261586 0.511304557 0.035338312
0.422699183 0.515118241 0.024002312
0.449991435 0.521291077 0.014391624
0.478332043 0.524758518 0.010744122
0.508535922 0.530314982 0.005963437
0.544046581 0.534117222 0.004978000
0.585079432 0.540077388 0.004287625
0.624954343 0.545521498 0.004091000
0.663114548 0.548937082 0.002858500
0.692654967 0.550730944 0.002957309
0.721915245 0.553755105 0.000690374
0.751953423 0.554897189 0.000000000
0.777291179 0.555220306 0.000000000
0.342778265 0.537471235 0.119261011
0.367087960 0.540361166 0.097645581
0.388098121 0.543209851 0.092340514
0.403410017 0.547090232 0.088017821
0.423686981 0.549309552 0.081414014
0.446499646 0.553799391 0.074683204
0.469498396 0.557422519 0.070080139
0.495534897 0.561116755 0.064843819
0.527893782 0.567481697 0.058382008
0.562343538 0.571940541 0.052088447
0.600749016 0.577222884 0.043515380
0.638251722 0.582547069 0.032479312
0.673946977 0.586918533 0.018728245
0.702235520 0.587427735 0.009610365
0.730585873 0.588793278 0.001183252
0.760310590 0.591936648 0.001182759
0.786044240 0.593872726 0.003548758
0.379584044 0.576770186 0.158011660
0.402410477 0.576476097 0.141156211
0.419223726 0.578871310 0.135055915
0.434677362 0.582920671 0.133072540
0.450464845 0.585523307 0.127605736
0.471497893 0.589523852 0.124714784
0.492330164 0.591625214 0.116692856
0.517429411 0.595610559 0.108810969
0.548898697 0.602230549 0.099089101
0.581387579 0.606158376 0.086615674
0.617966235 0.614059985 0.075056300
0.652287900 0.618526936 0.055505488
0.684491932 0.621198714 0.033548068
0.711316109 0.624938667 0.038398691
0.739374399 0.626153052 0.036600195
0.771349072 0.631401956 0.044308614
0.796378911 0.633912444 0.046753243
0.421155751 0.613753021 0.198085159
0.437391639 0.610995650 0.179352984
0.450939387 0.613111436 0.173163682
0.464283735 0.616167545 0.172198042
0.479126930 0.618749082 0.171784416
0.495228767 0.621095717 0.165112361
0.518817246 0.625271082 0.162573293
0.545164943 0.629679978 0.154595867
0.572628021 0.633068502 0.145996690
0.604540646 0.639619708 0.137039185
0.637221992 0.644385338 0.130420923
0.668555975 0.649555266 0.121885993
0.699318886 0.652389407 0.114455692
0.723294616 0.655477822 0.105589502
0.752996922 0.659130216 0.103834160
0.782832623 0.661632657 0.099661537
0.805221736 0.664339840 0.093797907
0.456162661 0.643305719 0.226107270
0.469633520 0.643268824 0.212739468
0.482395738 0.644216239 0.210600972
0.495122284 0.647642910 0.210172713
0.509025455 0.650749683 0.206520349
0.525304139 0.651838124 0.202977031
0.549658656 0.655329823 0.198142603
0.575024724 0.661687970 0.194444224
0.600554466 0.665188372 0.189488217
0.627443910 0.668747485 0.183621719
0.656337678 0.673560977 0.178688586
0.687627733 0.678358138 0.170707345
0.710178792 0.680329382 0.163443401
0.735031366 0.683057904 0.154072270
0.763768137 0.686283112 0.147240639
0.793202519 0.690390408 0.141029909
0.814728558 0.690633297 0.132173494
0.493829012 0.674145997 0.255190015
0.504671991 0.674988806 0.241825119
0.519577861 0.674572468 0.237879246
0.529538631 0.678559184 0.237737551
0.544914961 0.680263281 0.234133989
0.563112080 0.682718456 0.230810001
0.582533896 0.686415493 0.228975743
0.604095876 0.690875232 0.225663692
0.626552522 0.694384515 0.222164005
0.651201248 0.698074460 0.216640308
0.678616107 0.701782227 0.211621255
0.701354206 0.705841243 0.206998885
0.722184002 0.707201779 0.202259243
0.745620072 0.710282803 0.194199935
0.773040116 0.713137746 0.188415498
0.800172806 0.714618742 0.180200055
0.821406007 0.715095997 0.174906999
0.007886000 0.003943000 0.090715878
0.052153688 0.006210375 0.056411184
0.117749505 0.007886000 0.054528370
0.167755261 0.007984499 0.049355250
0.225004569 0.001971250 0.044845060
0.273780882 0.000000000 0.042137127
0.319244772 0.000000000 0.038340624
0.369150400 0.000000000 0.030803874
0.410071701 0.000000000 0.026565500
0.440793067 0.000000000 0.018876625
0.468476415 0.000000000 0.017151562
0.495536119 0.000000000 0.011680750
0.519771636 0.000000000 0.008674313
0.543040872 0.000000000 0.007540877
0.563113987 0.000000000 0.008970064
0.581411421 0.000000000 0.010251434
0.601283848 0.000000000 0.010399313
0.000197125 0.069558062 0.056459002
0.040403314 0.079939686 0.070701815
0.096123375 0.084928311 0.071439937
0.135140330 0.088244684 0.070214316
0.177391008 0.092920564 0.066042438
0.232567072 0.098710753 0.062120378
0.284746081 0.101074189 0.057924494
0.334405214 0.104586251 0.054115742
0.379314721 0.103317440 0.046053186
0.431351840 0.100341193 0.038442999
0.477551639 0.098177306 0.032972313
0.514487684 0.093489811 0.026269313
0.544977605 0.090576999 0.022129185
0.580219865 0.088801496 0.019172184
0.607742071 0.085257694 0.015771443
0.627833307 0.083876945 0.017102001
0.646801472 0.085379303 0.018826876
0.000049312 0.100079186 0.047464438
0.049573813 0.132755309 0.087176062
0.100877434 0.140790254 0.080754250
0.147340521 0.140523508 0.078101128
0.192794994 0.147896752 0.076110497
0.241307065 0.152932063 0.072201245
0.296692222 0.159797251 0.065849937
0.344547421 0.162227631 0.059262246
0.390259385 0.161540017 0.049420748
0.440813392 0.163892433 0.041729312
0.489997506 0.164221257 0.032676376
0.531686842 0.162651554 0.024840439
0.562483847 0.159885988 0.018629750
0.595345676 0.154488370 0.013306874
0.625926852 0.155211315 0.014588182
0.649964392 0.157149419 0.013208367
0.665587127 0.150524989 0.010448625
0.000000001 0.143283024 0.070186824
0.058685631 0.169266999 0.094736688
0.114451498 0.178643644 0.088028751
0.154064387 0.183392763 0.082438558
0.201041073 0.187819824 0.079802565
0.251673102 0.195030317 0.075366378
0.304036856 0.200650886 0.070911057
0.353064090 0.205398709 0.060235374
0.399739891 0.210096195 0.054042123
0.447791815 0.213628888 0.045231253
0.499724358 0.213629454 0.033760812
0.543091774 0.213109076 0.024347126
0.577501774 0.212906212 0.017644502
0.608045399 0.209387958 0.016067436
0.642714143 0.211244375 0.013750810
0.666616559 0.207308754 0.010991060
0.683357894 0.205358133 0.009068687
0.002464500 0.196204260 0.098914310
0.073048934 0.214948073 0.104812995
0.128365621 0.220030993 0.092384316
0.167179450 0.225391448 0.091270253
0.209492192 0.231190950 0.088170499
0.262068510 0.238799319 0.080596440
0.316444933 0.245264694 0.073958807
0.362429291 0.250515699 0.066273615
0.408747584 0.253156304 0.057847749
0.453560442 0.257097125 0.046715125
0.507050693 0.260981470 0.035288692
0.552042723 0.262345761 0.029275816
0.589482367 0.261477262 0.023262750
0.621527433 0.261232555 0.020355057
0.654660404 0.261445940 0.014194308
0.681037247 0.260782748 0.013898750
0.702553332 0.258962929 0.010793813
0.018778063 0.249548003 0.120292813
0.097509995 0.256993175 0.111006185
0.147177190 0.262931049 0.100908443
0.182403311 0.270071328 0.097079627
0.225960180 0.275208175 0.091987878
0.275938183 0.284498304 0.089833938
0.327719092 0.292021513 0.083283558
0.374273479 0.297106504 0.072881743
0.418928325 0.300807476 0.063589312
0.463353336 0.304789066 0.055252377
0.514675736 0.308140635 0.043637436
0.561621785 0.310663283 0.036274187
0.602055252 0.310939372 0.029571500
0.633457541 0.310657918 0.024544248
0.666415870 0.310552180 0.017447243
0.694164336 0.309899211 0.010695187
0.717852473 0.309027433 0.014046563
0.055683263 0.293835521 0.130543053
0.124874994 0.301515460 0.122631803
0.170352638 0.307104260 0.110480502
0.205869094 0.311195463 0.106313817
0.246701911 0.317774147 0.102935761
0.290723115 0.324099123 0.094141126
0.340508401 0.332795233 0.091121003
0.386590987 0.339923531 0.085967183
0.429797500 0.344264835 0.074419565
0.472634494 0.347926766 0.064941570
0.523157239 0.352674663 0.056339502
0.570558906 0.356000602 0.044962753
0.613826931 0.358585268 0.033957936
0.644055486 0.357991368 0.024051370
0.677262306 0.359324843 0.018728755
0.708126485 0.359023690 0.019714380
0.731355250 0.358846843 0.022425005
0.089764766 0.337985575 0.142823189
0.156865939 0.344945848 0.132844150
0.200177819 0.352836192 0.124241188
0.231717646 0.357335836 0.120706007
0.268311173 0.362334907 0.114255384
0.313013315 0.367812544 0.106435753
0.356588304 0.376115978 0.101729691
0.399586856 0.381188005 0.096361682
0.441247225 0.385348111 0.087815009
0.484976709 0.390576959 0.081084192
0.532439947 0.395701528 0.066880010
0.580105305 0.399396658 0.053314008
0.622218430 0.400672913 0.037650824
0.655767202 0.402938932 0.036565818
0.686940134 0.402885258 0.035633639
0.718391538 0.404615253 0.037241757
0.743268073 0.403550327 0.038091507
0.140108123 0.384363770 0.156329393
0.191100627 0.392510891 0.148616940
0.228851378 0.395073473 0.136542693
0.259491712 0.399734825 0.130611628
0.294736654 0.406154931 0.126532987
0.336533308 0.412904739 0.121925190
0.374126583 0.418099165 0.112882495
0.415530533 0.426757783 0.106188133
0.455621034 0.429562598 0.102281384
0.497185558 0.435134500 0.093895122
0.545766115 0.440395117 0.082042255
0.590156674 0.444179505 0.070914693
0.632590353 0.447646230 0.065086946
0.665106416 0.448116899 0.058696389
0.697560430 0.450194210 0.057722811
0.729330599 0.450188726 0.052321933
0.754382908 0.450843394 0.047688127
0.184990197 0.429319859 0.175417632
0.232091695 0.435513645 0.166966379
0.265412927 0.441280305 0.153915495
0.294613868 0.444863498 0.149976999
0.324579686 0.449410379 0.144588441
0.359237552 0.455839634 0.141859263
0.396945953 0.460845977 0.135358632
0.432247728 0.466105074 0.125193357
0.469819605 0.472242981 0.122484937
0.510907710 0.476221919 0.115364119
0.556794584 0.482364684 0.107508697
0.601354122 0.487124860 0.099556066
0.643373787 0.489707053 0.091346502
0.676279008 0.491507024 0.082982555
0.705383360 0.491946131 0.073543862
0.738301456 0.493402511 0.063421488
0.765399575 0.496092498 0.056436438
0.234981626 0.473668128 0.192246556
0.270941734 0.478819996 0.183669940
0.300996184 0.481662333 0.171815127
0.324875504 0.485741109 0.169442192
0.354535252 0.490180939 0.167721316
0.384673655 0.494995445 0.161582828
0.418097287 0.499212086 0.154743254
0.450390935 0.505217314 0.150529996
0.485450029 0.509411871 0.142215937
0.525436401 0.515323639 0.137303934
0.569861829 0.520061255 0.132027254
0.612404525 0.525793374 0.122842059
0.652772188 0.528259635 0.112865373
0.684521198 0.529036641 0.102908254
0.714971542 0.532491684 0.096934684
0.748147547 0.534115016 0.086075939
0.776193738 0.537929177 0.085418746
0.280698538 0.518033385 0.211329252
0.312468439 0.521951735 0.201273248
0.338047028 0.523672044 0.190235510
0.356836736 0.526335537 0.187924504
0.381274700 0.531480134 0.184838802
0.409587413 0.536194623 0.182016611
0.439339817 0.540698886 0.178482294
0.469645292 0.544507563 0.171517074
0.500094354 0.548964202 0.165770933
0.540207803 0.553980052 0.156943932
0.583234668 0.560372829 0.153497815
0.623394370 0.564420640 0.147113636
0.662927270 0.568751574 0.141317070
0.694346189 0.570307791 0.131109491
0.723988712 0.571257412 0.124998488
0.757092595 0.574308336 0.121507995
0.785029352 0.578697145 0.120289698
0.329701751 0.559479177 0.231533378
0.352781117 0.562135398 0.222343892
0.373604894 0.564514756 0.214354947
0.389359981 0.566591382 0.210878640
0.414164484 0.570475698 0.210670814
0.438206732 0.575452089 0.207372829
0.463745713 0.577951312 0.201177180
0.492204338 0.583703578 0.200365633
0.522917032 0.587820828 0.192094758
0.561263084 0.590941489 0.182585433
0.600040913 0.596986949 0.176970005
0.638330817 0.601968110 0.175765887
0.676217854 0.606724858 0.171330705
0.704538226 0.608730197 0.166013762
0.732784867 0.609029353 0.158671573
0.765360177 0.612743855 0.153504446
0.794327021 0.616810799 0.150205567
0.372416705 0.596478581 0.250187725
0.395273715 0.598754287 0.242229149
0.410066664 0.598419428 0.232016951
0.426065832 0.601903796 0.229596347
0.445762277 0.605720997 0.230590433
0.464539617 0.608358860 0.225544572
0.488916636 0.613038719 0.222813204
0.515532434 0.617639720 0.217924133
0.550080657 0.622787058 0.214194193
0.584183872 0.628745914 0.207351774
0.620679021 0.632199228 0.199966908
0.654196501 0.637141705 0.193104640
0.688858747 0.643577456 0.193366393
0.716316402 0.645083666 0.187433898
0.746862829 0.647596836 0.182988912
0.777360737 0.651906967 0.177232653
0.802816033 0.653546333 0.177466959
0.417902887 0.629438162 0.270595461
0.431294382 0.629957497 0.261468947
0.445799470 0.628674388 0.251347601
0.459382713 0.633259177 0.250833631
0.475646168 0.634990454 0.249027699
0.494353205 0.638383925 0.246457666
0.518393397 0.642126143 0.244663209
0.546150684 0.646999955 0.239377648
0.575081050 0.650934398 0.235230327
0.608476102 0.656567812 0.231544346
0.637796760 0.660145223 0.224356472
0.671835124 0.665711462 0.219163328
0.700232446 0.668221772 0.216518641
0.727150321 0.672075450 0.216074720
0.755115449 0.674262881 0.211596280
0.787119806 0.678699493 0.210677952
0.809176564 0.680527985 0.213061720
0.455114841 0.659554124 0.293760419
0.467654437 0.659353495 0.283445358
0.476824969 0.658967257 0.273060203
0.489323020 0.660596669 0.272026896
0.504246652 0.663325548 0.269890130
0.524929762 0.666249275 0.267944306
0.549971700 0.671103001 0.265159041
0.573728621 0.675237834 0.263719529
0.603492260 0.680248737 0.259713471
0.628387213 0.683236599 0.255068481
0.656390369 0.686216950 0.249791712
0.686415374 0.691264689 0.243012846
0.710348487 0.694340885 0.237866595
0.737505019 0.698076665 0.240241155
0.765220702 0.699981570 0.237639606
0.796970844 0.704570711 0.235630140
0.817488968 0.706710339 0.233007580
0.490740180 0.688414574 0.316396803
0.500553548 0.687417269 0.307474375
0.513742507 0.688647330 0.295531452
0.525607169 0.690710962 0.295622170
0.541460812 0.693161845 0.291810691
0.560340762 0.696085930 0.291763365
0.581563711 0.698519468 0.288940549
0.603882432 0.704149961 0.285541117
0.625107825 0.705883384 0.282587409
0.651927352 0.710823536 0.280610621
0.678522110 0.714654922 0.274889261
0.701713860 0.717378080 0.270556450
0.722663581 0.719098449 0.271267682
0.746217787 0.721581459 0.263457745
0.776163399 0.726353347 0.262937665
0.803876817 0.727854729 0.259133250
0.823753655 0.728706956 0.253545016
0.007886000 0.000789000 0.137710378
0.049999811 0.003992250 0.112173930
0.110395625 0.004829625 0.106696747
0.157632381 0.004928250 0.105992503
0.212779254 0.002760250 0.102307752
0.266625971 0.000690375 0.099852189
0.314824879 0.000000000 0.090749875
0.364402652 0.000000000 0.088262379
0.410909265 0.000000000 0.083414756
0.444847763 0.000000000 0.076712877
0.472401381 0.000000000 0.072316371
0.501361310 0.000000000 0.065986440
0.527585506 0.000000000 0.060398124
0.552426100 0.000000000 0.059908632
0.572771370 0.000000000 0.061450496
0.593092263 0.000000000 0.062203001
0.611073852 0.000000000 0.063326880
0.000000000 0.090457305 0.141152933
0.034253437 0.093907438 0.137883186
0.089309067 0.095832378 0.138098061
0.131827146 0.102499634 0.132396549
0.179111511 0.101854622 0.127799377
0.235650256 0.108731866 0.127453193
0.289345831 0.112726249 0.123103127
0.338177592 0.109490998 0.114025943
0.385833800 0.110794246 0.110341504
0.439193726 0.109209813 0.106186256
0.483543187 0.102969311 0.098076813
0.523262084 0.100750685 0.094147064
0.554634035 0.098469622 0.091622435
0.590142965 0.095679983 0.087684549
0.616336465 0.091713496 0.084518254
0.638397276 0.090155378 0.084620818
0.658382237 0.091788307 0.084997810
0.000000000 0.107999876 0.096670121
0.021685751 0.143393382 0.144058824
0.089670874 0.150270119 0.139225617
0.114929453 0.156086251 0.132104576
0.187739760 0.159055755 0.139756128
0.242814064 0.162982300 0.138876736
0.297565907 0.168285877 0.134574130
0.348436385 0.171827883 0.129686877
0.394702256 0.175397128 0.126978368
0.445844501 0.174813062 0.118529066
0.495549262 0.174108237 0.112706877
0.539283633 0.174327508 0.105792813
0.570494175 0.170379996 0.099778369
0.604925513 0.170402750 0.095744506
0.637988746 0.169874892 0.095181987
0.663506269 0.169295311 0.093861803
0.681640625 0.170178637 0.093900621
0.000000000 0.124638200 0.080055311
0.027452502 0.176379621 0.141433999
0.101340503 0.188793257 0.152629495
0.137923867 0.193897575 0.151796252
0.192098692 0.200235143 0.148620009
0.251388192 0.207833201 0.148822755
0.305187196 0.212423772 0.145394802
0.356780410 0.216100514 0.137094200
0.403653026 0.218322262 0.129940376
0.453460544 0.220918700 0.123978943
0.504550636 0.221496895 0.117649995
0.548475444 0.221238583 0.109284505
0.583113909 0.221128270 0.103792936
0.617043495 0.219983086 0.097373754
0.648797274 0.217215762 0.093061194
0.675384283 0.215042263 0.089357130
0.698784232 0.227950826 0.106110632
0.000000000 0.172564507 0.103509255
0.041736625 0.222842187 0.161194056
0.115604490 0.234300375 0.166213378
0.153290361 0.240079746 0.164286509
0.197148860 0.245388493 0.156117633
0.258710206 0.250099331 0.155745938
0.314013273 0.257274121 0.150211990
0.363720447 0.261714458 0.145736873
0.410525382 0.266459644 0.139184877
0.456738383 0.268640548 0.134024873
0.512321651 0.271418899 0.125382379
0.557431757 0.271807015 0.117269382
0.595951498 0.271068513 0.110076249
0.626507163 0.269702315 0.103945255
0.662097871 0.269598365 0.098690368
0.689185381 0.268184394 0.096758194
