public/lut/25.cube
TITLE "17x17x17 Adobe/IRIDAS cube 3D LUT exported with GrossGrade v0.2.2 (beta) 64 bit"
DOMAIN_MIN 0 0 0
DOMAIN_MAX 1 1 1
LUT_3D_SIZE 5
0.000000000 0.000000000 0.000000000
0.245221257 0.000000000 0.000000000
0.409132004 0.000000000 0.000000000
0.504853487 0.000000000 0.000000000
0.581049979 0.000000000 0.000000000
0.045608751 0.179617256 0.000000000
0.220171511 0.211437508 0.000000000
0.399677485 0.237208247 0.000000000
0.574129283 0.248629272 0.000000000
0.683719516 0.246357501 0.000000000
0.179959506 0.357084990 0.006308504
0.313180745 0.383546263 0.000000000
0.457913518 0.408088505 0.000000000
0.625776768 0.426844776 0.000000000
0.745198011 0.434460998 0.000000000
0.342778265 0.537471235 0.119261011
0.423686981 0.549309552 0.081414014
0.527893782 0.567481697 0.058382008
0.673946977 0.586918533 0.018728245
0.786044240 0.593872726 0.003548758
0.493829012 0.674145997 0.255190015
0.544914961 0.680263281 0.234133989
0.626552522 0.694384515 0.222164005
0.722184002 0.707201779 0.202259243
0.821406007 0.715095997 0.174906999
0.007097000 0.002168750 0.220637262
0.194111258 0.001577000 0.202138752
0.402562529 0.000000000 0.194202751
0.542647243 0.000000000 0.183839500
0.632032037 0.000000000 0.183689758
0.000000000 0.174976751 0.189990997
0.174932510 0.267115235 0.277030498
0.409726501 0.283869773 0.274830014
0.605923533 0.293740004 0.261034489
0.732693493 0.311562985 0.266144991
0.007097258 0.346685022 0.245549753
0.269433498 0.440126508 0.321975768
0.440663278 0.462816298 0.308591306
0.641750753 0.479606748 0.296744496
0.774434209 0.502035260 0.314596534
0.308718264 0.593678772 0.378285766
0.405400008 0.609676003 0.374157548
0.521746516 0.622703016 0.353281260
0.681390047 0.642176747 0.343600512
0.802609980 0.666874766 0.400748253
0.489789248 0.715823472 0.440443516
0.588343203 0.740617216 0.486104488
0.665667474 0.756186247 0.505332470
0.740074039 0.769711018 0.526300728
0.828023553 0.794252276 0.614004493
0.000000000 0.053584006 0.389349520
0.195638508 0.025037255 0.403959751
0.404094040 0.028783008 0.408840537
0.572392762 0.027797006 0.405793786
0.666917026 0.013800006 0.394409001
0.000000000 0.267663985 0.456165254
0.178593755 0.301706791 0.481646508
0.407810271 0.322757512 0.497302771
0.613275766 0.330018520 0.484125763
0.743615985 0.343948007 0.479914784
0.000000000 0.293173015 0.342045009
0.027994500 0.421926260 0.464338720
0.414541006 0.520015478 0.534443557
0.649528027 0.528943777 0.532437801
0.787627459 0.541455507 0.532247543
0.000000000 0.393197477 0.318915486
0.115225993 0.500639260 0.410935223
0.450590253 0.632175565 0.518028736
0.675998926 0.693321705 0.569455981
0.812021494 0.703820765 0.579940200
0.268795490 0.632586002 0.468159497
0.475451469 0.708598495 0.550505280
0.642593503 0.766968489 0.618903041
0.745440245 0.793788254 0.648985267
0.828289986 0.806497514 0.677439511
0.000000000 0.145598501 0.504395247
0.198583260 0.120072253 0.525222540
0.413997531 0.125423253 0.540866256
0.592820227 0.124315001 0.543312788
0.703072250 0.140093505 0.548498273
0.000000000 0.308340013 0.571610987
0.201692507 0.344325274 0.601302266
0.428102493 0.360306263 0.623421788
0.628760278 0.365994245 0.619064569
0.752715230 0.376361489 0.613772213
0.000000000 0.430958509 0.575876772
0.141485006 0.480360746 0.616671205
0.449842304 0.539772272 0.653368473
0.652940512 0.561792254 0.668864727
0.787259758 0.562703013 0.658859253
0.000000000 0.399832010 0.444951504
0.000000000 0.479644507 0.520783961
0.290892780 0.626661301 0.631054282
0.648737788 0.734097242 0.694826782
0.813106537 0.727560699 0.695813537
0.000000000 0.454249501 0.397493005
0.215649754 0.608571529 0.521751225
0.473020285 0.707996488 0.616373241
0.717018306 0.800758779 0.699476957
0.827567279 0.817033529 0.736470222
0.000000000 0.203610003 0.563947976
0.208634496 0.190778747 0.592058241
0.432951510 0.198150992 0.614390016
0.614614487 0.207692504 0.624255776
0.721065998 0.197557002 0.620613992
0.000000000 0.341385245 0.625841260
0.222934753 0.372804761 0.656297207
0.443611532 0.391709745 0.675222516
0.639338970 0.402549267 0.681561053
0.762028515 0.407829762 0.677295744
0.000000000 0.482466996 0.660858512
0.229367733 0.522768021 0.691495240
0.483081013 0.563392997 0.720734000
0.667402029 0.577736974 0.726401508
0.792659521 0.582923532 0.721354485
0.000000000 0.529317021 0.616003752
0.075201243 0.574840784 0.649671018
0.431392014 0.672397017 0.721362233
0.696783304 0.730613470 0.754419804
0.816139758 0.743153989 0.754488528
0.000000000 0.432742000 0.447367996
0.055981264 0.596638739 0.587634504
0.378015995 0.700726509 0.668030024
0.685207248 0.809913278 0.757170737
0.824840009 0.826222003 0.769342005
