public/lut/26.cube
TITLE "17x17x17 Adobe/IRIDAS cube 3D LUT exported with GrossGrade v0.2.2 (beta) 64 bit"
DOMAIN_MIN 0 0 0
DOMAIN_MAX 1 1 1
LUT_3D_SIZE 17
0.000000000 0.000000000 0.000000000
0.099747121 0.007836687 0.000000000
0.139192000 0.007886000 0.000000000
0.187466517 0.007244937 0.000000000
0.231159255 0.002760250 0.000000000
0.274263054 0.000246563 0.000000000
0.310622007 0.000000000 0.000000000
0.340820342 0.000000000 0.000000000
0.372438997 0.000000000 0.000000000
0.399475366 0.000000000 0.000000000
0.421701878 0.000000000 0.000000000
0.443162560 0.000000000 0.000000000
0.465546250 0.000000000 0.000000000
0.486994356 0.000000000 0.000000000
0.509930372 0.000000000 0.000000000
0.531084776 0.000000000 0.000000000
0.550265014 0.000000000 0.000000000
0.000000000 0.033465438 0.003943000
0.056867439 0.075938433 0.014835125
0.109528318 0.086924620 0.014144750
0.155028015 0.084758058 0.004977499
0.196336702 0.082148440 0.000936750
0.234669372 0.076680437 0.000000000
0.279060513 0.077943876 0.000000000
0.317498863 0.073162183 0.000000000
0.361697823 0.074322686 0.000000000
0.396327257 0.071598254 0.000000000
0.430106312 0.069515876 0.000000000
0.467434436 0.066662811 0.000000000
0.498925924 0.067906380 0.000000000
0.533724904 0.070224129 0.000000000
0.562513649 0.072624199 0.000000000
0.590323269 0.078840002 0.000000000
0.614454746 0.085683562 0.000000000
0.000000000 0.065591380 0.003943000
0.050976127 0.111462191 0.014292625
0.097202875 0.125441253 0.018038500
0.164953202 0.147990808 0.015918937
0.221479625 0.152598992 0.005322499
0.265875131 0.143134698 0.000000000
0.304406643 0.136661634 0.000000000
0.341741502 0.133834198 0.000000000
0.379483044 0.133065134 0.000000000
0.417035520 0.130443811 0.000000000
0.452516764 0.127992243 0.000000000
0.486701369 0.125387192 0.000000000
0.520940661 0.126090243 0.000000000
0.552379429 0.125773802 0.000000000
0.582649112 0.126022995 0.000000000
0.609355927 0.130004376 0.000000000
0.631630838 0.133600131 0.000000000
0.000000000 0.105725132 0.003943000
0.053012814 0.148363963 0.008920435
0.101148061 0.167172834 0.012124686
0.159337521 0.189267576 0.012272435
0.223204061 0.208169371 0.010005185
0.279613256 0.215869248 0.000492813
0.332099527 0.214096457 0.000000000
0.372513592 0.205585063 0.000000000
0.409032643 0.194950312 0.000000000
0.441521257 0.194347143 0.000000000
0.472450137 0.189421952 0.000000000
0.507063746 0.187299013 0.000000000
0.542811453 0.186342567 0.000000000
0.573071003 0.183839262 0.000000000
0.602290630 0.185283065 0.000000000
0.629715919 0.183824137 0.000000000
0.649222434 0.182300568 0.000000000
0.001971751 0.143354267 0.004534000
0.066018313 0.181040317 0.000345000
0.108705126 0.201932743 0.001281750
0.157899827 0.224251494 0.001183250
0.215798259 0.243268013 0.001380249
0.279239893 0.261924446 0.000394250
0.342067271 0.277898490 0.000000000
0.391133040 0.277495384 0.000000000
0.436344504 0.269946992 0.000000000
0.472550273 0.259106249 0.000000000
0.501784146 0.253296494 0.000000000
0.533158720 0.252639890 0.000000000
0.563652039 0.247473508 0.000000000
0.591838777 0.243896559 0.000000000
0.622043729 0.242182136 0.000000000
0.648762345 0.240182877 0.000000000
0.670099497 0.240725756 0.000000000
0.002661188 0.183874130 0.004189250
0.085111752 0.213088065 0.000000000
0.125215933 0.231997758 0.000000000
0.168520629 0.255492181 0.000000000
0.220555246 0.279059559 0.000000000
0.275739819 0.296597421 0.000000000
0.331256658 0.315130174 0.000000000
0.393206298 0.331358790 0.000000000
0.449719071 0.337756574 0.000000000
0.492563844 0.330560565 0.000000000
0.525890231 0.320335746 0.000000000
0.557707548 0.311966926 0.000000000
0.587681293 0.309977621 0.000000000
0.614424944 0.306221187 0.000000000
0.641727746 0.301822633 0.000000000
0.667536259 0.299072623 0.000000000
0.689583540 0.296736807 0.000000000
0.007097004 0.223970264 0.001577000
0.099094383 0.250335574 0.000000000
0.141899124 0.265381753 0.000000000
0.187067702 0.282126874 0.000000000
0.229701877 0.305536389 0.000000000
0.278992206 0.326263994 0.000000000
0.332529902 0.344380230 0.000000000
0.384483427 0.359528005 0.000000000
0.439563155 0.375215262 0.000000000
0.501619875 0.388373345 0.000000000
0.543565869 0.385064662 0.000000000
0.578673244 0.376033753 0.000000000
0.610771775 0.367738754 0.000000000
0.637274325 0.363749325 0.000000000
0.662030399 0.361981511 0.000000000
0.686314583 0.357236952 0.000000000
0.706684828 0.354452163 0.000000000
0.024889249 0.262581080 0.002809251
0.112349883 0.285604149 0.000000000
0.154928386 0.298278779 0.000000000
0.200058877 0.312369913 0.000000000
0.243186817 0.328612387 0.000000000
0.285061181 0.346043497 0.000000000
0.337356955 0.369485080 0.000000000
0.385839194 0.386094749 0.000000000
0.435122997 0.400041670 0.000000000
0.492721319 0.418690652 0.000000000
0.545377374 0.432503015 0.000000000
0.588838398 0.432110786 0.000000000
0.625926435 0.420275778 0.000000000
0.656639874 0.415958315 0.000000000
0.680279732 0.412778407 0.000000000
0.704280853 0.412317038 0.000000000
0.724904776 0.409242600 0.000000000
0.031937007 0.298780501 0.003942498
0.131822139 0.322282910 0.000000000
0.168843001 0.332954258 0.000000000
0.208765626 0.345822215 0.000000000
0.251488984 0.360206246 0.000000000
0.298203290 0.373878300 0.000000000
0.344086647 0.392135978 0.000000000
0.391352415 0.409315735 0.000000000
0.438311517 0.427401006 0.000000000
0.489260256 0.444287747 0.000000000
0.539217591 0.458671004 0.000000000
0.588346422 0.472865194 0.000000000
0.635215759 0.474867016 0.000000000
0.669294238 0.465192437 0.000000000
0.695294738 0.461028755 0.000000000
0.722219586 0.461733699 0.000000000
0.741469979 0.459821999 0.000000000
0.066510566 0.336644322 0.011286125
0.145433247 0.354002684 0.000000000
0.180363998 0.364364743 0.000000000
0.219072208 0.377624869 0.000000000
0.260071129 0.391492993 0.000000000
0.301731050 0.404608905 0.000000000
0.350971818 0.419231325 0.000000000
0.395348400 0.430114686 0.000000000
0.442622960 0.444447935 0.000000000
0.490508199 0.462078869 0.000000000
0.537081361 0.477447689 0.000000000
0.580257475 0.491311133 0.000000000
0.631760180 0.505471289 0.000000000
0.677155197 0.510088205 0.000000000
0.707872808 0.503410399 0.000000000
0.733536303 0.505505919 0.000000000
0.756511271 0.506673336 0.000000000
0.086099997 0.370669514 0.014785375
0.165781870 0.389244497 0.000000000
0.196689248 0.397619516 0.000000000
0.232108951 0.408998191 0.000000000
0.267739356 0.420259595 0.000000000
0.308951586 0.433536053 0.000000000
0.351451516 0.446670771 0.000000000
0.396226048 0.458816350 0.000000000
0.442848116 0.469397753 0.000000000
0.491306812 0.483140677 0.000000000
0.540494859 0.494590223 0.000000000
0.583796382 0.508240044 0.000000000
0.624637783 0.520295560 0.000000000
0.675896883 0.537194729 0.000000000
0.714040279 0.540455759 0.000000000
0.741315961 0.538495302 0.000000000
0.766606748 0.542169750 0.000000000
0.112784818 0.404258430 0.028043875
0.186726630 0.420351058 0.003942688
0.213524193 0.428588510 0.000098625
0.245057181 0.438031256 0.000000000
0.278942376 0.448228627 0.000000000
0.317437947 0.460482746 0.000000000
0.357622713 0.472316504 0.000000000
0.397176236 0.484592199 0.000000000
0.439172804 0.497627497 0.000000000
0.488167882 0.509860456 0.000000000
0.538240910 0.523010075 0.000000000
0.579184353 0.533599138 0.000000000
0.623574197 0.542521894 0.000000000
0.668211520 0.550815642 0.000000000
0.711815000 0.566600502 0.000000000
0.748281598 0.572438478 0.000000000
0.773304701 0.577750802 0.000000000
0.145930260 0.434736758 0.036077507
0.205069333 0.449363381 0.014243310
0.229782388 0.455651641 0.006111499
0.262319744 0.465075612 0.000345187
0.293282986 0.475907773 0.000000000
0.329592258 0.486465007 0.000000000
0.364673138 0.497520626 0.000000000
0.401808709 0.509709001 0.000000000
0.441458762 0.520979524 0.000000000
0.482879877 0.534438491 0.000000000
0.533338010 0.548089921 0.000000000
0.576203108 0.557597518 0.000000000
0.622146010 0.570242286 0.000000000
0.666333675 0.578274846 0.000000000
0.702533424 0.584717751 0.000000000
0.743775725 0.595886528 0.000000000
0.778498769 0.604969263 0.000000000
0.167683780 0.464768291 0.051990520
0.227418259 0.475710154 0.017052587
0.252080113 0.485194147 0.009068707
0.275454074 0.491185784 0.003893320
0.306397319 0.500394285 0.000000000
0.339855641 0.510897219 0.000000000
0.372298658 0.521305144 0.000000000
0.408514529 0.534029484 0.000000000
0.445730984 0.545304179 0.000000000
0.487172127 0.556410253 0.000000000
0.531405747 0.568243563 0.000000000
0.574028969 0.579596281 0.000000000
0.617163897 0.590817213 0.000000000
0.661705554 0.599238455 0.000000000
0.700252235 0.608165145 0.000000000
0.734461427 0.614243865 0.000000000
0.771675706 0.625104547 0.000000000
0.191024542 0.494493514 0.070922516
0.245582774 0.504248917 0.042582709
0.267557889 0.511913121 0.033514775
0.293073028 0.518590987 0.022770524
0.322118282 0.526509523 0.010251280
0.350439310 0.534201920 0.003253076
0.381576002 0.545137703 0.000000000
0.415111035 0.556398451 0.000000000
0.451017618 0.565967798 0.000000000
0.491832197 0.577440023 0.000000000
0.533129156 0.587576628 0.000000000
0.570519507 0.598845541 0.000000000
0.612463117 0.609552801 0.000000000
0.658656120 0.618991196 0.000000000
0.697276175 0.626452029 0.000000000
0.733384848 0.635270417 0.000000000
0.763352394 0.638722003 0.000000000
0.219713211 0.521393239 0.090322264
0.264470905 0.530314386 0.063732579
0.285268277 0.537313581 0.054960951
0.310605377 0.541115940 0.044681072
0.337622881 0.549352229 0.034154948
0.361361682 0.557467878 0.021784332
0.391021937 0.564378500 0.010103574
0.421448141 0.575033367 0.002760002
0.456950217 0.582387149 0.000000001
0.493341595 0.592307687 0.000000000
0.534442127 0.605290890 0.000000000
0.568887293 0.614324808 0.000000000
0.610602379 0.626308322 0.000000000
0.651311398 0.635588169 0.000000000
0.695787549 0.644436955 0.000000000
0.730024636 0.651612103 0.000000000
0.759970427 0.659269452 0.000000000
0.243098006 0.548215985 0.106785998
0.288319826 0.554817855 0.080682561
0.305712253 0.558114111 0.070858501
0.330299497 0.566100121 0.061705682
0.353474736 0.570604503 0.045452498
0.375758499 0.577620804 0.032528628
0.403710395 0.586224139 0.021192620
0.434910953 0.594083846 0.008920684
0.467507005 0.603641033 0.001971499
0.503598869 0.612909794 0.000000000
0.538307607 0.623492837 0.000000000
0.571437120 0.631313145 0.000000000
0.610511780 0.642866969 0.000000000
0.651167333 0.651054740 0.000000000
0.692198455 0.662937105 0.000000000
0.727559507 0.669747472 0.000000000
0.759983003 0.679162025 0.000000000
0.000000000 0.000000000 0.051779315
0.068215564 0.004681750 0.070699938
0.114515066 0.007195562 0.070458129
0.165789276 0.004780312 0.072397754
0.213458002 0.001823500 0.064622186
0.258061647 0.000000000 0.058047440
0.300904542 0.000000000 0.053655248
0.335262418 0.000000000 0.048042752
0.364154935 0.000000000 0.044495311
0.392085433 0.000000000 0.036225189
0.418521643 0.000000000 0.030310689
0.439447999 0.000000000 0.024692312
0.460924953 0.000000000 0.017792437
0.480814159 0.000000000 0.014736057
0.500451446 0.000000000 0.010991060
0.516064107 0.000000000 0.007442378
0.530171454 0.000000000 0.008871563
0.000000000 0.016362874 0.023410562
0.045036562 0.079844378 0.079159126
0.094063319 0.093871191 0.084604688
0.149484396 0.101655751 0.090517439
0.193454877 0.108364820 0.088160060
0.235071182 0.116313189 0.088978618
0.279697955 0.124023065 0.089133061
0.323535532 0.132235005 0.088238433
0.368704468 0.139250949 0.088134624
0.415359497 0.148767367 0.090645812
0.456789255 0.155067429 0.091970615
0.496254146 0.162103817 0.092703186
0.534860492 0.168419138 0.092979498
0.570298970 0.173713818 0.091737747
0.604009986 0.183021575 0.096546762
0.631802559 0.185204089 0.093177259
0.656908274 0.192530945 0.095559314
0.000000000 0.037802126 0.034204189
0.055658501 0.129752070 0.096314378
0.091178440 0.136115178 0.089938313
0.164399207 0.142713368 0.103975251
0.212678060 0.150955498 0.107942939
0.259460181 0.159536496 0.108850934
0.302275777 0.164681002 0.105976120
0.345266044 0.173538625 0.106768809
0.389638752 0.179348931 0.103074938
0.434085757 0.187218502 0.103519559
0.470442355 0.192004114 0.100644998
0.510811329 0.199051261 0.099917307
0.548959732 0.205035999 0.099243626
0.584101617 0.210575432 0.098306373
0.616690218 0.218001634 0.101133622
0.646543384 0.222385690 0.099946007
0.669930160 0.227710128 0.100703187
0.000000000 0.073683642 0.049476501
0.052554999 0.161856994 0.097759061
0.098324880 0.176510289 0.097997822
0.160581470 0.193491772 0.093796134
0.230291188 0.207034886 0.103829063
0.276339173 0.205693334 0.115418248
0.320601404 0.211546883 0.117735125
0.362556905 0.212352574 0.114872120
0.408370405 0.219941065 0.116306186
0.449137002 0.223474771 0.112826563
0.486256719 0.229073152 0.113270193
0.523539484 0.233405128 0.110660881
0.560453415 0.239899695 0.110187188
0.595737338 0.245243892 0.107282877
0.628156483 0.250730366 0.107741572
0.655902743 0.256166488 0.108031057
0.679840267 0.259661555 0.107148632
0.000000000 0.123602569 0.070383690
0.050267376 0.191993311 0.098196939
0.094167627 0.202547044 0.096866250
0.152194321 0.225874692 0.091565505
0.222665519 0.251932740 0.090766430
0.292216182 0.268080443 0.086642191
0.341263413 0.270780057 0.106206685
0.381258965 0.270128459 0.117073186
0.422702253 0.270643860 0.122849122
0.463235170 0.271247685 0.123321064
0.502170801 0.273671120 0.123124875
0.538445234 0.275281847 0.120921880
0.575958312 0.279854625 0.123128749
0.609150052 0.282354921 0.121655002
0.639854848 0.287259251 0.120042130
0.668994904 0.291582942 0.120681688
0.693406701 0.296466827 0.122024000
0.000000000 0.182071820 0.090994686
0.050197501 0.222352624 0.102294385
0.092652500 0.230465323 0.099348441
0.145054281 0.247928515 0.094946995
0.206248820 0.275544047 0.091322564
0.279149383 0.303981125 0.080175504
0.349096149 0.323773563 0.072752185
0.400918216 0.331286222 0.080513448
0.444538951 0.332410753 0.100863889
0.480173737 0.331229687 0.119761132
0.515912771 0.329572350 0.129212379
0.552363157 0.326795489 0.130825058
0.589004755 0.326637328 0.129985064
0.622053146 0.327844620 0.129527435
0.653639555 0.330130547 0.130548313
0.681750655 0.331856668 0.132497936
0.704502523 0.333835453 0.133022442
0.002119438 0.233844280 0.106578439
0.065286815 0.259711474 0.111123808
0.103411317 0.266513526 0.105616815
0.150224060 0.281161010 0.101291068
0.203021631 0.304559469 0.095957875
0.264310122 0.328280687 0.083959371
0.332558334 0.355549246 0.072685868
0.397658736 0.373528779 0.052788369
0.457521468 0.385350972 0.048636369
0.500669003 0.389056832 0.064632356
0.535682082 0.387516558 0.103030413
0.567711949 0.385336280 0.121656299
0.600998402 0.383601695 0.136129811
0.633992434 0.379833966 0.137756512
0.665119171 0.379584342 0.138882995
0.692732036 0.379356205 0.140602678
0.717314363 0.380180389 0.144926384
0.003351132 0.278205842 0.118957639
0.079481624 0.296041876 0.117735632
0.117333703 0.303480148 0.113300070
0.163253888 0.317726403 0.110616133
0.209453374 0.332876474 0.101456568
0.260841250 0.354047567 0.090588942
0.322819978 0.378741264 0.075225629
0.383657098 0.399824440 0.054197676
0.445442706 0.417446792 0.032775186
0.507452488 0.433411092 0.023410868
0.547639430 0.438619465 0.029423796
0.586415231 0.438916832 0.067939967
0.617266178 0.434596896 0.107809111
0.646719933 0.431374639 0.132890448
0.677042902 0.431408793 0.145896375
0.701534390 0.427211106 0.149398386
0.725312054 0.427201658 0.150531933
0.018235564 0.316686392 0.128932938
0.091093317 0.330736428 0.124847122
0.131266445 0.339287311 0.120358557
0.174996078 0.349875331 0.118694194
0.216905951 0.363325506 0.110244557
0.264637768 0.380809814 0.096288696
0.317407012 0.402925730 0.080450684
0.374277860 0.425403684 0.059181049
0.435762048 0.446444988 0.039448813
0.493938416 0.461021751 0.018137123
0.547986865 0.475670338 0.012962126
0.596985698 0.486223072 0.019320121
0.633033812 0.485792071 0.047457874
0.662388146 0.482725143 0.091841027
0.689864933 0.481417865 0.126981646
0.714154959 0.475791872 0.147827089
0.736366153 0.473035872 0.157773688
0.018038251 0.352311820 0.139050066
0.116948187 0.367679745 0.136731878
0.150639936 0.371186614 0.129420698
0.186976388 0.381082535 0.125343621
0.229350001 0.395074934 0.120178811
0.269938320 0.410970986 0.110861182
0.318042517 0.428741992 0.094699994
0.369988978 0.448917866 0.071124174
0.424361616 0.468339592 0.048717808
0.483939528 0.486435950 0.026171187
0.538311481 0.502703667 0.017644439
0.589147270 0.515624702 0.010251687
0.641148806 0.527634978 0.009561628
0.674710929 0.528565884 0.030064601
0.705132425 0.530315638 0.069367543
0.728809178 0.525047839 0.111671157
0.747922182 0.522271276 0.143343568
0.053661000 0.388412982 0.149751246
0.137311697 0.400132567 0.145727992
0.164852947 0.403932929 0.137476251
0.201769635 0.413765818 0.133908063
0.240703493 0.425257206 0.129256621
0.280687064 0.439771563 0.119974434
0.325663328 0.455394298 0.107213996
0.368170291 0.472037256 0.086376488
0.420444697 0.490763307 0.066621438
0.474430025 0.508534014 0.045105811
0.531356812 0.526436806 0.028339313
0.580781281 0.539691508 0.013307376
0.633683443 0.554000795 0.004682124
0.679275572 0.563505054 0.001626755
0.713433504 0.568458557 0.015721833
0.739650130 0.566537023 0.041598476
0.762028694 0.565306664 0.094498381
0.082484812 0.420396864 0.157676309
0.154193938 0.431743801 0.155172557
0.181516498 0.434632897 0.146925882
0.218669325 0.445424736 0.144921884
0.253682852 0.453282058 0.140355811
0.291319191 0.465960324 0.128435135
0.330580890 0.479684293 0.119431809
0.373676807 0.495148242 0.103912115
0.417867571 0.509988189 0.082718551
0.466270000 0.527835310 0.060812999
0.523774981 0.546583295 0.039588124
0.571643293 0.562616765 0.019221937
0.622025847 0.576062143 0.006653686
0.672261715 0.588105917 0.000098625
0.716201007 0.600195527 0.000000001
0.748020113 0.602809250 0.009068387
0.771134198 0.603912115 0.032577880
0.099735573 0.450423121 0.167771563
0.175467759 0.461313605 0.166565388
0.204742864 0.465557635 0.157776684
0.235639513 0.471651703 0.153478116
0.268811554 0.481764466 0.150401190
0.305437624 0.491713524 0.141889319
0.339645594 0.503886402 0.130875751
0.377083540 0.516999066 0.117916927
0.418305039 0.531696379 0.099939622
0.466207445 0.547698617 0.075932689
0.516791999 0.565107703 0.044388756
0.566004097 0.582826734 0.020700188
0.615957677 0.598270059 0.007934876
0.664095283 0.611192107 0.003647181
0.706579983 0.620338559 0.000197250
0.750717223 0.632181466 0.000000003
0.777957559 0.635939598 0.008821810
0.130078793 0.481163025 0.180400833
0.204011261 0.490664870 0.175722450
0.226602897 0.493334711 0.168605700
0.254389226 0.500178099 0.166451573
0.285624981 0.507785797 0.163329080
0.319474012 0.518427491 0.158485383
0.350088835 0.528337657 0.147564501
0.385248214 0.540400445 0.132415637
0.425250173 0.555246711 0.117084883
0.466885567 0.569508851 0.090955332
0.513201237 0.584973395 0.061187897
0.560827971 0.601632059 0.033859156
0.610134244 0.616531074 0.011927136
0.658647776 0.628459275 0.009019314
0.702572703 0.639908850 0.005470694
0.741388679 0.648576140 0.003301940
0.777731121 0.656926990 0.001478438
0.171112210 0.511863828 0.192547277
0.225643069 0.519825399 0.187180400
0.245754331 0.522948265 0.178890511
0.275246471 0.528878570 0.176902577
0.305435985 0.536402464 0.175195575
0.334470838 0.544669032 0.169609949
0.363768578 0.554761410 0.161841303
0.397002757 0.565755486 0.150271520
0.433175772 0.577777803 0.135350212
0.474407077 0.591279030 0.116895147
0.517794311 0.604409099 0.089665532
0.556871116 0.617393672 0.061338462
0.607390583 0.631853223 0.037472159
0.654949784 0.645912707 0.020798573
0.699002028 0.657714903 0.012666629
0.737056494 0.666034877 0.008279757
0.770740509 0.674857318 0.005470758
0.198095530 0.542343259 0.207069710
0.248836771 0.548823118 0.199593022
0.267668217 0.551402092 0.190967217
0.296128392 0.557485580 0.190396264
0.321325302 0.563691795 0.187224463
0.348635465 0.572048843 0.184287459
0.378894627 0.579377413 0.174681380
0.409967482 0.589717567 0.167539015
0.444034845 0.599030018 0.156891629
0.484481454 0.610968411 0.141301647
0.521980405 0.621782362 0.121254459
0.560340583 0.634016871 0.097922474
0.605811417 0.648306608 0.074796028
0.653581679 0.661910355 0.056124896
0.695607960 0.673964500 0.038682513
0.736743450 0.683615565 0.021883262
0.768009186 0.690658510 0.013504074
0.227940321 0.567506552 0.219552189
0.276607305 0.575378776 0.213160381
0.293587983 0.574643552 0.203485370
0.314826131 0.580474198 0.201224625
0.341333300 0.587356210 0.203302070
0.365524262 0.592549682 0.196106941
0.393656969 0.601490080 0.190734059
0.425326526 0.608898878 0.182731763
0.458716452 0.620336354 0.176554739
0.493855000 0.630450308 0.160700932
0.528911710 0.640066385 0.144702494
0.564450622 0.650017023 0.121944383
0.605133533 0.662437737 0.098752677
0.650566161 0.675306976 0.080890112
0.693714976 0.689441144 0.064531177
0.733062208 0.698997855 0.044399798
0.765601814 0.707893670 0.033612750
0.000000000 0.000000000 0.086650625
0.058175314 0.003992250 0.110365748
0.108239248 0.003943000 0.120003752
0.159659460 0.000986125 0.127938867
0.206992760 0.000986000 0.131273001
0.254730761 0.000000000 0.127894372
0.296909392 0.000000000 0.122818626
0.334292203 0.000000000 0.119901501
0.366128504 0.000000000 0.109860249
0.393709749 0.000000000 0.104366563
0.421914876 0.000000000 0.099524006
0.445214629 0.000000000 0.093110874
0.468953639 0.000000000 0.087995373
0.492276788 0.000000000 0.084476188
0.511910498 0.000000000 0.079991244
0.528086841 0.000000000 0.075727805
0.541688144 0.000000000 0.071467370
0.000000000 0.026220564 0.055159688
0.046893686 0.092947118 0.133925319
0.087754622 0.098075122 0.146320999
0.143065274 0.106212124 0.149005994
0.193580866 0.112620436 0.147941872
0.238279328 0.115377560 0.140481442
0.277966142 0.113795318 0.130007327
0.316603541 0.115991317 0.124775819
0.357931346 0.118327498 0.118865184
0.399223149 0.119538881 0.114283696
0.437165141 0.122863434 0.113905877
0.475001037 0.127192870 0.113428503
0.513542593 0.133981675 0.114110000
0.548883855 0.138588682 0.113129690
0.579110563 0.140788198 0.113041438
0.611925602 0.149326563 0.117253743
0.637535453 0.154954746 0.119667128
0.000000000 0.034105625 0.047381502
0.047825873 0.139690310 0.154102921
0.088105746 0.147248507 0.149900243
0.126167834 0.159451634 0.149070889
0.208882004 0.169662252 0.165043995
0.255761296 0.173033252 0.161755368
0.298342377 0.178495124 0.158742636
0.336100042 0.182673186 0.154944509
0.377852112 0.191207618 0.155894250
0.422224313 0.197459698 0.155642182
0.461681962 0.207103759 0.156639501
0.503416419 0.215188012 0.160269439
0.542764604 0.223868266 0.161734998
0.581232667 0.232384458 0.165263116
0.615731120 0.238750756 0.166927129
0.647401571 0.247155204 0.169932649
0.676047027 0.257527351 0.177734867
0.000000000 0.055980258 0.054114189
0.039649624 0.175127700 0.155029759
0.104243129 0.196595386 0.166764766
0.151978254 0.209350213 0.170638517
0.212340578 0.216765761 0.169413447
0.273045421 0.223712131 0.184141815
0.319464952 0.231249124 0.185686067
0.363369733 0.239257127 0.185711443
0.406157196 0.245078266 0.184154570
0.444881618 0.250645995 0.180457994
0.482442081 0.257542312 0.182525873
0.520314038 0.262071490 0.180106744
0.560895622 0.271042883 0.182396814
0.596758723 0.275943279 0.180334553
0.632388949 0.284520745 0.184377313
0.663021386 0.292098343 0.186456308
0.686144352 0.293839097 0.184098631
0.000000000 0.088082001 0.071361125
0.033761125 0.204572767 0.153449386
0.102976635 0.234066367 0.172619998
0.157976314 0.250726193 0.178562790
0.206702009 0.261613250 0.170960993
0.285681486 0.275802791 0.178747624
0.333941907 0.277074128 0.192683131
0.378263116 0.278852165 0.196327314
0.421134144 0.281354785 0.193418637
0.463474303 0.288501799 0.195370823
0.500337005 0.293976754 0.194906637
0.538154840 0.299610496 0.195077747
0.574768007 0.305175513 0.195220500
0.609551966 0.309728324 0.192035124
0.642360985 0.317457765 0.195454255
0.672408521 0.321444213 0.195137560
