public/lut/26.cube
TITLE "17x17x17 Adobe/IRIDAS cube 3D LUT exported with GrossGrade v0.2.2 (beta) 64 bit"
DOMAIN_MIN 0 0 0
DOMAIN_MAX 1 1 1
LUT_3D_SIZE 5
0.000000000 0.000000000 0.000000000
0.231159255 0.002760250 0.000000000
0.372438997 0.000000000 0.000000000
0.465546250 0.000000000 0.000000000
0.550265014 0.000000000 0.000000000
0.001971751 0.143354267 0.004534000
0.215798259 0.243268013 0.001380249
0.436344504 0.269946992 0.000000000
0.563652039 0.247473508 0.000000000
0.670099497 0.240725756 0.000000000
0.031937007 0.298780501 0.003942498
0.251488984 0.360206246 0.000000000
0.438311517 0.427401006 0.000000000
0.635215759 0.474867016 0.000000000
0.741469979 0.459821999 0.000000000
0.145930260 0.434736758 0.036077507
0.293282986 0.475907773 0.000000000
0.441458762 0.520979524 0.000000000
0.622146010 0.570242286 0.000000000
0.778498769 0.604969263 0.000000000
0.243098006 0.548215985 0.106785998
0.353474736 0.570604503 0.045452498
0.467507005 0.603641033 0.001971499
0.610511780 0.642866969 0.000000000
0.759983003 0.679162025 0.000000000
0.000000000 0.000789000 0.153128743
0.196642011 0.000000000 0.228847504
0.369799018 0.000000000 0.245113507
0.488197505 0.000000000 0.233891502
0.567019999 0.000000000 0.217674002
0.000000000 0.075892255 0.097998753
0.202003777 0.285439491 0.298812002
0.417946994 0.313499749 0.312345773
0.562874734 0.326782256 0.300078988
0.699007273 0.363166749 0.312273979
0.000000000 0.186973006 0.150780261
0.214259505 0.410379499 0.312134743
0.419234991 0.480856746 0.334734261
0.619583488 0.506583273 0.369406998
0.748153269 0.518905997 0.379263997
0.028782997 0.404691756 0.268783748
0.253095478 0.511506498 0.327280998
0.400609046 0.547901452 0.329854250
0.611410260 0.635968268 0.339407265
0.777481019 0.672632754 0.373928010
0.170752242 0.582393289 0.355467737
0.329892516 0.617560983 0.364138991
0.443105280 0.636496007 0.357454002
0.583740771 0.680683017 0.352883011
0.767596006 0.746600032 0.352260768
0.000000000 0.000789000 0.286222517
0.204247266 0.000000000 0.383804530
0.383479536 0.000000000 0.410384506
0.525231481 0.000000000 0.431387246
0.612838507 0.000000000 0.431829005
0.000000000 0.182450771 0.333872020
0.205919504 0.308607519 0.468985736
0.415784538 0.339777261 0.506906986
0.590656281 0.360007763 0.517194211
0.718872547 0.365007997 0.509224296
0.000000000 0.166633517 0.211280018
0.148249254 0.376635969 0.424178004
0.428624034 0.525162518 0.529628992
0.616115451 0.553316295 0.554773688
0.748290062 0.562807441 0.543114066
0.000000000 0.207306743 0.203558743
0.133511245 0.420709252 0.390469998
0.433658004 0.609257996 0.533568263
0.623097301 0.691753030 0.582646012
0.776769996 0.704528511 0.602083802
0.016559992 0.351654470 0.296299994
0.177330241 0.503908515 0.407909989
0.435074985 0.657935977 0.519762516
0.620174527 0.738386989 0.569323540
0.774680972 0.786928535 0.595337987
0.000000000 0.026614502 0.390164733
0.214526236 0.005125501 0.479318261
0.399090260 0.003745751 0.510753989
0.543465257 0.003351753 0.526463509
0.653743267 0.024840001 0.547623217
0.000000000 0.235246241 0.469707757
0.220089003 0.337472737 0.574406743
0.433204502 0.363291502 0.611632526
0.603499234 0.382831007 0.621940017
0.734289765 0.397929758 0.632380009
0.000000000 0.292961508 0.423131764
0.164547235 0.413350016 0.538046002
0.440275729 0.539776266 0.630113959
0.615986228 0.579961479 0.666419685
0.756786942 0.592703223 0.671184540
0.000000000 0.250481248 0.301173002
0.107708007 0.400822997 0.448249727
0.386089504 0.575713754 0.593929231
0.616107523 0.705589533 0.670355260
0.771772265 0.726615727 0.696455956
0.000000000 0.241359249 0.250220001
0.090676747 0.412972003 0.407124519
0.355630994 0.599683762 0.558409750
0.636449516 0.763504505 0.684080482
0.776564002 0.809128761 0.723934233
0.000000000 0.066202000 0.448805004
0.221154004 0.026220251 0.530157983
0.410332024 0.033909000 0.563125968
0.560139000 0.053159751 0.584915519
0.664837003 0.035486002 0.596584976
0.000000000 0.266835004 0.534560025
0.233636498 0.357839763 0.627504528
0.443645000 0.380788743 0.662386537
0.612712502 0.400486499 0.674975038
0.741891026 0.414513260 0.682525516
0.000000000 0.352419019 0.526791453
0.204218492 0.462463260 0.621322989
0.459321499 0.560839534 0.688372016
0.625634015 0.591573775 0.718864441
0.760752499 0.609367490 0.720777035
0.000197252 0.346694499 0.438665241
0.119265005 0.430147260 0.518655479
0.394737005 0.586568475 0.643137515
0.618692756 0.703947425 0.710911036
0.758691013 0.741814494 0.742219210
0.000000000 0.285544008 0.323781997
0.083784252 0.403617501 0.437094271
0.334418535 0.578902006 0.586525500
0.622587740 0.749602258 0.711595535
0.765540004 0.812259972 0.749844015
