public/lut/27.cube
TITLE "17x17x17 Adobe/IRIDAS cube 3D LUT exported with GrossGrade v0.2.2 (beta) 64 bit"
DOMAIN_MIN 0 0 0
DOMAIN_MAX 1 1 1
LUT_3D_SIZE 5
0.000000000 0.000000000 0.000000000
0.262613773 0.000789000 0.000000000
0.403718501 0.000000000 0.000000000
0.483112246 0.000000000 0.000000000
0.550265014 0.000000000 0.000000000
0.001971751 0.143354267 0.004534000
0.263365746 0.257279217 0.000591499
0.477384508 0.257326752 0.000000000
0.586493254 0.244369745 0.000000000
0.670099497 0.240725756 0.000000000
0.031937007 0.298780501 0.003942498
0.286918521 0.370253503 0.000000000
0.499209523 0.447437018 0.000000000
0.664055705 0.467555761 0.000000000
0.741469979 0.459821999 0.000000000
0.145930260 0.434736758 0.036077507
0.320844233 0.483995497 0.000000000
0.491761267 0.536841035 0.000000000
0.658218503 0.577043533 0.000000000
0.778498769 0.604969263 0.000000000
0.243098006 0.548215985 0.106785998
0.370208740 0.576036513 0.035682749
0.509564996 0.613881946 0.000000000
0.644039035 0.649417281 0.000000000
0.759983003 0.679162025 0.000000000
0.000000000 0.000591750 0.129999489
0.237106010 0.000000000 0.202931508
0.405439496 0.000000000 0.200488508
0.501533031 0.000000000 0.182879508
0.558765054 0.000000000 0.167460755
0.000000000 0.072335243 0.081796005
0.227600500 0.289296985 0.260569245
0.465574265 0.320348501 0.283073783
0.595540226 0.342626452 0.281983733
0.702944279 0.371387243 0.293785274
0.000000000 0.219050512 0.157863513
0.256275505 0.414949238 0.282850742
0.500416219 0.494189233 0.284307271
0.647520483 0.500039279 0.330176502
0.744942307 0.505165517 0.340051472
0.028783264 0.442400753 0.268007010
0.282735795 0.507712722 0.293226480
0.452265769 0.560129523 0.284090012
0.658030987 0.642972946 0.282606512
0.776835799 0.667518497 0.314824253
0.197444245 0.588145971 0.334290504
0.351870239 0.615338266 0.333344758
0.485210270 0.643465281 0.322890997
0.629625499 0.693199515 0.309624493
0.767548501 0.739471734 0.300383031
0.000000000 0.000789000 0.246902004
0.235565007 0.000000000 0.348887265
0.422731519 0.000000000 0.373007536
0.536106765 0.000000000 0.382823020
0.599680483 0.000000000 0.380158007
0.000000000 0.159495011 0.274192274
0.243326500 0.309137017 0.427485794
0.467015028 0.337872475 0.460170507
0.617757976 0.349370509 0.463436782
0.706351519 0.349034250 0.442801505
0.000000000 0.139718488 0.159565508
0.234921262 0.424532235 0.430098474
0.460375011 0.530421495 0.486652970
0.659066796 0.557026207 0.516562700
0.748075008 0.573987007 0.513154507
0.000000000 0.235743999 0.211221755
0.222477257 0.485463500 0.407390475
0.508320272 0.645254493 0.519531965
0.669850290 0.686256766 0.529520273
0.771809459 0.691786230 0.551463485
0.032719985 0.432060003 0.331971496
0.278249979 0.575453758 0.429228753
0.513174534 0.694638491 0.514668941
0.635486722 0.725444317 0.515953720
0.771988988 0.776497960 0.533819497
0.000000000 0.013800251 0.360745013
0.248468757 0.002366001 0.459728271
0.441235244 0.001182999 0.491668254
0.562403202 0.000000000 0.502005219
0.639554501 0.002365504 0.515488505
0.000000000 0.220475242 0.431994021
0.258414000 0.335451990 0.550668478
0.482461244 0.362381488 0.587970555
0.631990254 0.378102005 0.595003247
0.733987272 0.389243007 0.606502473
0.000000000 0.258424491 0.362718493
0.216749996 0.427051753 0.526347041
0.487503469 0.551529527 0.606629968
0.644264519 0.578892231 0.634363472
0.758604288 0.588354290 0.643574715
0.000000000 0.203983009 0.236613750
0.163952500 0.431681514 0.453941226
0.502069950 0.648165286 0.622770965
0.634967506 0.707183003 0.646992505
0.775560260 0.725717247 0.671816766
0.003548749 0.255739748 0.248538509
0.151702747 0.467565715 0.431854248
0.456855237 0.664794564 0.587040961
0.679823220 0.780516505 0.676264226
0.785114229 0.804534256 0.696475029
0.000000000 0.066202000 0.448805004
0.260946482 0.025431251 0.538300514
0.459227026 0.040988002 0.571049988
0.585260034 0.047765750 0.586197019
0.664837003 0.035486002 0.596584976
0.000000000 0.266835004 0.534560025
0.275064290 0.365129232 0.632259965
0.496694297 0.387349993 0.666753531
0.646266222 0.405282259 0.677763224
0.741891026 0.414513260 0.682525516
0.000000000 0.352419019 0.526791453
0.260114759 0.482371271 0.636288226
0.509840488 0.575951517 0.692322493
0.661573529 0.595329523 0.718657970
0.760752499 0.609367490 0.720777035
0.000197252 0.346694499 0.438665241
0.163505241 0.457950503 0.543475747
0.470931023 0.628281474 0.669359982
0.650899053 0.717198730 0.713268459
0.758691013 0.741814494 0.742219210
0.000000000 0.285544008 0.323781997
0.125968263 0.433506250 0.464263499
0.424060524 0.634305000 0.625279546
0.677721024 0.779909015 0.732209504
0.765540004 0.812259972 0.749844015
