public/lut/27.cube
TITLE "17x17x17 Adobe/IRIDAS cube 3D LUT exported with GrossGrade v0.2.2 (beta) 64 bit"
DOMAIN_MIN 0 0 0
DOMAIN_MAX 1 1 1
LUT_3D_SIZE 17
0.000000000 0.000000000 0.000000000
0.111469939 0.007886000 0.000000000
0.160885751 0.007886000 0.000000000
0.216293827 0.005026874 0.000000000
0.262613773 0.000789000 0.000000000
0.307402372 0.000000000 0.000000000
0.341936648 0.000000000 0.000000000
0.376124829 0.000000000 0.000000000
0.403718501 0.000000000 0.000000000
0.425698191 0.000000000 0.000000000
0.446162134 0.000000000 0.000000000
0.465593070 0.000000000 0.000000000
0.483112246 0.000000000 0.000000000
0.501873434 0.000000000 0.000000000
0.517742097 0.000000000 0.000000000
0.533908665 0.000000000 0.000000000
0.550265014 0.000000000 0.000000000
0.000000000 0.033465438 0.003943000
0.071301684 0.078330375 0.014884437
0.131272987 0.087301433 0.010398937
0.181756273 0.083393566 0.002415186
0.225193828 0.077803880 0.000000000
0.275367439 0.078186817 0.000000000
0.318692595 0.073166370 0.000000000
0.366610408 0.074039184 0.000000000
0.402129680 0.071041688 0.000000000
0.436564445 0.068945877 0.000000000
0.471450984 0.066940188 0.000000000
0.498774827 0.068008125 0.000000000
0.528049231 0.069922812 0.000000000
0.550556004 0.070556261 0.000000000
0.574364483 0.075980008 0.000000000
0.594437301 0.079738684 0.000000000
0.614454746 0.085683562 0.000000000
0.000000000 0.065591380 0.003943000
0.063144684 0.117407940 0.014983000
0.126450628 0.134847745 0.018235626
0.201648206 0.152996063 0.011089247
0.255992502 0.145566374 0.000098625
0.300754011 0.137151375 0.000000000
0.342815995 0.133779123 0.000000000
0.384463489 0.132917628 0.000000000
0.423438519 0.129184619 0.000000000
0.459051907 0.128323063 0.000000000
0.490551889 0.125303626 0.000000000
0.520615220 0.125778437 0.000000000
0.546850741 0.125519499 0.000000000
0.571444511 0.126819819 0.000000000
0.594159484 0.127448007 0.000000000
0.612912059 0.130473673 0.000000000
0.631630838 0.133600131 0.000000000
0.000000000 0.105725132 0.003943000
0.064188309 0.153684333 0.010448247
0.127273947 0.177422121 0.012272435
0.196407154 0.199306071 0.011631373
0.267280459 0.215601876 0.002365500
0.327736229 0.214778826 0.000000000
0.373665750 0.205292940 0.000000000
0.413521647 0.194695950 0.000000000
0.447341412 0.193332762 0.000000000
0.478149325 0.188865006 0.000000000
0.511482716 0.187402457 0.000000000
0.542622805 0.186424583 0.000000000
0.567538440 0.183733761 0.000000000
0.591781616 0.185350507 0.000000000
0.613392234 0.184332386 0.000000000
0.633690000 0.184012324 0.000000000
0.649222434 0.182300568 0.000000000
0.001971751 0.143354267 0.004534000
0.076525375 0.187173814 0.001133937
0.130601615 0.212237000 0.001183250
0.191851452 0.235409677 0.001183250
0.263365746 0.257279217 0.000591499
0.336788416 0.277107567 0.000000000
0.392612398 0.277264625 0.000000000
0.441961884 0.268868804 0.000000000
0.477384508 0.257326752 0.000000000
0.507444620 0.253016949 0.000000000
0.536705375 0.252194136 0.000000000
0.563504159 0.247492701 0.000000000
0.586493254 0.244369745 0.000000000
0.611015797 0.242807701 0.000000000
0.632705808 0.241239384 0.000000000
0.653202057 0.240215078 0.000000000
0.670099497 0.240725756 0.000000000
0.002661188 0.183874130 0.004189250
0.097027063 0.218319997 0.000000000
0.144013822 0.242344320 0.000000000
0.199701011 0.270246923 0.000000000
0.262432009 0.292604178 0.000000000
0.325284928 0.313043922 0.000000000
0.394897014 0.331660479 0.000000000
0.456248581 0.337575257 0.000000000
0.498527527 0.328880638 0.000000000
0.531814337 0.318387061 0.000000000
0.561200380 0.311700433 0.000000000
0.587504148 0.309878826 0.000000000
0.609786630 0.306835085 0.000000000
0.630773604 0.304073423 0.000000000
0.652098298 0.300823629 0.000000000
0.671780229 0.298159122 0.000000000
0.689583540 0.296736807 0.000000000
0.007097004 0.223970264 0.001577000
0.112270571 0.254721642 0.000000000
0.162300378 0.272195518 0.000000000
0.212800011 0.297142953 0.000000000
0.266453534 0.321634740 0.000000000
0.327210546 0.342193633 0.000000000
0.386061877 0.359933734 0.000000000
0.447884142 0.377434015 0.000000000
0.510628104 0.389720261 0.000000000
0.550126016 0.383158952 0.000000000
0.582910538 0.374803632 0.000000000
0.610613346 0.367731333 0.000000000
0.632753849 0.364404768 0.000000000
0.652497411 0.362101197 0.000000000
0.672156155 0.360394776 0.000000000
0.689733505 0.356515586 0.000000000
0.706684828 0.354452163 0.000000000
0.024889249 0.262581080 0.002809251
0.125908017 0.290923715 0.000000000
0.175164253 0.303993434 0.000000000
0.224843085 0.321084589 0.000000000
0.275233001 0.341786474 0.000000000
0.332242072 0.367640853 0.000000000
0.387264997 0.386689812 0.000000000
0.442048848 0.402111322 0.000000000
0.504058361 0.422618181 0.000000000
0.552945912 0.433092386 0.000000000
0.593389094 0.431558520 0.000000000
0.625814557 0.420325905 0.000000000
0.651868463 0.415819913 0.000000000
0.671532810 0.415694237 0.000000000
0.689513147 0.411491781 0.000000000
0.708353400 0.412784696 0.000000000
0.724904776 0.409242600 0.000000000
0.031937007 0.298780501 0.003942498
0.141755015 0.325113922 0.000000000
0.186821625 0.338379979 0.000000000
0.234381631 0.355482012 0.000000000
0.286918521 0.370253503 0.000000000
0.339341700 0.390493214 0.000000000
0.392689526 0.409791231 0.000000000
0.444524467 0.429692566 0.000000000
0.499209523 0.447437018 0.000000000
0.547786832 0.461371124 0.000000000
0.594314337 0.473765910 0.000000000
0.634984732 0.474890023 0.000000000
0.664055705 0.467555761 0.000000000
0.685595512 0.459584504 0.000000000
0.705753744 0.461868405 0.000000000
0.726640701 0.461526573 0.000000000
0.741469979 0.459821999 0.000000000
0.066510566 0.336644322 0.011286125
0.155888572 0.357164741 0.000000000
0.197412372 0.369894385 0.000000000
0.244001076 0.387244433 0.000000000
0.291274518 0.401000082 0.000000000
0.346712798 0.418445945 0.000000000
0.396869779 0.430685937 0.000000000
0.448821068 0.446509361 0.000000000
0.498683065 0.465482414 0.000000000
0.545328140 0.479649693 0.000000000
0.585420907 0.493004888 0.000000000
0.631518602 0.505418360 0.000000000
0.670522869 0.510780931 0.000000000
0.696924865 0.505191982 0.000000000
0.717827380 0.503121018 0.000000000
0.738211095 0.506599009 0.000000000
0.756511271 0.506673336 0.000000000
0.086099997 0.370669514 0.014785375
0.174174562 0.392301381 0.000000000
0.212536007 0.402242601 0.000000000
0.253815681 0.415810019 0.000000000
0.298557878 0.430264890 0.000000000
0.347256988 0.445456445 0.000000000
0.397605896 0.459210902 0.000000000
0.448818982 0.470835745 0.000000000
0.501293182 0.485968232 0.000000000
0.548187256 0.496264160 0.000000000
0.588321090 0.509856284 0.000000000
0.624419928 0.520284235 0.000000000
0.667133451 0.534349740 0.000000000
0.701805592 0.542470753 0.000000000
0.725620508 0.538973987 0.000000000
0.745314896 0.538841069 0.000000000
0.766606748 0.542169750 0.000000000
0.112784818 0.404258430 0.028043875
0.193542197 0.421521127 0.002908063
0.227734759 0.433315426 0.000000000
0.264439821 0.443599194 0.000000000
0.308069050 0.457530320 0.000000000
0.353963673 0.471283704 0.000000000
0.398478538 0.485037625 0.000000000
0.445114404 0.499109060 0.000000000
0.496972233 0.512665510 0.000000000
0.546696365 0.524991989 0.000000000
0.584159791 0.534622014 0.000000000
0.623358667 0.542481005 0.000000000
0.660793900 0.549038231 0.000000000
0.694284678 0.559729695 0.000000000
0.726982474 0.569790721 0.000000000
0.754028738 0.573361397 0.000000000
0.773304701 0.577750802 0.000000000
0.145930260 0.434736758 0.036077507
0.211425811 0.451128632 0.012715562
0.244214624 0.459494382 0.002661625
0.280240685 0.471678019 0.000000000
0.320844233 0.483995497 0.000000000
0.361148387 0.496307880 0.000000000
0.402932882 0.509982347 0.000000000
0.446645409 0.522674203 0.000000000
0.491761267 0.536841035 0.000000000
0.541975558 0.550248086 0.000000000
0.581753135 0.559234977 0.000000000
0.621918559 0.570180893 0.000000000
0.658218503 0.577043533 0.000000000
0.691718936 0.582124412 0.000000000
0.718471527 0.588425636 0.000000000
0.750115633 0.598064840 0.000000000
0.778498769 0.604969263 0.000000000
0.167683780 0.464768291 0.051990520
0.234783694 0.478648782 0.015327584
0.262557983 0.488130391 0.006357954
0.293405592 0.496636540 0.000147938
0.331954807 0.508326888 0.000000000
0.369121552 0.520300031 0.000000000
0.409799457 0.534514368 0.000000000
0.450734288 0.546575963 0.000000000
0.494931340 0.558818817 0.000000000
0.539593935 0.570155740 0.000000000
0.579080462 0.580805659 0.000000000
0.616937578 0.590794861 0.000000000
0.653629661 0.597443283 0.000000000
0.687720895 0.605868995 0.000000000
0.714351535 0.610676467 0.000000000
0.739527643 0.615368545 0.000000000
0.771675706 0.625104547 0.000000000
0.191024542 0.494493514 0.070922516
0.252084523 0.506480396 0.040418651
0.278431535 0.514857233 0.028782902
0.310800850 0.524410129 0.014440718
0.343530744 0.531887412 0.004830140
0.378569901 0.544009268 0.000000001
0.416237026 0.556715250 0.000000000
0.456027627 0.567464590 0.000000000
0.499483764 0.579215169 0.000000000
0.540092409 0.589436054 0.000000000
0.575222969 0.600082755 0.000000000
0.612256408 0.609499574 0.000000000
0.650677383 0.617205858 0.000000000
0.683623791 0.624283433 0.000000000
0.711405396 0.629158914 0.000000000
0.739412487 0.637153804 0.000000000
0.763352394 0.638722003 0.000000000
0.219713211 0.521393239 0.090322264
0.269339472 0.531614006 0.061488267
0.296813101 0.539588094 0.050252642
0.328087360 0.547709227 0.039467074
0.355367869 0.555069268 0.024741516
0.388211995 0.563459158 0.011434138
0.422528535 0.575374484 0.002710753
0.461488664 0.583427727 0.000000000
0.500846684 0.594376028 0.000000000
0.541355550 0.607607067 0.000000000
0.573437989 0.615862727 0.000000000
0.610408068 0.626231372 0.000000000
0.643407583 0.634049892 0.000000000
0.679975867 0.640651643 0.000000000
0.709340692 0.647285700 0.000000000
0.736181259 0.653085947 0.000000000
0.759970427 0.659269452 0.000000000
0.243098006 0.548215985 0.106785998
0.292132884 0.555237293 0.077826627
0.316742867 0.561641276 0.067028254
0.344472826 0.567590475 0.050656185
0.370208740 0.576036513 0.035682749
0.400858372 0.585610092 0.022523874
0.435929626 0.594431043 0.008772872
0.472113788 0.604932427 0.001133749
0.509564996 0.613881946 0.000000000
0.544777811 0.626058042 0.000000000
0.575617492 0.632282257 0.000000000
0.610262811 0.642801285 0.000000000
0.644039035 0.649417281 0.000000000
0.675825059 0.658285499 0.000000000
0.707376122 0.666369736 0.000000000
0.732564032 0.670571864 0.000000000
0.759983003 0.679162025 0.000000000
0.000000000 0.000000000 0.042630002
0.084809497 0.006949125 0.060344312
0.138938069 0.007195625 0.056696687
0.198635131 0.004140061 0.051960811
0.247359946 0.000049312 0.043929812
0.296915442 0.000000000 0.039272189
0.335760266 0.000000000 0.032873876
0.365929782 0.000000000 0.027846560
0.395892769 0.000000000 0.019862248
0.421394229 0.000000000 0.015278624
0.440309078 0.000000000 0.011089500
0.458889425 0.000000000 0.006308500
0.475295812 0.000000000 0.003745874
0.490626842 0.000000000 0.001922432
0.503818750 0.000000000 0.000000000
0.516599059 0.000000000 0.000000000
0.528126478 0.000000000 0.000000000
0.000000000 0.016362874 0.019566188
0.054342061 0.080288745 0.066056751
0.125202298 0.096571133 0.081250377
0.177702397 0.107306138 0.082179181
0.226446763 0.114256568 0.080396995
0.278455317 0.124747559 0.082206063
0.327604890 0.133200616 0.080039501
0.378025711 0.138988063 0.077388257
0.424495965 0.147541448 0.078435943
0.466509551 0.155456379 0.080290563
0.501901627 0.159459248 0.079177313
0.535400867 0.165141761 0.078269497
0.564022183 0.167727068 0.076222003
0.590787947 0.174616188 0.077811256
0.614979565 0.178546309 0.077911809
0.635606110 0.180912569 0.073913008
0.657944858 0.189037248 0.080860689
0.000000000 0.040925562 0.031888377
0.068832316 0.128930002 0.082915992
0.132379934 0.135322198 0.081602439
0.194552764 0.143123999 0.091673873
0.248542309 0.151069000 0.093264438
0.298701584 0.157891944 0.091380753
0.346786648 0.166026235 0.091038376
0.396043748 0.172264129 0.086238310
0.440123737 0.179326564 0.085527942
0.476449519 0.184608057 0.082219243
0.515342057 0.191957936 0.082189940
0.546805978 0.195861191 0.080113821
0.575565100 0.201530695 0.079055563
0.603319466 0.204337016 0.078186698
0.626166105 0.209877759 0.080296554
0.648863077 0.214328766 0.079190440
0.666553795 0.216926128 0.078333624
0.000000000 0.081111014 0.048652314
0.067032181 0.160537824 0.085077494
0.125759736 0.180752829 0.078255631
0.211421266 0.204794392 0.076643996
0.267510444 0.205142826 0.095468558
0.316414654 0.208192140 0.100688815
0.363889068 0.208077207 0.096007504
0.414038897 0.214907706 0.098320991
0.456094593 0.218625084 0.095626563
0.492444634 0.222996771 0.094587624
0.526940942 0.226715639 0.091356307
0.559366703 0.232542574 0.092515126
0.588868082 0.236068457 0.087772444
0.614297032 0.240873843 0.089059249
0.638064265 0.245920688 0.089521497
0.658448458 0.248982623 0.088492185
0.676834226 0.250928134 0.086310446
0.000000000 0.134659499 0.068489134
0.065148875 0.189337999 0.086829066
0.118890315 0.207194492 0.077709123
0.196297258 0.239309251 0.072518617
0.277632385 0.263325691 0.062835686
0.339425772 0.270223320 0.079739995
0.384059459 0.268986821 0.094173811
0.428040773 0.267521054 0.101383626
0.470555961 0.268365711 0.104668438
0.508433700 0.269926429 0.102719069
0.541759729 0.271285146 0.101523817
0.575564265 0.274841487 0.103364497
0.602756023 0.275824189 0.102101751
0.627954006 0.279515266 0.099244371
0.650412440 0.282121986 0.099825628
0.672279477 0.285770744 0.099980190
0.691779792 0.288738489 0.101210132
0.000000000 0.190462753 0.086042307
0.065599374 0.220521614 0.090801440
0.119655944 0.235965878 0.081738316
0.184374452 0.262248635 0.072847061
0.264075518 0.295634776 0.059808437
0.343472928 0.319504201 0.047467314
0.404063821 0.329579204 0.049509883
0.451322496 0.331099689 0.072831511
0.488310814 0.329466134 0.096005633
0.522027254 0.327986479 0.106815115
0.555896640 0.323765874 0.108985752
0.587443888 0.323294640 0.108557753
0.614929080 0.322962373 0.107890688
0.640813887 0.325516492 0.108842753
0.663520157 0.325949639 0.109303132
0.685032606 0.326925874 0.111170873
0.703746736 0.328376263 0.111367568
0.003400875 0.237715617 0.097515255
0.079467319 0.258906156 0.098178871
0.128840074 0.272177935 0.089627005
0.186076507 0.295265794 0.079947367
0.252027541 0.321915001 0.062603936
0.328211427 0.351332188 0.045995496
0.401191711 0.372137219 0.026565308
0.464705884 0.383989573 0.021735113
0.508269608 0.386497974 0.039955683
0.543304622 0.386001348 0.074185848
0.572216392 0.383426964 0.093144238
0.601633906 0.381713569 0.110328250
0.628181279 0.377562642 0.114311442
0.653996587 0.378671885 0.116329685
0.675537586 0.376532346 0.117790505
0.695136130 0.375445157 0.117680505
0.715763211 0.375949830 0.123185873
0.002907882 0.277947634 0.108169384
0.095936388 0.297564596 0.106245264
0.141817257 0.308002383 0.097734571
0.193901017 0.326893300 0.088405125
0.251900673 0.349354029 0.072372630
0.320297658 0.375545323 0.048315316
0.386989444 0.397063524 0.027107432
0.453686744 0.415977716 0.008033306
0.515981078 0.431783378 0.000295874
0.555411339 0.437439412 0.005125615
0.591368318 0.436658382 0.038236786
0.618503869 0.433024526 0.072102964
0.642045736 0.429550171 0.097957924
0.665659606 0.428845972 0.113965139
0.687417388 0.428151548 0.123991445
0.705784798 0.424814343 0.127283245
0.724736214 0.424859285 0.128704995
0.020552319 0.314613134 0.116735816
0.108130246 0.331642419 0.112451874
0.155755386 0.342426896 0.106175125
0.204259068 0.357534677 0.096748993
0.256797791 0.376209617 0.079002321
0.315357208 0.399878114 0.056006629
0.379083246 0.424620062 0.032479621
0.444931835 0.445578694 0.013159488
0.504384220 0.460439712 0.000000000
0.556825578 0.474675566 0.000000000
0.602674365 0.484711438 0.000689936
0.633777380 0.483798772 0.018383805
0.658799767 0.481806934 0.048481494
0.680225849 0.480082899 0.079218023
0.700767040 0.477603674 0.105401933
0.718622863 0.473941743 0.124165833
0.736930072 0.471385330 0.133769870
0.026516061 0.350033075 0.126628131
0.132176697 0.367577732 0.123664998
0.169401631 0.374017298 0.112903319
0.216909572 0.389415979 0.105281070
0.262364954 0.407428443 0.092742808
0.316938281 0.426644504 0.067881435
0.374677360 0.448969692 0.040052682
0.433663666 0.469318181 0.019763615
0.496307492 0.488133669 0.004386500
0.547018647 0.501620054 0.000000000
0.595163703 0.513664544 0.000000000
0.641003907 0.524629653 0.000000000
0.669523776 0.526241064 0.004780754
0.694083691 0.527214289 0.022671580
0.716326237 0.526833653 0.050843537
0.733631492 0.522732615 0.080501400
0.748784423 0.520983100 0.109046377
0.056430817 0.386477917 0.136939049
0.149349198 0.399935871 0.132199124
0.185386881 0.407136232 0.121402688
0.228433207 0.420683146 0.115428321
0.274163634 0.436205596 0.103346184
0.324169815 0.453120828 0.082760692
0.372457206 0.471498609 0.055370934
0.430570960 0.492151827 0.034155183
0.487605184 0.510068893 0.018087808
0.542345643 0.527308464 0.009216312
0.586723030 0.538259089 0.000887250
0.633259296 0.550830722 0.000000000
0.671651185 0.558814526 0.000000000
0.702207506 0.566078961 0.000000002
0.725177288 0.565926552 0.001872755
0.745483518 0.565313160 0.013307216
0.763181269 0.563585460 0.052968189
0.087877750 0.418723106 0.145947635
0.165635809 0.430953562 0.141707823
0.202695817 0.438170403 0.132709682
0.243282899 0.449237287 0.126610875
0.285108030 0.462507576 0.114345364
0.330906272 0.478342503 0.100169562
0.377494723 0.494772762 0.077833861
0.427087158 0.511655748 0.052170739
0.480704397 0.530420661 0.030902434
0.534575760 0.547729373 0.016264126
0.578516603 0.561863005 0.005667812
0.622544944 0.573666990 0.000739688
0.663297951 0.582880497 0.000000000
0.699435472 0.592536330 0.000000000
0.730465114 0.599331200 0.000000000
0.752607644 0.600121915 0.000000000
0.771769047 0.601726532 0.002956875
0.105193198 0.448729396 0.156006753
0.187110767 0.461154163 0.152851313
0.222242370 0.466409177 0.141641632
0.257768273 0.476502866 0.137258619
0.298553646 0.488381445 0.126544192
0.338769883 0.502335191 0.113672934
0.380471945 0.516471088 0.093867868
0.427751213 0.533765793 0.071009554
0.477196574 0.549665153 0.044695497
0.527464032 0.566888809 0.019221317
0.572898626 0.582554758 0.002957250
0.616215587 0.595442593 0.000000000
0.656229317 0.606260002 0.000000000
0.690205097 0.614039898 0.000000000
0.724786222 0.623217404 0.000000000
0.756221473 0.629717708 0.000000000
0.778330684 0.632617950 0.000000000
0.134096101 0.478244960 0.168357015
0.212541208 0.489371270 0.162820324
0.241371080 0.494071484 0.152230754
0.275916964 0.503106713 0.149100393
0.313158303 0.515307903 0.142419949
0.349752694 0.527335942 0.128884315
0.388834774 0.539627552 0.110014379
0.431300759 0.555519819 0.087376878
0.477989703 0.571073532 0.055693820
0.523811340 0.586114407 0.030015007
0.567780197 0.600964069 0.009314958
0.610468268 0.613390803 0.000000000
0.650726736 0.624242961 0.000000000
0.685845852 0.631952763 0.000000000
0.717728078 0.639170349 0.000000000
0.747925162 0.647806466 0.000000000
0.777118683 0.653738618 0.000000000
0.172797337 0.509123206 0.181374148
0.233381212 0.518390000 0.174402520
0.260482609 0.522801340 0.165589198
0.295534015 0.531601906 0.162224129
0.328289181 0.541863680 0.154840574
0.362444639 0.553164721 0.145206645
0.400049716 0.564638495 0.128784314
0.439635098 0.578011453 0.107441142
0.483907014 0.591602981 0.079438701
0.525405586 0.604161680 0.048585534
0.564317524 0.616741896 0.026269455
0.607723236 0.628913045 0.013110157
0.646287739 0.640584230 0.002957018
0.682321966 0.649725974 0.000000000
0.714077175 0.657956541 0.000000000
0.742365658 0.664089203 0.000000000
0.770286560 0.671990037 0.000000000
0.200674787 0.539066792 0.195389256
0.256442159 0.547834158 0.187656999
0.282189697 0.551950336 0.176757768
0.313725501 0.560184717 0.176125392
0.343053848 0.568245590 0.169492841
0.376386970 0.577095449 0.159607008
0.411545157 0.587782681 0.148129955
0.451379657 0.599225521 0.132257074
0.492168963 0.610659420 0.108792894
0.529609084 0.621833503 0.084489778
0.566934347 0.632944345 0.057806537
0.606968701 0.645765722 0.041645586
0.645674765 0.655906498 0.029472649
0.679029047 0.667679012 0.022474203
0.711775661 0.673512101 0.009708943
0.742259681 0.681253254 0.003104759
0.767660081 0.686829090 0.000049316
0.230821699 0.565769553 0.209794119
0.282160163 0.573069453 0.199478000
0.305673659 0.576097965 0.190465629
0.330965161 0.583430886 0.189935371
0.359770060 0.589176655 0.183009699
0.392550766 0.599405646 0.176574618
0.426255524 0.607717872 0.166019693
0.464460075 0.620020092 0.156279489
0.501003742 0.629821062 0.136981487
0.537024319 0.639777124 0.117037192
0.569451869 0.649143994 0.089205191
0.605031133 0.659885645 0.069823436
0.642942250 0.671612263 0.057053059
0.677466512 0.680431247 0.043003805
0.709782720 0.690669835 0.030656237
0.739333153 0.696978807 0.019615870
0.765899479 0.704051793 0.016708249
0.000000000 0.000000000 0.067402750
0.076060742 0.003943000 0.098089248
0.133205876 0.003943000 0.102942377
0.191432893 0.001084687 0.108919501
0.246720999 0.000000000 0.103985503
0.295878559 0.000000000 0.094274133
0.335725904 0.000000000 0.090587378
0.371171892 0.000000000 0.082909063
0.398937017 0.000000000 0.076543249
0.424888313 0.000000000 0.070872188
0.445485741 0.000000000 0.064245626
0.464961439 0.000000000 0.059011623
0.483617127 0.000000000 0.056491502
0.501240373 0.000000000 0.052678935
0.514114261 0.000000000 0.049408868
0.525920212 0.000000000 0.045589376
0.536751509 0.000000000 0.044449877
0.000000000 0.020108689 0.039625626
0.056618441 0.090120316 0.110041939
0.114770181 0.103416689 0.122397251
0.173970267 0.103896372 0.118715875
0.224247128 0.110577688 0.113243625
0.270964444 0.114308812 0.107619688
0.318082660 0.120540060 0.106256440
0.365006387 0.127869874 0.104711317
0.411979645 0.133387998 0.104263067
0.449927509 0.137127638 0.104534939
0.487025052 0.143904313 0.105752759
0.522233963 0.151963070 0.108296372
0.553495646 0.158425614 0.108610563
0.579181731 0.160863638 0.109623559
0.603736520 0.167434886 0.113322191
0.626932979 0.170744807 0.114929624
0.648906171 0.178943694 0.116988875
0.000000000 0.034204125 0.040206876
0.067050062 0.137314498 0.129171252
0.107412003 0.148059011 0.125270367
0.187630132 0.161552370 0.143528670
0.245915890 0.169759750 0.144034997
0.295765758 0.177541122 0.142564327
0.340604246 0.185885251 0.140728235
0.389907837 0.195927188 0.142089874
0.435616612 0.203013614 0.142259747
0.474107057 0.210411817 0.142587885
0.511974871 0.217357501 0.143883988
0.547565937 0.224763274 0.145430505
0.579180002 0.230802506 0.146496996
0.605870187 0.238129869 0.150621638
0.630288482 0.240839005 0.149302006
0.654366016 0.247914881 0.151157826
0.675363660 0.253641605 0.156487375
0.000000000 0.061055381 0.050874755
0.062471751 0.178376511 0.137340561
0.128927708 0.198797256 0.146797493
0.197906449 0.211334020 0.149010241
0.261583656 0.212846637 0.155265883
0.315375358 0.220123261 0.158061445
0.365237832 0.227860391 0.160935760
0.411982298 0.235181004 0.157068059
0.452348620 0.240050122 0.154181942
0.492444873 0.247756377 0.156087324
0.526796997 0.252017289 0.153558999
0.561639607 0.259126306 0.154821366
0.590296745 0.263169676 0.152429193
0.618886828 0.269275784 0.155248195
0.642979026 0.273582995 0.155038506
0.665417254 0.278964698 0.156831622
0.684512436 0.280771434 0.156422809
0.000000000 0.098764375 0.070098877
0.058974378 0.210446104 0.137810811
0.128960878 0.232868880 0.150015742
0.186210498 0.249258384 0.139993265
0.272578895 0.270423084 0.143524632
0.332648784 0.273164153 0.158235058
0.380745620 0.274232358 0.168034136
0.426658601 0.277041763 0.167590871
0.470179260 0.281316876 0.167640373
0.507126927 0.286153704 0.167353243
0.544285834 0.290250510 0.167681128
0.574961782 0.294270217 0.167576313
0.603871763 0.297724247 0.164762869
0.630706191 0.303527772 0.168421328
0.653626800 0.306335241 0.166558385
0.675247788 0.310314000 0.167881429
