public/lut/28.cube
TITLE "17x17x17 Adobe/IRIDAS cube 3D LUT exported with GrossGrade v0.2.2 (beta) 64 bit"
DOMAIN_MIN 0 0 0
DOMAIN_MAX 1 1 1
LUT_3D_SIZE 17
0.035486002 0.043264002 0.044737998
0.065497749 0.055366687 0.044828188
0.133655623 0.077315249 0.041853625
0.201493323 0.098136008 0.035781685
0.269659251 0.115085006 0.029571250
0.328632921 0.128480121 0.027846562
0.374547392 0.137723118 0.026812000
0.414168715 0.144772753 0.026023000
0.446667016 0.151391506 0.026023000
0.472915322 0.157361135 0.026023000
0.494449735 0.161728382 0.026023000
0.515059710 0.166198120 0.026269563
0.536503494 0.171183497 0.027008999
0.557658315 0.176021367 0.028388999
0.576818883 0.180418879 0.029177001
0.596326292 0.186206639 0.029966000
0.614111006 0.192930996 0.030754000
0.039330438 0.066287942 0.067463934
0.063881874 0.075509444 0.057322063
0.133634061 0.104236692 0.051726628
0.209898889 0.127251625 0.040786870
0.285114437 0.146143988 0.030360252
0.348858118 0.160250872 0.026812000
0.401962012 0.171491995 0.026022999
0.447947681 0.181895822 0.026023000
0.485022128 0.190639436 0.025234001
0.515969217 0.197544187 0.025579188
0.542676568 0.204935625 0.026318876
0.566684365 0.212219134 0.026812000
0.589105189 0.218077362 0.027600002
0.610533357 0.223517999 0.028536752
0.631005049 0.230398029 0.029916689
0.649532557 0.237580195 0.030704750
0.665053189 0.243651867 0.031493690
0.048454124 0.108289249 0.102593750
0.085465878 0.119381189 0.085014127
0.142192125 0.136356756 0.062299378
0.213868275 0.157657877 0.048719183
0.297215402 0.177987009 0.033711374
0.365541726 0.194237992 0.028536750
0.423943758 0.208140999 0.026713373
0.475542963 0.220958561 0.026023002
0.518406391 0.233264387 0.026713375
0.554312289 0.244669065 0.027945187
0.585636377 0.253648639 0.029078500
0.614329219 0.262528360 0.030113624
0.639378667 0.271404505 0.031444378
0.662407041 0.280002952 0.032922875
0.682712257 0.287445873 0.033810381
0.701055884 0.294059336 0.035288878
0.716174364 0.301849008 0.036865875
0.075313501 0.154671386 0.137560517
0.109859757 0.163290009 0.111660503
0.175459459 0.185185149 0.081558131
0.237136275 0.198160142 0.060685065
0.314803451 0.215480939 0.042317562
0.386897385 0.232843757 0.033859562
0.447212905 0.248541817 0.030606249
0.502614379 0.264923900 0.029818064
0.548586071 0.278839707 0.030852815
0.587146759 0.290686250 0.033169501
0.622288406 0.301920116 0.035337880
0.654808283 0.312978327 0.036865938
0.681347668 0.323135704 0.039967816
0.704283834 0.332589805 0.043577880
0.724090636 0.341479093 0.046871006
0.741086721 0.348396808 0.048188690
0.755751252 0.356116295 0.051456191
0.103653505 0.204398751 0.172185749
0.151734576 0.217171133 0.138874248
0.217759997 0.240336120 0.098251499
0.290871561 0.258802623 0.072970308
0.351184517 0.266160756 0.053971753
0.409930497 0.276742071 0.042274378
0.472632289 0.293348372 0.038147125
0.530194402 0.310117275 0.038048502
0.577238500 0.325117499 0.040208500
0.617649615 0.338060707 0.042629439
0.655052662 0.350779384 0.046696000
0.688361168 0.362554878 0.051044565
0.714742005 0.372933745 0.054744001
0.736615241 0.381705314 0.058857255
0.756566405 0.391569138 0.064138636
0.774192035 0.400393307 0.068698570
0.787693739 0.408114761 0.073743500
0.128729746 0.251103938 0.204054937
0.184620872 0.267711937 0.167058676
0.260549128 0.293860048 0.121938996
0.336578250 0.312419176 0.092021301
0.407773852 0.326715171 0.073704250
0.453386247 0.329985052 0.060117565
0.500667870 0.338311106 0.053311501
0.558087885 0.353577554 0.051746689
0.605380654 0.368075371 0.054027874
0.645009100 0.381828427 0.058695626
0.681620657 0.394239992 0.063300997
0.715365767 0.405896455 0.068783939
0.742459655 0.416859567 0.075235941
0.764462709 0.426778972 0.081981823
0.783159018 0.436086267 0.087623127
0.799381137 0.444939494 0.093485072
0.811568320 0.452271760 0.099353068
0.148586005 0.296127260 0.234120384
0.214831814 0.316022366 0.195670813
0.303042024 0.346474886 0.145639256
0.383337677 0.366163194 0.114983380
0.459072173 0.382698148 0.096549131
0.512331486 0.390346080 0.082217820
0.547135174 0.391852021 0.072916135
0.586852133 0.397486836 0.068700381
0.632178128 0.409094542 0.071854249
0.670133471 0.420691252 0.077784821
0.705943882 0.433301270 0.085393384
0.737931192 0.444109708 0.092206508
0.765216768 0.454944402 0.099898882
0.787448347 0.465564400 0.109496832
0.804415524 0.474839777 0.118148640
0.818587363 0.482047021 0.122734264
0.830432117 0.489460409 0.128378645
0.161875501 0.337696046 0.262038440
0.243372068 0.361935288 0.224685192
0.341032356 0.394360274 0.169901878
0.424235612 0.414030731 0.140943080
0.499860317 0.429758906 0.121972203
0.559339881 0.441034228 0.110065892
0.597682536 0.444672823 0.100641765
0.627727211 0.445111960 0.093337260
0.658613741 0.448762655 0.092433825
0.694474220 0.457598209 0.097894944
0.728643000 0.468495280 0.106882572
0.760351241 0.480144411 0.117708318
0.786019862 0.490304410 0.126650020
0.806673706 0.499694467 0.135865912
0.822269320 0.508620918 0.146843463
0.835230410 0.516596735 0.155342698
0.845619678 0.523159504 0.161290959
0.172046512 0.372672498 0.287863493
0.261002243 0.398424834 0.252000153
0.366809249 0.431677401 0.196969122
0.453779578 0.451543272 0.167181760
0.528380275 0.466470540 0.148773998
0.591631174 0.478914499 0.138703197
0.631563902 0.483704269 0.129897252
0.663362980 0.486055911 0.123860255
0.689504981 0.487208009 0.120365500
0.715962291 0.491603434 0.122385383
0.749238968 0.501368046 0.131040245
0.779727697 0.512040257 0.143122435
0.802761793 0.520960987 0.154135510
0.821670532 0.530121565 0.164889783
0.836031854 0.538688600 0.176113784
0.848334610 0.547695160 0.187679157
0.857376516 0.554085970 0.195005000
0.178366691 0.401998073 0.311763316
0.270854056 0.428459734 0.277367860
0.386131048 0.462366402 0.224040687
0.476446509 0.482529998 0.191528752
0.550911903 0.497279882 0.175199449
0.616718054 0.510721803 0.165277928
0.659753859 0.517203152 0.158717066
0.691905499 0.520608902 0.154610857
0.719864547 0.522709668 0.151641130
0.742436230 0.525703251 0.153478444
0.765348256 0.530938447 0.159760803
0.794295251 0.540100336 0.171852067
0.815517306 0.548109412 0.183244631
0.832635880 0.556294203 0.196191698
0.845785379 0.565381348 0.209761828
0.857715309 0.574583173 0.221246570
0.866018236 0.581352592 0.229111180
0.177574128 0.426753998 0.334649622
0.277780235 0.454371005 0.302546948
0.401534617 0.488803983 0.248013243
0.494261503 0.509177327 0.213419378
0.568287492 0.523117900 0.197589993
0.635704160 0.536194742 0.187876061
0.682350636 0.545219898 0.184880376
0.714145660 0.548837900 0.182713315
0.743272901 0.552185833 0.181987762
0.766405880 0.555971503 0.185399130
0.786129892 0.560596347 0.192551136
0.806327224 0.566335320 0.201743513
0.827366352 0.574165404 0.214839116
0.842504680 0.581906497 0.229445323
0.853988111 0.589707136 0.244083375
0.864791572 0.598371923 0.256689072
0.873048246 0.605575383 0.265050471
0.176779002 0.448112994 0.356666923
0.276890785 0.475907743 0.325907797
0.409321755 0.510209858 0.272722006
0.507946312 0.532368600 0.234485120
0.580252528 0.545355201 0.219078630
0.648872495 0.558255732 0.209549621
0.699264586 0.568908691 0.208215877
0.731684446 0.573368907 0.207945630
0.761027634 0.577494800 0.210451499
0.785990238 0.582686722 0.217098251
0.805364728 0.587811649 0.225748867
0.821552157 0.592783391 0.235495389
0.836751878 0.598693848 0.247204944
0.851241827 0.606391251 0.263190120
0.862674356 0.614100099 0.278610319
0.872288644 0.621917546 0.292076498
0.879500568 0.628155828 0.301366806
0.176821008 0.466577262 0.376679748
0.268240213 0.492765009 0.346502602
0.407887131 0.526870489 0.298478276
0.515315711 0.551615119 0.253686547
0.587785959 0.563940763 0.237303764
0.655789912 0.576366723 0.229723826
0.709894001 0.587615013 0.228879616
0.745081544 0.593626559 0.229946122
0.773988485 0.598286986 0.234311998
0.799612641 0.604007602 0.244377509
0.819376290 0.610318959 0.256185502
0.834622145 0.615852118 0.267159015
0.847066045 0.621866763 0.280336261
0.859057188 0.629116476 0.296404481
0.870349884 0.637321413 0.313408017
0.878913879 0.644704700 0.328369439
0.885284483 0.650755048 0.339919269
0.174822062 0.481549263 0.394686222
0.258621752 0.506126642 0.364407122
0.403247625 0.540563345 0.321953595
0.519029498 0.567572117 0.272752345
0.593987823 0.579568386 0.254305571
0.659719408 0.591411054 0.248119339
0.716047704 0.602634668 0.247695446
0.755328536 0.610934198 0.251319647
0.783676088 0.615674496 0.257130563
0.809807956 0.621709645 0.267614156
0.829995751 0.629621208 0.284032345
0.844610929 0.636935532 0.300364107
0.856589198 0.643179119 0.314214051
0.866971254 0.650064886 0.330811560
0.875416338 0.657746851 0.348985314
0.883247733 0.664993525 0.365484029
0.888650656 0.671618700 0.379779100
0.171532005 0.494781882 0.411755174
0.250152737 0.518115282 0.382275760
0.398084372 0.552836239 0.343249649
0.518805504 0.581879199 0.294130415
0.597816467 0.593914390 0.272242129
0.662734807 0.604640603 0.265098870
0.719270229 0.615450740 0.263498753
0.761933506 0.625220835 0.269373804
0.791358054 0.630732894 0.276534766
0.816831648 0.636012495 0.284974694
0.836524606 0.644727349 0.305562794
0.851033032 0.654856205 0.330418944
0.863735139 0.662570834 0.348835796
0.873717666 0.669303119 0.364824414
0.878794611 0.675999999 0.385428309
0.884527564 0.683135748 0.404176891
0.890062213 0.689918637 0.418749034
0.165974885 0.505103528 0.428247601
0.236801565 0.527036548 0.400768340
0.388077050 0.562044024 0.364717215
0.511543512 0.593024611 0.317556649
0.595701098 0.605385780 0.287541419
0.660497665 0.614672780 0.277276576
0.718506813 0.625840664 0.275895238
0.762938678 0.636564016 0.283495486
0.796083510 0.643797159 0.292479753
0.821214378 0.648890316 0.301586926
0.840363503 0.657569170 0.322602630
0.855057240 0.669522822 0.353475690
0.868790388 0.679977655 0.380642146
0.877773523 0.687031507 0.399330407
0.882862866 0.693857193 0.419089675
0.886825323 0.700666487 0.440454125
0.891471863 0.707270086 0.454925984
0.160215005 0.518060982 0.448125005
0.222564816 0.538264632 0.421341777
0.372266144 0.572974920 0.385796607
0.499451309 0.605333209 0.348215818
0.586531997 0.620149970 0.316406995
0.654491961 0.627289355 0.297282249
0.715325713 0.637285411 0.290715009
0.759361804 0.646989763 0.296824336
0.795028448 0.655915976 0.306874990
0.822320521 0.661123216 0.317180872
0.841776133 0.668312013 0.336466998
0.856083632 0.678889513 0.365377247
0.868840516 0.691015780 0.399224281
0.879230380 0.701947749 0.431402773
0.884929240 0.708864212 0.452025533
0.888007045 0.714637339 0.469705015
0.889464021 0.718752027 0.483375013
0.031690877 0.045417689 0.055325374
0.056995809 0.058996186 0.070471436
0.119488254 0.079642750 0.070962690
0.187506571 0.100825757 0.066930376
0.254756570 0.116160691 0.055103809
0.316911310 0.129369870 0.049979188
0.364428163 0.137597382 0.044300437
0.403353035 0.142480806 0.038935684
0.434858084 0.146300495 0.036767311
0.460796386 0.150450945 0.035978314
0.482649565 0.153517872 0.033366688
0.501719475 0.155356005 0.031888250
0.522618353 0.158118322 0.032381125
0.543956280 0.161387637 0.033711813
0.563796103 0.165178061 0.033761125
0.581426799 0.168893248 0.032972183
0.598591745 0.173796758 0.032282688
0.037062999 0.070999190 0.080763623
0.061062001 0.083039314 0.084025241
0.133482128 0.109606378 0.077056378
0.216620088 0.133973747 0.071743436
0.288242877 0.151183292 0.060015500
0.355215788 0.164799690 0.050983999
0.406307161 0.172974005 0.045433875
0.447057694 0.179159045 0.041601501
0.481706291 0.185032129 0.039379437
0.512459338 0.190087616 0.037900999
0.539366007 0.194738567 0.036717996
0.562551260 0.199367493 0.036717996
0.584320426 0.205099300 0.037506998
0.606077373 0.210449755 0.038295001
0.627254903 0.214348495 0.038344312
0.646242917 0.219452500 0.038344312
0.661037207 0.226473138 0.038393561
0.046438500 0.115843564 0.122415304
0.079812750 0.125459567 0.117098689
0.136826128 0.140076563 0.092432871
0.220206693 0.166672871 0.082001567
0.301063746 0.185991555 0.066743255
0.373217493 0.201314881 0.055125877
0.429088771 0.211788937 0.048771255
0.477935940 0.222316384 0.046183936
0.519972622 0.232687369 0.044748314
0.553737760 0.239833996 0.043379497
0.582968712 0.245288566 0.041932188
0.610421658 0.253070384 0.042215250
0.635103703 0.262011230 0.045029379
0.657191575 0.268025428 0.046290938
0.677038610 0.272294760 0.046956189
0.694937348 0.277994096 0.047050063
0.708888531 0.285298198 0.048360564
0.067453437 0.159559205 0.156834766
0.101517379 0.169642389 0.148436084
0.163782433 0.186687887 0.119827501
0.238463461 0.206822962 0.094076574
0.313012749 0.224106193 0.076066382
0.390530676 0.241045266 0.062889881
0.453432202 0.256681234 0.057687122
0.505954981 0.270661086 0.053834502
0.551714182 0.282688439 0.053149439
0.591302514 0.293030262 0.052588940
0.624243379 0.302358836 0.052785818
0.652761459 0.311247617 0.053638630
0.678292692 0.320261568 0.057152696
0.702160478 0.328088313 0.060009319
0.722375631 0.334884644 0.061553441
0.739436090 0.340762228 0.061990380
0.752959669 0.347210318 0.064898379
0.090864502 0.208902448 0.194026947
0.131916940 0.219010144 0.180819243
0.197719634 0.237754747 0.145421371
0.280952066 0.263149768 0.112348624
0.345577776 0.274492294 0.093151182
0.412527740 0.285606742 0.076943874
0.478640676 0.302155823 0.071184814
0.532371044 0.317185968 0.070121624
0.578781307 0.330257505 0.070339441
0.619584143 0.340614319 0.069794692
0.654660106 0.350961089 0.071899123
0.684033394 0.361159772 0.076798752
0.710063994 0.370545417 0.080322750
0.734293461 0.378880680 0.082248196
0.756305158 0.387641609 0.086113878
0.773551106 0.395245254 0.089258693
0.785638928 0.400684744 0.090272695
0.114531688 0.255614012 0.226349443
0.156567067 0.267555654 0.211391076
0.231833622 0.289622486 0.171949744
0.318396658 0.315590411 0.134003624
0.394343019 0.333057165 0.112557814
0.450939566 0.339653552 0.095770754
0.503841996 0.348124266 0.085899122
0.557885945 0.361652255 0.083417058
0.603848159 0.374817699 0.086855195
0.644065201 0.386407554 0.089867190
0.678718984 0.396016061 0.092110999
0.709458470 0.406093925 0.097275123
0.736769974 0.416285008 0.104627624
0.761095345 0.424785912 0.109069005
0.781101584 0.432674229 0.112313382
0.797321439 0.440056622 0.115448065
0.808945179 0.445956051 0.118208185
0.132695556 0.299318403 0.257401824
0.176276311 0.312259436 0.241056442
0.263865560 0.339421868 0.198533759
0.355222046 0.365792453 0.158600882
0.435723841 0.384301275 0.135436133
0.499184191 0.395832837 0.120136008
0.543678641 0.399492890 0.107655883
0.583637953 0.405026942 0.102280952
0.628197491 0.415632278 0.104114503
0.666820526 0.426116645 0.109416187
0.701782107 0.436896890 0.115109690
0.732069194 0.446938753 0.121145822
0.759209573 0.456676424 0.128175452
0.783541203 0.465896636 0.135218948
0.802510858 0.473533511 0.140327007
0.817402363 0.480353206 0.142712072
0.829183936 0.487172008 0.148102194
0.143991113 0.338596165 0.286739349
0.189324379 0.352324963 0.268621117
0.295886397 0.384554148 0.225457639
0.392054290 0.411290497 0.183813080
0.473046094 0.429854274 0.161765143
0.541195214 0.443815589 0.147036761
0.589519024 0.449503630 0.134321630
0.621724844 0.451196522 0.128983572
0.653071404 0.454206556 0.126772314
0.689692855 0.462197334 0.131273255
0.722915292 0.471252739 0.138807267
0.753123283 0.482424051 0.149221331
0.778036833 0.491755694 0.158468634
0.801558971 0.500378847 0.163905561
0.820672870 0.508661091 0.169450954
0.834328115 0.516189337 0.175226763
0.844791293 0.522325456 0.180014014
0.153267324 0.371676505 0.311086625
0.198653445 0.387040675 0.293720752
0.318078518 0.421582818 0.252231270
0.420809627 0.449330837 0.207034320
0.502266526 0.467311263 0.186592877
0.570638657 0.481400758 0.173268631
0.622985005 0.488995820 0.160487011
0.658269048 0.493125856 0.156253383
0.684946656 0.494656354 0.154643014
0.712851882 0.498079956 0.154925629
0.744944096 0.506023765 0.163204372
0.772525251 0.514791012 0.175055951
0.795240283 0.523329616 0.186976761
0.816751719 0.532004595 0.195741639
0.834610462 0.539720953 0.201095954
0.847268403 0.547499716 0.210033268
0.855518103 0.552701354 0.215043932
0.160319746 0.399991691 0.333755672
0.202581629 0.415978462 0.317075372
0.329238594 0.451623738 0.277287751
0.439933896 0.480926186 0.230775237
0.524897218 0.498752654 0.208524004
0.591869235 0.512268066 0.196756378
0.649144232 0.523090422 0.189285323
0.685938299 0.526995778 0.181477755
0.714664698 0.531218410 0.184048206
0.739409566 0.533749938 0.185043439
0.763608098 0.538100958 0.190055490
0.790514767 0.546194375 0.201997623
0.810730636 0.553566098 0.214922309
0.829130411 0.560900569 0.226871058
0.845248580 0.569038033 0.235192314
0.857497036 0.576672077 0.244097322
0.864483058 0.581859469 0.250315547
0.161757499 0.423803121 0.356808484
0.200227007 0.439882487 0.339768082
0.338662565 0.476993442 0.298562557
0.454970717 0.506805837 0.251799613
0.542259037 0.524221718 0.228211865
0.609234512 0.537430763 0.218684137
0.668031037 0.549532235 0.213484436
0.706219554 0.554303586 0.208843574
0.737002194 0.558538198 0.208248615
0.761925161 0.563681364 0.216221437
0.784173071 0.567841589 0.222258508
0.803266943 0.573691130 0.233033925
0.823710144 0.581533670 0.246058822
0.839946210 0.588194191 0.258479118
0.854315937 0.595677793 0.268926919
0.866136968 0.604028285 0.279094040
0.872761250 0.609538257 0.286455512
0.162462816 0.444882691 0.378920108
0.194844440 0.459422559 0.360722750
0.346923947 0.497856617 0.318168849
0.467882514 0.528731525 0.270249486
0.555725873 0.545975089 0.246678740
0.623552501 0.558708131 0.238298818
0.682234347 0.571215868 0.235115245
0.722974241 0.578174055 0.233884141
0.753747880 0.582582712 0.235041872
0.780733764 0.588160276 0.241753563
0.801952064 0.593764842 0.253068924
0.818306088 0.599537015 0.265377879
0.833238184 0.606044710 0.279464751
0.849408388 0.613298178 0.292631954
0.863154829 0.620727360 0.303533614
0.873267114 0.628159583 0.314913869
0.879651666 0.634062946 0.323817253
0.163302064 0.463307768 0.397951424
0.190295056 0.476065248 0.380533189
0.345542312 0.514827490 0.338100374
0.474138409 0.547390997 0.288183331
0.565159857 0.565027058 0.262863874
0.632174492 0.577042460 0.255604357
0.691585422 0.589369416 0.253490955
0.736517847 0.598482907 0.254599929
0.766787887 0.603024304 0.257074684
0.794509053 0.608315885 0.263466895
0.815887690 0.615800977 0.278681397
0.831835449 0.622561514 0.294758707
0.843926311 0.629409850 0.311322302
0.856775701 0.636592984 0.326982528
0.869881868 0.643703997 0.339276135
0.879190743 0.650463998 0.352364749
0.884458125 0.656283140 0.363918424
0.162233070 0.478368253 0.413918644
0.185525626 0.490000129 0.398145765
0.340411454 0.528996050 0.354520053
0.477395326 0.562993705 0.305207640
0.573145092 0.581666410 0.277606279
0.637625575 0.592985272 0.271621227
0.698029518 0.604889810 0.270281911
0.746618032 0.615464330 0.273333311
0.777250051 0.620871782 0.278043956
0.804689884 0.626138031 0.284980476
0.826940298 0.632741570 0.296773136
0.841834784 0.642066181 0.320424408
0.853603303 0.650021315 0.340276271
0.864067554 0.657509506 0.358803809
0.873716354 0.664197922 0.374539346
0.881825745 0.670584679 0.389753163
0.887306571 0.677784443 0.403846741
0.159528121 0.490578443 0.428889692
0.180153310 0.502097785 0.414837778
0.334732443 0.541552424 0.369712323
0.477945775 0.576349914 0.323705137
0.578705311 0.596478164 0.292603433
0.642887235 0.606824934 0.286282778
0.702212930 0.618139982 0.284612685
0.752473235 0.628943026 0.287839502
0.785845280 0.635750353 0.294438750
0.811785996 0.640638173 0.301817536
0.833668530 0.647356987 0.315900326
0.849204481 0.657569349 0.341088206
0.860964239 0.667385638 0.368106037
0.869567275 0.675295174 0.389205158
0.876664639 0.682945013 0.409631044
0.884205759 0.689958453 0.426851988
0.889207184 0.697092891 0.440849841
0.154744640 0.500775039 0.444185227
0.172864810 0.511554956 0.430003107
0.325919986 0.551424205 0.385485291
0.472812593 0.586554050 0.344565302
0.578794718 0.608256638 0.306261688
0.644215047 0.617477179 0.296333551
0.703202367 0.628731668 0.295061260
0.753733039 0.639856637 0.299677402
0.791394651 0.648585141 0.307894737
0.817103446 0.653466463 0.316487193
0.837993264 0.660384297 0.332075417
0.854025006 0.670612156 0.357937664
0.866165936 0.682917118 0.392936587
0.874393463 0.692456305 0.419434518
0.881096363 0.700371504 0.440433145
0.886145115 0.707855284 0.461553752
0.888739347 0.712789714 0.475072026
0.150085434 0.513937593 0.462948203
0.164892063 0.522156954 0.448856801
0.312329054 0.562005877 0.403302580
0.463143140 0.597180307 0.367751509
0.570352018 0.621240139 0.331446886
0.640395105 0.628736615 0.310935438
0.701575577 0.638363600 0.303880781
0.750251293 0.648596764 0.308047116
0.788669646 0.658162296 0.318140686
0.818211555 0.664148033 0.328174114
0.839269280 0.670219302 0.343847871
0.855026543 0.679477394 0.368307948
0.867985964 0.691289961 0.401097804
0.876245201 0.704683840 0.444822788
0.882395804 0.713662863 0.470436722
0.885443509 0.719763339 0.488255113
0.887072563 0.724806845 0.503756583
0.030754000 0.050091248 0.072339378
0.047360748 0.062434379 0.090315379
0.101343378 0.082910374 0.111132376
0.170230880 0.105921008 0.117982879
0.239698499 0.122291625 0.116586000
0.298843920 0.134025991 0.109509937
0.349834889 0.142075747 0.104719497
0.391334057 0.147334561 0.096316874
0.423680991 0.150864244 0.090537004
0.450211257 0.153452560 0.086709812
0.473672122 0.155099750 0.081152000
0.493873805 0.155725002 0.072987497
0.514077842 0.156792253 0.069868505
0.534135401 0.157725930 0.069717623
0.553722739 0.157552630 0.068143494
0.572759867 0.158888564 0.060557112
0.590900600 0.162891746 0.055578999
0.035387438 0.080109000 0.105689064
0.055181060 0.089052863 0.103348307
0.112038560 0.111789316 0.119634189
0.195037574 0.137684315 0.119470440
0.271061003 0.154161438 0.113321692
0.336991012 0.166336134 0.099512003
0.392698318 0.175141871 0.093378067
0.436135948 0.180020243 0.087484859
0.469310671 0.182984695 0.077714868
0.498983324 0.185808927 0.071392685
0.526534319 0.188336194 0.070304193
0.550440252 0.190468132 0.068958066
0.571164370 0.192663014 0.063960120
0.592040360 0.196160257 0.059974745
0.613154888 0.199637920 0.060242064
0.632407665 0.203317001 0.059530497
0.648129225 0.208402872 0.054142311
0.045094624 0.123237878 0.146190882
0.075603314 0.133856490 0.143977821
0.121570870 0.145832881 0.139688134
0.209534153 0.170007005 0.127099991
0.296676606 0.191097379 0.121566370
0.366520941 0.205428764 0.112098560
0.425429523 0.215357631 0.103016630
0.474571168 0.221695364 0.096371375
0.514199793 0.227519870 0.088974990
0.546927810 0.232353121 0.085430004
0.576019883 0.236423373 0.081463374
0.603643775 0.239681557 0.079981498
0.628813207 0.244363755 0.078744248
0.651002526 0.249821275 0.078902379
0.670668364 0.255604744 0.077709876
0.688588977 0.260636568 0.076401874
0.703198910 0.266450614 0.071478374
0.062760063 0.167618454 0.183417886
0.094011135 0.178746879 0.178078696
0.146080047 0.189431384 0.169312000
0.219726205 0.208142370 0.142682761
0.306351632 0.229777336 0.129189447
0.384721428 0.248796850 0.120930254
0.449370325 0.262407541 0.113303378
0.502154708 0.272076994 0.106454372
0.546887755 0.281190068 0.099647939
0.585542440 0.289576769 0.098127812
0.618470669 0.296196371 0.095517501
0.646202981 0.300293624 0.093936443
0.670980334 0.305468917 0.093180828
0.694345534 0.313057154 0.094601192
0.715232015 0.319587737 0.094439700
0.732294440 0.323934078 0.092559822
0.746065378 0.328066230 0.090379819
0.080045126 0.215212882 0.221315503
0.118472308 0.225694433 0.211724192
0.170915633 0.235050499 0.198822737
0.246616274 0.256687313 0.168946549
0.330072641 0.277449250 0.145295262
0.401336640 0.291676611 0.131926820
0.469218642 0.307137609 0.125104755
0.526568413 0.321848303 0.121928692
0.573025823 0.333428383 0.117327631
0.612970829 0.342298746 0.114769630
0.648270130 0.349902511 0.114344127
0.678881466 0.356636882 0.114786007
0.705594838 0.363855004 0.114565872
0.729537547 0.371800065 0.114396818
0.751889765 0.379436612 0.115459256
0.769741952 0.384613872 0.114135377
