public/lut/28.cube
TITLE "17x17x17 Adobe/IRIDAS cube 3D LUT exported with GrossGrade v0.2.2 (beta) 64 bit"
DOMAIN_MIN 0 0 0
DOMAIN_MAX 1 1 1
LUT_3D_SIZE 5
0.035486002 0.043264002 0.044737998
0.269659251 0.115085006 0.029571250
0.446667016 0.151391506 0.026023000
0.536503494 0.171183497 0.027008999
0.614111006 0.192930996 0.030754000
0.103653505 0.204398751 0.172185749
0.351184517 0.266160756 0.053971753
0.577238500 0.325117499 0.040208500
0.714742005 0.372933745 0.054744001
0.787693739 0.408114761 0.073743500
0.172046512 0.372672498 0.287863493
0.528380275 0.466470540 0.148773998
0.689504981 0.487208009 0.120365500
0.802761793 0.520960987 0.154135510
0.857376516 0.554085970 0.195005000
0.176821008 0.466577262 0.376679748
0.587785959 0.563940763 0.237303764
0.773988485 0.598286986 0.234311998
0.847066045 0.621866763 0.280336261
0.885284483 0.650755048 0.339919269
0.160215005 0.518060982 0.448125005
0.586531997 0.620149970 0.316406995
0.795028448 0.655915976 0.306874990
0.868840516 0.691015780 0.399224281
0.889464021 0.718752027 0.483375013
0.032331999 0.065639749 0.114472002
0.193631023 0.130873740 0.192532003
0.409830511 0.163285747 0.203072757
0.508919239 0.167134494 0.190855250
0.584848762 0.155676499 0.166812748
0.067845993 0.233144253 0.273151010
0.251573503 0.268020004 0.250726283
0.546918750 0.323665261 0.226785511
0.689917207 0.342587501 0.208999515
0.768193543 0.351016253 0.183987260
0.112737760 0.376220018 0.387612760
0.336170495 0.439976037 0.358417243
0.615155220 0.504787326 0.309834480
0.771324754 0.531687975 0.312114775
0.850849748 0.547850788 0.300770521
0.125992507 0.454626739 0.458003253
0.347789496 0.543184280 0.429406524
0.677891493 0.621389031 0.407293737
0.812420011 0.652957559 0.432238996
0.876183271 0.684280753 0.472744524
0.124244995 0.499944001 0.509778261
0.357792765 0.617913008 0.510563254
0.691166699 0.693072498 0.491848737
0.841161549 0.729037762 0.523754537
0.878003001 0.751935244 0.587181985
0.035486002 0.103589505 0.176477492
0.103969499 0.129653499 0.230711013
0.329169512 0.182754010 0.298818499
0.462432742 0.194703251 0.312063485
0.566795468 0.185008496 0.306559980
0.056503251 0.247448504 0.323029995
0.171640247 0.267742246 0.318551481
0.416740000 0.315672785 0.376625746
0.602762282 0.327756763 0.368715525
0.719002962 0.314553738 0.328770280
0.085170001 0.379219532 0.443504512
0.264310241 0.437961757 0.442494512
0.475828528 0.485285491 0.454642475
0.704023302 0.514305830 0.444249243
0.813898981 0.524623036 0.423020005
0.101089254 0.447327733 0.500105023
0.273627758 0.528829038 0.507041335
0.528246999 0.606366038 0.526031196
0.741310239 0.665159047 0.554847479
0.855706215 0.700464547 0.584294319
0.110252000 0.496033490 0.544887006
0.297841251 0.606972992 0.573245287
0.610772014 0.714696050 0.641075492
0.787222743 0.769528985 0.685785770
0.870270014 0.808453977 0.751310468
0.037062999 0.138807505 0.237991005
0.043624748 0.129043743 0.251536995
0.253020763 0.179810256 0.327516258
0.404715240 0.210213006 0.362434030
0.531703234 0.216549009 0.378271759
0.048119500 0.257417023 0.361060739
0.120662250 0.273193479 0.351190001
0.269531012 0.285336733 0.401633739
0.487648755 0.330062270 0.446115494
0.654312253 0.317351997 0.435281485
0.071190998 0.370809227 0.456862241
0.203315765 0.424271733 0.467730761
0.392250746 0.465576738 0.493822008
0.596315503 0.506318986 0.537124753
0.754046559 0.484830737 0.504454970
0.086631253 0.439024478 0.513891816
0.237330750 0.524304271 0.544849992
0.475240767 0.601518214 0.580923498
0.640041709 0.662674308 0.617543757
0.836713731 0.696878254 0.643035769
0.101284251 0.489349484 0.557289243
0.257177770 0.596863747 0.607148528
0.562425971 0.707133472 0.673104048
0.763023496 0.778813004 0.729867697
0.868801236 0.817847729 0.777939260
0.038640000 0.163411006 0.300990999
0.038442999 0.129280001 0.269676000
0.082634509 0.152164519 0.323206991
0.300291538 0.197307259 0.392874002
0.479640990 0.223295003 0.428288996
0.043819748 0.248400256 0.387000740
0.049659997 0.243027747 0.364873737
0.058339253 0.219718739 0.376242995
0.257182032 0.266016245 0.451216996
0.541882038 0.313127995 0.503414750
0.058050502 0.359388500 0.468995988
0.090520009 0.369806290 0.462229013
0.122316003 0.362863988 0.467941523
0.236726522 0.379549742 0.518480241
0.626772523 0.459845513 0.585137010
0.071843505 0.420821995 0.513669014
0.149007514 0.476569772 0.538309276
0.283838034 0.539902031 0.582040250
0.427579284 0.588635206 0.632505298
0.772785246 0.675431252 0.707045019
0.083342999 0.466778994 0.553407013
0.178519011 0.550527215 0.597177505
0.450251997 0.678664505 0.679603994
0.703902245 0.769450545 0.753462732
0.866129994 0.827669978 0.805765986
