public/lut/29.cube
TITLE "17x17x17 Adobe/IRIDAS cube 3D LUT exported with GrossGrade v0.2.2 (beta) 64 bit"
DOMAIN_MIN 0 0 0
DOMAIN_MAX 1 1 1
LUT_3D_SIZE 5
0.019714000 0.019714000 0.011829000
0.315686226 0.018926000 0.011040000
0.470655024 0.018137001 0.011040000
0.576539993 0.017348999 0.009463000
0.658567011 0.016559999 0.011829000
0.018137001 0.233325496 0.011040000
0.305441499 0.247937009 0.011040000
0.531941533 0.251901984 0.011040000
0.684458017 0.236344501 0.010251000
0.781749487 0.220078006 0.009463000
0.017348999 0.355682492 0.010251000
0.285274744 0.425255507 0.010251000
0.561996460 0.454884529 0.010251000
0.744798779 0.456521243 0.009856999
0.858672976 0.448827505 0.009463000
0.015771000 0.458113015 0.009463000
0.213947251 0.560691237 0.009463000
0.546222746 0.618076503 0.009463000
0.766766787 0.640053034 0.009463000
0.898850739 0.645509779 0.008674000
0.014983000 0.568341017 0.037852000
0.118416257 0.669257283 0.013997249
0.505086482 0.740653992 0.009068499
0.749996781 0.780314982 0.008674000
0.908370018 0.794170976 0.008674000
0.028388999 0.018926000 0.189574003
0.297270536 0.018926000 0.244601741
0.476209760 0.018137001 0.250350237
0.590187252 0.017348999 0.250765234
0.672511756 0.016559999 0.252203494
0.018137001 0.278913736 0.241141498
0.203497753 0.300908506 0.263064742
0.518258989 0.294580281 0.301371723
0.688161790 0.275314003 0.308776230
0.792529762 0.254636765 0.318076015
0.017348999 0.414167225 0.243949264
0.156051993 0.481323510 0.279734224
0.530175269 0.508082449 0.296123743
0.733353019 0.502429783 0.308207989
0.855202496 0.488454521 0.318594754
0.015771000 0.511150718 0.249258503
0.067351751 0.610193193 0.277850240
0.491011024 0.661122739 0.280024260
0.742009461 0.681855023 0.299448252
0.886457443 0.682844281 0.310640514
0.014983000 0.609276474 0.261241734
0.077738754 0.705320776 0.284448743
0.453362048 0.770615280 0.286336243
0.724732518 0.809987009 0.295160770
0.894597769 0.823705256 0.306977749
0.050335504 0.018926000 0.279505491
0.304740489 0.018334251 0.336389005
0.472430527 0.018137001 0.350726992
0.588539958 0.017348999 0.358242989
0.675875008 0.016559999 0.367367506
0.018137001 0.288250268 0.388578266
0.243804991 0.316846251 0.420903504
0.506257236 0.313181013 0.451881289
0.687163711 0.286301017 0.465894252
0.792519808 0.261818528 0.471973509
0.017348999 0.439410985 0.404266000
0.155884743 0.507796466 0.446885228
0.448997021 0.533793092 0.450255513
0.721212506 0.517681003 0.485640526
0.846467972 0.509808481 0.496294498
0.015771000 0.545450270 0.409808785
0.076822743 0.638571262 0.449028760
0.464300513 0.682604790 0.466126502
0.725276530 0.700343728 0.482506514
0.872490525 0.701986551 0.505850315
0.014983000 0.639349997 0.414910018
0.077745259 0.733661294 0.450850487
0.495729029 0.804405928 0.490351528
0.721247792 0.832677722 0.508049488
0.879315972 0.847905040 0.536927462
0.099416502 0.018137001 0.371280521
0.332172990 0.018137001 0.406017780
0.471564770 0.017742999 0.423787743
0.590449274 0.017348999 0.442799270
0.683102787 0.016559999 0.463063776
0.018137001 0.304646760 0.516224980
0.281836510 0.327241749 0.546907306
0.521917760 0.313405484 0.573645771
0.686842501 0.294557244 0.582149506
0.794104457 0.269286752 0.590644777
0.016954498 0.476944029 0.550103247
0.191863492 0.526959538 0.586746752
0.496565044 0.547682524 0.594628751
0.708142459 0.539306045 0.615451276
0.842711985 0.520346045 0.626028478
0.015771000 0.590702772 0.563390791
0.075956263 0.666933000 0.601859272
0.477101266 0.700253010 0.616588771
0.668349743 0.717045546 0.618907988
0.867887497 0.712562799 0.643527031
0.014983000 0.684360266 0.574364305
0.078711003 0.764305770 0.608120322
0.501918733 0.819139004 0.633569241
0.722111762 0.843199968 0.644970775
0.875232995 0.854676008 0.658441961
0.168202996 0.018137001 0.476150990
0.363274992 0.018137001 0.462294489
0.490579009 0.017348999 0.485978007
0.600185990 0.017151749 0.517697752
0.692713976 0.016559999 0.538662016
0.030556999 0.319610238 0.619408250
0.335784763 0.336210012 0.642218471
0.542716265 0.312354505 0.666729212
0.694903255 0.295949280 0.678020775
0.798633516 0.275056750 0.687593222
0.016559999 0.509681463 0.667281032
0.276207268 0.538691223 0.692256570
0.528498530 0.547755003 0.710446477
0.716991186 0.542147517 0.725644231
0.843283534 0.531705976 0.738003016
0.015771000 0.634655476 0.691060007
0.175269499 0.685052991 0.720642924
0.501261473 0.711848795 0.735527515
0.720840812 0.720836520 0.748715281
0.863554478 0.721019983 0.760790706
0.014983000 0.729659975 0.707117021
0.114094503 0.789122760 0.735216498
0.528146505 0.832814991 0.753067493
0.727432489 0.852037251 0.765587211
0.867911994 0.860526025 0.772328019
