public/lut/29.cube
TITLE "17x17x17 Adobe/IRIDAS cube 3D LUT exported with GrossGrade v0.2.2 (beta) 64 bit"
DOMAIN_MIN 0 0 0
DOMAIN_MAX 1 1 1
LUT_3D_SIZE 17
0.019714000 0.019714000 0.011829000
0.091438562 0.019714000 0.011829000
0.187836513 0.018926000 0.011829000
0.261493623 0.018926000 0.011829000
0.315686226 0.018926000 0.011040000
0.356379807 0.018926000 0.011040000
0.396267772 0.018137001 0.011040000
0.438151777 0.018137001 0.011040000
0.470655024 0.018137001 0.011040000
0.498821557 0.018137001 0.010251000
0.525616884 0.018137001 0.010251000
0.551698089 0.017348999 0.010251000
0.576539993 0.017348999 0.009463000
0.597763717 0.017348999 0.009463000
0.618636370 0.017348999 0.009463000
0.639313817 0.016559999 0.009463000
0.658567011 0.016559999 0.011829000
0.019861875 0.078945436 0.011829000
0.057034627 0.052202940 0.011829000
0.142945245 0.059330434 0.011829000
0.223839313 0.057896689 0.011828999
0.269574016 0.055331811 0.011040000
0.327558994 0.046088815 0.011040000
0.377958894 0.034007311 0.011040000
0.423325837 0.028586060 0.011040000
0.464516908 0.024199562 0.011040000
0.507059872 0.023558438 0.011040000
0.537948549 0.023558438 0.011040000
0.567830622 0.023607749 0.010251000
0.593403161 0.024347438 0.010251000
0.620820224 0.025086189 0.010251000
0.644229472 0.025086189 0.010251000
0.666671634 0.025875125 0.010251000
0.686748981 0.025875125 0.009463000
0.018926000 0.149350494 0.011829000
0.053159375 0.115095124 0.011829000
0.153229624 0.128016114 0.011138625
0.238710701 0.135896444 0.011040000
0.288788497 0.137817875 0.011040000
0.345441699 0.135747567 0.011040000
0.402006388 0.132915124 0.011040000
0.451749653 0.129421309 0.011040000
0.495869249 0.119652882 0.011040000
0.540097415 0.111227125 0.011040000
0.577519774 0.100680128 0.011040000
0.607186615 0.089763135 0.010251000
0.633779466 0.078325629 0.010251000
0.660428524 0.067279495 0.010251000
0.685098052 0.059230871 0.010251000
0.705917060 0.053175308 0.010251000
0.728318214 0.052700125 0.009463000
0.018926000 0.204648748 0.011040000
0.029965997 0.168626696 0.011040000
0.150876373 0.187996387 0.011040000
0.240347192 0.196649447 0.011040000
0.302128434 0.204286322 0.011040000
0.355492502 0.207225889 0.011040000
0.418051243 0.205136701 0.011040000
0.474720240 0.205655709 0.011040000
0.520845890 0.201445386 0.011040000
0.564706802 0.196863696 0.011040000
0.606658936 0.191659451 0.010251000
0.637577116 0.186038896 0.010251000
0.664256275 0.179228961 0.010251000
0.689897120 0.174313188 0.010251000
0.718198955 0.168636084 0.010251000
0.739685655 0.162104592 0.010251000
0.759614110 0.155823007 0.009463000
0.018137001 0.233325496 0.011040000
0.023607813 0.206237257 0.011040000
0.140044630 0.226426750 0.011040000
0.243443146 0.240073204 0.011040000
0.305441499 0.247937009 0.011040000
0.359580129 0.250452995 0.011040000
0.425206751 0.253530115 0.011040000
0.487801373 0.253906012 0.011040000
0.531941533 0.251901984 0.011040000
0.579103112 0.249013752 0.010251000
0.623149395 0.245475262 0.010251000
0.655900002 0.241192877 0.010251000
0.684458017 0.236344501 0.010251000
0.710741520 0.232508436 0.010251000
0.737318993 0.227805242 0.010251000
0.761421204 0.223622069 0.010251000
0.781749487 0.220078006 0.009463000
0.018137001 0.264848173 0.011040000
0.022819689 0.242420375 0.011040000
0.132254243 0.267810434 0.011040000
0.238958895 0.284989059 0.011040000
0.306514829 0.293599397 0.011040000
0.366044670 0.299970448 0.011040000
0.428663582 0.302015007 0.011040000
0.496620268 0.304703563 0.010497562
0.543692589 0.302318454 0.010251000
0.591157198 0.300025642 0.010251000
0.636928141 0.297633380 0.010251000
0.672742426 0.293876112 0.010251000
0.701766014 0.291000754 0.010251000
0.727991819 0.286357015 0.010251000
0.755167723 0.283261001 0.010251000
0.781170905 0.279982984 0.010251000
0.802352846 0.276870489 0.009463000
0.018136999 0.297019124 0.011040000
0.023558440 0.281188935 0.011040000
0.111771367 0.306723148 0.011039999
0.230991200 0.325971007 0.010546875
0.300995499 0.337275028 0.010546875
0.365234673 0.345904261 0.010251000
0.430197895 0.351135492 0.010251000
0.498731256 0.355114102 0.010251000
0.554246902 0.356398135 0.010251000
0.600995719 0.355775893 0.010251000
0.647859216 0.352768540 0.010251000
0.688399374 0.351115912 0.010251000
0.718533397 0.346599370 0.010251000
0.746281505 0.343289196 0.010251000
0.773145735 0.340438396 0.010251000
0.799542785 0.337761819 0.009463000
0.821639478 0.333793908 0.009463000
0.017348999 0.325168341 0.010251000
0.024347439 0.317104667 0.010251000
0.079162985 0.347855955 0.010251000
0.218320623 0.369739920 0.010251000
0.294492185 0.381655782 0.010251000
0.363548815 0.389147580 0.010251000
0.426729232 0.396769524 0.010251000
0.499714226 0.403448433 0.010251000
0.559541345 0.406979471 0.010251000
0.609942794 0.407625556 0.010251000
0.656826615 0.406361848 0.010251000
0.701175630 0.406636328 0.010251000
0.733405173 0.403778523 0.010251000
0.764102459 0.403173655 0.010251000
0.789701045 0.398245275 0.009807749
0.818891823 0.397550493 0.009463000
0.841399193 0.392030597 0.009463000
0.017348999 0.355682492 0.010251000
0.025135439 0.350481331 0.010251000
0.055938873 0.385200888 0.010251000
0.202876002 0.410055310 0.010251000
0.285274744 0.425255507 0.010251000
0.356485367 0.435196757 0.010251000
0.424222887 0.444106519 0.010251000
0.498089910 0.450891733 0.010251000
0.561996460 0.454884529 0.010251000
0.614070058 0.457061142 0.010251000
0.662112355 0.457925379 0.010251000
0.709266424 0.456898749 0.010251000
0.744798779 0.456521243 0.009856999
0.775500417 0.455071032 0.009463000
0.804290652 0.452118397 0.009463000
0.832163453 0.451129735 0.009463000
0.858672976 0.448827505 0.009463000
0.017003812 0.382232606 0.010251000
0.025875125 0.380804121 0.010251000
0.045038622 0.416981369 0.010251000
0.181378707 0.447251111 0.010251000
0.271897823 0.465563744 0.010251000
0.350858569 0.479484171 0.010251000
0.420092463 0.490073383 0.010251000
0.492825687 0.498410642 0.010251000
0.563772321 0.504283667 0.010251000
0.618078768 0.508232236 0.010251000
0.665923595 0.508602560 0.009906250
0.716571927 0.509465873 0.009463000
0.753744900 0.506939471 0.009463000
0.785496354 0.505214393 0.009463000
0.815289259 0.503444672 0.009463000
0.843715310 0.501563549 0.009463000
0.871888757 0.499782264 0.009463000
0.016559999 0.409094632 0.010251000
0.026664125 0.411019325 0.010251000
0.038541622 0.447599858 0.010251000
0.158328593 0.478491813 0.010251000
0.255382359 0.495850265 0.010251000
0.339840353 0.513237774 0.010251000
0.409323752 0.524904251 0.009955499
0.487108529 0.537274778 0.009807749
0.560808897 0.547190726 0.009463000
0.616583169 0.551397145 0.009463000
0.668151379 0.553922772 0.009463000
0.719334602 0.557361484 0.009463000
0.761025786 0.557877362 0.009463000
0.795306683 0.556373537 0.009463000
0.824588895 0.555477083 0.009463000
0.854355097 0.553703666 0.009463000
0.884598017 0.552086890 0.009463000
0.016559999 0.432346433 0.009463000
0.027402874 0.439777136 0.009463000
0.037802499 0.477591068 0.009463000
0.131575570 0.510304689 0.009463000
0.237498939 0.528610826 0.009463000
0.327655256 0.546278775 0.009463000
0.402973890 0.559875965 0.009463000
0.475331098 0.571016729 0.009463000
0.552591741 0.581928790 0.009463000
0.613602996 0.589528859 0.009463000
0.667342067 0.595332623 0.009463000
0.718995810 0.598850012 0.009463000
0.766269386 0.601786971 0.009463000
0.800409079 0.602649868 0.009463000
0.832367837 0.602869093 0.009463000
0.861727238 0.602576613 0.009463000
0.892596543 0.601678908 0.009463000
0.015771000 0.458113015 0.009463000
0.028191812 0.466127157 0.009463000
0.039822750 0.504903913 0.009463000
0.103273392 0.539311528 0.009463000
0.213947251 0.560691237 0.009463000
0.314908981 0.579241455 0.009463000
0.392039150 0.592741132 0.009463000
0.467302322 0.605685771 0.009463000
0.546222746 0.618076503 0.009463000
0.609055817 0.627517104 0.009463000
0.664750695 0.631493151 0.009463000
0.716431737 0.635417223 0.009463000
0.766766787 0.640053034 0.009463000
0.803066254 0.642795384 0.009463000
0.835603476 0.643139660 0.009463000
0.867915034 0.644586086 0.009413687
0.898850739 0.645509779 0.008674000
0.015771000 0.484572411 0.008674000
0.028339565 0.493561506 0.010645385
0.041369125 0.529707074 0.009758750
0.082859941 0.567638397 0.009463000
0.186928853 0.587970614 0.009463000
0.299353421 0.607955575 0.009463000
0.380514890 0.624192476 0.009463000
0.456224114 0.638842881 0.009463000
0.537584186 0.653245628 0.009463000
0.601728737 0.662332892 0.009463000
0.658899784 0.667987585 0.009463000
0.711882293 0.672579825 0.009463000
0.766593516 0.677354455 0.009462999
0.803410292 0.678614736 0.009315060
0.838211834 0.681737006 0.008674000
0.871360660 0.682974637 0.008674000
0.902081788 0.683576345 0.008674000
0.015771000 0.511907101 0.012124633
0.028979875 0.520625234 0.023016758
0.042877257 0.557079375 0.009758750
0.070210882 0.593816221 0.011089194
0.158698857 0.615091145 0.011138627
0.280579239 0.637035251 0.009463000
0.370653391 0.654433727 0.009463000
0.449419886 0.672236860 0.009463000
0.526969671 0.686418891 0.009463000
0.598774791 0.698684216 0.009463000
0.654744029 0.705185473 0.009364373
0.709282100 0.710035503 0.008674000
0.761745274 0.715643287 0.008674000
0.803218544 0.718174040 0.008674000
0.838963151 0.719494164 0.008674000
0.872475624 0.721903920 0.008674000
0.906077266 0.721175313 0.008674000
0.014983000 0.539542556 0.022425020
0.029719563 0.549265921 0.031641629
0.044315312 0.582020938 0.016066836
0.064107195 0.619993985 0.020798821
0.136326253 0.642166376 0.013208500
0.263938040 0.662697315 0.009413686
0.358293444 0.682420790 0.009167126
0.435889095 0.696902394 0.009561567
0.516988754 0.713156521 0.008674000
0.591520011 0.727021754 0.008674000
0.648387074 0.735619843 0.008674000
0.703416884 0.743733704 0.008674000
0.758691132 0.750661671 0.008674000
0.803238988 0.754831254 0.008674000
0.841211736 0.757858276 0.008674000
0.874195278 0.758328915 0.008674000
0.907613635 0.760775208 0.008674000
0.014983000 0.568341017 0.037852000
0.030507624 0.576991975 0.039574627
0.045722876 0.610922635 0.036274001
0.063308254 0.645311892 0.030705310
0.118416257 0.669257283 0.013997249
0.245199621 0.690616131 0.009463000
0.345976144 0.709223509 0.015179626
0.426098019 0.726679444 0.014883934
0.505086482 0.740653992 0.009068499
0.584652781 0.755760670 0.008674000
0.642481267 0.765100002 0.008674000
0.698579431 0.773316383 0.008674000
0.749996781 0.780314982 0.008674000
0.799004436 0.785423040 0.008674000
0.840231717 0.788517892 0.008674000
0.873946488 0.791273236 0.008674000
0.908370018 0.794170976 0.008674000
0.022869000 0.019714000 0.070543379
0.070910126 0.019664750 0.086601064
0.170607686 0.018926000 0.093597375
0.249808773 0.018926000 0.096343756
0.303433627 0.018926000 0.096281625
0.354674488 0.018926000 0.094516814
0.398483217 0.018137001 0.097162440
0.440134823 0.018137001 0.092361063
0.480737627 0.018137001 0.092089310
0.512296796 0.018137001 0.092695124
0.538603306 0.018137001 0.092096187
0.563166976 0.017348999 0.094546750
0.588001549 0.017348999 0.095063306
0.610095859 0.017348999 0.095574066
0.630600095 0.017348999 0.098713130
0.648822129 0.016559999 0.101195566
0.666923463 0.016559999 0.104259625
0.018975250 0.079206683 0.052515689
0.029768877 0.065558508 0.055634502
0.127180144 0.068097122 0.070579626
0.208982125 0.067906000 0.075480998
0.258613259 0.063813314 0.076579317
0.312666386 0.059488375 0.079261750
0.374241263 0.043369498 0.078001559
0.422667891 0.033761062 0.078409433
0.469261616 0.027107624 0.081483185
0.513591647 0.024248874 0.082193628
0.549635351 0.023558438 0.083943069
0.580655575 0.023607749 0.087416999
0.608314633 0.023805000 0.093556121
0.633929133 0.024347438 0.095333934
0.659291923 0.025086189 0.099930823
0.681594074 0.025184754 0.104600452
0.701772094 0.025875125 0.109412126
0.018926000 0.156106547 0.050845563
0.023657063 0.136652946 0.067137748
0.127514377 0.146654382 0.072969683
0.220804453 0.149935514 0.074861318
0.276928663 0.150919497 0.076124378
0.331336737 0.150287941 0.076091379
0.395153582 0.147590876 0.074657068
0.452518791 0.142196625 0.077664502
0.498044461 0.134976953 0.076899692
0.542573690 0.125395000 0.077506438
0.583791614 0.112919316 0.076854318
0.616592586 0.099642254 0.080679126
0.642384708 0.090351753 0.087013252
0.669286191 0.081049360 0.091253437
0.695878267 0.068688236 0.096806571
0.717492580 0.058301494 0.100772507
0.738902807 0.053254873 0.106251940
0.018926000 0.216042012 0.047931064
0.021981439 0.192036137 0.064647436
0.103019193 0.205570459 0.065235250
0.222088397 0.218297765 0.069532558
0.286114722 0.222220004 0.071452752
0.343304038 0.224470884 0.070438683
0.405501157 0.223154142 0.067641690
0.470685035 0.222916454 0.070094377
0.518525302 0.219434336 0.067459255
0.564378917 0.213533133 0.068594441
0.610429823 0.207933694 0.071645245
0.644207120 0.200035632 0.075596936
0.673089683 0.194856390 0.081634820
0.698946238 0.187109590 0.087545320
0.725711048 0.182288572 0.093236327
0.748557389 0.176340580 0.098950386
0.770402193 0.171610504 0.105659626
0.018137001 0.250716746 0.045735560
0.022770438 0.232822627 0.063344501
0.089640319 0.249075696 0.061823692
0.215685263 0.261150181 0.064881124
0.285938203 0.266743094 0.064473689
0.347147435 0.269810587 0.063341126
0.412043214 0.272276402 0.062064558
0.478518844 0.274020672 0.062664188
0.530245245 0.270427495 0.063266374
0.576140285 0.266634256 0.059541687
0.623317122 0.262517899 0.062549755
0.660551906 0.257423013 0.066912562
0.691603601 0.252552986 0.074126437
0.717500687 0.247408450 0.082394190
0.743754804 0.243252382 0.088299818
0.768223524 0.237657264 0.094050944
0.789616525 0.233259946 0.099853314
0.018137001 0.285677522 0.040438812
0.023558438 0.270175487 0.060593560
0.066015810 0.289783686 0.058926623
0.204865336 0.305617154 0.052713253
0.281882465 0.314445436 0.055037063
0.346582323 0.319095820 0.056798190
0.414636642 0.322844446 0.056726187
0.485318273 0.326140255 0.055451624
0.538738310 0.322844058 0.053061500
0.586526036 0.318848193 0.051017437
0.634084344 0.315752327 0.054824628
0.675334275 0.312562197 0.061883561
0.706571460 0.307956696 0.070069253
0.732986033 0.302654117 0.076768875
0.759586036 0.298583239 0.081199251
0.787182510 0.294664264 0.086251318
0.808536232 0.291881084 0.094211683
0.018136999 0.320316643 0.039375566
0.024051562 0.307974756 0.061032310
0.043246433 0.329517007 0.054545686
0.192956626 0.347564816 0.044663120
0.273356140 0.358234584 0.045329876
0.344197869 0.368015677 0.051067624
0.413596690 0.370804101 0.052018121
0.487378299 0.376012802 0.044836432
0.547042072 0.377355307 0.041331563
0.596221924 0.376081556 0.042816438
0.643929303 0.373984158 0.052079376
0.687589109 0.369592994 0.059855312
0.721610010 0.365894318 0.063956119
0.749526143 0.361906260 0.067089058
0.777078629 0.357911795 0.070513755
0.804241598 0.355477691 0.078002378
0.827035129 0.349840194 0.085040689
0.017348999 0.349732876 0.039569814
0.024790689 0.344124585 0.058153935
0.031887934 0.368057609 0.048643306
0.170885190 0.390193462 0.041012939
0.261378437 0.403224647 0.044551998
0.338704497 0.411214739 0.044496998
0.410123527 0.418009043 0.044645369
0.487031162 0.424333960 0.035732243
0.550907254 0.426926732 0.032775439
0.601986408 0.427811861 0.044354875
0.651475012 0.427250654 0.050303623
0.698607385 0.424410105 0.051306874
0.733428955 0.423098713 0.053443246
0.764258623 0.419547170 0.051981367
0.792353928 0.416886896 0.056262940
0.819999576 0.413075596 0.065947272
0.845304847 0.411190510 0.077537313
0.017348999 0.376973569 0.038837314
0.025135439 0.376549184 0.059443068
0.031247128 0.403117985 0.045632001
0.143924445 0.430622131 0.040910501
0.248424053 0.444122821 0.043534502
0.330693811 0.455476880 0.040714063
0.404802650 0.464664459 0.033761181
0.480041444 0.470686585 0.026910504
0.551927149 0.476667464 0.036372751
0.605610847 0.476726323 0.044463564
0.655658066 0.476382017 0.045320250
0.705003917 0.476830989 0.040543623
0.743205190 0.475097835 0.040089373
0.775406420 0.472295493 0.040508695
0.804646373 0.470655888 0.051139325
0.832434356 0.467134923 0.063327767
0.859734297 0.466316581 0.076742940
0.017003812 0.405490518 0.040627625
0.025875125 0.405527264 0.062570184
0.034155127 0.434880227 0.047400124
0.113215648 0.465909123 0.045470625
0.229874268 0.483597815 0.046150811
0.321679741 0.496975124 0.034352377
0.395197451 0.509137630 0.024839753
0.476211309 0.519329846 0.031641565
0.551582575 0.525722504 0.038689438
0.608119071 0.528615355 0.040134627
0.659097314 0.528688133 0.036176063
0.709940195 0.528157592 0.032627188
0.751617968 0.526759624 0.033859503
0.784885228 0.524704576 0.043562453
0.813654661 0.521006227 0.054254197
0.842356682 0.518992722 0.065020509
0.871869087 0.516199291 0.072643004
0.016559999 0.429949731 0.047820188
0.026664125 0.433131039 0.066640064
0.036274251 0.464405924 0.053408314
0.077669337 0.496810943 0.053209689
0.207219273 0.515090942 0.044255875
0.310452223 0.531162560 0.029817749
0.386933565 0.543254137 0.029719692
0.465960026 0.555660009 0.036422130
0.547023654 0.566685975 0.039177187
0.606401920 0.571921289 0.033957936
0.660718322 0.574813008 0.028240811
0.711733520 0.575583041 0.028733876
0.756759882 0.576514125 0.038580440
0.792152047 0.574089944 0.047919825
0.822929084 0.573032081 0.059073940
0.852679133 0.570385456 0.063375257
0.882685661 0.569671929 0.066228122
0.016559999 0.453483880 0.057563189
0.027402874 0.460705072 0.072796494
0.038245749 0.493499696 0.057619750
0.056790397 0.527032495 0.057396684
0.178394943 0.546042025 0.044727936
0.296508998 0.563660860 0.034105688
0.377192527 0.576043606 0.037692443
0.455353856 0.588270307 0.041000251
0.539738238 0.599506140 0.037013624
0.602576554 0.607931614 0.027008938
0.657720029 0.612639248 0.027354002
0.710135758 0.616882443 0.037002377
0.759013772 0.619076490 0.046412751
0.796310902 0.619251668 0.051422816
0.827848911 0.618865728 0.053047944
0.859703541 0.617918372 0.053016625
0.889692366 0.617281437 0.051673815
0.015771000 0.477836937 0.070730567
0.028191812 0.485357195 0.079044253
0.039822750 0.518909454 0.069128320
0.050078765 0.556722999 0.062748119
0.153910503 0.575982749 0.048348382
0.279961914 0.594747484 0.044100005
0.366625220 0.609116137 0.048588376
0.446687669 0.620564342 0.045473807
0.527806759 0.633708775 0.032725621
0.596446276 0.641605437 0.025727315
0.654959559 0.648345411 0.034204315
0.707542956 0.652326941 0.044670939
0.759296358 0.655943513 0.050035875
0.798542738 0.657633245 0.051502619
0.831706464 0.658144236 0.047755312
0.864377558 0.659846127 0.046807244
0.896439135 0.659871399 0.044682689
0.015771000 0.501847088 0.079437882
0.028339565 0.511300147 0.089681886
0.041369125 0.543093741 0.080933452
0.052583199 0.580199957 0.069664702
0.131350428 0.601986408 0.058527950
0.261017740 0.622630358 0.055557139
0.356549919 0.638592064 0.056508258
0.437381536 0.653183341 0.046804611
0.519990742 0.666346371 0.030409629
0.592492461 0.675793052 0.030261571
0.650251329 0.682550669 0.043164574
0.703384161 0.687486112 0.051444568
0.756869793 0.692146122 0.051044367
0.797398925 0.693165541 0.046826743
0.833665550 0.694477439 0.040206186
0.867662609 0.695952237 0.042494893
0.898490191 0.697797298 0.057057761
0.015771000 0.527530968 0.090163261
0.028979875 0.534999967 0.097189128
0.042877257 0.567001045 0.091517568
0.055042572 0.604441941 0.080236569
0.112553313 0.626376390 0.070953518
0.244456559 0.649028182 0.069760583
0.344651073 0.667678237 0.067192383
0.428602606 0.682828128 0.049027689
0.510937929 0.697396219 0.034943447
0.586557925 0.710381925 0.042778015
0.644716859 0.717914820 0.050163008
0.700065613 0.723784387 0.054724686
0.754822493 0.728961587 0.045362867
0.798066795 0.730693936 0.040830620
0.835134089 0.732396185 0.044402897
0.869258642 0.733737826 0.054831475
0.902225733 0.735020280 0.070324644
0.014983000 0.553968549 0.098262325
0.029719563 0.563745379 0.108935945
0.044315312 0.593527257 0.102446824
0.058080070 0.631171525 0.093464687
0.103117682 0.652546883 0.087512702
0.223236293 0.674060524 0.084613144
0.335244268 0.693214655 0.074888006
0.417346925 0.708366752 0.060647000
0.502453446 0.724467516 0.051252019
0.579001904 0.738226056 0.057875451
0.638993204 0.747346699 0.060945507
0.694610417 0.754928231 0.056548376
0.750035524 0.761893630 0.042324256
0.798093855 0.767490506 0.040264592
0.835788250 0.768716693 0.054866537
0.870434165 0.770108819 0.071667962
0.904280424 0.772204280 0.084103815
0.014983000 0.581512630 0.110529251
0.030507624 0.590487599 0.116091810
0.045722876 0.618581593 0.110960379
0.060969878 0.656523764 0.103880435
0.095887758 0.678237796 0.099848568
0.202477455 0.699512541 0.097189248
0.322651207 0.719705939 0.088026866
0.408867657 0.735409856 0.076775372
0.492170215 0.750060976 0.069687635
0.569631338 0.762713075 0.070701808
0.632013321 0.773779511 0.070361562
0.689500511 0.781420708 0.058325998
0.743816137 0.789596736 0.050556250
0.793594956 0.795953453 0.053232640
0.834138989 0.799045324 0.069882579
0.870408237 0.801663518 0.082439318
0.904626966 0.803270996 0.092454627
0.022869000 0.019024501 0.129652381
0.077295251 0.018926000 0.155127630
0.169788137 0.018926000 0.168276757
0.245686576 0.018926000 0.172044367
0.298475623 0.018926000 0.171626627
0.350819826 0.018926000 0.172622859
0.395149887 0.018137001 0.172362000
0.436655521 0.018137001 0.171636745
0.479779512 0.018137001 0.173558369
0.512462676 0.018137001 0.172765315
0.539244592 0.018137001 0.171477243
0.565346956 0.017348999 0.172995120
0.590131640 0.017348999 0.172750995
0.612307549 0.017348999 0.171793491
0.633629799 0.017348999 0.172515258
0.651775360 0.016559999 0.173656940
0.669273496 0.016559999 0.174874261
0.019714000 0.083879441 0.125106871
0.026614815 0.072123691 0.124308251
0.119054496 0.075041756 0.143613890
0.206640273 0.075365499 0.151156604
0.255838037 0.068800755 0.156227440
0.310043693 0.059213188 0.158176184
0.372280061 0.046066936 0.160490751
0.421417296 0.034451060 0.162108570
0.468117505 0.027846873 0.165319189
0.510831594 0.024248874 0.165911704
0.551854253 0.024002248 0.170105249
0.582481265 0.023607749 0.170773387
0.609134793 0.024298124 0.174269080
0.634879172 0.024347438 0.176868320
0.661818385 0.025086189 0.180264950
0.683960438 0.025184754 0.182935387
0.704494655 0.025875125 0.186655194
0.018926000 0.168951631 0.136069864
0.021242687 0.150508627 0.140636072
0.077192254 0.160370246 0.142227381
0.211042687 0.161126018 0.163965493
0.269514501 0.161191240 0.168136135
0.322957337 0.160085618 0.170210063
0.386714518 0.158358753 0.171757251
0.445492566 0.150400937 0.173464864
0.494577646 0.144419491 0.175246507
0.538625479 0.136319876 0.178805485
0.582664609 0.124957874 0.181190506
0.618117094 0.117069319 0.184175447
0.644120872 0.103109129 0.185759902
0.672329426 0.094486430 0.189897001
0.697514236 0.085150614 0.193118513
0.721368253 0.069920190 0.194145828
0.743027270 0.058254004 0.196190000
0.018926000 0.232110828 0.136515886
0.022030750 0.211561948 0.145488739
0.068476930 0.222775400 0.154051319
0.202315837 0.231610343 0.164556444
0.277846068 0.235420346 0.169220552
0.334080607 0.235708073 0.171029121
0.398595393 0.233354092 0.171615064
0.464983672 0.234430686 0.173228562
0.515397310 0.229005635 0.175928757
0.562230110 0.224191695 0.180757314
0.606321990 0.215911821 0.179292008
0.643799186 0.210431591 0.182133183
0.672956109 0.201829135 0.185632125
0.698889375 0.194874570 0.188738629
0.725547016 0.190396518 0.192576066
0.751475096 0.184559703 0.194592431
0.773839533 0.177853063 0.199091628
0.018137001 0.268650502 0.135529757
0.022770438 0.250753134 0.142610937
0.049438495 0.265823960 0.155248389
0.183190212 0.276408315 0.156585246
0.270955414 0.280877769 0.168398127
0.337942481 0.282862991 0.169076383
0.404395282 0.283371747 0.172506630
0.471949905 0.283416122 0.173629746
0.525640130 0.281767875 0.174655497
0.572838426 0.277544886 0.178040698
0.619225085 0.273883134 0.180156887
0.658711374 0.268057793 0.182277873
0.691091001 0.262023240 0.186053380
0.717031240 0.256826460 0.188716009
0.743901014 0.251764745 0.191328883
0.769668460 0.246493444 0.194179624
