public/lut/30.cube
TITLE "17x17x17 Adobe/IRIDAS cube 3D LUT exported with GrossGrade v0.2.2 (beta) 64 bit"
DOMAIN_MIN 0 0 0
DOMAIN_MAX 1 1 1
LUT_3D_SIZE 17
0.000000000 0.004731000 0.000000000
0.196517184 0.015820311 0.000000000
0.314343005 0.002267000 0.000000000
0.373827636 0.000641063 0.000000000
0.405607253 0.000197250 0.000000000
0.428297818 0.000000000 0.000000000
0.452176124 0.000000000 0.000000000
0.476309448 0.000000000 0.000000000
0.494217992 0.000000000 0.000000000
0.511756957 0.000000000 0.000000000
0.525942862 0.000000000 0.000000000
0.536166489 0.000000000 0.000000000
0.546951234 0.000000000 0.000000000
0.558356702 0.000000000 0.000000000
0.567253411 0.000000000 0.000000000
0.575202823 0.000000000 0.000000000
0.582029998 0.000000000 0.000000000
0.000000000 0.103159130 0.000000000
0.045784812 0.045883372 0.000739688
0.151196316 0.064015374 0.000000000
0.251317561 0.067254938 0.000000000
0.312924117 0.070892878 0.000000000
0.375674337 0.074431375 0.000000000
0.430477381 0.080754563 0.000000000
0.484496355 0.091114193 0.000000000
0.528863370 0.102814317 0.000000000
0.573283017 0.114668064 0.000000000
0.613186896 0.128857240 0.000000000
0.647704244 0.140032753 0.000000000
0.674175382 0.146050364 0.000000000
0.692665637 0.149261937 0.000739688
0.706708908 0.145197034 0.000739688
0.712666929 0.128962368 0.000739687
0.716614604 0.116687752 0.000739688
0.000000000 0.194198370 0.000000000
0.011927499 0.106394187 0.003992250
0.136577010 0.129388377 0.001084625
0.240885437 0.144477010 0.000000000
0.310745746 0.149600625 0.000000000
0.377168715 0.152650937 0.000000000
0.434804380 0.151674256 0.000000000
0.482350588 0.153715566 0.000000000
0.528148234 0.150744617 0.000000000
0.566862583 0.156912312 0.000000000
0.603958488 0.165999874 0.000000000
0.643462658 0.178950235 0.000000000
0.677454293 0.194376007 0.000197250
0.709296167 0.212618753 0.003301940
0.734478712 0.230818883 0.006210377
0.757218242 0.248498514 0.010546880
0.779430866 0.269066244 0.018926000
0.000000000 0.253604501 0.000000000
0.000000000 0.158100143 0.003942936
0.099991485 0.186735392 0.000246437
0.219077632 0.204925001 0.000000000
0.299686074 0.218561888 0.000000000
0.371775270 0.227948830 0.000000000
0.441685259 0.228234947 0.000000000
0.497518808 0.231436387 0.000000000
0.544672847 0.231914878 0.000000000
0.583899319 0.229097202 0.000000000
0.618260980 0.229173511 0.000000000
0.650014639 0.227247700 0.000000000
0.680285096 0.233939141 0.000986000
0.710262954 0.243667066 0.003301940
0.735510528 0.257804573 0.005865067
0.758628786 0.271574885 0.009561568
0.778746009 0.287669629 0.019073751
0.000000000 0.279443741 0.000000000
0.000000000 0.195426062 0.000000000
0.050689749 0.225182131 0.000000000
0.204652756 0.252328068 0.000000000
0.286380768 0.266570747 0.000000000
0.365597516 0.275803119 0.000000000
0.441165656 0.283791363 0.000000000
0.504172087 0.286870807 0.000000000
0.553075790 0.286706984 0.000000000
0.597866893 0.286244035 0.000000000
0.631651759 0.284209877 0.000000000
0.663905203 0.282580376 0.000000000
0.694186687 0.280942738 0.001577001
0.718319297 0.282103002 0.003154001
0.743350863 0.286268771 0.004829628
0.761991620 0.296559334 0.010497451
0.782801986 0.308326244 0.021883000
0.000000000 0.302728266 0.000000000
0.000000000 0.220540240 0.000000000
0.010744000 0.262358427 0.000000000
0.173791900 0.294232547 0.000000000
0.263597310 0.309909374 0.000000000
0.353888184 0.327895314 0.000000000
0.432777077 0.336558998 0.000000000
0.506589949 0.343431324 0.000000000
0.559581041 0.344495773 0.000000000
0.608655393 0.347324640 0.000000000
0.644795001 0.346133560 0.000000000
0.678129137 0.344677836 0.000000000
0.709317088 0.343343496 0.000789000
0.735734224 0.341201723 0.001183002
0.758117914 0.338744551 0.001823565
0.775180221 0.339947015 0.008230819
0.793141127 0.344044566 0.017052813
0.000000000 0.326261997 0.000000000
0.000000000 0.260669321 0.000000000
0.000000000 0.292309374 0.000000000
0.122653313 0.329478383 0.000000000
0.230535120 0.351362646 0.000000000
0.332372725 0.369300455 0.000000000
0.417706132 0.383327514 0.000000000
0.499635786 0.393313020 0.000000000
0.559575081 0.399893641 0.000000000
0.611918807 0.404116064 0.000000000
0.653862774 0.405234277 0.000000000
0.687333286 0.407056957 0.000000000
0.720434725 0.404514164 0.000000000
0.748982012 0.404661208 0.000000000
0.773390770 0.403620154 0.000000002
0.792564631 0.401811153 0.004041569
0.807268500 0.399035275 0.010251001
0.000000000 0.342255741 0.000000000
0.000000000 0.303230286 0.000000000
0.000000000 0.319199324 0.000000000
0.049639128 0.362633318 0.000000000
0.184786975 0.385129780 0.000000000
0.299371332 0.407337785 0.000000000
0.396949708 0.424613774 0.000000000
0.485046297 0.439971954 0.000000000
0.553712428 0.448094219 0.000000000
0.608680844 0.452680469 0.000000000
0.654563785 0.455486149 0.000000000
0.692663133 0.457696110 0.000000000
0.726455629 0.457565457 0.000000000
0.759960055 0.460021973 0.000000000
0.782845438 0.456918716 0.001330878
0.807082176 0.459501386 0.004829630
0.820822954 0.456498474 0.010694814
0.000000000 0.359298497 0.000000000
0.000000000 0.341164768 0.000000000
0.000000000 0.335498631 0.000000000
0.009167133 0.384472132 0.000000000
0.117871240 0.413481534 0.000000000
0.255332291 0.438440681 0.000000000
0.367336392 0.461133003 0.000000000
0.462873697 0.478349864 0.000000000
0.542468071 0.490463495 0.000000000
0.601123452 0.498168051 0.000000000
0.652751923 0.503893018 0.000000000
0.692615747 0.506094038 0.000000000
0.728619456 0.509410977 0.000000000
0.763180435 0.511444151 0.000394501
0.790817261 0.510590494 0.001675628
0.813946843 0.510751724 0.004878883
0.830967486 0.511714458 0.015771501
0.000000000 0.373671323 0.000000000
0.000000000 0.369186491 0.000000000
0.000000000 0.345742166 0.000000000
0.000295875 0.401746303 0.000000000
0.042330757 0.435085118 0.000000000
0.201824561 0.464298308 0.000000000
0.331974298 0.488734007 0.000000000
0.434224457 0.508207262 0.000000000
0.525645375 0.525908053 0.000000000
0.591238022 0.536033452 0.000000000
0.644844055 0.542822719 0.000000000
0.690789998 0.547883153 0.000000000
0.726051152 0.550196350 0.000000000
0.761322618 0.553311467 0.000789000
0.792238474 0.555193841 0.001232250
0.817467153 0.558357894 0.004188946
0.838782549 0.558838785 0.010891938
0.000000000 0.389705241 0.000000000
0.000000000 0.389034927 0.000000000
0.000000000 0.357943505 0.000000000
0.000000000 0.417665124 0.000000000
0.004731502 0.450080246 0.000000000
0.131670758 0.483480901 0.000000000
0.284089923 0.512296259 0.000000000
0.405022442 0.537213743 0.000000000
0.502217531 0.555544972 0.000000000
0.573733509 0.568301439 0.000000000
0.634869039 0.578366637 0.000000000
0.684018791 0.582894206 0.000000000
0.721570790 0.588195562 0.000000000
0.758108616 0.591377079 0.000000000
0.790487647 0.594835520 0.000000000
0.818794608 0.596548676 0.000000000
0.842107058 0.599203527 0.001577000
0.000000000 0.400337756 0.000000000
0.000000000 0.399799556 0.000000000
0.000000000 0.376340955 0.000000000
0.000000000 0.421404064 0.000000000
0.000000000 0.461159378 0.000000000
0.061771628 0.498507857 0.000000000
0.237561911 0.533289671 0.000000000
0.364763916 0.559727669 0.000000000
0.470271885 0.582111239 0.000000000
0.556866884 0.595883667 0.000000000
0.621522546 0.606974244 0.000000000
0.674805701 0.615772784 0.000000000
0.716744125 0.621223927 0.000000000
0.752002835 0.624266028 0.000000000
0.787708402 0.629663169 0.000098626
0.815692306 0.631794333 0.001084566
0.840520322 0.633941412 0.003646812
0.000000000 0.412228495 0.000000000
0.000000000 0.411087126 0.000000000
0.000000000 0.415332139 0.000000000
0.000000000 0.414589822 0.000000000
0.000000000 0.466483504 0.000000000
0.013602681 0.505903423 0.000000000
0.154770046 0.542065620 0.000000000
0.323786616 0.573934495 0.000000000
0.441230267 0.599651217 0.000000000
0.534204125 0.619563043 0.000000000
0.602779627 0.631454825 0.000000000
0.661759079 0.641044438 0.000000000
0.707491517 0.648837447 0.000000000
0.747586370 0.654711127 0.000147938
0.779875517 0.658923507 0.001872755
0.813439250 0.664114535 0.006850767
0.839146018 0.667217255 0.022474507
0.000000000 0.422354817 0.000000000
0.000000000 0.420727193 0.000000000
0.000000000 0.449751019 0.000000000
0.000000000 0.409757793 0.000000001
0.000000000 0.463964373 0.002513753
0.000000000 0.510241628 0.000246563
0.072930932 0.550070465 0.000000000
0.268052280 0.584641159 0.000147942
0.405372679 0.613316715 0.000000001
0.502893090 0.634579539 0.000000000
0.584935308 0.650625706 0.000000000
0.644119203 0.660641313 0.000000000
0.698594570 0.670701742 0.000000001
0.735618114 0.677301764 0.001380393
0.772764623 0.681698382 0.009512414
0.808412194 0.687034726 0.029867541
0.831616521 0.689967990 0.046378955
0.000000000 0.431790888 0.000000000
0.000000000 0.429600745 0.000000000
0.000000000 0.458167732 0.000000000
0.000000000 0.410021633 0.000000001
0.000000000 0.452599496 0.003844252
0.000000000 0.511458337 0.000739376
0.016954234 0.554833233 0.002957014
0.208348021 0.594942510 0.007294131
0.364026129 0.624583900 0.002365500
0.475584328 0.650155902 0.000000000
0.562011003 0.666272879 0.000000000
0.628933907 0.679144621 0.000098630
0.683949172 0.688559771 0.005323023
0.725510836 0.697476029 0.019862106
0.764714777 0.703473985 0.034984909
0.799553037 0.709597886 0.050403532
0.828685224 0.713454247 0.065139644
0.000000000 0.440202922 0.000000000
0.000000000 0.437523752 0.000000000
0.000000000 0.458940744 0.000000000
0.000000000 0.435626745 0.000000001
0.000000000 0.441500515 0.005520251
0.000000000 0.503682852 0.008427953
0.000000000 0.557737350 0.019369079
0.120853379 0.597584188 0.018974818
0.316544354 0.633095741 0.003992311
0.443077147 0.661124587 0.000000001
0.536117733 0.680261791 0.001577511
0.606793225 0.696824551 0.013997589
0.665820420 0.706296384 0.028980087
0.715336204 0.713744521 0.043457534
0.752683103 0.722349942 0.055061843
0.789083183 0.726236522 0.067669518
0.821342230 0.732958674 0.080119371
0.000000000 0.447064012 0.000000000
0.000000000 0.444398999 0.000000000
0.000000000 0.441981763 0.000000000
0.000000000 0.478716403 0.000000001
0.000000000 0.426740497 0.006703001
0.000000000 0.490873367 0.018433187
0.000000000 0.552796125 0.032528624
0.043692596 0.598141909 0.031001117
0.255399048 0.636847973 0.009856995
0.405295312 0.669870138 0.012419875
0.511238873 0.691642582 0.025924625
0.586008608 0.706289411 0.039851248
0.647904754 0.718957007 0.051351752
0.700531363 0.728697181 0.060903132
0.741419435 0.737177014 0.069928393
0.777544081 0.741865814 0.078856334
0.813354015 0.747722983 0.092168003
0.018433126 0.012419876 0.108710691
0.269247562 0.023657000 0.106031567
0.381781578 0.013701625 0.098143503
0.451879710 0.008575437 0.103887245
0.489055425 0.000986000 0.107979313
0.515609980 0.000739688 0.105026558
0.528385341 0.000739687 0.099733539
0.476053059 0.000000000 0.047017861
0.479331076 0.000000000 0.030951496
0.491136998 0.000000000 0.021735188
0.512187779 0.000000000 0.019418564
0.530493498 0.000000000 0.017200749
0.547386408 0.000000000 0.016708247
0.559112549 0.000000000 0.014834620
0.571105897 0.000000000 0.013750503
0.579600453 0.000000000 0.013701187
0.588340342 0.000000000 0.012962438
0.000000000 0.056116190 0.048536129
0.014588687 0.048585437 0.041485187
0.130438119 0.064643249 0.051874250
0.226787388 0.075425625 0.053718500
0.290798962 0.080504566 0.050600313
0.350875825 0.081761308 0.047989186
0.402770370 0.075251631 0.041933123
0.443152606 0.068578124 0.036028124
0.483776361 0.061608937 0.033317499
0.514493227 0.051682372 0.027994625
0.541345358 0.038929064 0.023952562
0.566684306 0.030163128 0.020995688
0.590008676 0.024446061 0.020552186
0.605299711 0.017595185 0.017151311
0.618196011 0.015524999 0.017102066
0.631040931 0.011089687 0.016363254
0.641438305 0.007393125 0.017102001
0.000000000 0.193654433 0.003745812
0.000049312 0.110295683 0.048078626
0.115931183 0.128882691 0.068521373
0.220838949 0.145073608 0.079854131
0.293424696 0.156334504 0.086207494
0.364943624 0.173390627 0.090395816
0.438896090 0.193166569 0.096735939
0.501816154 0.213107392 0.104405880
0.553864419 0.227712944 0.109738685
0.599501133 0.240706384 0.115008757
0.636928678 0.248347998 0.118520059
0.673560143 0.252106071 0.120375194
0.702489853 0.256795436 0.125574186
0.725783587 0.257358193 0.124127127
0.742121339 0.251210630 0.121356197
0.752497852 0.243709415 0.118666239
0.763509870 0.238777012 0.116826624
0.000000000 0.262184441 0.000000000
0.000000000 0.159592390 0.044830624
0.060546186 0.185943559 0.063599251
0.201620817 0.208976522 0.075624749
0.280028105 0.219291747 0.083968505
0.351901680 0.227218062 0.089870557
0.423274964 0.231256515 0.093012065
0.485844851 0.239294574 0.101120189
0.538393855 0.248840630 0.105795063
0.587544560 0.263474435 0.113175623
0.632441342 0.279103309 0.124166936
0.672289312 0.295904338 0.131849810
0.710297942 0.314120889 0.141963199
0.743482649 0.331248343 0.151040331
0.770352900 0.347006619 0.162513003
0.791923404 0.360905260 0.174743012
0.811705291 0.375727743 0.187164992
0.000000000 0.290967733 0.000000000
0.000000000 0.197912201 0.040639378
0.021735312 0.229649186 0.060839750
0.179016188 0.254671007 0.073939748
0.263771206 0.267772257 0.080926746
0.347290397 0.277473956 0.085499883
0.422577173 0.284393936 0.090247944
0.488515407 0.289750487 0.097350940
0.542150259 0.291189373 0.104255132
0.589174688 0.293134689 0.111566380
0.627897024 0.300461113 0.120634310
0.666466951 0.310480833 0.129677251
0.704086065 0.324179202 0.137834445
0.737212420 0.340543449 0.149181828
0.767332256 0.356010944 0.159225643
0.790650785 0.373687088 0.170103461
0.811879992 0.390381187 0.182887807
0.000000000 0.315677255 0.000000000
0.000000000 0.238783687 0.036027811
0.000000000 0.266095161 0.056880441
0.134818152 0.297178298 0.067439377
0.238399565 0.315755606 0.074614502
0.332071245 0.329645425 0.081122994
0.416461647 0.341106772 0.083509125
0.490098655 0.348781019 0.089436561
0.546325266 0.350206316 0.096701443
0.596025765 0.351143599 0.104856566
0.636031747 0.350808799 0.115653187
0.672034979 0.353268683 0.125616878
0.705065072 0.354895890 0.135499626
0.735224605 0.362171590 0.145680323
0.766142249 0.373561323 0.156901836
0.788517833 0.387158781 0.167767137
0.809519768 0.403523117 0.180360943
0.000000000 0.341144472 0.000000000
0.000000000 0.291480720 0.030655999
0.000000000 0.295678079 0.050102685
0.078305379 0.334186018 0.061445251
0.199910551 0.356157154 0.067373499
0.306305528 0.375382841 0.072676741
0.398518950 0.388845831 0.075366870
0.482416451 0.401048750 0.080337867
0.546838045 0.407124013 0.088712625
0.599575400 0.411117554 0.096227996
0.642814934 0.413493127 0.109235376
0.679315269 0.412197828 0.120256051
0.713280201 0.412929833 0.130241498
0.743016422 0.412700027 0.143121898
0.770102799 0.414315224 0.154770404
0.793352008 0.419652045 0.169203013
0.812184989 0.425505877 0.181566373
0.000000000 0.359551132 0.000000000
0.000000000 0.337383509 0.019812869
0.000000000 0.318073958 0.040134247
0.017644498 0.366802454 0.055382065
0.136288911 0.392110765 0.061431684
0.269490361 0.412544727 0.061641060
0.375537425 0.431683362 0.065799870
0.467540115 0.446452886 0.070645250
0.539522409 0.455517739 0.078131683
0.594939649 0.460900784 0.089721002
0.645642102 0.465136200 0.100307621
0.683770359 0.465162784 0.111249812
0.718387067 0.466718376 0.124634251
0.751739562 0.468216389 0.137137517
0.778014779 0.468752772 0.150436640
0.801728725 0.466944009 0.163640708
0.819569409 0.467462778 0.178869367
0.000000000 0.377483428 0.000000000
0.000000000 0.380692989 0.006160372
0.000000000 0.330142468 0.033415813
0.000000002 0.390162408 0.051983811
0.061434366 0.419352472 0.055086751
0.222539544 0.445138365 0.054172061
0.343817294 0.469693959 0.057572939
0.441854686 0.485518634 0.062253382
0.527673721 0.500622034 0.073137566
0.588332593 0.507429481 0.082429871
0.642662048 0.512731135 0.091196626
0.683365583 0.515779018 0.102502182
0.721433818 0.518110454 0.117837690
0.753413379 0.519008458 0.129547074
0.784063995 0.521028459 0.144466013
0.808131993 0.520783782 0.160152450
0.827340305 0.521300256 0.179173946
0.000000000 0.393412828 0.000000000
0.000000000 0.403740555 0.000739688
0.000000000 0.344644666 0.024544436
0.000000000 0.408173174 0.049179252
0.015278880 0.442010581 0.054876126
0.160631940 0.469868362 0.050327249
0.301625550 0.496405602 0.051841941
0.415945560 0.520780385 0.062378064
0.508476436 0.535463393 0.067770064
0.578468263 0.545734167 0.075907871
0.634124696 0.553896248 0.085521251
0.680691063 0.558325171 0.095562376
0.719448447 0.561955392 0.112314068
0.753639996 0.564720571 0.127659261
0.785484254 0.566656590 0.142399460
0.811993897 0.566602528 0.157532349
0.834037721 0.569292426 0.174810618
0.000000000 0.406612366 0.000000000
0.000000000 0.418330550 0.000000000
0.000000000 0.369445384 0.015968502
0.000000000 0.418999255 0.045020506
0.002661376 0.458918154 0.049647938
0.081210375 0.491665095 0.053512685
0.253824234 0.520160735 0.053965129
0.379646301 0.545443296 0.056833133
0.483913898 0.565498114 0.062445436
0.561647296 0.578906894 0.069189064
0.622341752 0.587451100 0.079356626
0.674254715 0.593114078 0.092994437
0.713591576 0.598829985 0.109381616
0.749612808 0.602089345 0.124296531
0.784180582 0.606301844 0.145450965
0.812121630 0.606935501 0.161879018
0.836172998 0.608144403 0.174454063
0.000000000 0.418661952 0.000000000
0.000000000 0.419723034 0.000000000
0.000000000 0.404749662 0.007787312
0.000000000 0.417781800 0.039752252
0.000000000 0.468703479 0.053076684
0.021833811 0.506732821 0.055127814
0.186652005 0.539508581 0.057861816
0.339180887 0.566873312 0.056950130
0.454148769 0.592294812 0.059297435
0.543790817 0.607829630 0.062562250
0.607799411 0.617868185 0.075728185
0.663314044 0.627156854 0.095845625
0.706948578 0.631909490 0.113093629
0.743351102 0.636155963 0.128397137
0.778785706 0.639917195 0.145443588
0.809157133 0.644010544 0.160627201
0.835134029 0.645153642 0.177088365
0.000000000 0.428335696 0.000000000
0.000000000 0.425639123 0.000000000
0.000000000 0.449236870 0.003302186
0.000000000 0.407395124 0.036422316
0.000000000 0.468994737 0.052874122
0.000394500 0.513850749 0.062430255
0.091824248 0.549234629 0.065316379
0.295160532 0.581834555 0.061912246
0.414740890 0.606694758 0.057643004
0.515354633 0.627155423 0.063922435
0.590701878 0.641408324 0.082820877
0.650188446 0.652476788 0.099664062
0.697376132 0.660908759 0.119734317
0.739138663 0.666144431 0.138605952
0.772147059 0.670452714 0.148315072
0.806743085 0.674947798 0.166974336
0.832671702 0.677115977 0.179927558
0.000000000 0.438596129 0.000000000
0.000000000 0.436493278 0.000000000
0.000000000 0.473694444 0.000000000
0.000000000 0.414103985 0.029177312
0.000000000 0.460068166 0.051739376
0.000000000 0.515455425 0.067161441
0.024824785 0.556712151 0.071268193
0.236268073 0.592563629 0.071033195
0.381987870 0.620892763 0.067012444
0.490893215 0.643638551 0.070447266
0.571372449 0.660563946 0.090642005
0.631999493 0.670944989 0.110854581
0.687049508 0.679204106 0.126070142
0.726725817 0.686384618 0.140875280
0.766097546 0.692492843 0.154048264
0.800263762 0.699025035 0.171429411
0.826502085 0.701768577 0.189432263
0.000000000 0.446929574 0.000000000
0.000000000 0.443492830 0.000000000
0.000000000 0.476979852 0.000000000
0.000000000 0.421358943 0.021833876
0.000000000 0.441382349 0.047911558
0.000000000 0.515848160 0.072240070
0.005125748 0.561714828 0.081620440
0.165596783 0.601454020 0.080534697
0.338136852 0.632292747 0.079233572
0.458387017 0.657676578 0.087515704
0.547059178 0.675638437 0.099112511
0.614693403 0.689890206 0.119525947
0.674659610 0.699451387 0.134986892
0.716590166 0.707115769 0.148806721
0.755656242 0.712759733 0.166117460
0.792357445 0.719268143 0.182232156
0.822615266 0.725026548 0.198624268
0.000000000 0.454516500 0.000000000
0.000000000 0.453436822 0.000000000
0.000000000 0.468051523 0.000000000
0.000000000 0.464393169 0.016116681
0.000000000 0.439148992 0.045736119
0.000000000 0.502610922 0.073586322
0.000000000 0.563091099 0.089503951
0.090080284 0.606064916 0.092535876
0.289959878 0.641533434 0.093964078
0.421571851 0.668543637 0.102313831
0.522908688 0.688999176 0.113382943
0.595456600 0.703833640 0.125444502
0.656915307 0.717001319 0.142950952
0.706628203 0.725165367 0.159185082
0.744940281 0.731782615 0.174583763
0.781751990 0.738196492 0.191716179
0.816282570 0.743331730 0.209426820
0.000000000 0.461533695 0.000000000
0.000000000 0.459907442 0.000000000
0.000000000 0.460152239 0.000000000
0.000000000 0.502945483 0.005864943
0.000000000 0.425481886 0.041135941
0.000000000 0.480260938 0.072458431
0.000000000 0.556725800 0.096444130
0.032638691 0.606271148 0.106169313
0.220348865 0.644158304 0.112051129
0.379997998 0.672977448 0.117872566
0.494492441 0.699368894 0.126489565
0.573958158 0.715504169 0.133102760
0.638882041 0.728236496 0.148422301
0.691789448 0.739286780 0.165728644
0.732689619 0.746532083 0.182840139
0.771841347 0.753023326 0.201564699
0.804982901 0.759325087 0.216126800
0.054763749 0.012518500 0.191516012
0.311771065 0.017595373 0.220057309
0.384342492 0.013701625 0.171395123
0.448260993 0.006703185 0.161105052
0.484008104 0.002267375 0.158408016
0.516587198 0.004386125 0.161428377
0.543961763 0.004238498 0.162475124
0.569260955 0.000789000 0.164021447
0.585255027 0.000789000 0.166153997
0.599479795 0.000000000 0.166705370
0.590894341 0.000000000 0.142936006
0.565504253 0.000000000 0.099994436
0.553710639 0.000000000 0.071627751
0.561954141 0.000000000 0.064995117
0.573293984 0.000000000 0.061702617
0.582952440 0.000000000 0.060024060
0.592311621 0.000000000 0.058942750
0.000000000 0.029473126 0.082275815
0.015376750 0.062018313 0.095987312
0.105037250 0.064639442 0.085594371
0.180778578 0.074109375 0.084573939
0.239659131 0.076820254 0.085749380
0.295854151 0.076294944 0.084183119
0.350453585 0.072265193 0.081152998
0.397766680 0.066689685 0.078998253
0.438290447 0.061109498 0.077795997
0.471466631 0.052717749 0.075011507
0.506155550 0.044941314 0.075573131
0.533514082 0.030902315 0.071993187
0.559592962 0.023114748 0.071799748
0.582415581 0.015426744 0.068573631
0.601749361 0.010596683 0.071040623
0.615578890 0.008625123 0.070746623
0.627713084 0.006456312 0.071347311
0.000000000 0.153854504 0.149010390
0.000000000 0.117759503 0.114066318
0.053191502 0.135132641 0.114072636
0.215539128 0.155338570 0.142621562
0.289068490 0.166493759 0.146382123
0.353412628 0.173470050 0.145824134
0.422592640 0.179833367 0.145680368
0.474178463 0.181995064 0.142013192
0.520625949 0.181877747 0.141594112
0.559272230 0.179840505 0.139814571
0.591192007 0.175540626 0.136808991
0.622042894 0.174250439 0.137479246
0.646568000 0.165698633 0.132089630
0.669956863 0.163665131 0.134259567
0.686580062 0.160016373 0.132757872
0.697831333 0.152736500 0.130280823
0.709212244 0.145221621 0.127843261
0.000000000 0.244366333 0.085799918
0.000000000 0.173439130 0.105869688
0.027254872 0.192246944 0.121537372
0.186161205 0.212198824 0.148410261
0.272938579 0.223299816 0.162113070
0.346482247 0.235466644 0.172562122
0.424923003 0.254664868 0.183861241
0.491472363 0.275518864 0.194170520
0.551536739 0.295776188 0.205405563
0.603491545 0.314571321 0.216565385
0.643879950 0.324046075 0.221298486
0.682917833 0.335124999 0.228033558
0.714016676 0.335220397 0.228010386
0.740867794 0.336296529 0.228109017
0.764222264 0.336591721 0.229815513
0.779152095 0.333889961 0.228096083
0.792288721 0.329224437 0.225515455
0.000000000 0.310014009 0.000000000
0.000000000 0.210352242 0.100069746
0.001971374 0.235013887 0.119472250
0.145379260 0.259685129 0.137854755
0.250883400 0.271353275 0.158491611
0.339903176 0.281449735 0.168158501
0.415369511 0.289350241 0.182371378
0.483359635 0.297828436 0.191409558
0.541648746 0.310548902 0.202617869
0.594307601 0.328256994 0.214209870
0.640169859 0.347462744 0.226078004
0.681291580 0.365562081 0.236537248
0.719369054 0.382234156 0.248499498
0.753109515 0.398908347 0.258405507
0.782239079 0.411848873 0.267403901
0.803895414 0.424373418 0.279457867
