public/lut/30.cube
TITLE "17x17x17 Adobe/IRIDAS cube 3D LUT exported with GrossGrade v0.2.2 (beta) 64 bit"
DOMAIN_MIN 0 0 0
DOMAIN_MAX 1 1 1
LUT_3D_SIZE 5
0.000000000 0.004731000 0.000000000
0.405607253 0.000197250 0.000000000
0.494217992 0.000000000 0.000000000
0.546951234 0.000000000 0.000000000
0.582029998 0.000000000 0.000000000
0.000000000 0.279443741 0.000000000
0.286380768 0.266570747 0.000000000
0.553075790 0.286706984 0.000000000
0.694186687 0.280942738 0.001577001
0.782801986 0.308326244 0.021883000
0.000000000 0.359298497 0.000000000
0.117871240 0.413481534 0.000000000
0.542468071 0.490463495 0.000000000
0.728619456 0.509410977 0.000000000
0.830967486 0.511714458 0.015771501
0.000000000 0.412228495 0.000000000
0.000000000 0.466483504 0.000000000
0.441230267 0.599651217 0.000000000
0.707491517 0.648837447 0.000000000
0.839146018 0.667217255 0.022474507
0.000000000 0.447064012 0.000000000
0.000000000 0.426740497 0.006703001
0.255399048 0.636847973 0.009856995
0.647904754 0.718957007 0.051351752
0.813354015 0.747722983 0.092168003
0.120567001 0.006506000 0.269075513
0.487951756 0.005520000 0.252242267
0.586372495 0.001577000 0.232178003
0.630597830 0.002168749 0.220529735
0.615415275 0.000000000 0.140625000
0.000000000 0.297004014 0.297534496
0.158096746 0.282746494 0.235942245
0.537580252 0.330717742 0.302706003
0.692630470 0.337709963 0.302372754
0.777766228 0.328072786 0.298374742
0.000000000 0.428917766 0.000000000
0.003548750 0.440481275 0.238393769
0.503075242 0.520515978 0.316581994
0.704983711 0.534353197 0.363130033
0.822682559 0.556407511 0.402822495
0.000000000 0.474545747 0.000000000
0.000000000 0.472979277 0.201989755
0.365783244 0.629428029 0.288640738
0.678783774 0.681695759 0.352910012
0.818939745 0.697710514 0.396122754
0.000000000 0.499216259 0.000000000
0.000000000 0.471989512 0.184900016
0.096932061 0.662328959 0.284782529
0.611999273 0.749175012 0.344913244
0.791547477 0.776844978 0.395602256
0.139164507 0.005914499 0.280593514
0.534563482 0.004534248 0.419367522
0.568732977 0.005125499 0.328579992
0.616146207 0.000000001 0.285479009
0.644742966 0.003548501 0.256879002
0.000000000 0.169400498 0.314331234
0.199333996 0.326471031 0.416326761
0.462092042 0.316828489 0.382077247
0.622283459 0.314788282 0.383643001
0.730739474 0.303846776 0.380395740
0.000000000 0.507745504 0.518402994
0.000000000 0.456580758 0.429675519
0.390953004 0.533529460 0.447077960
0.699468732 0.572459221 0.522888541
0.820918500 0.609555602 0.540392518
0.000000000 0.544188499 0.057923026
0.000000000 0.490757227 0.369973004
0.304170519 0.646999002 0.457727730
0.659668028 0.696416736 0.514185250
0.800760508 0.708222747 0.560368478
0.000000000 0.555140018 0.000000000
0.000000000 0.510511994 0.352077007
0.202827066 0.710304499 0.479847997
0.615503550 0.770439267 0.538648963
0.771649480 0.792240500 0.592954993
0.082403257 0.004731000 0.273094237
0.633662820 0.012222749 0.566208482
0.531424046 0.002957001 0.402935028
0.593665779 0.002760251 0.352038503
0.605434000 0.000000000 0.273623258
0.000000000 0.285673499 0.453058749
0.228722513 0.323006243 0.515106499
0.487795264 0.329657733 0.496409476
0.601087749 0.325202227 0.454398245
0.699262500 0.328181744 0.453022003
0.000000000 0.322477251 0.438812017
0.005717248 0.442258984 0.540322781
0.443103999 0.550123751 0.579795539
0.645144820 0.556616783 0.571195006
0.779401720 0.553432763 0.568014026
0.000000000 0.630827546 0.637319982
0.000000000 0.522113740 0.519915938
0.189083040 0.657734752 0.588615298
0.581645489 0.703947961 0.594117463
0.796963811 0.721805751 0.651242495
0.000000000 0.674549997 0.400832623
0.000000000 0.507874489 0.461337239
0.082598068 0.718418479 0.581550956
0.617914319 0.778209507 0.625335455
0.767719507 0.795605004 0.657568514
0.184156999 0.000000000 0.373221993
0.742029488 0.047242250 0.675191045
0.741633475 0.000394499 0.627918005
0.688758016 0.008871251 0.523256540
0.670306027 0.000789000 0.432821006
0.000000000 0.410383254 0.590886950
0.268957973 0.287113011 0.555438757
0.481199235 0.324180245 0.546293497
0.638068795 0.345021755 0.575145960
0.695754290 0.332489491 0.518112779
0.000000000 0.369260490 0.527588487
0.086282730 0.543770432 0.639072716
0.483346999 0.589520574 0.674884021
0.652598977 0.565427184 0.641438484
0.751075506 0.570640504 0.626330018
0.000000000 0.468997508 0.547145247
0.000000000 0.540457726 0.601504743
0.282275766 0.640051246 0.665429056
0.647387266 0.712859750 0.696578026
0.777284741 0.719590247 0.689521015
0.000000000 0.689751983 0.694535971
0.000000000 0.531826973 0.548293471
0.087656043 0.731375456 0.668761015
0.593532503 0.784439445 0.692431509
0.757009983 0.795840979 0.703212023
