public/lut/31.cube
TITLE "17x17x17 Adobe/IRIDAS cube 3D LUT exported with GrossGrade v0.2.2 (beta) 64 bit"
DOMAIN_MIN 0 0 0
DOMAIN_MAX 1 1 1
LUT_3D_SIZE 5
0.010251000 0.000000000 0.000000000
0.276579738 0.000000000 0.000000000
0.436657012 0.000000000 0.000000000
0.542893231 0.000000000 0.000000000
0.623609006 0.000000000 0.000000000
0.000000000 0.235417247 0.033514749
0.293598533 0.256772518 0.000000000
0.510944486 0.259896487 0.000000000
0.638782263 0.242538258 0.000000000
0.725785732 0.224400744 0.000000000
0.000000000 0.377833009 0.084912501
0.243163764 0.395573795 0.000000000
0.537972510 0.436816514 0.000000000
0.694118738 0.432390779 0.000000000
0.794929981 0.415795505 0.000000000
0.000000000 0.514105976 0.164909258
0.218156517 0.534391284 0.069962755
0.503060520 0.577862263 0.000000000
0.723500013 0.599259019 0.000000000
0.843837023 0.591514528 0.000000000
0.000000000 0.627179027 0.231778994
0.227894753 0.650666475 0.160831004
0.479445010 0.686288476 0.100656494
0.709564030 0.714199007 0.000000000
0.864570975 0.721355021 0.000000000
0.010054000 0.003943000 0.246973753
0.262802243 0.000000000 0.274137974
0.447421253 0.000000000 0.266251028
0.570582271 0.000000000 0.252782255
0.656556726 0.000000000 0.240871012
0.000000000 0.188830763 0.190124750
0.200561002 0.305229485 0.279267490
0.497544497 0.298061758 0.283951730
0.648500025 0.279834747 0.269057989
0.748664498 0.258376241 0.257570267
0.000000000 0.349747509 0.248465255
0.199503750 0.441661745 0.300972998
0.508749068 0.486748010 0.280864745
0.693770468 0.475670516 0.263347983
0.807020783 0.454735994 0.250990510
0.000000000 0.506433785 0.310048014
0.195927754 0.588233232 0.337175965
0.451894283 0.608808756 0.297894001
0.710910320 0.645809293 0.263041228
0.846535265 0.637535274 0.244712263
0.000000000 0.631078243 0.364655495
0.252065003 0.700701177 0.379093528
0.453563988 0.714833736 0.332287490
0.677911282 0.745811462 0.300146013
0.857410252 0.763839960 0.254589260
0.013406000 0.013800001 0.371247023
0.278967738 0.000000000 0.417681515
0.455615014 0.000000000 0.424805522
0.581298709 0.000000000 0.420990258
0.669625521 0.000000000 0.413826525
0.000000000 0.239621758 0.366727233
0.234344259 0.331736505 0.445557743
0.483460784 0.323420525 0.474118769
0.649473488 0.299172997 0.469865739
0.754533768 0.273391724 0.456734240
0.000000000 0.315414488 0.331250489
0.101098746 0.424188018 0.424452484
0.452119023 0.524846554 0.478227973
0.684602261 0.500123501 0.487612784
0.802850962 0.486703992 0.479832530
0.000000000 0.470498025 0.388953507
0.074359745 0.536346555 0.428850293
0.471713483 0.648048997 0.497369051
0.695378721 0.676378489 0.492139757
0.834120035 0.668963790 0.495843023
0.000000000 0.612712026 0.445992500
0.157911509 0.688097775 0.483864993
0.514272034 0.751778483 0.530761957
0.679890752 0.774011731 0.530386984
0.840269506 0.800266027 0.549891472
0.032134503 0.058343254 0.478395998
0.311262012 0.000591750 0.519187748
0.472346276 0.000000000 0.531692505
0.593862236 0.000000000 0.533242464
0.684748292 0.000000000 0.537238002
0.000000000 0.316545010 0.546126962
0.266960233 0.353923261 0.581363261
0.494035482 0.333912492 0.615452528
0.651583314 0.313981771 0.611734986
0.760057211 0.287557244 0.606695533
0.000000000 0.360374033 0.481813759
0.162236750 0.463668525 0.575067520
0.485956758 0.543912709 0.619933188
0.671763241 0.528983712 0.640820801
0.802223563 0.503190517 0.636778474
0.000000000 0.444904029 0.464622766
0.024840252 0.474125504 0.482047737
0.413281262 0.635230005 0.607328236
0.659250259 0.709540248 0.647093534
0.828229785 0.686722994 0.658594728
0.000000000 0.588306487 0.512243986
0.030162752 0.631394029 0.535209060
0.439302504 0.726546526 0.609348536
0.703291714 0.801145732 0.673272014
0.836264491 0.813987494 0.679134011
0.084261000 0.113270000 0.567049980
0.345059484 0.012223249 0.592271507
0.499916017 0.003548499 0.608109474
0.613227010 0.000000000 0.620764017
0.698074996 0.000000000 0.625545979
0.029374748 0.368236244 0.659332037
0.302367985 0.370588511 0.669657230
0.503419995 0.350818247 0.699509978
0.660833001 0.326865494 0.706110477
0.765252769 0.303528249 0.706258774
0.000000000 0.451997519 0.641297519
0.301839501 0.528309524 0.699105501
0.515402079 0.558613002 0.728417516
0.674792230 0.537424982 0.740508199
0.802044034 0.519008517 0.739960492
0.000000000 0.481889248 0.595687509
0.042522743 0.532080531 0.631918252
0.441679507 0.650318503 0.714205027
0.696931779 0.712526023 0.754497528
0.824684501 0.698989749 0.761847258
0.000000000 0.573356986 0.597479999
0.031148752 0.588842750 0.601041019
0.399141014 0.711759984 0.690356493
0.692285776 0.806985021 0.760903776
0.829768002 0.821232021 0.766987979
