public/lut/31.cube
TITLE "17x17x17 Adobe/IRIDAS cube 3D LUT exported with GrossGrade v0.2.2 (beta) 64 bit"
DOMAIN_MIN 0 0 0
DOMAIN_MAX 1 1 1
LUT_3D_SIZE 17
0.010251000 0.000000000 0.000000000
0.076572128 0.003943000 0.000000000
0.147635877 0.007590250 0.000000000
0.229065254 0.001724937 0.000000000
0.276579738 0.000000000 0.000000000
0.321066439 0.000000000 0.000000000
0.368999749 0.000000000 0.000000000
0.407850653 0.000000000 0.000000000
0.436657012 0.000000000 0.000000000
0.461924076 0.000000000 0.000000000
0.490281105 0.000000000 0.000000000
0.517997086 0.000000000 0.000000000
0.542893231 0.000000000 0.000000000
0.563653290 0.000000000 0.000000000
0.584554136 0.000000000 0.000000000
0.604308963 0.000000000 0.000000000
0.623609006 0.000000000 0.000000000
0.004090875 0.093762502 0.008526187
0.076383069 0.082702935 0.000098562
0.145312816 0.085172065 0.000000000
0.218367130 0.087448873 0.000000000
0.276240438 0.090437561 0.000000000
0.326461941 0.088423193 0.000000000
0.370853394 0.083419248 0.000000000
0.421514958 0.077841371 0.000000000
0.460671425 0.068976566 0.000000000
0.492764920 0.058839563 0.000000000
0.519280136 0.050937627 0.000000000
0.547671616 0.042095251 0.000000000
0.574703932 0.029818000 0.000000000
0.598288715 0.023706306 0.000000000
0.617215514 0.017101996 0.000000000
0.634959459 0.009659622 0.000000000
0.653641343 0.008970125 0.000000000
0.000000000 0.151737496 0.012222750
0.058977690 0.137353688 0.000049312
0.152430743 0.151564240 0.000000000
0.226769507 0.159257814 0.000000000
0.288350374 0.163166374 0.000000000
0.342885613 0.165295318 0.000000000
0.388387293 0.160553500 0.000000000
0.438037723 0.161808938 0.000000000
0.485383004 0.155100137 0.000000000
0.519899666 0.150164694 0.000000000
0.549910247 0.145181879 0.000000000
0.575710654 0.139039814 0.000000000
0.603513122 0.132760122 0.000000000
0.628391862 0.126210436 0.000000000
0.647335768 0.119702995 0.000000000
0.665770710 0.112596624 0.000000000
0.683596015 0.110037372 0.000000000
0.000000000 0.203117251 0.024790566
0.037256062 0.184634134 0.003844438
0.139406949 0.198631316 0.000000000
0.227066442 0.210749954 0.000000000
0.293499559 0.218382761 0.000000000
0.350559801 0.222024515 0.000000000
0.401014626 0.220505387 0.000000000
0.452297419 0.220316380 0.000000000
0.502574325 0.219128951 0.000000000
0.540405393 0.214731142 0.000000000
0.571708739 0.210559756 0.000000000
0.597445488 0.205853641 0.000000000
0.625447333 0.200378820 0.000000000
0.651826680 0.194820449 0.000000000
0.674837947 0.189852878 0.000000000
0.690806508 0.184846267 0.000000000
0.707843423 0.178129137 0.000000000
0.000000000 0.235417247 0.033514749
0.023903562 0.217632383 0.008526187
0.125891745 0.228781760 0.000000000
0.221868515 0.246488944 0.000000000
0.293598533 0.256772518 0.000000000
0.356457412 0.261186332 0.000000000
0.411460280 0.261311501 0.000000000
0.462301493 0.261348993 0.000000000
0.510944486 0.259896487 0.000000000
0.552521586 0.257295430 0.000000000
0.584848106 0.251517504 0.000000000
0.611024022 0.247341812 0.000000000
0.638782263 0.242538258 0.000000000
0.667279720 0.237483680 0.000000000
0.690257788 0.233623877 0.000000000
0.709020913 0.228255138 0.000000000
0.725785732 0.224400744 0.000000000
0.000000000 0.268354058 0.041797563
0.008132250 0.252874672 0.014687313
0.117297441 0.261150628 0.000000000
0.208228260 0.276088834 0.000000000
0.283953577 0.289048672 0.000000000
0.361083746 0.300184876 0.000000000
0.416428208 0.303196073 0.000000000
0.470816642 0.303052932 0.000000000
0.521047711 0.303125203 0.000000000
0.563508511 0.301086545 0.000000000
0.599593997 0.296798438 0.000000000
0.625170171 0.292217553 0.000000000
0.654216051 0.288680494 0.000000000
0.682911277 0.283495694 0.000000000
0.706074655 0.279525191 0.000000000
0.725617826 0.274806172 0.000000000
0.742702067 0.269133061 0.000000000
0.000000000 0.306424499 0.054112256
0.011089249 0.291328967 0.020848127
0.104205750 0.298068374 0.003450254
0.195506319 0.310542136 0.000000000
0.266255379 0.324613899 0.000000000
0.352193624 0.336698145 0.000000000
0.419341177 0.344773769 0.000000000
0.474862188 0.346016318 0.000000000
0.529004276 0.347978145 0.000000000
0.574919224 0.348119259 0.000000000
0.611462831 0.344049275 0.000000000
0.640049219 0.341159761 0.000000000
0.667497635 0.336827159 0.000000000
0.698921323 0.333164960 0.000000000
0.722955108 0.327711761 0.000000000
0.744514704 0.324465930 0.000000000
0.760978580 0.318665147 0.000000000
0.000000000 0.340490907 0.069951259
0.006752498 0.327672660 0.026762068
0.088639930 0.336711526 0.009807693
0.183324262 0.348246843 0.000000000
0.253643066 0.359761387 0.000000000
0.338791728 0.375000298 0.000000000
0.414293200 0.383423448 0.000000000
0.480419725 0.392098278 0.000000000
0.537334621 0.392351955 0.000000000
0.585481584 0.392790914 0.000000000
0.622642517 0.389422029 0.000000000
0.652751327 0.387159497 0.000000000
0.680544794 0.382326365 0.000000000
0.714327455 0.381873906 0.000000000
0.736974478 0.374671310 0.000000000
0.761564374 0.373019457 0.000000000
0.778236330 0.366655976 0.000000000
0.000000000 0.377833009 0.084912501
0.003844438 0.366755575 0.039575629
0.074822366 0.373354495 0.025136005
0.173566267 0.383994758 0.005322877
0.243163764 0.395573795 0.000000000
0.322473794 0.409754038 0.000000000
0.402886391 0.422979474 0.000000000
0.475458354 0.432100266 0.000000000
0.537972510 0.436816514 0.000000000
0.592797637 0.439796865 0.000000000
0.634718537 0.439259887 0.000000000
0.664868891 0.435568511 0.000000000
0.694118738 0.432390779 0.000000000
0.726764560 0.429038286 0.000000000
0.752884388 0.424371243 0.000000000
0.776142955 0.419669926 0.000000000
0.794929981 0.415795505 0.000000000
0.000000000 0.412579536 0.101883188
0.004632438 0.403180897 0.053489186
0.053683002 0.410587370 0.040569004
0.162455633 0.419964463 0.020207122
0.234885007 0.431298852 0.004386311
0.313742876 0.443874568 0.000000000
0.392485261 0.458563149 0.000000000
0.463357151 0.468089640 0.000000000
0.530857921 0.476207346 0.000000000
0.595881760 0.482390493 0.000000000
0.641149938 0.481479436 0.000000000
0.676381469 0.481065065 0.000000000
0.704874635 0.477800369 0.000000000
0.736080766 0.474255681 0.000000000
0.766127765 0.473587692 0.000000000
0.789474905 0.467765182 0.000000000
0.809265554 0.463175118 0.000000000
0.000000000 0.449803501 0.123776250
0.004928313 0.439799249 0.069951877
0.043168377 0.446558356 0.056402378
0.154552877 0.456774563 0.037309498
0.226668626 0.465176493 0.014194123
0.303312570 0.478692591 0.000591375
0.380536169 0.491912395 0.000000000
0.455862343 0.503959537 0.000000000
0.522071660 0.512241840 0.000000000
0.588269055 0.518604696 0.000000000
0.644091129 0.523328781 0.000000000
0.684374154 0.523019493 0.000000000
0.713675916 0.520846605 0.000000000
0.747117519 0.518474638 0.000000000
0.776308417 0.515911758 0.000000000
0.803494930 0.513343930 0.000000000
0.822185755 0.508715153 0.000000000
0.000000000 0.481351137 0.144371629
0.005421438 0.471799314 0.088860311
0.047011625 0.482179135 0.076152064
0.147881150 0.492664427 0.060787939
0.220677629 0.502369761 0.044906687
0.297587693 0.513101220 0.023657126
0.377111316 0.527699590 0.003991934
0.444498569 0.538625419 0.000000000
0.510890603 0.547265530 0.000000000
0.577807963 0.555345714 0.000000000
0.640795827 0.560844243 0.000000000
0.687434673 0.563273966 0.000000000
0.721581221 0.561681271 0.000000000
0.751580417 0.558819532 0.000000000
0.786219954 0.556910038 0.000000000
0.811398327 0.553936779 0.000000000
0.834119081 0.550975084 0.000000000
0.000000000 0.514105976 0.164909258
0.005421438 0.501121044 0.107870698
0.050160371 0.514369130 0.098610751
0.136360884 0.524542034 0.085368633
0.218156517 0.534391284 0.069962755
0.296543747 0.547018647 0.045300379
0.369003236 0.556365669 0.015968496
0.438399792 0.567753136 0.000345187
0.503060520 0.577862263 0.000000000
0.568378627 0.586179018 0.000000000
0.634196758 0.593885660 0.000000000
0.687513828 0.597900331 0.000000000
0.723500013 0.599259019 0.000000000
0.760498524 0.599445581 0.000000000
0.792859733 0.597053170 0.000000000
0.820667982 0.594511271 0.000000000
0.843837023 0.591514528 0.000000000
0.000000000 0.544141173 0.183138385
0.006210375 0.531610966 0.126693770
0.033760924 0.542426884 0.116874583
0.126246661 0.553024173 0.105152398
0.218569443 0.562785923 0.093288213
0.294071794 0.575766325 0.071446463
0.365832388 0.586847484 0.040826216
0.431848139 0.596391439 0.007688528
0.495126754 0.606934547 0.000443635
0.554964125 0.615607321 0.000000000
0.624782085 0.624643087 0.000000000
0.680402875 0.630506396 0.000000000
0.725010872 0.632911146 0.000000000
0.760443449 0.633858383 0.000000000
0.798636973 0.635298550 0.000000000
0.828911424 0.634594202 0.000000000
0.853154719 0.632058501 0.000000000
0.000000000 0.573335171 0.202037007
0.006308877 0.561176181 0.146804690
0.017545493 0.573124647 0.138800144
0.133252159 0.583537459 0.127872080
0.220600381 0.594715416 0.120685145
0.293403506 0.604425609 0.104211599
0.364514530 0.615191817 0.079748534
0.431582779 0.625658691 0.054220971
0.488990366 0.633093476 0.028093034
0.548795879 0.642040014 0.008871655
0.614115834 0.651212990 0.000000005
0.672320485 0.657090366 0.000000000
0.720893741 0.660776913 0.000000000
0.758159757 0.663014352 0.000000000
0.800302625 0.665734172 0.000000000
0.833541751 0.665707350 0.000000000
0.859592736 0.664757252 0.000000000
0.000000000 0.602168202 0.217420265
0.006998437 0.588725924 0.164368883
0.026417151 0.599012673 0.154849827
0.143810466 0.613528490 0.147498831
0.224672630 0.622997522 0.141508266
0.296103656 0.633912981 0.131507218
0.363564610 0.643579185 0.116737582
0.427819967 0.652571917 0.092433706
0.484637976 0.660617888 0.065236717
0.543754518 0.668097019 0.037844893
0.604538798 0.676919580 0.011089329
0.663097739 0.683734059 0.000000002
0.715666354 0.688603997 0.000000000
0.753893375 0.690282881 0.000000000
0.798304737 0.694030106 0.000000000
0.833683074 0.694362402 0.000000000
0.864859939 0.695042431 0.000000000
0.000000000 0.627179027 0.231778994
0.007738125 0.617038965 0.181880325
0.045818999 0.626473248 0.173626125
0.150495023 0.640673161 0.165658876
0.227894753 0.650666475 0.160831004
0.300941765 0.661041558 0.152358934
0.366719902 0.671041489 0.141814873
0.428430408 0.679920077 0.123703167
0.479445010 0.686288476 0.100656494
0.538112998 0.694826961 0.067270502
0.599710643 0.702107131 0.022967501
0.657200396 0.710879207 0.000542438
0.709564030 0.714199007 0.000000000
0.749325275 0.716833293 0.000000000
0.792467058 0.719429731 0.000000000
0.833473921 0.721068621 0.000000000
0.864570975 0.721355021 0.000000000
0.004878875 0.004928187 0.100592874
0.061356187 0.003943000 0.095846996
0.133848116 0.007935250 0.088920370
0.212555274 0.001872749 0.086266443
0.262645543 0.000000000 0.080927819
0.311456949 0.000000000 0.073991440
0.356689572 0.000000000 0.071667440
0.404552132 0.000000000 0.063456558
0.440762818 0.000000000 0.058703437
0.470478535 0.000000000 0.055424564
0.499100566 0.000000000 0.049777441
0.528591514 0.000000000 0.046241749
0.555565774 0.000000000 0.042449437
0.578651071 0.000000000 0.037999623
0.598857045 0.000000000 0.038293883
0.618041754 0.000000000 0.035929441
0.637924731 0.000000000 0.035189752
0.000147875 0.065977186 0.051490314
0.041780874 0.096131437 0.076954812
0.129706740 0.092261560 0.077922195
0.199246943 0.095035814 0.074536808
0.256831020 0.095969312 0.071492314
0.310292304 0.096607372 0.068280190
0.361052245 0.091769688 0.061260872
0.410086393 0.085521683 0.055014499
0.458726585 0.080955565 0.051846188
0.496649384 0.072038814 0.046683498
0.525302887 0.062761255 0.041841440
0.553789616 0.052919563 0.037950255
0.584926844 0.044955619 0.036717810
0.609659255 0.034401305 0.032430306
0.631985843 0.027206125 0.031296942
0.650026679 0.019517247 0.030360127
0.668558419 0.014883876 0.030458689
0.000000000 0.127988189 0.069129065
0.026811935 0.156654760 0.093489185
0.131843999 0.164496690 0.078535125
0.210627452 0.168128312 0.071166188
0.270346075 0.170514256 0.067295313
0.328705192 0.171468571 0.060666937
0.380018950 0.169791624 0.053278565
0.432239652 0.167433947 0.049079061
0.480675638 0.163458139 0.038238935
0.521878302 0.157308698 0.031493627
0.553318858 0.150661692 0.025628939
0.579890311 0.144805372 0.021390000
0.609362721 0.139090061 0.019418750
0.635418773 0.133265942 0.017249934
0.659354627 0.125511259 0.016609685
0.677142203 0.118554935 0.015179690
0.695160449 0.115319878 0.013898375
0.000000000 0.185075447 0.089255184
0.013208812 0.198274136 0.095958315
0.103923507 0.205984741 0.083949871
0.208453745 0.222600639 0.070321001
0.276201934 0.228574634 0.063104123
0.338046253 0.230757207 0.055422440
0.392799318 0.230284080 0.046348244
0.445512742 0.230505764 0.038332991
0.497176498 0.228414014 0.027058123
0.539386690 0.225370631 0.019566746
0.575532258 0.219736502 0.015524810
0.602773905 0.215514451 0.014785562
0.630226433 0.210029885 0.013454873
0.660684347 0.203463957 0.011976436
0.684810996 0.198217645 0.009068623
0.701575696 0.192134753 0.008476874
0.719502628 0.188988134 0.008575499
0.000000000 0.220703870 0.102199256
0.010645812 0.235437751 0.106218308
0.092249438 0.236142814 0.089220747
0.191595823 0.253879011 0.076986745
0.272583425 0.267614603 0.061559997
0.345892191 0.273212284 0.049934249
0.402042568 0.274389058 0.038865060
0.454399347 0.272503763 0.029374309
0.506443262 0.271015376 0.019517373
0.551790178 0.266833514 0.012222938
0.587919652 0.263069183 0.011237438
0.615582287 0.257562101 0.010547250
0.643865347 0.253386945 0.009659624
0.674189866 0.247769445 0.008230622
0.697637081 0.242486745 0.006111685
0.717210293 0.236064881 0.004041437
0.735036433 0.232484072 0.002563000
0.000000000 0.259253263 0.115227878
0.006259562 0.273012578 0.116423562
0.077427126 0.271648228 0.097388193
0.173320875 0.283224642 0.081468314
0.254359931 0.299756438 0.067914307
0.342162669 0.313321263 0.046638310
0.410143465 0.318490267 0.029719185
0.462184548 0.319030792 0.019566622
0.515007973 0.315699905 0.013011687
0.563362956 0.313400120 0.010202062
0.601114929 0.308830738 0.009117875
0.630251765 0.305389792 0.008181438
0.658094823 0.298899740 0.006752250
0.687602401 0.294229656 0.004829935
0.712635756 0.289001226 0.003154000
0.734216809 0.283478022 0.002957061
0.751653612 0.279044926 0.003745750
0.000000000 0.299602598 0.130621433
0.002366001 0.315494061 0.129290625
0.064004190 0.311152399 0.105529934
0.163002878 0.317761391 0.091543563
0.234202057 0.331493616 0.077595249
0.326747328 0.348408371 0.053329192
0.407546580 0.358271629 0.025381932
0.468440741 0.362262160 0.013553622
0.523900390 0.362547785 0.012173750
0.572404861 0.360224605 0.009413437
0.612344623 0.358426929 0.007244811
0.643470883 0.353331387 0.005076312
0.670840263 0.348299563 0.004139937
0.703011692 0.344454706 0.003154000
0.728641987 0.339875281 0.003203312
0.752525806 0.335016012 0.003252626
0.769415379 0.327846140 0.003696438
0.000000000 0.338720351 0.146537453
0.003104750 0.355719894 0.141256884
0.045643173 0.349931717 0.112318255
0.151423827 0.357670188 0.104804516
0.221703321 0.367898136 0.091411129
0.307863474 0.381597728 0.063767448
0.396307886 0.396400839 0.034500375
0.471435517 0.405807734 0.016806625
0.529002488 0.407276124 0.010744433
0.581075549 0.406766206 0.007491311
0.623928428 0.403870165 0.004189187
0.656003833 0.399063766 0.003449874
0.682826757 0.396089911 0.003203313
0.715104938 0.391759336 0.003647125
0.744049191 0.387753665 0.003943000
0.766941726 0.383407027 0.004731063
0.785961092 0.378091037 0.004238500
0.000000000 0.378800064 0.162499696
0.003893687 0.395286590 0.155871511
0.024889436 0.388222843 0.122604445
0.138959140 0.395720690 0.116460890
0.213426441 0.405048072 0.103559248
0.294473559 0.418994844 0.080714568
0.381260902 0.434103936 0.053913057
0.459847987 0.444947928 0.027550556
0.529660165 0.452915400 0.010153123
0.588682592 0.454132140 0.003893687
0.632555246 0.452720195 0.003203312
0.666878700 0.448966205 0.003943000
0.695440829 0.444612682 0.004140000
0.725664616 0.439710110 0.004090752
0.757550418 0.436255336 0.004681750
0.780153036 0.430692703 0.005076251
0.800164163 0.427294582 0.005815938
0.000000000 0.417048723 0.177677810
0.004238437 0.432388425 0.169878677
0.024347439 0.426642597 0.134023190
0.130339831 0.433756620 0.127855688
0.205782741 0.442875206 0.118839130
0.286041319 0.452902377 0.098525442
0.367136955 0.467924178 0.070889048
0.447497398 0.480804443 0.038828604
0.518552244 0.490013778 0.010054497
0.588312507 0.496783674 0.005717313
0.638645291 0.497887015 0.005421438
0.676128507 0.495108634 0.005026937
0.705253482 0.492771387 0.005421438
0.736971319 0.490861923 0.006161125
0.768737733 0.484959662 0.005421439
0.793277085 0.480196565 0.006161060
0.815928996 0.475832701 0.005815875
0.000000000 0.454423368 0.191977128
0.004681750 0.469302356 0.184160635
0.028437754 0.462901384 0.145552993
0.118455276 0.470482618 0.139666006
0.200611949 0.477986485 0.131392747
0.279843599 0.488723248 0.117775686
0.358851820 0.500601590 0.091019683
0.434200346 0.513221800 0.054011170
0.507532716 0.524263561 0.018088058
0.577156782 0.532420576 0.008526376
0.639623165 0.537341833 0.007885750
0.684095979 0.537080348 0.006161125
0.713463366 0.534725249 0.006899875
0.745723248 0.532356501 0.006161124
0.778623819 0.529818118 0.005766564
0.804427564 0.525503755 0.006210375
0.826606870 0.522976458 0.006210375
0.000000000 0.486181557 0.206087261
0.005421438 0.504974008 0.197557941
0.026860815 0.498318315 0.158195749
0.101191767 0.507209957 0.152032003
0.192391500 0.515146613 0.146745384
0.276541442 0.525810540 0.134287819
0.354080379 0.537347257 0.111866936
0.425758839 0.548008084 0.077575102
0.497413337 0.558550477 0.048014931
0.565209806 0.568118334 0.026170686
0.633039951 0.575160742 0.011779625
0.684952617 0.578139484 0.008132063
0.720522225 0.576862693 0.006702875
0.752519786 0.573738456 0.006210375
0.786165655 0.570980430 0.006210375
0.813736856 0.567582130 0.006456627
0.836855829 0.563957453 0.006998437
0.000000000 0.517729759 0.221689120
0.005421438 0.534307897 0.214178190
0.017595062 0.525607526 0.171925813
0.091733024 0.538061500 0.165427372
0.193232641 0.547420263 0.160037890
0.275855064 0.558372974 0.151060820
0.351464272 0.568750441 0.134935379
0.421291977 0.578400433 0.108571179
0.485154867 0.589056551 0.077714063
0.551604152 0.597498775 0.050834507
0.623176336 0.607313454 0.029818317
0.679664314 0.612267077 0.010646001
0.722840190 0.614305794 0.006210375
0.758975744 0.614343584 0.006210377
0.792295098 0.611361861 0.006998437
0.821396351 0.609458566 0.006998437
0.846666813 0.605713546 0.006998437
0.000000000 0.546724617 0.233870998
0.006210375 0.563961804 0.228483826
0.010497565 0.554562569 0.184530392
0.098638967 0.566066504 0.178819180
0.195929140 0.575989068 0.174315080
0.274892479 0.586567402 0.167060077
0.349254131 0.597672880 0.153753757
0.419175982 0.608717799 0.135482252
0.480466187 0.617605329 0.108177960
0.543033600 0.626004159 0.074762531
0.612721920 0.635514498 0.043417074
0.672392190 0.642785251 0.013405380
0.719243646 0.647622406 0.006259690
0.756887913 0.648566425 0.006259687
0.799230695 0.648849308 0.006998437
0.828849435 0.649462819 0.006998437
0.855516791 0.647836268 0.006998437
0.000000000 0.577360928 0.247148827
0.006308877 0.593261659 0.240158513
0.014687322 0.583334565 0.198834643
0.111875154 0.595404029 0.192936018
0.196706563 0.604909003 0.187802956
0.278729498 0.616007388 0.183266953
0.349483639 0.625856996 0.174211085
0.416969657 0.636608779 0.157672629
0.475753844 0.644716799 0.134943590
0.535952449 0.652099252 0.107493401
0.601651907 0.661295354 0.066408031
0.662379146 0.669612944 0.027846720
0.714947462 0.675188124 0.007195636
0.754089057 0.677258015 0.007885942
0.798664451 0.679772675 0.006998438
0.832575083 0.681043267 0.007738125
0.860656857 0.680581689 0.007047750
0.000000000 0.603999555 0.259400994
0.013208831 0.620985448 0.254821867
0.029029083 0.611041486 0.213553697
0.125132009 0.624540508 0.207487762
0.202749938 0.633814633 0.202809885
0.282617390 0.644397676 0.199402630
0.352873027 0.653680086 0.192073196
0.416074008 0.662983716 0.181398004
0.473030984 0.670666516 0.163771451
0.529677391 0.678190112 0.138456851
0.593219161 0.686645508 0.103381723
0.653142214 0.694838405 0.067654029
0.708452582 0.700387716 0.038992967
0.750121653 0.703788579 0.020503335
0.794123173 0.705930352 0.013651881
0.833955944 0.708911657 0.009265818
0.864826918 0.709127963 0.009265816
0.000000000 0.632701635 0.274181426
0.024593312 0.649221778 0.268440008
0.046952624 0.638785839 0.226369128
0.126111940 0.649513662 0.219672367
0.205186263 0.659330547 0.214565128
0.287688076 0.669733942 0.211420566
0.355268061 0.679864466 0.206389442
0.418521702 0.688730419 0.198961571
0.471467257 0.696519554 0.186641246
0.524220765 0.702517748 0.168520495
0.586700320 0.711646974 0.141224816
0.647565305 0.719005466 0.104767621
0.700043023 0.725908816 0.078245245
0.742748797 0.729675412 0.058231726
0.787322700 0.732709467 0.037999105
0.830633700 0.735165775 0.021883242
0.864354134 0.735457063 0.015179625
0.006013250 0.003449750 0.166299507
0.064604685 0.000690375 0.175870508
0.131631002 0.000887500 0.174339890
0.208678514 0.000789000 0.173762813
0.261376381 0.000690375 0.168564245
0.307511687 0.000000000 0.166070312
0.355872154 0.000000000 0.161419496
0.404327154 0.000000000 0.155515820
0.446817279 0.000000000 0.153486520
0.477407873 0.000000000 0.149402380
0.504738331 0.000000000 0.144127369
0.535263300 0.000000000 0.141626939
0.563999474 0.000000000 0.137859255
0.588348627 0.000000000 0.134313494
0.608953357 0.000000000 0.131766126
0.628459573 0.000000000 0.130014002
0.647560000 0.000000000 0.128465265
0.000000000 0.079060875 0.122382060
0.032676436 0.105925627 0.151073188
0.120225631 0.104975566 0.166047946
0.194986194 0.107652634 0.165610373
0.254613638 0.106650256 0.164116248
0.310290515 0.103388622 0.161354631
0.361082464 0.100079745 0.157260507
0.411605090 0.093452126 0.152312517
0.461039603 0.086474061 0.148807257
0.500029504 0.076602563 0.144539565
0.533476889 0.070219383 0.141813815
0.559176087 0.058111876 0.137894690
0.590800762 0.048433565 0.134124935
0.617771685 0.038196430 0.131099805
0.640094161 0.032183930 0.129146814
0.658454359 0.023263115 0.127358571
0.676820695 0.016363250 0.125288367
0.000000000 0.117796130 0.109089002
0.009955812 0.167801738 0.164066017
0.090905502 0.183978379 0.165620774
0.200838998 0.182777271 0.173000440
0.262766004 0.185352609 0.170305744
0.322650731 0.184716016 0.166080445
0.377621293 0.182273611 0.160824135
0.428059608 0.177621633 0.155055821
0.480624020 0.174868867 0.152139246
0.523029268 0.170723811 0.147551000
0.558381438 0.163683504 0.143580124
0.585929751 0.159127623 0.142046124
0.612818360 0.150164619 0.136449873
0.643954277 0.146028310 0.133365124
0.668867588 0.140186369 0.132150501
0.686326683 0.131412625 0.128209949
0.703676641 0.125619620 0.125985622
0.000000000 0.168465078 0.123431496
0.003301937 0.195883617 0.155315816
0.091175064 0.230237946 0.180183068
0.193482563 0.240228713 0.175385743
0.268193990 0.242639139 0.167430803
0.332765251 0.245321065 0.162579492
0.390650570 0.242963135 0.156418502
0.442277104 0.241750330 0.150867611
0.495629013 0.239324823 0.146165878
0.542620003 0.236917078 0.143053621
0.577621222 0.230800942 0.135615185
0.607047915 0.225774005 0.130432263
0.635564327 0.218255386 0.128100321
0.664745986 0.212210625 0.124025553
0.691561460 0.207526892 0.122545689
0.710701823 0.201722696 0.119153872
0.728464544 0.196514264 0.117744252
0.000000000 0.206107631 0.138321370
0.002464500 0.225286439 0.158436626
0.080387995 0.262511015 0.184362248
0.166744590 0.271492004 0.171761677
0.257288009 0.283956617 0.170188874
0.338857710 0.287260532 0.158022016
0.398434252 0.286999375 0.156248510
0.449470580 0.283565104 0.148171067
0.503044009 0.281991869 0.143231511
0.551635623 0.278551102 0.138845503
0.590577126 0.274472624 0.135189489
0.619208992 0.268766433 0.129824072
0.647095025 0.263815612 0.126099125
0.678619027 0.258056402 0.122264311
0.703390718 0.251991749 0.116363496
0.725491822 0.246243879 0.113998689
