public/lut/32.cube
TITLE "17x17x17 Adobe/IRIDAS cube 3D LUT exported with GrossGrade v0.2.2 (beta) 64 bit"
DOMAIN_MIN 0 0 0
DOMAIN_MAX 1 1 1
LUT_3D_SIZE 17
0.000000000 0.000000000 0.000000000
0.094848186 0.006949125 0.000000000
0.194786251 0.010448249 0.000000000
0.285866618 0.001232437 0.000000000
0.341023982 0.000000000 0.000000000
0.395343632 0.000000000 0.000000000
0.430006266 0.000000000 0.000000000
0.459346950 0.000000000 0.000000000
0.486373007 0.000000000 0.000000000
0.511709571 0.000000000 0.000000000
0.530567765 0.000000000 0.000000000
0.547144234 0.000000000 0.000000000
0.560051978 0.000000000 0.000000000
0.571802199 0.000000000 0.000000000
0.580558658 0.000000000 0.000000000
0.586253941 0.000000000 0.000000000
0.592670023 0.000000000 0.000000000
0.000000000 0.143493757 0.000000000
0.097437128 0.077295251 0.000000000
0.141177624 0.045278005 0.000000000
0.261697859 0.058537625 0.000000000
0.330647379 0.055289876 0.000000000
0.401434034 0.039865438 0.000000000
0.452053815 0.012420123 0.000000000
0.490592957 0.005766375 0.000000000
0.521979988 0.003154000 0.000000000
0.547577202 0.004780813 0.000000000
0.569771826 0.008772563 0.000000000
0.590368092 0.013011750 0.000000000
0.611788273 0.020749189 0.000000000
0.630574048 0.043205220 0.000000000
0.649820924 0.075144269 0.000000000
0.667120218 0.103702836 0.000000000
0.681409180 0.126941249 0.000000000
0.000000000 0.213884130 0.000000000
0.079204246 0.182013810 0.000000000
0.211758375 0.171783864 0.000000000
0.219117448 0.112490878 0.000000000
0.279441744 0.112292878 0.000000000
0.349176675 0.119127311 0.000000000
0.425197542 0.125470489 0.000000000
0.490266740 0.126592383 0.000000000
0.533707380 0.115421757 0.000000000
0.567761242 0.099827066 0.000000000
0.593613267 0.074922249 0.000000000
0.611154318 0.054465439 0.000000000
0.626669288 0.041891873 0.000000000
0.641713977 0.042247202 0.000000000
0.656140983 0.056184012 0.000000000
0.670336604 0.076459460 0.000000000
0.684350491 0.103062749 0.000000000
0.000000000 0.259454459 0.000000000
0.027254933 0.234782517 0.000000000
0.199816361 0.250420511 0.000000000
0.317203760 0.240902692 0.000000000
0.318634063 0.191468656 0.000000000
0.326029181 0.167198643 0.000000000
0.381056100 0.163096249 0.000000000
0.459450841 0.172569305 0.000000000
0.528403938 0.182016939 0.000000000
0.571433306 0.184283137 0.000000000
0.608122945 0.177920833 0.000000000
0.636842787 0.165795654 0.000000000
0.651938975 0.149615496 0.000000000
0.664904416 0.131267503 0.000000000
0.675417364 0.115311131 0.000000000
0.681760132 0.106062382 0.000000000
0.689546168 0.108457439 0.000000000
0.000000000 0.283196002 0.000000000
0.006703124 0.267347991 0.000000000
0.165537506 0.278694481 0.000000000
0.324214756 0.298459470 0.000000000
0.384348750 0.283264011 0.000000000
0.380522728 0.238066375 0.000000000
0.381374389 0.201791495 0.000000000
0.433247626 0.195948631 0.000000000
0.505771756 0.203635007 0.000000000
0.561752081 0.211913317 0.000000000
0.605340481 0.215830505 0.000000000
0.643465757 0.215311885 0.000000000
0.667630434 0.208136752 0.000000000
0.682137311 0.193553805 0.000000000
0.693457723 0.177115351 0.000000000
0.700373352 0.162316680 0.000000000
0.703899026 0.148705006 0.000000000
0.000000000 0.308966875 0.000000000
0.000000000 0.296069771 0.000000000
0.138118073 0.310603082 0.000000000
0.286486566 0.330179572 0.000000000
0.388504684 0.341335446 0.000000000
0.445880234 0.327917814 0.000000000
0.442456752 0.280833364 0.000000000
0.439558268 0.237575427 0.000000000
0.481882840 0.227270931 0.000000000
0.545259953 0.231953442 0.000000000
0.591638565 0.239249378 0.000000000
0.638149858 0.246240065 0.000000000
0.672565281 0.249185503 0.000000000
0.697300792 0.245438188 0.000000000
0.710796237 0.234136984 0.000000000
0.721445262 0.222732618 0.000000000
0.726117194 0.205826879 0.000000000
0.000000000 0.330630988 0.000000000
0.000000000 0.326461017 0.000000000
0.100778118 0.340464890 0.000000000
0.248656198 0.360516191 0.000000000
0.353420347 0.377348006 0.000000000
0.447061568 0.384811163 0.000000000
0.507520616 0.374713987 0.000000000
0.509113073 0.325624824 0.000000000
0.502289772 0.281812996 0.000000000
0.532505453 0.263554573 0.000000000
0.580119908 0.265288740 0.000000000
0.621798098 0.269443452 0.000000000
0.665564716 0.276841253 0.000000000
0.698029995 0.282422632 0.000000000
0.720780253 0.281622767 0.000000000
0.737369120 0.276364088 0.000000000
0.746442378 0.263490647 0.000000000
0.000000000 0.349045306 0.000000000
0.000000000 0.354178637 0.000000000
0.066251673 0.368450910 0.000000000
0.215677381 0.389393389 0.000000000
0.316278934 0.407422692 0.000000000
0.415463030 0.420910329 0.000000000
0.505513966 0.429413646 0.000000000
0.576809824 0.420348227 0.000000000
0.579382896 0.374125957 0.000000000
0.562560201 0.324489653 0.000000000
0.576384902 0.302336603 0.000000000
0.613625228 0.296750218 0.000000000
0.652568281 0.301577240 0.000000000
0.692159235 0.308856606 0.000000000
0.720638156 0.313149452 0.000000000
0.742488801 0.318873763 0.000000000
0.759650052 0.313604146 0.000000000
0.000000000 0.368723005 0.000000000
0.000000000 0.378379405 0.000000000
0.032922998 0.396134496 0.000000000
0.188228086 0.416157991 0.000000000
0.282274008 0.433188498 0.000000000
0.385402858 0.451208949 0.000000000
0.473787278 0.461790144 0.000000000
0.566827655 0.469248056 0.000000000
0.630690932 0.462341487 0.000000000
0.631984174 0.419596642 0.000000000
0.613027453 0.366441429 0.000000000
0.618649840 0.338377446 0.000000000
0.644833803 0.330913544 0.000000000
0.683652759 0.333015382 0.000000000
0.716949522 0.338986397 0.000000000
0.741045415 0.343311667 0.000000000
0.760771513 0.348153502 0.000000000
0.000000000 0.386404008 0.000000000
0.000000000 0.394642025 0.000000000
0.022424940 0.415689886 0.000000000
0.162762523 0.436846942 0.000000000
0.257424057 0.457758933 0.000000000
0.353774458 0.477214068 0.000000000
0.448825061 0.493462116 0.000000000
0.536721408 0.500654697 0.000000000
0.626985252 0.507496238 0.000000000
0.678238511 0.499750465 0.000000000
0.676985145 0.459529519 0.000000000
0.659786463 0.410857916 0.000000000
0.654212415 0.374134898 0.000000000
0.678360283 0.364934951 0.000000000
0.710168660 0.362778991 0.000000000
0.737684309 0.367763579 0.000000000
0.758420467 0.372082680 0.000000000
0.000000000 0.404616386 0.000000000
0.000000000 0.415902436 0.000000000
0.021882877 0.434774995 0.000000000
0.144623905 0.455605209 0.000000000
0.234908000 0.473011732 0.000000000
0.325272739 0.495262474 0.000000000
0.420804411 0.514068365 0.000000000
0.507815540 0.526881397 0.000000000
0.600993991 0.539180696 0.000000000
0.674242973 0.542474449 0.000000000
0.714538336 0.535423756 0.000000000
0.715980351 0.496472239 0.000000000
0.701472640 0.452315748 0.000000000
0.693211198 0.414163530 0.000000000
0.712733984 0.397293389 0.000000000
0.739023507 0.395665377 0.000000000
0.758024633 0.396135002 0.000000000
0.000000000 0.418389380 0.000000000
0.000000000 0.432612121 0.000000000
0.022868376 0.453422278 0.000000000
0.126041472 0.473339051 0.000000000
0.217782319 0.490048558 0.000000000
0.302655876 0.508995414 0.000000000
0.401041895 0.530777514 0.000000000
0.485756934 0.548048258 0.000000000
0.568272114 0.561910510 0.000000000
0.653934777 0.571617365 0.000000000
0.713310301 0.574947953 0.000000000
0.751763344 0.566697717 0.000000000
0.754407823 0.531992257 0.000000000
0.740371227 0.486799091 0.000000000
0.731299937 0.448957592 0.000000000
0.742281020 0.433730364 0.000000000
0.764489472 0.428221375 0.000000000
0.000000000 0.432067245 0.000000000
0.000000000 0.448384255 0.000000000
0.016757373 0.469653755 0.000000000
0.108675897 0.489307046 0.000000000
0.204065248 0.505434036 0.000000000
0.285570920 0.525592625 0.000000000
0.377000153 0.545413613 0.000000000
0.463361114 0.563340068 0.000000000
0.543576300 0.577935517 0.000000000
0.630509138 0.592516959 0.000000000
0.698852897 0.598567963 0.000000000
0.746589541 0.599630594 0.000000000
0.787000954 0.597971261 0.000000000
0.788132191 0.564276814 0.000000000
0.772970259 0.518817067 0.000000000
0.761724114 0.482108116 0.000000000
0.770855784 0.466287255 0.000000000
0.000000000 0.447965652 0.000000000
0.000000000 0.462496430 0.000000000
0.003351615 0.482657552 0.000000000
0.100799412 0.505703211 0.000000000
0.194287941 0.522085309 0.000000000
0.270404279 0.538494766 0.000000000
0.357707769 0.559590220 0.000000000
0.443670541 0.579022229 0.000000000
0.520860076 0.593469560 0.000000000
0.605232656 0.608418405 0.000000000
0.678806603 0.619114220 0.000000000
0.734326720 0.621950686 0.000000000
0.781761229 0.624431789 0.000000000
0.814736009 0.619309008 0.000000000
0.815519452 0.595697284 0.000000000
0.801592708 0.549350977 0.000000000
0.790157139 0.515263319 0.000000000
0.000000000 0.460497111 0.000000000
0.000000000 0.476524889 0.000000000
0.000986007 0.495911121 0.000000000
0.109604701 0.518099368 0.000000000
0.190265641 0.532894194 0.000000000
0.262920380 0.549708545 0.000000000
0.347002149 0.570991039 0.000000000
0.428859413 0.591038465 0.000000000
0.504104972 0.607146621 0.000000000
0.579881370 0.622472644 0.000000000
0.657499731 0.636222720 0.000000000
0.721691072 0.642017901 0.000000000
0.767978430 0.643159270 0.000000000
0.812231779 0.644319475 0.000000000
0.839737236 0.641968846 0.000000000
0.839293659 0.618241787 0.000000000
0.826871574 0.581017554 0.000000000
0.000000000 0.474770218 0.000000000
0.000000000 0.491478950 0.000000000
0.005717511 0.509155631 0.000000000
0.115506783 0.530440748 0.000000000
0.189472571 0.545451760 0.000000000
0.258573562 0.561512887 0.000000000
0.338201880 0.579562128 0.000000000
0.414710641 0.599932075 0.000000000
0.487107068 0.615482390 0.000000000
0.561650038 0.632199407 0.000000000
0.642307222 0.647314072 0.000000000
0.705655456 0.657558203 0.000000000
0.753624737 0.661125600 0.000000000
0.801867425 0.664932013 0.000000000
0.836942434 0.665600419 0.000000000
0.859641492 0.659200609 0.000000000
0.857146084 0.638728082 0.000000000
0.000000000 0.487549990 0.000000000
0.000000000 0.502375722 0.000000000
0.015279002 0.522548020 0.000000000
0.116525069 0.539865673 0.000000000
0.191877007 0.557615280 0.000000000
0.260504305 0.571636915 0.000000000
0.330172390 0.590775728 0.000000000
0.406915098 0.608104289 0.000000000
0.475140989 0.625170469 0.000000000
0.541111231 0.639366448 0.000000000
0.623101473 0.656519651 0.000000000
0.689665318 0.668970585 0.000000000
0.739845991 0.675852001 0.000000000
0.787283659 0.678548455 0.000000000
0.829724669 0.681823492 0.000000000
0.857993901 0.681390524 0.000000000
0.875504971 0.677286029 0.000000000
0.003943000 0.000887562 0.159214497
0.017250374 0.000000000 0.094548628
0.137512133 0.000098562 0.139117420
0.267387629 0.000000000 0.145434499
0.325033635 0.000000000 0.141790241
0.381772995 0.000000000 0.126853943
0.432746857 0.000000000 0.115988865
0.469028741 0.000000000 0.099017367
0.498338133 0.000000000 0.075958431
0.526252270 0.000000000 0.063231625
0.546031415 0.000000000 0.042265315
0.559692323 0.000000000 0.029079061
0.571908653 0.000000000 0.017496122
0.581187129 0.000000000 0.007540490
0.586973071 0.000000000 0.000000000
0.590177715 0.000000000 0.000000000
0.593517721 0.000000000 0.000000000
0.000000000 0.072558187 0.136537120
0.021144126 0.077470750 0.075479567
0.108432181 0.068146504 0.072592311
0.180779308 0.065607063 0.056099564
0.239331633 0.064768374 0.042929560
0.292464375 0.061929122 0.030557375
0.343773395 0.054587748 0.018235620
0.399874479 0.040778805 0.005618432
0.447645128 0.027058061 0.000000000
0.483170927 0.021538062 0.000000000
0.509691954 0.016264686 0.000000000
0.538091481 0.013553750 0.000000000
0.560437918 0.011828437 0.000000000
0.577131748 0.006505685 0.000000000
0.593957484 0.006653437 0.000000000
0.607144237 0.003795131 0.000000000
0.620569825 0.002956875 0.000000000
0.000000000 0.227559566 0.195446998
0.000246437 0.167965055 0.086723119
0.099043123 0.160912678 0.072146937
0.189648077 0.148323804 0.060515370
0.264477670 0.153495505 0.042419124
0.328488618 0.161320314 0.034304935
0.383205682 0.168811738 0.029222496
0.438542277 0.179112211 0.021291442
0.493468523 0.194615200 0.018778248
0.537022531 0.204314828 0.009216313
0.572500467 0.211043507 0.003696562
0.604492784 0.221198693 0.004485063
0.634937942 0.225794494 0.001823437
0.661516368 0.227629200 0.000000000
0.682192206 0.228004321 0.000000000
0.698889375 0.229739308 0.000000000
0.714526951 0.235546634 0.000000000
0.000000000 0.275871933 0.158787191
0.000000000 0.228047207 0.070776626
0.063699372 0.225720659 0.058612622
0.196617588 0.231779650 0.056202807
0.250494182 0.213887393 0.056124121
0.305936247 0.205424085 0.039648071
0.382099360 0.209091187 0.006259060
0.453652620 0.208762318 0.000197125
0.517730057 0.202924326 0.000000000
0.561748981 0.198751241 0.000000000
0.592973888 0.202007502 0.000000000
0.624869823 0.210894942 0.000000000
0.653838933 0.221672624 0.000000000
0.677047253 0.234413385 0.000000000
0.699364960 0.247471839 0.000000000
0.716155291 0.259648025 0.000000000
0.736128747 0.273250312 0.000000000
0.000000000 0.304033428 0.141830817
0.000000000 0.264965624 0.063076064
0.043346316 0.261814922 0.049406126
0.172170281 0.269261181 0.044542685
0.271500081 0.275948703 0.033218998
0.324916095 0.258413047 0.042830691
0.361173898 0.238195688 0.029571619
0.431900263 0.241311759 0.001478810
0.509911418 0.245346889 0.000000000
0.564354062 0.237392455 0.000000000
0.599693239 0.226351440 0.000000000
0.632854342 0.218767807 0.000000000
0.659645140 0.217577562 0.000000000
0.681909919 0.223425135 0.000000000
0.701482177 0.232578382 0.000000000
0.717275441 0.244286448 0.000000000
0.732827306 0.255130976 0.000000000
0.000000000 0.329624325 0.115844876
0.000000000 0.300598741 0.051858749
0.020552248 0.300581276 0.035140250
0.150523901 0.306411505 0.028339624
0.244136378 0.316401690 0.023805313
0.347894818 0.323764265 0.017644687
0.393833607 0.301301211 0.020305755
0.414700717 0.273090482 0.023755673
0.482328266 0.272975802 0.000788623
0.556222320 0.280146062 0.000000000
0.602907538 0.274206638 0.000000000
0.637140274 0.262923539 0.000000000
0.666287541 0.250419140 0.000000000
0.687985182 0.240005434 0.000000000
0.703564405 0.236081570 0.000000000
0.718774021 0.237951502 0.000000000
0.735922396 0.247128189 0.000000000
0.000000000 0.355945110 0.098623872
0.000000000 0.336750478 0.043629996
0.006259499 0.338733077 0.025381934
0.126800448 0.346523702 0.017102370
0.217605859 0.355518401 0.013947624
0.322869748 0.367731988 0.009265498
0.423252374 0.374416292 0.001971562
0.461056650 0.346290320 0.006900122
0.472913593 0.309992433 0.011582499
0.533872187 0.307473391 0.000443626
0.593184114 0.309954703 0.000000000
0.635504901 0.309621155 0.000000000
0.672746480 0.304101765 0.000000000
0.698356152 0.291820496 0.000000000
0.714658916 0.277866006 0.000000000
0.727384269 0.266792417 0.000000000
0.739722252 0.261263341 0.000000000
0.000000000 0.379576683 0.081071116
0.000000000 0.367876559 0.032479372
0.002759750 0.374490380 0.014884372
0.100170694 0.383569032 0.010300560
0.193930104 0.392869830 0.007392746
0.293513030 0.404538393 0.002464059
0.400298953 0.418673187 0.000000000
0.491975993 0.422492266 0.000000000
0.536753893 0.394453794 0.000295874
0.537782490 0.353342533 0.007244871
0.577630877 0.340615004 0.001478629
0.626617074 0.341284931 0.000000000
0.667209089 0.343241811 0.000000000
0.703731656 0.342106640 0.000000000
0.728489637 0.333504021 0.000000000
0.741666019 0.322322458 0.000000000
0.753928840 0.308796138 0.000000000
0.000000000 0.399672866 0.067945935
0.000000000 0.397264332 0.025086498
0.002070250 0.405428350 0.008772562
0.071007393 0.417483330 0.005717311
0.174439609 0.426741749 0.002710812
0.268904001 0.438904673 0.000000000
0.374260098 0.453414649 0.000000000
0.470492870 0.462326586 0.000000000
0.565270782 0.469119459 0.000000000
0.605501831 0.443683028 0.000000000
0.596887410 0.396350622 0.001725059
0.620027602 0.374047846 0.000000000
0.657798886 0.372820050 0.000000000
0.697930276 0.373488128 0.000000000
0.730369151 0.373187989 0.000000000
0.752140522 0.368696332 0.000000000
0.766561806 0.363952935 0.000000000
0.000000000 0.417329431 0.063655004
0.000000000 0.419049442 0.024445876
0.000690375 0.431232750 0.009019438
0.044403464 0.448205769 0.002809250
0.152842954 0.459381312 0.000788500
0.250080258 0.472660303 0.000000000
0.348845422 0.487680137 0.000000000
0.450413465 0.500769734 0.000000000
0.543023527 0.506533265 0.000000000
0.630712032 0.510402143 0.000000000
0.661429405 0.487345576 0.000000000
0.649062872 0.437194556 0.000000000
0.657415032 0.410393745 0.000000000
0.689420819 0.403042018 0.000000000
0.727796912 0.402787507 0.000000000
0.754886329 0.402612269 0.000000000
0.771818221 0.400588244 0.000000000
0.000000000 0.434966445 0.057118937
0.000000000 0.438656747 0.025826063
0.000000000 0.451596498 0.010990876
0.033761151 0.469984382 0.002316625
0.141654506 0.481883734 0.000000000
0.233729586 0.497095734 0.000000000
0.330318838 0.514952362 0.000000000
0.429022729 0.530737042 0.000000000
0.519553363 0.542797923 0.000000000
0.611516476 0.550137520 0.000000000
0.681766272 0.548381865 0.000000000
0.703484893 0.523179591 0.000000000
0.691116750 0.477287233 0.000000000
0.690981805 0.443539202 0.000000000
0.722052455 0.436269552 0.000000000
0.752467453 0.433502644 0.000000000
0.777407765 0.433873624 0.000000000
0.000000000 0.446830601 0.057752687
0.000000000 0.457141757 0.030508125
0.000000000 0.469985485 0.007984062
0.033120029 0.488711566 0.001823625
0.132114574 0.502540052 0.001725000
0.220485181 0.517978013 0.001478438
0.316356212 0.534889936 0.000246563
0.409503132 0.552134812 0.000000000
0.497522891 0.567385972 0.000000000
0.590472162 0.578072071 0.000000000
0.668440282 0.583490729 0.000000000
0.722330809 0.582634032 0.000000000
0.741885900 0.558252215 0.000000000
0.730950415 0.512061179 0.000000000
0.729242265 0.480351359 0.000098626
0.752721488 0.466787815 0.000197249
0.776178658 0.463857859 0.000000000
0.000000000 0.459636331 0.064761683
0.000000000 0.470912576 0.031395376
0.000000000 0.487599552 0.006998498
0.038051143 0.507009566 0.002956875
0.126079768 0.521154702 0.002956875
0.212403625 0.535716414 0.001872938
0.303365856 0.552599490 0.000246563
0.395575434 0.570333660 0.000000000
0.479454458 0.584964335 0.000000000
0.563272476 0.597898543 0.000000000
0.650843561 0.609129488 0.000000000
0.713470161 0.613824129 0.000000000
0.761146784 0.613139749 0.000000000
0.779514372 0.589885294 0.000000000
0.769131601 0.544386208 0.000000000
0.762479126 0.509365201 0.001873125
0.777149558 0.496806175 0.000197250
0.000000000 0.473298669 0.070492506
0.000000000 0.485051870 0.032380693
0.000000000 0.500345588 0.004140004
0.042697079 0.522321939 0.003597938
0.119338810 0.536894202 0.003104815
0.206157744 0.551405847 0.002218127
0.295773327 0.567911029 0.000246563
0.385134637 0.586708248 0.000000000
0.466470808 0.601570427 0.000000000
0.544411659 0.613841176 0.000000000
0.632874370 0.628796577 0.000000000
0.700865984 0.634571552 0.000000000
0.750457883 0.636623621 0.000000000
0.798546731 0.636672020 0.000000000
0.810561001 0.616903186 0.000000000
0.800201476 0.575838506 0.000000000
0.788717508 0.541652143 0.000000000
0.000000000 0.484738201 0.075429946
0.000000000 0.497736543 0.039898507
0.000000000 0.513641834 0.017102517
0.040878192 0.533302426 0.009462952
0.108505115 0.549923241 0.007984449
0.203953445 0.565861821 0.003992066
0.292117745 0.582615316 0.000000000
0.376261234 0.601375818 0.000000000
0.454540819 0.616624057 0.000000000
0.528000593 0.628921270 0.000000000
0.611989081 0.643259108 0.000000000
0.684929788 0.651731133 0.000000000
0.739808142 0.657401979 0.000000000
0.788542628 0.656906188 0.000000000
0.826893628 0.657434165 0.000000000
0.836957097 0.640449882 0.000000000
0.827270508 0.605921090 0.000000000
0.000000000 0.498494178 0.086576879
0.000000000 0.510554492 0.052675199
0.000000000 0.524507403 0.027944887
0.036853001 0.545781314 0.023608137
0.103778005 0.561127782 0.017693503
0.203733698 0.576670587 0.008280188
0.291658342 0.593703985 0.000246563
0.371975720 0.610371411 0.000000000
0.444960862 0.628236234 0.000000000
0.514946103 0.641561866 0.000000000
0.594247639 0.655931830 0.000000000
0.668840170 0.668987572 0.000000000
0.727107227 0.674466968 0.000000000
0.777140975 0.678341806 0.000000000
0.821133435 0.678781092 0.000000000
0.853013039 0.677519202 0.000000000
0.855816543 0.660835087 0.000000000
0.000000000 0.513581932 0.101504065
0.000000000 0.522849143 0.068331815
0.000000000 0.534958541 0.042976875
0.029866885 0.557164669 0.036077246
0.105971634 0.571821153 0.021291811
0.211212128 0.587017715 0.008477437
0.291884392 0.603322804 0.000739688
0.370890200 0.622486651 0.000295874
0.436406583 0.636610389 0.000000000
0.505335629 0.649317026 0.000000000
0.577068567 0.663964331 0.000000000
0.653693914 0.677318454 0.000000000
0.715036988 0.687572598 0.000000000
0.763661504 0.691670060 0.000000000
0.809390903 0.695060134 0.000000000
0.848259032 0.695390165 0.000000000
0.869193137 0.694481552 0.000000000
0.007787375 0.000098625 0.222705871
0.010842876 0.000000000 0.139560059
0.039231375 0.000000000 0.171500757
0.134857342 0.000000000 0.207972392
0.258708507 0.000000000 0.241553873
0.351342022 0.000000000 0.255518794
0.421255916 0.000000000 0.253847361
0.469135284 0.000000000 0.245747760
0.501470387 0.000000000 0.241428107
0.533721864 0.000000000 0.233042866
0.557588577 0.000000000 0.221772999
0.575609684 0.000000000 0.210976571
0.589869022 0.000000000 0.194735751
0.601126850 0.000000000 0.176927477
0.609653175 0.000000000 0.153896362
0.615695596 0.000000000 0.130797654
0.620260477 0.000000000 0.108711123
0.000000000 0.071245499 0.207835510
0.000986125 0.093044564 0.181552067
0.041735813 0.071367882 0.145064384
0.136087403 0.068999059 0.178655818
0.222258762 0.060135122 0.194923937
0.286823392 0.052298561 0.191065505
0.339096636 0.039099246 0.180131748
0.395467550 0.022967303 0.166528419
0.446954817 0.010399248 0.147589624
0.486287951 0.004090562 0.128199324
0.513797164 0.001182938 0.108638376
0.542036176 0.000000000 0.090712994
0.565101326 0.000000000 0.070285998
0.582717955 0.000000000 0.053323671
0.595215321 0.000000000 0.039608050
0.606765628 0.000000000 0.026565239
0.617952108 0.000000000 0.018038690
0.000000000 0.145334497 0.239307001
0.000000000 0.148921311 0.201428860
0.042545877 0.164373755 0.180507377
0.146050707 0.167767614 0.181920439
0.215723366 0.163708746 0.182220384
0.280619711 0.158427954 0.165317714
0.339078397 0.154397741 0.148801863
0.394373655 0.150117546 0.130715996
0.451244414 0.144926384 0.111371495
0.498954803 0.136766255 0.091284007
0.535895586 0.128351882 0.074513502
0.562890112 0.117051885 0.056468129
0.591834843 0.105258256 0.038375750
0.613468289 0.095389441 0.024593923
0.631223202 0.084714122 0.012419867
0.643699110 0.076892555 0.005421745
0.657562852 0.072769254 0.000690375
0.000000000 0.278519511 0.328922570
0.000000000 0.251654059 0.246562943
0.004041564 0.241747200 0.207211047
0.110505462 0.241472244 0.185483441
0.213571385 0.231554270 0.185063303
0.287381768 0.236839861 0.173165441
0.356848538 0.244191632 0.163253263
0.414073139 0.255332738 0.159001231
0.470921338 0.265183628 0.151731074
0.526292384 0.272092402 0.141436815
0.572933614 0.281306297 0.134364933
0.608699679 0.281953931 0.120244183
0.637506723 0.282714307 0.109019876
0.667793751 0.279077381 0.090846248
0.692429483 0.277856976 0.076710507
0.714091420 0.275614083 0.062256936
0.728387237 0.275751948 0.051260512
0.000000000 0.328563750 0.326931238
0.000000000 0.289134860 0.238245994
0.003450125 0.280311108 0.198413372
0.090218201 0.279690802 0.170226887
0.189550266 0.281219602 0.180392236
0.282774687 0.273734927 0.176066935
0.356793553 0.269112378 0.155941367
0.425732970 0.271020293 0.134454578
0.493056357 0.275305867 0.125490248
0.549149692 0.282771885 0.119804561
0.591920614 0.294058353 0.115658253
0.625568032 0.306001663 0.110782057
0.654593408 0.319133639 0.112274617
0.686870694 0.328208923 0.105217494
0.714193642 0.334560722 0.097571611
0.736924171 0.343322754 0.094140626
