public/lut/32.cube
TITLE "17x17x17 Adobe/IRIDAS cube 3D LUT exported with GrossGrade v0.2.2 (beta) 64 bit"
DOMAIN_MIN 0 0 0
DOMAIN_MAX 1 1 1
LUT_3D_SIZE 5
0.000000000 0.000000000 0.000000000
0.341023982 0.000000000 0.000000000
0.486373007 0.000000000 0.000000000
0.560051978 0.000000000 0.000000000
0.592670023 0.000000000 0.000000000
0.000000000 0.283196002 0.000000000
0.384348750 0.283264011 0.000000000
0.505771756 0.203635007 0.000000000
0.667630434 0.208136752 0.000000000
0.703899026 0.148705006 0.000000000
0.000000000 0.368723005 0.000000000
0.282274008 0.433188498 0.000000000
0.630690932 0.462341487 0.000000000
0.644833803 0.330913544 0.000000000
0.760771513 0.348153502 0.000000000
0.000000000 0.432067245 0.000000000
0.204065248 0.505434036 0.000000000
0.543576300 0.577935517 0.000000000
0.787000954 0.597971261 0.000000000
0.770855784 0.466287255 0.000000000
0.000000000 0.487549990 0.000000000
0.191877007 0.557615280 0.000000000
0.475140989 0.625170469 0.000000000
0.739845991 0.675852001 0.000000000
0.875504971 0.677286029 0.000000000
0.007688750 0.000000000 0.256741762
0.103371501 0.000000000 0.260790259
0.480694532 0.000000000 0.346855015
0.594166279 0.000000000 0.330258995
0.634666979 0.000000000 0.279762268
0.000000000 0.234439254 0.353052735
0.109668761 0.288088262 0.303841233
0.439097524 0.277824998 0.281995505
0.621114254 0.254311502 0.212051004
0.708727241 0.225832492 0.150413007
0.000000000 0.464022219 0.423586011
0.012420251 0.461319774 0.306785494
0.432830274 0.483296245 0.285195738
0.673183024 0.438971251 0.214327246
0.783856511 0.428142250 0.195639491
0.000000000 0.528221250 0.363707483
0.009068252 0.565094471 0.279373229
0.376798779 0.613981724 0.251940489
0.700754046 0.641539991 0.237841010
0.780780017 0.555131257 0.231922254
0.000000000 0.563379228 0.329230249
0.019517250 0.613813698 0.270538002
0.366251290 0.670506001 0.244615763
0.641331017 0.715958238 0.219068497
0.843938768 0.724918962 0.201989755
0.009463000 0.000000000 0.316126525
0.039813999 0.000000000 0.305146992
0.237919003 0.000000000 0.381801486
0.548159242 0.000000000 0.435805738
0.637613535 0.000000000 0.432931483
0.000000000 0.239972264 0.460022509
0.067845754 0.334071994 0.471619010
0.283179998 0.285549998 0.416097254
0.606241226 0.244453251 0.484996796
0.701299489 0.194917500 0.448206007
0.000000000 0.381695509 0.516234994
0.039716505 0.422434986 0.500834048
0.333534539 0.488825023 0.489762992
0.631874084 0.466903746 0.475935251
0.747171998 0.440994978 0.423554540
0.000000000 0.568192959 0.586379766
0.000000000 0.605729461 0.548488319
0.303838253 0.641293168 0.496332020
0.608397007 0.656345010 0.475957274
0.775363743 0.618000507 0.454989523
0.000000000 0.612024009 0.554630518
0.000000000 0.659341514 0.510051489
0.365462005 0.718914509 0.497253001
0.605183244 0.744695246 0.493351996
0.768164039 0.751858473 0.520650029
0.006900000 0.000000000 0.378550500
0.033317503 0.000000000 0.349865258
0.134771019 0.000000000 0.398166239
0.398216248 0.000000000 0.456238747
0.609004498 0.000000000 0.491427004
0.000000000 0.330086261 0.560219526
0.072171256 0.343492508 0.576401770
0.232982993 0.272810489 0.511561751
0.441544771 0.274497986 0.539036751
0.693894267 0.194287747 0.579378963
0.000000000 0.348316491 0.561743259
0.032528501 0.444534481 0.594612241
0.360621274 0.520361960 0.607612491
0.505462527 0.476822019 0.566814005
0.734149218 0.439210504 0.614142776
0.000000000 0.525844514 0.629056811
0.001577252 0.572760284 0.638403237
0.314337760 0.621499777 0.643277526
0.533980727 0.671962500 0.626639783
0.747694016 0.637501955 0.610329211
0.000000000 0.638857245 0.681380987
0.000000000 0.689324021 0.673000216
0.338255256 0.739052474 0.661705732
0.590079069 0.757348001 0.633573055
0.736812234 0.755760252 0.628059983
0.003943000 0.000000000 0.431950986
0.033514749 0.000000000 0.386738747
0.108211510 0.000000000 0.419735014
0.303916276 0.000000000 0.480055004
0.538482010 0.000000000 0.516291022
0.000000000 0.384721488 0.627598286
0.061821505 0.331324995 0.624895215
0.212883011 0.266235739 0.563627005
0.366295278 0.278805494 0.559790254
0.606718004 0.248150006 0.605570257
0.000000000 0.418793499 0.630182505
0.055645756 0.507613778 0.661492467
0.366160512 0.545473993 0.680896997
0.474840015 0.466766268 0.623203218
0.646549463 0.463445008 0.640385509
0.000000000 0.468392760 0.639326990
0.118412502 0.531707764 0.664389491
0.372656256 0.590519249 0.678681970
0.594260275 0.670596004 0.689401984
0.691395760 0.641243041 0.660407245
0.000000000 0.638410985 0.707709014
0.000000000 0.683886230 0.726993263
0.371125996 0.733020008 0.729557991
0.592804551 0.757086515 0.717819750
0.720818996 0.761942983 0.694145977
