public/lut/33.cube
TITLE "17x17x17 Adobe/IRIDAS cube 3D LUT exported with GrossGrade v0.2.2 (beta) 64 bit"
DOMAIN_MIN 0 0 0
DOMAIN_MAX 1 1 1
LUT_3D_SIZE 17
0.003943000 0.000000000 0.000000000
0.053915624 0.003943000 0.000000000
0.120156378 0.003943000 0.000000000
0.183981016 0.001724937 0.000000000
0.226080745 0.000000000 0.000000000
0.267059982 0.000000000 0.000000000
0.310899764 0.000000000 0.000000000
0.345105082 0.000000000 0.000000000
0.378276497 0.000000000 0.000000000
0.408785313 0.000000000 0.000000000
0.447145730 0.000000000 0.000000000
0.484193981 0.000000000 0.000000000
0.515406966 0.000000000 0.000000000
0.541774035 0.000000000 0.000000000
0.566618025 0.000000000 0.000000000
0.592050016 0.000000000 0.000000000
0.616994977 0.000000000 0.000000000
0.000147875 0.061942190 0.000000000
0.049999814 0.048733253 0.000000000
0.116422758 0.055118438 0.000000000
0.193177015 0.055197313 0.000000000
0.240701810 0.054460749 0.000000000
0.284230143 0.050544627 0.000000000
0.326947391 0.042228870 0.000000000
0.371920675 0.033859435 0.000000000
0.405881435 0.025924373 0.000000000
0.439793944 0.020995937 0.000000000
0.476070017 0.015623436 0.000000000
0.513746560 0.010103625 0.000000000
0.545012355 0.008033439 0.000000000
0.572084188 0.008476881 0.000000000
0.594787657 0.013849065 0.000000000
0.619391918 0.012124117 0.000000000
0.640536487 0.007639563 0.000000000
0.000000000 0.123013124 0.000690375
0.060051002 0.106990002 0.000000000
0.122269750 0.110226624 0.000000000
0.180203080 0.118034057 0.000000000
0.235008627 0.121039249 0.000000000
0.291042089 0.121403188 0.000000000
0.346246898 0.118645623 0.000000000
0.398012936 0.115344755 0.000000000
0.434637159 0.109251879 0.000000000
0.467206866 0.101841003 0.000000000
0.498414844 0.096719503 0.000000000
0.532870233 0.088278934 0.000000000
0.562372565 0.081474870 0.000000000
0.589486241 0.076786436 0.000000000
0.610620916 0.073290251 0.000000000
0.633818269 0.071018063 0.000000000
0.658391714 0.074217007 0.000000000
0.000000000 0.176653877 0.005372063
0.051468689 0.160604015 0.000000000
0.132915124 0.164490253 0.000000000
0.188516527 0.165421948 0.000000000
0.236955881 0.174844623 0.000000000
0.285334289 0.179595947 0.000000000
0.339875072 0.176838070 0.000000000
0.400537729 0.175741524 0.000000000
0.454107225 0.172001138 0.000000000
0.491157830 0.166224629 0.000000000
0.523337662 0.161127582 0.000000000
0.555673301 0.154300258 0.000000000
0.586035609 0.147935703 0.000000000
0.609175920 0.141194448 0.000000000
0.630160451 0.136014074 0.000000000
0.649123073 0.131847262 0.000000000
0.669678032 0.127869263 0.000000000
0.000000000 0.214340255 0.011828501
0.045881562 0.199660137 0.000000000
0.135929883 0.201414138 0.000000000
0.199970827 0.205536827 0.000000000
0.242853507 0.209981248 0.000000000
0.289061993 0.214572683 0.000000000
0.338472754 0.217423379 0.000000000
0.395680308 0.217315763 0.000000000
0.452042520 0.215777263 0.000000000
0.499451578 0.210831374 0.000000000
0.536335111 0.203860626 0.000000000
0.572615385 0.198854625 0.000000000
0.605477214 0.193675250 0.000000000
0.628342211 0.186513379 0.000000000
0.648132741 0.179789498 0.000000000
0.666057587 0.173831508 0.000000000
0.684833467 0.170128003 0.000000000
0.000000000 0.252700001 0.017890749
0.028142313 0.240361512 0.000000000
0.140256315 0.243819609 0.000000000
0.209895700 0.244771183 0.000000000
0.254954815 0.248321503 0.000000000
0.300383508 0.252929002 0.000000000
0.341703445 0.254166305 0.000000000
0.394390225 0.259345949 0.000000000
0.446780205 0.257951707 0.000000000
0.499841243 0.255527943 0.000000000
0.542220771 0.251059055 0.000000000
0.581704736 0.245086059 0.000000000
0.620943010 0.240023375 0.000000000
0.648145556 0.233298257 0.000000000
0.668596327 0.226917565 0.000000000
0.684696317 0.221159562 0.000000000
0.703730524 0.217603371 0.000000000
0.000000000 0.292781144 0.027994255
0.024199003 0.281573772 0.000000000
0.138019383 0.287073255 0.000000000
0.214751571 0.290988237 0.000000000
0.265171140 0.295602649 0.000000000
0.313853920 0.296394765 0.000000000
0.351079524 0.296479285 0.000000000
0.396613538 0.301679730 0.000000000
0.447341532 0.304810017 0.000000000
0.500795484 0.304867208 0.000000000
0.543601632 0.300254256 0.000000000
0.586114168 0.296389759 0.000000000
0.626664400 0.289436996 0.000000000
0.663784623 0.283227563 0.000000000
0.688187599 0.276520252 0.000000000
0.707302272 0.270578086 0.000000000
0.724167883 0.265351534 0.000000000
0.000000000 0.336395144 0.041930944
0.025234560 0.322032928 0.000493129
0.132197514 0.329713911 0.000000001
0.217962503 0.336953163 0.000000000
0.272321671 0.340789944 0.000000000
0.324128956 0.343023151 0.000000000
0.366949320 0.344240963 0.000443816
0.409538835 0.347184956 0.002563132
0.454128265 0.352484733 0.003696379
0.505097866 0.355581343 0.000098627
0.543926954 0.352271080 0.000000000
0.585955441 0.348709285 0.000000000
0.627384424 0.342183530 0.000000000
0.676412463 0.340450525 0.000000000
0.702576101 0.329242945 0.000000000
0.726875305 0.324943274 0.000000000
0.744864047 0.315106213 0.000000000
0.000000000 0.377046019 0.053941004
0.012617184 0.368908525 0.010744127
0.124194622 0.374785632 0.000690124
0.217894569 0.380744874 0.000000000
0.277070522 0.386560261 0.000000000
0.330300212 0.387285590 0.002119252
0.377251267 0.389728874 0.007491380
0.422469735 0.391544402 0.011877814
0.464911014 0.392554015 0.010645998
0.510475397 0.398762882 0.001676063
0.550192237 0.401351869 0.000000000
0.586566091 0.399502218 0.000000000
0.626702487 0.397018790 0.000000000
0.674605429 0.394092202 0.000000000
0.715599775 0.387592256 0.000000000
0.742051065 0.381239772 0.000000000
0.763167024 0.375257015 0.000000000
0.000000000 0.413226247 0.078211747
0.002908063 0.403831184 0.010202187
0.116899312 0.415230930 0.002415000
0.216427267 0.422698438 0.003056063
0.279159993 0.430327505 0.008082625
0.335488319 0.434730262 0.011483375
0.385678023 0.435549796 0.011631561
0.432799399 0.436720192 0.006407060
0.479064107 0.438447684 0.003449937
0.522989154 0.441153556 0.006160875
0.556785583 0.442465067 0.012370688
0.593237042 0.445843875 0.012518500
0.626511097 0.444992900 0.004435623
0.668261647 0.440884560 0.000197249
0.715801120 0.439620137 0.000000000
0.747378826 0.432015032 0.000000000
0.773951888 0.425520688 0.000000000
0.000000000 0.448082000 0.103883877
0.013307375 0.437893867 0.037049875
0.103361875 0.450529754 0.027107250
0.215193585 0.462843925 0.021833686
0.279162109 0.469745636 0.017447373
0.337859899 0.476820201 0.009364437
0.389275134 0.479783386 0.004238500
0.441239417 0.481571853 0.006604191
0.490508139 0.483763605 0.016658504
0.533274889 0.486718774 0.028536750
0.567758620 0.484426737 0.036175624
0.597446561 0.483509481 0.038981687
0.632643759 0.490703225 0.032726243
0.669345617 0.488523126 0.013553728
0.714119196 0.485385001 0.000000000
0.751431704 0.482759595 0.000000000
0.780254960 0.475874990 0.000000000
0.000000000 0.480942458 0.125648618
0.005519812 0.468115270 0.061541688
0.084478810 0.480126053 0.046465624
0.216538891 0.492601275 0.028881747
0.281704813 0.501990557 0.013405499
0.339588881 0.510032237 0.011236937
0.396560639 0.517306089 0.015229379
0.445074022 0.521222293 0.027698880
0.497536898 0.526487529 0.036471441
0.542501211 0.529638171 0.038788188
0.579449415 0.529091597 0.038640313
0.610845387 0.527774632 0.035288375
0.637731373 0.526396334 0.036225375
0.673164129 0.533182859 0.028043739
0.716314912 0.533796668 0.008329166
0.751258731 0.530829012 0.000000000
0.780901015 0.523964286 0.000000000
0.000000000 0.513946235 0.149516001
0.000000001 0.498535395 0.079776436
0.100939006 0.512566507 0.060810126
0.216478199 0.522050977 0.042279318
0.283799529 0.531368494 0.032726005
0.342827260 0.538776040 0.034940884
0.395737529 0.544801116 0.041881628
0.448654532 0.551682532 0.046026312
0.501103759 0.557764471 0.044186253
0.551090956 0.563094974 0.038492251
0.587404728 0.563513398 0.038927257
0.619905293 0.564499974 0.043705881
0.648684204 0.564472020 0.048369262
0.678480148 0.566254258 0.057329323
0.718696952 0.572137117 0.060365751
0.753820002 0.571519136 0.039101735
0.781086981 0.566128492 0.009660264
0.000000000 0.539757013 0.171660393
0.002365707 0.524944782 0.101212651
0.114749014 0.539240837 0.082707971
0.218811020 0.551740408 0.070444152
0.287597746 0.559863806 0.063773341
0.341963828 0.566520154 0.060846206
0.397333831 0.573960066 0.059185695
0.449921280 0.578703761 0.054173317
0.504208684 0.586008072 0.048806511
0.552984476 0.590275705 0.045738328
0.593169212 0.592825949 0.054763395
0.624779522 0.592772424 0.063166708
0.657356143 0.595169425 0.075419083
0.686285138 0.593595922 0.082153976
0.716883898 0.596974969 0.090551771
0.758861482 0.605130732 0.085131831
0.781244814 0.604368925 0.062549040
0.002563130 0.563701749 0.197044909
0.026220519 0.547995150 0.124347709
0.123977244 0.562402844 0.113254771
0.229109213 0.575577736 0.097963333
0.293187767 0.584579587 0.088657022
0.345381886 0.592604697 0.080285892
0.399876624 0.598619640 0.071823895
0.456848592 0.607123077 0.065319397
0.507115841 0.611438513 0.061849896
0.559641600 0.618994296 0.065435961
0.596141517 0.619787455 0.077046148
0.629947722 0.619705558 0.086184278
0.662808120 0.621127367 0.096352518
0.692567170 0.623819590 0.104950771
0.726163387 0.624574840 0.106174387
0.757463217 0.627511024 0.109115697
0.787540376 0.635167778 0.103453785
0.003943000 0.585672736 0.219225079
0.037999313 0.567813933 0.145874396
0.114976332 0.582144678 0.132165149
0.236721098 0.596419334 0.120011091
0.300078005 0.606146812 0.110954210
0.350081891 0.613998950 0.099782765
0.402696371 0.623547554 0.091200262
0.457354218 0.629525781 0.082519144
0.511596739 0.636106253 0.084693901
0.563027918 0.642624974 0.091802083
0.598681629 0.644769132 0.100564398
0.633454680 0.647103965 0.109248206
0.667059183 0.648679852 0.113696650
0.698985159 0.649355710 0.120965831
0.731875718 0.653105438 0.125018090
0.763726234 0.653317213 0.127268642
0.785003364 0.652496099 0.131300151
0.000000000 0.603383005 0.241042003
0.028339125 0.584985852 0.167832553
0.114619881 0.598653734 0.154743627
0.249032840 0.614319205 0.142531008
0.305381238 0.623608470 0.135307744
0.354995757 0.632546902 0.126095131
0.407352149 0.640287995 0.117272995
0.461647660 0.651022255 0.113423124
0.512997508 0.659793973 0.112213001
0.565641880 0.665943980 0.117066003
0.601087332 0.671296597 0.120251127
0.637892663 0.671955347 0.123338811
0.669986486 0.675706744 0.128816500
0.703278363 0.675207317 0.132743940
0.735573411 0.677151501 0.139383763
0.768295467 0.678525865 0.146384135
0.790925980 0.678224981 0.155421004
0.000000000 0.003943000 0.061766941
0.040972624 0.003943000 0.053267311
0.109088562 0.000197187 0.058038563
0.178188384 0.000000000 0.053669184
0.219944060 0.000000000 0.052121624
0.263734192 0.000000000 0.048388250
0.312108099 0.000000000 0.046829622
0.350747526 0.000000000 0.041895684
0.385725945 0.000000000 0.039028630
0.420023173 0.000000000 0.037851624
0.455239683 0.000000000 0.037407875
0.492076874 0.000000000 0.036717750
0.522855043 0.000000000 0.037063379
0.551998734 0.000000000 0.042038564
0.574731290 0.000000000 0.045307826
0.600634515 0.000000000 0.052448004
0.623450816 0.000000000 0.056839690
0.000000000 0.061179250 0.053070124
0.039329875 0.078722626 0.055437315
0.120440438 0.081114814 0.056839690
0.192941591 0.092627063 0.063532934
0.247644946 0.098612495 0.066201873
0.299376518 0.105154373 0.070171498
0.349620521 0.103129685 0.065708369
0.399400741 0.100828379 0.062583938
0.440366089 0.101669624 0.064707130
0.474416077 0.099806748 0.065322563
0.508393526 0.096131630 0.063284315
0.543697000 0.092388555 0.062498249
0.577846706 0.091551311 0.064340383
0.604244292 0.087270051 0.064380810
0.628945351 0.085957944 0.067355692
0.647972703 0.085176311 0.071365386
0.668930531 0.082951188 0.075017370
0.000000000 0.127272367 0.087487131
0.034894563 0.139032185 0.067094117
0.125065550 0.143488556 0.066798873
0.203299806 0.143651187 0.051266436
0.260847121 0.145185560 0.040088251
0.308188826 0.144354805 0.030949125
0.358915776 0.143873766 0.027698560
0.415592223 0.146969512 0.025924437
0.458579242 0.149290949 0.025283750
0.496587664 0.150032371 0.026664063
0.531729639 0.149776742 0.029519748
0.569205999 0.149788186 0.032321937
0.603386819 0.151476949 0.035897747
0.630651951 0.151083753 0.034034751
0.655175388 0.152774259 0.037541382
0.674400091 0.152879938 0.041961767
0.697244406 0.154769182 0.051059499
0.000000000 0.188126266 0.109552816
0.019714061 0.183207467 0.074870817
0.112302564 0.187236458 0.064561188
0.187928125 0.190541998 0.070974872
0.239963323 0.194840804 0.063601501
0.300179899 0.197825149 0.040254943
0.363769770 0.197105318 0.018975249
0.424442410 0.197355896 0.009314808
0.467248142 0.192992955 0.006111811
0.501116514 0.189763770 0.004731062
0.538553178 0.188582569 0.006210312
0.573985100 0.187353060 0.005569249
0.610348225 0.187129632 0.005766373
0.640493631 0.187712073 0.006653813
0.665213704 0.189032748 0.009364437
0.687388003 0.189565316 0.013996941
0.708532929 0.194153249 0.020749744
0.000000000 0.229390383 0.122563563
0.017151315 0.224803075 0.083021998
0.111324064 0.222903699 0.069237433
0.187129632 0.223003954 0.071379438
0.235151261 0.223830372 0.074913375
0.285741121 0.228538185 0.066765442
0.346188188 0.232073814 0.040179428
0.417948425 0.236855119 0.011434306
0.478072196 0.234926939 0.003104812
0.515445113 0.230646387 0.002956875
0.548791409 0.224853709 0.002661375
0.581630051 0.220059514 0.001626375
0.617587626 0.217631936 0.000000000
0.646072924 0.215218455 0.000000000
0.672148883 0.214268491 0.000542252
0.693461776 0.215495244 0.002168380
0.715524733 0.216393754 0.005618625
0.000000000 0.272278547 0.134106562
0.014933751 0.266885698 0.093761191
0.103678182 0.264406621 0.073049121
0.188555568 0.264763802 0.070754312
0.241061881 0.264626563 0.078550935
0.289901704 0.264936894 0.081557751
0.335065842 0.268305749 0.073878370
0.395456582 0.274490118 0.045802541
0.467494160 0.276596367 0.013602872
0.520905077 0.274515629 0.003351125
0.561504006 0.269861013 0.001182938
0.598142385 0.265800118 0.000000000
0.630111277 0.259341955 0.000000000
0.658522606 0.253618389 0.000000000
0.682177544 0.249694496 0.000000000
0.702793360 0.246011645 0.000000000
0.722444832 0.247230992 0.000197250
0.000000000 0.315180182 0.146364629
0.003548748 0.314553648 0.108518884
0.091936499 0.310563475 0.081102937
0.189979762 0.311523944 0.075434819
0.246610433 0.313465774 0.078240566
0.301359087 0.313971251 0.084764630
0.342929363 0.309082657 0.088306189
0.389330685 0.313561648 0.082651749
0.448622137 0.318283349 0.056590069
0.511066973 0.321012527 0.020059384
0.560984015 0.318951875 0.001527877
0.606553257 0.314551443 0.000000000
0.646450102 0.309784949 0.000000000
0.676647604 0.303674966 0.000000000
0.699643612 0.296799690 0.000000000
0.718482792 0.290658891 0.000000000
0.736177862 0.284501076 0.000000000
0.000000000 0.358316660 0.158580005
0.000985629 0.355911106 0.120568320
0.088457808 0.349422455 0.089464262
0.188392133 0.355387509 0.084210187
0.249391377 0.360999703 0.084520444
0.307815284 0.359666824 0.085355565
0.355819076 0.359004527 0.090912625
0.400773466 0.360042483 0.093483374
0.445955753 0.361297041 0.089728132
0.499895126 0.368052214 0.066655025
0.551107228 0.367777169 0.021488590
0.600004435 0.363635719 0.001281322
0.646103382 0.361873984 0.000000000
0.690533340 0.357593238 0.000000000
0.718185306 0.350074023 0.000000000
0.737289965 0.342997015 0.000000000
0.754946232 0.336731762 0.000000000
0.000000000 0.402272522 0.171442255
0.009314875 0.401394933 0.134025812
0.074848875 0.393785775 0.098411068
0.185502768 0.399708152 0.091838121
0.253101826 0.403884619 0.087905943
0.312668920 0.405480236 0.085615560
0.365066707 0.406167626 0.092430994
0.411338419 0.403779119 0.097019568
0.456991583 0.404613107 0.101799309
0.502716720 0.408438087 0.101778254
0.545742989 0.411518514 0.082849391
0.588988900 0.411352843 0.045001332
0.636198044 0.409791052 0.016707819
0.687483251 0.407375515 0.001084558
0.728064299 0.404735237 0.000000000
0.754231095 0.396750569 0.000000000
0.774509788 0.393009722 0.000000000
0.000000000 0.438633740 0.186561689
0.003843938 0.440174699 0.145723939
0.057247873 0.433256924 0.107833996
0.184198633 0.442169875 0.100136057
0.253647864 0.447982788 0.094231568
0.316382945 0.450434893 0.090061501
0.369502097 0.452669322 0.092473626
0.423263192 0.453077674 0.102972880
0.469566405 0.452028364 0.108843058
0.514074266 0.451091021 0.113121122
0.550619602 0.452104867 0.114097193
0.586149871 0.455410212 0.101336002
0.627106667 0.455505997 0.069521114
0.675166130 0.455481768 0.030803651
0.725498915 0.452645630 0.002612306
0.758521199 0.447242945 0.000000000
0.783515275 0.440580815 0.000000000
0.000000000 0.470855623 0.200071380
0.000345187 0.472874820 0.162690192
0.053316128 0.467545450 0.121179312
0.185477525 0.479535460 0.110595383
0.255352229 0.486901551 0.101001933
0.318899274 0.492598176 0.099627003
0.373534828 0.494161367 0.101659499
0.427910835 0.496488631 0.104834385
0.479701459 0.496793330 0.112303816
0.525200665 0.495575100 0.116076626
0.561556578 0.494913280 0.120778747
0.592206836 0.493397295 0.122955993
0.627955019 0.498305142 0.115713492
0.666371465 0.498605430 0.084536508
0.717822671 0.499082506 0.026761955
0.756294250 0.494764924 0.001330747
0.786643267 0.489838004 0.000000000
0.000000000 0.500510395 0.214587867
0.008871562 0.504118919 0.179132938
0.066598691 0.496907502 0.134631947
0.186756268 0.507909775 0.124434866
0.258188367 0.516737938 0.118215814
0.321080506 0.524422228 0.112612881
0.377879560 0.530426860 0.109794304
0.430553406 0.534548223 0.109300807
0.487230152 0.538525999 0.112429373
0.536839008 0.542048275 0.117547065
0.573079109 0.539727986 0.124213055
0.604315281 0.537791491 0.132562310
0.632479429 0.535504758 0.137412995
0.668637812 0.541283906 0.132496491
0.710359693 0.542231619 0.101422459
0.752474666 0.540479183 0.053666770
0.785764396 0.537412465 0.017496750
0.000000000 0.532904685 0.232894823
0.029473064 0.534428298 0.195624828
0.077783883 0.524536788 0.147283748
0.186641261 0.536261559 0.138008252
0.262186557 0.545718193 0.131947055
0.323694646 0.552397132 0.125490367
0.380164772 0.557474971 0.120597817
0.434713393 0.562334478 0.118281007
0.488320321 0.567875385 0.118008003
0.540702760 0.572418034 0.122586004
0.580221772 0.574837208 0.134390995
0.612288296 0.575653434 0.141420066
0.644475937 0.575943291 0.148172125
0.673128486 0.575121939 0.153317302
0.712165117 0.580512345 0.147204608
0.750763714 0.581680834 0.121724039
0.783089459 0.577588737 0.079420380
0.000789001 0.559063494 0.249814272
0.026860677 0.564582407 0.216498569
0.075214431 0.553016424 0.161242142
0.187232330 0.565708637 0.150944203
0.268695742 0.572438538 0.144338265
0.325829178 0.579382360 0.138024837
0.382123142 0.584711254 0.132305697
0.438914537 0.591082096 0.130922958
0.492849380 0.595462024 0.129943252
0.546296716 0.600551188 0.132739395
0.584932268 0.601597309 0.144033447
0.618930340 0.603679776 0.151816323
0.650271058 0.603794515 0.158506647
0.677885771 0.604958653 0.163870379
0.713146627 0.605181575 0.165546089
0.753719628 0.613239467 0.164630756
0.780052781 0.612526178 0.140446931
0.000788935 0.580599546 0.268886238
0.015081504 0.585044980 0.234689400
0.060729869 0.573441327 0.176001459
0.192118824 0.586618304 0.167130321
0.274883360 0.595317483 0.160399765
0.331874371 0.603220403 0.154618636
0.385467529 0.611075580 0.149817824
0.443554133 0.616609752 0.146788076
0.496077210 0.621757448 0.144609407
0.549894750 0.628134191 0.149142206
0.587903321 0.628467679 0.152182817
0.624050617 0.630937517 0.160762504
0.656610668 0.631014347 0.170035765
0.687198639 0.632777750 0.176873878
0.720146596 0.632676363 0.182625338
0.753364086 0.635874033 0.186611339
0.782527268 0.642263353 0.185995907
0.000000000 0.600780904 0.285687506
0.041054625 0.607218087 0.256525010
0.066037275 0.595030785 0.197224721
0.214647904 0.607939839 0.186079770
0.281937927 0.617038548 0.180595458
0.335643023 0.624195874 0.174056754
0.390474647 0.631523788 0.166963011
0.444950670 0.638249755 0.163261145
0.500032187 0.646296263 0.161717772
0.551981866 0.651326358 0.161142275
0.591257930 0.655199289 0.163400516
0.626937568 0.656871796 0.171901748
0.660551310 0.657284379 0.180726007
0.693106890 0.657725215 0.191314027
0.727358162 0.660054803 0.197924942
0.759662032 0.661743701 0.205183715
0.780929148 0.661020577 0.211155578
0.001527750 0.620995641 0.304705709
0.087444879 0.626080215 0.276630878
0.097782061 0.612032413 0.214985803
0.227918193 0.624070525 0.202002868
0.288114756 0.633429170 0.197647318
0.341935813 0.640666544 0.193023443
0.394465744 0.649886012 0.185432628
0.449145019 0.659348249 0.181863442
0.503669977 0.668229342 0.177580625
0.554001510 0.673148394 0.174636438
0.593737125 0.676841319 0.177375048
0.629822135 0.679610074 0.181099385
0.664327741 0.681714892 0.190692186
0.695594966 0.682612896 0.201084644
0.732570112 0.685166657 0.210589007
0.764258444 0.686085284 0.218206823
0.785776079 0.685551763 0.224956870
0.002070250 0.001577000 0.115749747
0.048092000 0.004681750 0.107793882
0.107566997 0.000295750 0.123063639
0.170825690 0.000049313 0.125715122
0.214661121 0.000000000 0.124099374
0.259494454 0.000000000 0.122725561
0.307125539 0.000000000 0.120024875
0.348810673 0.000000000 0.114780128
0.385830879 0.000000000 0.114426509
0.421192139 0.000000000 0.114327192
0.455410630 0.000000000 0.114084505
0.492469013 0.000000000 0.115950689
0.525953889 0.000000000 0.116335750
0.552761436 0.000000000 0.117170952
0.577470243 0.000000000 0.122259624
0.600865901 0.000000000 0.124303684
0.625118017 0.000000000 0.129264131
0.000000000 0.063533813 0.093598627
0.039426252 0.090398118 0.120249249
0.115120061 0.093456753 0.129771754
0.191155761 0.095745564 0.136379883
0.245660439 0.099682063 0.139310822
0.295429587 0.102483071 0.142328501
0.348979175 0.104914382 0.144432947
0.400659531 0.104549319 0.143878818
0.440903544 0.102702133 0.144300625
0.475163251 0.099390000 0.141950428
0.509884059 0.101214379 0.144292817
0.543538868 0.093363494 0.143252566
0.580031812 0.095207192 0.144133508
0.607588768 0.090746246 0.146427751
0.630769014 0.092103429 0.149631560
0.651543438 0.090999931 0.150549009
0.672063708 0.087479129 0.153341383
0.000000000 0.132495999 0.133269504
0.051562250 0.156617060 0.146488115
0.105596378 0.171750128 0.140736118
0.203656018 0.169057444 0.147282884
0.252977490 0.173670352 0.148918003
0.303252876 0.181686118 0.153872684
0.362270772 0.189234748 0.159352005
0.425300598 0.195015311 0.159979194
0.475765496 0.201016247 0.165443003
0.512634039 0.201586813 0.166340128
0.546110868 0.198593125 0.165398628
0.582272112 0.200186744 0.167557627
0.614258647 0.196351111 0.164388880
0.644349694 0.196077749 0.166676313
0.667064130 0.196086377 0.169697374
0.685534537 0.193478987 0.168469891
0.704846621 0.192433372 0.170123741
0.000000000 0.195204645 0.163124308
0.030458311 0.203552306 0.156713873
0.111277625 0.220510513 0.154614821
0.205688328 0.229808778 0.156909332
0.268988460 0.228777066 0.149604172
0.322226346 0.226463869 0.135288626
0.374815226 0.222229064 0.128807440
0.430260330 0.227259442 0.129527315
0.481209040 0.231587678 0.133989379
0.524931431 0.238034993 0.141284496
0.562534094 0.238538802 0.142932862
0.600598931 0.241309866 0.144287929
0.635745406 0.242825687 0.148926750
0.663718343 0.243344173 0.153108209
0.690591693 0.247807562 0.157417521
0.710633993 0.247927010 0.160117447
0.730970860 0.249365687 0.164309502
0.000000000 0.233898118 0.179012999
0.015179810 0.236623004 0.163593635
0.105993874 0.252801269 0.158089891
0.184714705 0.259152621 0.149030492
0.257492125 0.263189375 0.158717632
0.313388467 0.262688369 0.147272050
0.376278609 0.263014853 0.131847486
0.435938060 0.260441571 0.118287623
0.484138519 0.257258385 0.113759376
0.521482229 0.255934566 0.113661125
0.560345888 0.256697118 0.117904499
0.599090636 0.259824127 0.119968057
0.638022006 0.262415498 0.124408506
0.669242740 0.264778107 0.129497617
0.695200503 0.266045898 0.132471010
0.717266500 0.267788261 0.138644010
