public/lut/33.cube
TITLE "17x17x17 Adobe/IRIDAS cube 3D LUT exported with GrossGrade v0.2.2 (beta) 64 bit"
DOMAIN_MIN 0 0 0
DOMAIN_MAX 1 1 1
LUT_3D_SIZE 5
0.003943000 0.000000000 0.000000000
0.226080745 0.000000000 0.000000000
0.378276497 0.000000000 0.000000000
0.515406966 0.000000000 0.000000000
0.616994977 0.000000000 0.000000000
0.000000000 0.214340255 0.011828501
0.242853507 0.209981248 0.000000000
0.452042520 0.215777263 0.000000000
0.605477214 0.193675250 0.000000000
0.684833467 0.170128003 0.000000000
0.000000000 0.377046019 0.053941004
0.277070522 0.386560261 0.000000000
0.464911014 0.392554015 0.010645998
0.626702487 0.397018790 0.000000000
0.763167024 0.375257015 0.000000000
0.000000000 0.513946235 0.149516001
0.283799529 0.531368494 0.032726005
0.501103759 0.557764471 0.044186253
0.648684204 0.564472020 0.048369262
0.781086981 0.566128492 0.009660264
0.000000000 0.603383005 0.241042003
0.305381238 0.623608470 0.135307744
0.512997508 0.659793973 0.112213001
0.669986486 0.675706744 0.128816500
0.790925980 0.678224981 0.155421004
0.005520000 0.002366000 0.185423255
0.218672752 0.000000000 0.215251997
0.385514498 0.000000000 0.219319746
0.525216758 0.000000000 0.222088754
0.624727249 0.000000000 0.232370749
0.000000000 0.242250994 0.245844498
0.230484232 0.303026766 0.262856990
0.481555521 0.310558259 0.285028726
0.657575488 0.334405273 0.308766514
0.752382994 0.331108510 0.311379999
0.000394501 0.427155018 0.328035742
0.242231250 0.452359736 0.288282245
0.477376014 0.461655796 0.283900499
0.669496596 0.458815515 0.230797768
0.780853748 0.441183031 0.221958250
0.000000000 0.564895034 0.378186256
0.259263277 0.591457248 0.330891758
0.462592006 0.599995732 0.287091225
0.630900741 0.599733710 0.305269778
0.786494792 0.605985522 0.256771266
0.040200751 0.653016746 0.420772493
0.309101492 0.677509248 0.375266999
0.477732480 0.693309247 0.329082251
0.647853792 0.704467058 0.328838497
0.774661779 0.703030229 0.346288234
0.011040001 0.007885502 0.325153023
0.248798251 0.004337001 0.346372277
0.401232004 0.000000000 0.366199017
0.530755281 0.000000000 0.373451769
0.625025034 0.000000000 0.378603995
0.001971751 0.258104026 0.355509520
0.255380780 0.335769534 0.420977771
0.465362012 0.330288768 0.434865534
0.632898569 0.309409767 0.453483522
0.741819739 0.317045033 0.458350748
0.016559998 0.437958032 0.427088976
0.313318759 0.483215779 0.447474003
0.471432000 0.542461514 0.461167514
0.656936526 0.523957014 0.474826753
0.793679476 0.559986472 0.507780552
0.058760747 0.592108011 0.497858286
0.305369496 0.608070493 0.479653239
0.495927989 0.650663972 0.480620265
0.662764549 0.664399743 0.478634775
0.808240771 0.669075251 0.469704270
0.143875510 0.686486959 0.540094018
0.341432273 0.706862271 0.523553252
0.543079019 0.733986497 0.524049997
0.655605257 0.747661769 0.514772534
0.791766524 0.762746990 0.556943536
0.036865503 0.051334754 0.442911744
0.295212507 0.027403254 0.453556001
0.434871018 0.038434252 0.471070766
0.554935277 0.000000000 0.484293520
0.638639748 0.000000000 0.488997996
0.002957000 0.332120001 0.516132772
0.280136466 0.368695527 0.549681246
0.481603771 0.357654512 0.549389958
0.618462265 0.342622012 0.557278514
0.725552022 0.297462761 0.565587997
0.060369022 0.438157499 0.507539511
0.312124729 0.498603493 0.547660828
0.498979747 0.563524008 0.577565968
0.646139979 0.557753503 0.585916996
0.779309511 0.535176039 0.601566792
0.212058261 0.607583761 0.570412934
0.388145000 0.619275510 0.568740726
0.551453948 0.675254464 0.599754214
0.648782969 0.712891519 0.607134998
0.795006275 0.704568982 0.617577732
0.289660990 0.708151996 0.611831784
0.436563998 0.722734034 0.607578993
0.574312031 0.745394945 0.615243793
0.703946233 0.783754766 0.634025276
0.810431004 0.799104273 0.642864466
0.095908001 0.119755000 0.526053011
0.342221498 0.090031996 0.539336264
0.475257516 0.097529002 0.552420020
0.584665239 0.098605998 0.565938711
0.666985989 0.025234001 0.568117023
0.058655251 0.394563764 0.625669479
0.305196494 0.390983760 0.632910252
0.499758005 0.381002009 0.639505267
0.634858251 0.385387242 0.635904014
0.733745217 0.352784276 0.644396245
0.076155007 0.506402969 0.619762003
0.340180993 0.560011744 0.657347500
0.516043961 0.593214989 0.687604487
0.657837749 0.576478004 0.676030517
0.768715501 0.566975474 0.680584490
0.248045757 0.597653985 0.613157988
0.402224988 0.625194252 0.626474023
0.544137001 0.679386973 0.665796757
0.688661277 0.724062741 0.702379704
0.794743001 0.725022733 0.701472521
0.393142015 0.726891994 0.668534994
0.501881003 0.735818982 0.666974247
0.624041498 0.761078000 0.681806505
0.744043529 0.800049245 0.712116778
0.809500992 0.810917020 0.715721011
