public/lut/34.cube
TITLE "17x17x17 Adobe/IRIDAS cube 3D LUT exported with GrossGrade v0.2.2 (beta) 64 bit"
DOMAIN_MIN 0 0 0
DOMAIN_MAX 1 1 1
LUT_3D_SIZE 5
0.000000000 0.000000000 0.000000000
0.300637752 0.000000000 0.000000000
0.437594473 0.000000000 0.000000000
0.512279749 0.000000000 0.000000000
0.557331979 0.000000000 0.000000000
0.000000000 0.255427748 0.000000000
0.320475757 0.282676756 0.000000000
0.518393755 0.293247253 0.000000000
0.634203732 0.283394009 0.000000000
0.701469243 0.267444253 0.000000000
0.000000000 0.363038510 0.034303006
0.318128228 0.431052744 0.000000000
0.543798506 0.456866980 0.000000000
0.687835932 0.462843001 0.000000000
0.771062016 0.453980505 0.000000000
0.000000000 0.456214756 0.145996004
0.307359993 0.553394258 0.029374508
0.546724498 0.592751503 0.000394255
0.714700520 0.607186675 0.000000000
0.808488786 0.602975488 0.000000000
0.000000000 0.540278971 0.233763993
0.295431256 0.636060476 0.192774251
0.537530541 0.676614046 0.135957003
0.717936516 0.698687017 0.083111241
0.819455028 0.701418996 0.052347001
0.006309000 0.000000000 0.175278246
0.256701261 0.000000000 0.170168012
0.426319003 0.000000000 0.163556248
0.525490224 0.000000000 0.155826762
0.581186771 0.000000000 0.144956261
0.000000000 0.207425997 0.169865504
0.196408764 0.302957773 0.275456488
0.472981006 0.301023245 0.265325755
0.621826768 0.290008456 0.246664494
0.707399487 0.274108499 0.231227010
0.000000000 0.343042046 0.219330758
0.182550505 0.467061520 0.322166026
0.486221761 0.495748013 0.304883003
0.668602228 0.492473245 0.283226252
0.764183044 0.478269249 0.266387761
0.000000000 0.462882519 0.281349242
0.130883262 0.586829305 0.359304994
0.478776008 0.629678488 0.337372273
0.688208461 0.642931700 0.319632500
0.791510701 0.633472264 0.301225007
0.000000000 0.553218484 0.339582235
0.158980757 0.658157527 0.396360487
0.476869762 0.703487754 0.380073011
0.687110722 0.728144526 0.356660753
0.799176216 0.730096281 0.340568244
0.012617000 0.000000000 0.259166479
0.260577738 0.000000000 0.282173753
0.426377028 0.000000000 0.284801006
0.525735021 0.000000000 0.274562985
0.587515473 0.000000000 0.263992012
0.000000000 0.306016237 0.358454287
0.169971764 0.332125992 0.405653507
0.446002781 0.309294999 0.405885041
0.613005996 0.292586744 0.393701524
0.702068210 0.275390774 0.377629757
0.000000000 0.324375510 0.283815503
0.152383506 0.435387522 0.391575515
0.430628031 0.507951498 0.448615491
0.654542804 0.496941507 0.442159534
0.748566985 0.490992010 0.434235513
0.000000000 0.448772997 0.333085239
0.061219748 0.537234545 0.409648240
0.439766288 0.637119949 0.478510499
0.664930224 0.656105995 0.472426534
0.771375775 0.646597981 0.475429773
0.000000000 0.545270979 0.385986507
0.102180004 0.633276224 0.449404508
0.487157017 0.717070997 0.519120514
0.674475014 0.742516994 0.525207281
0.774981022 0.746029019 0.537633538
0.027994253 0.000000000 0.323833257
0.284658253 0.000000000 0.365751266
0.424606502 0.000000000 0.367737502
0.525164545 0.000000000 0.361619502
0.587541759 0.000000000 0.355343252
0.000000000 0.371777505 0.484204471
0.088001505 0.325216025 0.493491769
0.448151022 0.297106028 0.514052808
0.606091738 0.291403770 0.500902772
0.694317520 0.272295743 0.487752020
0.000000000 0.408272266 0.437213778
0.074170999 0.489004016 0.514976025
0.435413778 0.546303749 0.556093991
0.629036248 0.511477232 0.552173495
0.737813532 0.490227759 0.540619969
0.000000000 0.441680998 0.396274239
0.084366500 0.499033481 0.443659246
0.426507771 0.608396053 0.531396985
0.616091251 0.666382730 0.580456257
0.760925233 0.650028765 0.579383552
0.000000000 0.540308475 0.430916488
0.076044761 0.595884502 0.472432494
0.450960755 0.684788227 0.552859485
0.664551258 0.746462464 0.614778221
0.764652252 0.750568032 0.618211269
0.066756003 0.000000000 0.384211004
0.313321501 0.000000000 0.418856502
0.437276006 0.000000000 0.426241994
0.520585001 0.000000000 0.428268999
0.591820002 0.000000000 0.431237996
0.000000000 0.420004487 0.576298237
0.052739251 0.308985263 0.554529727
0.454317749 0.286087751 0.582907200
0.605238020 0.280515015 0.581618488
0.691537976 0.268324018 0.574295282
0.000000000 0.502341509 0.571440995
0.129781753 0.546557188 0.612088203
0.412317991 0.560393453 0.639180958
0.634030223 0.501317739 0.635539293
0.729456544 0.494385540 0.629050493
0.000000000 0.511466026 0.519926250
0.062704757 0.554519296 0.561457515
0.393444270 0.647884488 0.633483291
0.648116469 0.696164250 0.672658265
0.748470008 0.652487993 0.662495017
0.000000000 0.537400007 0.483718991
0.103579253 0.569153011 0.506955028
0.460094512 0.673554003 0.597919464
0.668801785 0.744853258 0.662919223
0.749568999 0.753904998 0.676882982
