public/lut/34.cube
TITLE "17x17x17 Adobe/IRIDAS cube 3D LUT exported with GrossGrade v0.2.2 (beta) 64 bit"
DOMAIN_MIN 0 0 0
DOMAIN_MAX 1 1 1
LUT_3D_SIZE 17
0.000000000 0.000000000 0.000000000
0.063530751 0.000000000 0.000000000
0.164994121 0.002563125 0.000000000
0.250468642 0.000000000 0.000000000
0.300637752 0.000000000 0.000000000
0.341878563 0.000000000 0.000000000
0.385729283 0.000000000 0.000000000
0.415238798 0.000000000 0.000000000
0.437594473 0.000000000 0.000000000
0.458173990 0.000000000 0.000000000
0.478587478 0.000000000 0.000000000
0.499319673 0.000000000 0.000000000
0.512279749 0.000000000 0.000000000
0.524537086 0.000000000 0.000000000
0.536329150 0.000000000 0.000000000
0.546547234 0.000000000 0.000000000
0.557331979 0.000000000 0.000000000
0.000197125 0.100170061 0.000098562
0.049802687 0.074373066 0.000000000
0.144991681 0.079369873 0.000000000
0.236549377 0.083719373 0.000000000
0.290456504 0.084844500 0.000000000
0.335711420 0.083888561 0.000000000
0.375332326 0.074843504 0.000000000
0.424448431 0.069267370 0.000000000
0.456256181 0.056746624 0.000000000
0.482727230 0.046872124 0.000000000
0.505235374 0.039440438 0.000000000
0.526120543 0.031198064 0.000000000
0.547252536 0.020305749 0.000000000
0.564391255 0.016264686 0.000000000
0.579319596 0.013849433 0.000000000
0.590682507 0.009511746 0.000000000
0.602489471 0.009610312 0.000000000
0.000000000 0.176361129 0.000000000
0.033957746 0.154532880 0.000000000
0.153775632 0.164620876 0.000000000
0.251227647 0.177001566 0.000000000
0.310513884 0.181701377 0.000000000
0.359629214 0.182187200 0.000000000
0.402355880 0.178841248 0.000000000
0.448076844 0.180399746 0.000000000
0.492480755 0.174583882 0.000000000
0.523077726 0.171586871 0.000000000
0.547335863 0.166490123 0.000000000
0.569716454 0.162048697 0.000000000
0.590336323 0.157503620 0.000000000
0.609717369 0.151274815 0.000000000
0.625664294 0.146918625 0.000000000
0.638376474 0.140474379 0.000000000
0.648612857 0.138687626 0.000000000
0.000000000 0.225513801 0.000000000
0.011286750 0.207242310 0.000000000
0.152418375 0.224217877 0.000000000
0.250656664 0.235665008 0.000000000
0.319638938 0.244791821 0.000000000
0.369986862 0.250689059 0.000000000
0.418305367 0.248270199 0.000000000
0.465230584 0.250087321 0.000000000
0.513190567 0.250105321 0.000000000
0.547447622 0.248117507 0.000000000
0.575067282 0.244582072 0.000000000
0.596148551 0.239716709 0.000000000
0.618476689 0.236030385 0.000000000
0.640231669 0.232824519 0.000000000
0.657536328 0.228689253 0.000000000
0.672566950 0.223719701 0.000000000
0.682238758 0.219328135 0.000000000
0.000000000 0.255427748 0.000000000
0.007885874 0.238388509 0.000000000
0.147856504 0.256590247 0.000000000
0.255232513 0.273084641 0.000000000
0.320475757 0.282676756 0.000000000
0.375606000 0.288626015 0.000000000
0.425816000 0.292335391 0.000000000
0.473806739 0.293005407 0.000000000
0.518393755 0.293247253 0.000000000
0.559182227 0.291899681 0.000000000
0.589759767 0.290047109 0.000000000
0.612695396 0.286747068 0.000000000
0.634203732 0.283394009 0.000000000
0.655940175 0.278999239 0.000000000
0.674685121 0.274665236 0.000000000
0.689704478 0.271179855 0.000000000
0.701469243 0.267444253 0.000000000
0.000000000 0.285679579 0.000789000
0.000197250 0.273189545 0.000000000
0.149003565 0.293176055 0.000000000
0.254241168 0.308532387 0.000000000
0.323097885 0.319254637 0.000000000
0.382059306 0.328992873 0.000000000
0.430621147 0.331244886 0.000000000
0.480423421 0.333636135 0.000000000
0.527362764 0.335857540 0.000000000
0.571123660 0.336425126 0.000000000
0.603098273 0.334479690 0.000000000
0.627407730 0.331935734 0.000000000
0.647777557 0.328560740 0.000000000
0.671365440 0.325407505 0.000000000
0.692824721 0.322774738 0.000000000
0.707747161 0.319326788 0.000000000
0.722040296 0.315748006 0.000000000
0.000000000 0.315167636 0.002070126
0.000000000 0.306053579 0.000000000
0.139905378 0.330041498 0.000000000
0.253576964 0.346010327 0.000000000
0.317887485 0.357605398 0.000000000
0.383860737 0.366546333 0.000000000
0.435522884 0.370777160 0.000000000
0.483998984 0.374058843 0.000000000
0.533241868 0.375886530 0.000000000
0.579040408 0.377587885 0.000000000
0.612831771 0.376906157 0.000000000
0.640019953 0.376293153 0.000000000
0.662519455 0.373833507 0.000000000
0.686302483 0.370302647 0.000000000
0.708276510 0.368034750 0.000000000
0.724894404 0.365761578 0.000000000
0.740236521 0.361631006 0.000000000
0.000000000 0.340160817 0.008970197
0.000000000 0.341243774 0.000000000
0.127878308 0.365366071 0.000000000
0.251454592 0.385858595 0.000000000
0.322579622 0.397874147 0.000000000
0.385356754 0.406206161 0.000000000
0.440582097 0.411727458 0.000000000
0.489773154 0.417258650 0.000000000
0.541969657 0.420531154 0.000000000
0.587929010 0.422317475 0.000000000
0.623731673 0.422135592 0.000000000
0.653343499 0.421324372 0.000000000
0.676111400 0.418109149 0.000000000
0.699738383 0.416250288 0.000000000
0.721711576 0.412713647 0.000000000
0.740606308 0.411133289 0.000000000
0.755968094 0.407477677 0.000000000
0.000000000 0.363038510 0.034303006
0.000000000 0.374555230 0.000197125
0.110872500 0.399062395 0.000000000
0.247515216 0.419561803 0.000000000
0.318128228 0.431052744 0.000000000
0.385993958 0.442608207 0.000000000
0.440590382 0.449844390 0.000000000
0.493694097 0.454344749 0.000000000
0.543798506 0.456866980 0.000000000
0.595732093 0.464096159 0.000000000
0.631883740 0.463252902 0.000000000
0.664096117 0.462496459 0.000000000
0.687835932 0.462843001 0.000000000
0.712041497 0.460250318 0.000000000
0.735992491 0.459318638 0.000000000
0.754381478 0.455241084 0.000000000
0.771062016 0.453980505 0.000000000
0.000000000 0.387024552 0.059087876
0.000000000 0.408568591 0.017200625
0.091167443 0.434340984 0.001528000
0.241745070 0.454157412 0.000000000
0.319214314 0.468732953 0.000000000
0.384464204 0.478717864 0.000000000
0.443468332 0.485953003 0.000000000
0.493917018 0.491353244 0.000000000
0.548009574 0.497005403 0.000000000
0.600575686 0.500706911 0.000000000
0.639726222 0.501089692 0.000000000
0.672317743 0.502858281 0.000000000
0.695657432 0.500229061 0.000000000
0.719386160 0.499915779 0.000000000
0.745126486 0.496995389 0.000000000
0.765875578 0.496370077 0.000000000
0.783308148 0.493054241 0.000000000
0.000000000 0.410909742 0.087918125
0.000000000 0.436187148 0.050008126
0.076735631 0.464668363 0.009068624
0.237088084 0.487068444 0.000000000
0.313736767 0.500568271 0.000000000
0.383807451 0.513408363 0.000000000
0.442424268 0.523349285 0.000000000
0.495882988 0.528353631 0.000000000
0.547391653 0.533290088 0.000000000
0.600294948 0.536822557 0.000000000
0.643825114 0.540014982 0.000000000
0.679124057 0.540172279 0.000000000
0.703042507 0.538681984 0.000000000
0.728700936 0.537144423 0.000000000
0.753416002 0.535477638 0.000000000
0.775746465 0.533814728 0.000000000
0.792744875 0.532029748 0.000000000
0.000000000 0.433355749 0.115673691
0.000000000 0.462481260 0.082215317
0.069325745 0.490007371 0.049627751
0.229920715 0.513287246 0.026318936
0.310853213 0.529073656 0.012271936
0.379545927 0.540059507 0.001281500
0.444707513 0.551272631 0.000000000
0.494714320 0.557794988 0.000000000
0.546603620 0.564163804 0.000000000
0.600953221 0.570495427 0.000000000
0.645558655 0.574055851 0.000000000
0.684067786 0.575222611 0.000000000
0.711539507 0.574264407 0.000000000
0.734760761 0.573493183 0.000000000
0.760311663 0.571656704 0.000000000
0.783504009 0.570681751 0.000000000
0.801366925 0.567630529 0.000000000
0.000000000 0.456214756 0.145996004
0.000000000 0.488203257 0.117320694
0.053246122 0.515810132 0.091654256
0.221413642 0.539501071 0.058126565
0.307359993 0.553394258 0.029374508
0.376471519 0.566789031 0.008132199
0.438911140 0.577330649 0.000985760
0.494222879 0.585699379 0.000591507
0.546724498 0.592751503 0.000394255
0.599470377 0.599965155 0.000000002
0.648468375 0.604903758 0.000000001
0.687817812 0.607188821 0.000000000
0.714700520 0.607186675 0.000000000
0.738990366 0.607026637 0.000000000
0.765615880 0.603762925 0.000000000
0.790978789 0.604202688 0.000000000
0.808488786 0.602975488 0.000000000
0.000000000 0.482967436 0.173227891
0.000000000 0.514070511 0.150384769
0.035091877 0.540352702 0.126830786
0.212420151 0.563500345 0.098621845
0.302122325 0.576197743 0.072767928
0.373901069 0.589645386 0.054785870
0.436873466 0.599453807 0.043008797
0.492205143 0.608111322 0.033994541
0.543214619 0.616153061 0.024100905
0.598631442 0.623951972 0.012272147
0.646207929 0.628996909 0.004287573
0.686936796 0.632771134 0.000000000
0.718346119 0.634531081 0.000000000
0.743804693 0.634449661 0.000000000
0.770146668 0.637206018 0.000000000
0.795578659 0.637040257 0.000000000
0.814198494 0.634969056 0.000000000
0.000000000 0.502676547 0.196427882
0.000000000 0.534254670 0.177079588
0.034401748 0.561984837 0.160282031
0.211661696 0.584590912 0.139316902
0.298353136 0.600120842 0.125987783
0.370502055 0.611419797 0.108637474
0.435328633 0.620958686 0.091415413
0.489468455 0.630127609 0.073179595
0.541638613 0.637142599 0.053903773
0.597970963 0.645399690 0.026220333
0.644007921 0.650916874 0.007786893
0.686907947 0.654228151 0.000295763
0.716114879 0.654136598 0.000197132
0.743346989 0.657644451 0.000197132
0.770229101 0.657472432 0.000197132
0.798664093 0.660410941 0.000345013
0.816985250 0.657873631 0.001183264
0.000000000 0.521820903 0.216367766
0.000000000 0.555505872 0.204645649
0.041397475 0.579560280 0.188377082
0.205459893 0.604501545 0.171595588
0.295995563 0.619055510 0.161019400
0.368605733 0.630072236 0.145238459
0.431629390 0.641514897 0.130632892
0.486933202 0.649671674 0.110860661
0.538937151 0.657388926 0.090122104
0.595612824 0.666306913 0.060931683
0.643498778 0.672448814 0.043284055
0.683192432 0.676024377 0.033344869
0.718822300 0.678190529 0.026614496
0.744381368 0.678809047 0.026170494
0.771747828 0.680001438 0.022770107
0.797655404 0.681351304 0.021883411
0.820128024 0.681355834 0.023361843
0.000000000 0.540278971 0.233763993
0.000000000 0.570188344 0.226208255
0.059408873 0.596059918 0.215333998
0.199528649 0.618143201 0.200064376
0.295431256 0.636060476 0.192774251
0.367053300 0.648378551 0.179483682
0.429689884 0.659885645 0.168664113
0.486071140 0.669473767 0.152779311
0.537530541 0.676614046 0.135957003
0.593443334 0.686282635 0.115514189
0.643998027 0.691784382 0.100540623
0.683638275 0.698504686 0.091365501
0.717936516 0.698687017 0.083111241
0.742126048 0.698281944 0.072230309
0.770695150 0.699551225 0.065646000
0.795557141 0.701709986 0.056820001
0.819455028 0.701418996 0.052347001
0.007886000 0.003006188 0.028240563
0.033169687 0.000000000 0.019122563
0.122778066 0.004632500 0.015228875
0.212857574 0.000147938 0.011237562
0.261960059 0.000000000 0.007787375
0.304100573 0.000000000 0.004484625
0.347979516 0.000000000 0.001724999
0.393796623 0.000000000 0.000739688
0.423149496 0.000000000 0.000000000
0.449053198 0.000000000 0.000000000
0.469507247 0.000000000 0.000000000
0.492833495 0.000000000 0.000000000
0.512908041 0.000000000 0.000000000
0.527356744 0.000000000 0.000000000
0.542141378 0.000000000 0.000000000
0.552491963 0.000000000 0.000000000
0.563912034 0.000000000 0.000000000
0.005815687 0.049999811 0.015376750
0.015524625 0.065334067 0.050948188
0.109948754 0.064529754 0.040721685
0.189551011 0.066473626 0.033120375
0.249273762 0.066407368 0.026811499
0.296004564 0.067556247 0.024297688
0.341085762 0.060135435 0.015721811
0.384082854 0.052376620 0.010004748
0.429137319 0.044639062 0.005125687
0.463716835 0.034007374 0.001872938
0.490679055 0.023706438 0.001478437
0.513441503 0.018728750 0.000739687
0.536552548 0.013849310 0.000739688
0.558619320 0.009167254 0.000000000
0.575085342 0.007393125 0.000000000
0.592790782 0.005865372 0.000000000
0.603722095 0.002956875 0.000000000
0.000000000 0.132277623 0.032183625
0.000049312 0.151360244 0.073076680
0.114483312 0.158569187 0.057284936
0.210024387 0.162104890 0.047119748
0.272109747 0.165296122 0.039852813
0.325381756 0.168014571 0.031691186
0.371422946 0.166048825 0.021685813
0.418468863 0.165501639 0.016165558
0.465087593 0.164177701 0.007392687
0.504232049 0.158853740 0.003647250
0.534210265 0.154153064 0.001478438
0.557448506 0.147231877 0.001478438
0.580436409 0.144495621 0.001478437
0.602207482 0.139979616 0.000739688
0.622722626 0.135649368 0.000739688
0.638678014 0.131790116 0.000049315
0.650692701 0.129736617 0.000739688
0.000000000 0.198508769 0.052349254
0.000000000 0.212035254 0.084546499
0.100307569 0.222056761 0.065853685
0.215060517 0.232786268 0.053543810
0.282645017 0.238592088 0.045151189
0.341867059 0.242526248 0.034894127
0.391192198 0.241784692 0.023460060
0.439293653 0.243473262 0.016757309
0.484653413 0.243444890 0.008082621
0.530796826 0.242928565 0.001872938
0.564230442 0.238283321 0.001478438
0.589550853 0.235529959 0.001478438
0.611760795 0.231996074 0.001478438
0.635556221 0.227804199 0.001232186
0.657403529 0.224514067 0.001379935
0.671926379 0.220422268 0.000739687
0.687320709 0.217180505 0.000098625
0.000000000 0.234753489 0.065984502
0.000000000 0.252352595 0.095281750
0.085665688 0.262187004 0.071994498
0.213917136 0.277175486 0.060173556
0.285511643 0.283778965 0.048460811
0.348945826 0.289661556 0.037878502
0.402056903 0.291349769 0.022178560
0.450774521 0.292277992 0.014046682
0.497227877 0.290970534 0.004879436
0.545220315 0.290807247 0.001823625
0.579359651 0.288792431 0.001922250
0.606388927 0.285777420 0.001478438
0.628493607 0.282321423 0.001478438
0.652957141 0.277810574 0.001478437
0.674712539 0.274330914 0.000641060
0.691454411 0.270923734 0.000000000
0.706753492 0.267680109 0.000000000
0.000000000 0.270310581 0.080453373
0.000000000 0.289804041 0.103294246
0.068900242 0.303437889 0.082136564
0.210651889 0.316292018 0.062067620
0.284509510 0.326273561 0.055982497
0.350272059 0.333106041 0.043558002
0.410588890 0.336961359 0.029127806
0.458895862 0.339803457 0.014342248
0.507493556 0.338626176 0.005865187
0.556757867 0.339430988 0.004632812
0.592880845 0.338460684 0.003942812
0.623515546 0.336564690 0.001478438
0.645406961 0.332307070 0.000739688
0.668671131 0.328894377 0.000197249
0.692810714 0.325911403 0.000000000
0.710682034 0.322693855 0.000000000
0.725659549 0.319939882 0.000000000
0.000000000 0.302678019 0.095755689
0.000000000 0.329420835 0.121028066
0.047793746 0.344202816 0.094932504
0.206628621 0.356679976 0.072955564
0.280831039 0.370140135 0.063454881
0.352689564 0.376535982 0.045910191
0.413120210 0.380268693 0.035683252
0.463795215 0.383125007 0.024988063
0.515541911 0.383910716 0.018580940
0.565476239 0.387698889 0.014440438
0.603291690 0.385366380 0.005569187
0.636191726 0.383693874 0.001478438
0.660079181 0.380720764 0.001478438
0.684183955 0.379021943 0.000739688
0.707511008 0.374906152 0.001232187
0.727183282 0.372941017 0.001232189
0.743980050 0.369743943 0.001971564
0.000000000 0.332785249 0.112940885
0.000000000 0.361414135 0.132928640
0.025037058 0.380503893 0.108912326
0.199310660 0.397599548 0.089328319
0.278952420 0.408719957 0.074175313
0.351810604 0.417959034 0.057899509
0.414237529 0.424667716 0.047910750
0.470816910 0.428043962 0.037699185
0.522090077 0.431945801 0.024051432
0.572109342 0.432251632 0.011039997
0.613723159 0.431764215 0.002957250
0.648557425 0.429693013 0.001478438
0.672496080 0.426723331 0.002218126
0.695622563 0.424253523 0.002218126
0.720563054 0.421616137 0.002218126
0.741487920 0.417731106 0.003006191
0.757924080 0.416444153 0.002956876
0.000000000 0.366342992 0.133380383
0.000000000 0.394902140 0.150702894
0.017644187 0.417738795 0.126763508
0.185845509 0.435330212 0.107315943
0.275848627 0.448643386 0.095363379
0.350280762 0.456589878 0.074892193
0.414152324 0.466271073 0.063235685
0.472111225 0.469674051 0.047051556
0.526195526 0.474918187 0.032479689
0.577047884 0.475931555 0.014687443
0.622328103 0.479410082 0.010744505
0.658436954 0.476808876 0.010399068
0.683397591 0.474105567 0.011089129
0.707266331 0.471164942 0.009610876
0.733098030 0.470098972 0.009758690
0.754029989 0.464802384 0.007392686
0.771156013 0.463439047 0.007047938
0.000000000 0.393684268 0.154316694
0.000000000 0.427247971 0.167647943
0.013800064 0.453035206 0.147900373
0.172555894 0.471938938 0.127786130
0.270762950 0.483836085 0.114032254
0.349722981 0.493812084 0.097754188
0.413230687 0.501333475 0.080017492
0.473754913 0.507920861 0.065479867
0.526885033 0.510735035 0.053932622
0.581716537 0.514145851 0.047176503
0.626637399 0.516549528 0.039938938
0.664577425 0.516350210 0.035382811
0.690695584 0.515947521 0.030655751
0.716358840 0.512239754 0.027846739
0.741590381 0.511685431 0.018432993
0.765541673 0.508029819 0.010941690
0.782558382 0.504681408 0.006752500
0.000000000 0.420362175 0.175049990
0.000000000 0.456851453 0.187140748
0.009216501 0.484144717 0.169099256
0.153128341 0.504956126 0.151965186
0.265347749 0.519253552 0.136978507
0.347148508 0.529973984 0.124086060
0.412977964 0.537937701 0.105093874
0.473365366 0.544281602 0.090683304
0.528254628 0.549522340 0.081689499
0.583365619 0.553571582 0.071481250
0.631148279 0.555646479 0.060753502
0.670072079 0.555381060 0.050010689
0.697558045 0.553784728 0.038293622
0.722224593 0.551262558 0.027748119
0.749223411 0.549543142 0.018728741
0.773164749 0.547531128 0.008082622
0.791754603 0.544946015 0.006062250
0.000000000 0.443778872 0.194830433
0.000000000 0.479053438 0.202479631
0.000098625 0.507847965 0.189073876
0.147367403 0.530409992 0.173380882
0.259192109 0.546290636 0.163092315
0.344351560 0.558242440 0.150797814
0.412772506 0.568032861 0.133560002
0.470504075 0.575588346 0.120455682
0.526126981 0.582349181 0.106024370
0.584250689 0.588146806 0.092509687
0.632107019 0.589792013 0.077530749
0.673976600 0.593229532 0.068108939
0.703503609 0.590359330 0.052530751
0.728515685 0.587999701 0.036703989
0.753922224 0.585477829 0.030704942
0.780289412 0.584349692 0.031885125
0.798052073 0.580368698 0.029719625
0.000000000 0.463947475 0.212584198
0.000000000 0.501214325 0.218074054
0.000197251 0.530921638 0.207555011
0.146728650 0.555530310 0.195666313
0.253386468 0.568307281 0.183441132
0.341261297 0.583798170 0.174611121
0.411049575 0.594471216 0.161247939
0.470823139 0.602077723 0.147294998
0.525233865 0.607855797 0.128099382
0.582079589 0.614973903 0.111504138
0.633562028 0.620843589 0.102881446
0.676284432 0.622489929 0.084839001
0.706827760 0.623081446 0.077546261
0.732772827 0.621623456 0.075092681
0.758605003 0.619995594 0.070147008
0.784514666 0.619129300 0.067679629
0.804585636 0.616573632 0.065235510
0.000000000 0.487205386 0.225613639
0.000000000 0.525484443 0.234358832
0.003745817 0.553235650 0.225885004
0.143201128 0.575776577 0.214267522
0.250310361 0.591093183 0.207147449
0.338798821 0.604323149 0.196973890
0.407327652 0.614788830 0.185040668
0.469031155 0.624133527 0.173756719
0.524216056 0.630626500 0.160104409
0.581932843 0.638171792 0.140278667
0.632460833 0.644830883 0.128799886
0.675555706 0.649102032 0.120792791
0.707609951 0.650124013 0.112904795
0.735340357 0.650000930 0.109563179
0.763670325 0.649026394 0.102907896
0.789237261 0.649904072 0.099563956
0.809954405 0.650386930 0.099752463
0.000000000 0.508298635 0.244312063
0.000000000 0.542067409 0.249117136
0.006407007 0.571032226 0.243949383
0.140803650 0.595410943 0.233010322
0.242850691 0.609449863 0.225376457
0.337222844 0.624459684 0.218564764
0.407909274 0.636018038 0.211383209
0.467105716 0.643847525 0.197838783
0.522108912 0.650867879 0.188248977
0.581121266 0.658458948 0.174294904
0.630530894 0.664717793 0.158647031
0.675091267 0.668803036 0.151324213
0.709851503 0.672573388 0.148958579
0.735081077 0.672959805 0.142422393
0.763626933 0.672711611 0.134321451
0.791714609 0.673570335 0.127958700
0.812690496 0.673353493 0.121512771
0.000000000 0.528155386 0.257994384
0.000000000 0.560359776 0.262588322
0.014933635 0.588590443 0.259035200
0.134746566 0.613380909 0.250451028
0.247020140 0.627680302 0.243810758
0.336796194 0.641693890 0.237595707
0.406313568 0.652473867 0.227586702
0.466044366 0.661261857 0.219809964
0.522173166 0.669429600 0.209472209
0.578233302 0.676779687 0.198121205
0.629689872 0.683517098 0.185389385
0.673275113 0.688267708 0.175357074
0.708226025 0.690903664 0.169418037
0.736648202 0.691261172 0.165316060
0.763913751 0.693596661 0.157316953
0.790476859 0.693799973 0.150161341
0.814246833 0.695039868 0.145227522
0.000000000 0.546300709 0.275455356
0.000000000 0.575222909 0.278734177
0.018728688 0.603106260 0.273424089
0.128692895 0.628271639 0.266183943
0.249977201 0.643737555 0.260040671
0.335843235 0.657146871 0.252769560
0.406121343 0.668936551 0.246916756
0.465148836 0.679207504 0.238073379
0.518875301 0.686814785 0.228328809
0.576641798 0.694524884 0.217869937
0.628935874 0.700961471 0.207001761
0.672586799 0.706508517 0.195225626
0.707400620 0.707930863 0.186280310
0.734575987 0.710209906 0.184144676
0.762499452 0.710850358 0.178270847
0.791213453 0.712944210 0.170486689
0.814989567 0.712526143 0.163835496
0.003252625 0.008083125 0.101681627
0.034105562 0.000000000 0.077698499
0.118083999 0.004632500 0.077117749
0.207382008 0.000394312 0.075393066
0.257825106 0.000000000 0.072305754
0.301410109 0.000000000 0.067713380
0.344244748 0.000000000 0.066063248
0.390771329 0.000000000 0.060818128
0.426906884 0.000000000 0.058671251
0.454705328 0.000000000 0.055160627
0.476411372 0.000000000 0.052240252
0.498376489 0.000000000 0.051446874
0.520207763 0.000000000 0.046936505
0.536704183 0.000000000 0.045477875
0.550248861 0.000000000 0.044919625
0.562000155 0.000000000 0.042102873
0.572025001 0.000000000 0.041461501
0.000000000 0.110991195 0.117801756
0.002612437 0.082814313 0.126109689
0.093793869 0.069153629 0.117695935
0.178889453 0.071989492 0.113192812
0.237492666 0.069778562 0.108490691
0.288256794 0.067808628 0.103463128
0.333650321 0.063161813 0.099698693
0.377239347 0.054963868 0.095003501
0.425233483 0.046795499 0.089818060
0.460857362 0.031888060 0.082810506
0.494149417 0.025727438 0.080785438
0.515249550 0.020651000 0.076408692
0.538733661 0.013011186 0.073550940
0.563370049 0.008969679 0.071989618
0.581791818 0.008131941 0.069228999
0.599155664 0.005224247 0.067504451
0.612147868 0.003795125 0.065092877
0.000000000 0.126495749 0.079892375
0.000000000 0.148669124 0.134605944
0.067202136 0.166395515 0.150407135
0.195799708 0.166109383 0.144566685
0.257022113 0.170307875 0.141214877
0.314230263 0.170376003 0.133560881
0.363309145 0.168213129 0.128075376
0.409555912 0.166274756 0.119612008
0.456174493 0.164396375 0.115583122
0.497236252 0.157576054 0.107594505
0.532566965 0.153430626 0.100456253
0.556459427 0.149817437 0.098707139
0.579424381 0.144800007 0.092681497
0.603635132 0.139143944 0.088642500
0.624498069 0.135754257 0.084543750
0.641432166 0.129377872 0.082286999
0.654534578 0.124686003 0.077756628
0.000000000 0.184795201 0.094481438
0.000000000 0.200530767 0.140879199
0.046734817 0.233237892 0.171656251
0.183364704 0.241175205 0.162786260
0.266555846 0.245253071 0.157276139
0.325360417 0.247751012 0.148983940
0.381387711 0.248700693 0.143213004
0.426897794 0.246659636 0.133578390
0.476224631 0.246674687 0.130103812
0.523661613 0.245953009 0.123212866
0.559541106 0.242713630 0.115209505
0.589109540 0.239126563 0.107752249
0.610357404 0.233506888 0.105001494
0.634008765 0.229507267 0.098249063
0.657796264 0.226184815 0.095863186
0.675825298 0.222956702 0.091631241
0.691155076 0.219917268 0.090093128
0.000000000 0.218340248 0.108531624
0.000000000 0.235348374 0.151034936
0.033118378 0.274264365 0.182137385
0.173178032 0.286394566 0.168392628
0.259231716 0.294298142 0.168174133
0.331673056 0.296402901 0.160015196
0.389182538 0.299555719 0.153560504
0.437707603 0.297598302 0.146760941
0.486488879 0.297584862 0.136206627
0.534680843 0.296749681 0.130116373
0.574131548 0.293779641 0.123374745
0.604723573 0.290274620 0.116653189
0.627453029 0.286695123 0.111860007
0.651041627 0.282591939 0.105957866
0.675306380 0.278960615 0.100108750
0.692809045 0.275394559 0.098178625
