public/lut/35.cube
TITLE "17x17x17 Adobe/IRIDAS cube 3D LUT exported with GrossGrade v0.2.2 (beta) 64 bit"
DOMAIN_MIN 0 0 0
DOMAIN_MAX 1 1 1
LUT_3D_SIZE 5
0.000000000 0.000000000 0.000000000
0.268160254 0.000000000 0.000000000
0.432053506 0.000000000 0.000000000
0.520852745 0.000000000 0.000000000
0.667487979 0.122386999 0.097929999
0.000000000 0.237404495 0.000000000
0.280011505 0.254589260 0.000000000
0.503957987 0.266566277 0.000000000
0.640020013 0.250889003 0.000000000
0.739690244 0.318864256 0.169131994
0.000000000 0.359137505 0.028783008
0.274766266 0.417135268 0.000000000
0.530477524 0.449713528 0.000000000
0.702474058 0.452975035 0.000000000
0.789497495 0.499493003 0.273923010
0.000000000 0.480776757 0.170329511
0.249417260 0.565435052 0.084092513
0.529445052 0.611290693 0.022868758
0.735599756 0.630517781 0.000000000
0.805945218 0.679417014 0.457905501
0.597846985 0.757242024 0.577385008
0.633996725 0.765873253 0.583969474
0.677821517 0.770250976 0.591713011
0.726848781 0.773552477 0.592470765
0.819419980 0.760675013 0.422477990
0.006309000 0.000000000 0.178691000
0.226606265 0.000000000 0.172636494
0.417916030 0.000000000 0.167088002
0.538922548 0.000000000 0.156450748
0.671709239 0.121323749 0.240705758
0.000000000 0.195726246 0.177003011
0.157468259 0.270782262 0.262023747
0.452722996 0.269838989 0.263848752
0.628568292 0.257521480 0.243375003
0.737442732 0.322931767 0.295580268
0.000000000 0.335822523 0.217816502
0.101171508 0.446878523 0.315721750
0.471140265 0.487690270 0.308284760
0.684841275 0.482749552 0.282849014
0.783755243 0.504554749 0.366118968
0.000000000 0.482600242 0.295596272
0.049030501 0.589425325 0.363872737
0.463346273 0.648515224 0.351562262
0.708608031 0.667799711 0.329081237
0.800050020 0.682069063 0.493834496
0.592962503 0.754410744 0.588547707
0.630991518 0.764231980 0.598293483
0.676199496 0.770534754 0.608532965
0.725305736 0.774266958 0.607324719
0.797840476 0.771734476 0.582206011
0.014194502 0.000000000 0.277683496
0.240815505 0.000000000 0.308081269
0.418170512 0.000000000 0.310553998
0.540018499 0.000000000 0.301490247
0.673132002 0.120085001 0.371350497
0.000000000 0.317950010 0.401388288
0.085542500 0.293573260 0.421573013
0.431586295 0.271514237 0.431053013
0.618022501 0.254245490 0.416484475
0.734218776 0.324678481 0.426495761
0.000000000 0.325264484 0.315636516
0.083668500 0.418322265 0.409676999
0.415205508 0.501529515 0.464539528
0.666102767 0.489351034 0.473417997
0.773043990 0.507203460 0.479178995
0.000000000 0.469834000 0.361656725
0.030951997 0.535336494 0.418406010
0.406797498 0.639612734 0.494334757
0.681315780 0.682493508 0.511017740
0.795215011 0.684826255 0.557704568
0.588615000 0.747408032 0.606229484
0.625036776 0.756670952 0.616818488
0.670961499 0.769342065 0.633653998
0.721580029 0.774492979 0.638010979
0.792222500 0.775130987 0.621037006
0.043813750 0.000000000 0.353498250
0.277601480 0.000000000 0.395510018
0.424108267 0.000000000 0.404632509
0.538832009 0.000000000 0.398191243
0.678179979 0.129124999 0.482023239
0.000000000 0.380357236 0.535353482
0.030163005 0.276181519 0.514483750
0.441197008 0.256578505 0.546351194
0.613317490 0.246473506 0.539409757
0.729537010 0.328435749 0.538752258
0.000000000 0.465117514 0.524114788
0.010448758 0.508760810 0.564206004
0.413678527 0.553855479 0.599704266
0.649616241 0.494361013 0.602666497
0.766283214 0.512453198 0.587863505
0.000000000 0.468608737 0.436037779
0.050264746 0.499961495 0.464172244
0.391000032 0.608242273 0.553799212
0.646695793 0.693291008 0.622008979
0.788013458 0.691695809 0.641277492
0.593744993 0.738494039 0.627412796
0.626027763 0.749667287 0.640120745
0.669225991 0.762614489 0.655706227
0.717848778 0.774774492 0.669919789
0.786882997 0.773279727 0.666220784
0.098329999 0.000000000 0.443709999
0.297245741 0.002168750 0.477742732
0.425645530 0.000000000 0.496166497
0.563283265 0.034500007 0.523741484
0.686465025 0.157710001 0.558422983
0.000000000 0.375061005 0.587265730
0.084488496 0.257941276 0.561431050
0.447272778 0.283087730 0.595896780
0.616779447 0.300358504 0.602340996
0.731442750 0.342858255 0.609903514
0.000000000 0.546559453 0.623609006
0.243822247 0.568231463 0.646562755
0.393442988 0.527875543 0.647852957
0.650798738 0.499421000 0.654292226
0.762325525 0.517778039 0.654092014
0.193816274 0.609387517 0.609418511
0.347636998 0.649826288 0.640625954
0.503453016 0.693126261 0.674233735
0.681057513 0.718508542 0.695855021
0.784005761 0.695984244 0.688176513
0.606074989 0.739363015 0.656848013
0.636002243 0.747320056 0.663506269
0.672092497 0.761271000 0.677889466
0.713560283 0.774680734 0.691376746
0.778591990 0.771875978 0.696869016
