public/lut/35.cube
TITLE "17x17x17 Adobe/IRIDAS cube 3D LUT exported with GrossGrade v0.2.2 (beta) 64 bit"
DOMAIN_MIN 0 0 0
DOMAIN_MAX 1 1 1
LUT_3D_SIZE 17
0.000000000 0.000000000 0.000000000
0.020848375 0.000000000 0.000000000
0.093563877 0.002956875 0.000000000
0.201306209 0.000936749 0.000000000
0.268160254 0.000000000 0.000000000
0.316039681 0.000000000 0.000000000
0.363264769 0.000000000 0.000000000
0.404402643 0.000000000 0.000000000
0.432053506 0.000000000 0.000000000
0.457430571 0.000000000 0.000000000
0.482207745 0.000000000 0.000000000
0.505075037 0.000000000 0.000000000
0.520852745 0.000000000 0.000000000
0.536946177 0.000000000 0.000000000
0.551035523 0.000000000 0.000000000
0.565388203 0.000000000 0.000000000
0.667487979 0.122386999 0.097929999
0.009610875 0.056165501 0.004731000
0.017939875 0.031543374 0.000000000
0.075585499 0.030606564 0.000000000
0.169554189 0.038196877 0.000000000
0.247751951 0.034007002 0.000000000
0.293170542 0.028832249 0.000000000
0.340997458 0.021932058 0.000000000
0.391409785 0.010596120 0.000000000
0.430619448 0.000000000 0.000000000
0.461519271 0.000000000 0.000000000
0.488716930 0.000000000 0.000000000
0.514621735 0.000000000 0.000000000
0.539628506 0.000000000 0.000000000
0.557646871 0.000000000 0.000000000
0.573843718 0.000000000 0.000000000
0.590673387 0.000000007 0.000000000
0.681182146 0.154808313 0.107706189
0.000000000 0.133184999 0.000000000
0.007096999 0.109109193 0.000000000
0.086294629 0.110789880 0.000000000
0.183291718 0.118647754 0.000000000
0.265526623 0.123262122 0.000000000
0.317944467 0.122576691 0.000000000
0.363459408 0.121042997 0.000000000
0.415220827 0.118810117 0.000000000
0.463712394 0.110708117 0.000000000
0.498415858 0.102558628 0.000000000
0.525964200 0.095291376 0.000000000
0.552297831 0.085922882 0.000000000
0.578788638 0.078172877 0.000000000
0.597401202 0.066049434 0.000000000
0.613708019 0.057529874 0.000000000
0.630131841 0.057450116 0.000000001
0.701148212 0.212580010 0.127209738
0.000000000 0.199069321 0.000000000
0.000000000 0.179204196 0.000000000
0.074466877 0.182752773 0.000000000
0.190519080 0.196430206 0.000000000
0.274918020 0.203750640 0.000000000
0.332985818 0.210016266 0.000000000
0.386651754 0.211774826 0.000000000
0.434646219 0.209783837 0.000000000
0.488839000 0.209896445 0.000000000
0.530944288 0.204780206 0.000000000
0.564761281 0.202045888 0.000000000
0.589845598 0.195426255 0.000000000
0.618813336 0.190459579 0.000000000
0.640523732 0.181130022 0.000000000
0.657656491 0.177072644 0.000000000
0.673511505 0.173243806 0.000000001
0.726644516 0.275951236 0.150902182
0.000000000 0.237404495 0.000000000
0.000000000 0.218009815 0.000000000
0.061207253 0.224667504 0.000000000
0.186652392 0.241070122 0.000000000
0.280011505 0.254589260 0.000000000
0.340763360 0.262739837 0.000000000
0.395476907 0.267223001 0.000000000
0.449714363 0.267245412 0.000000000
0.503957987 0.266566277 0.000000000
0.550409377 0.265052944 0.000000000
0.584296346 0.261379868 0.000000000
0.611538291 0.255854070 0.000000000
0.640020013 0.250889003 0.000000000
0.664422274 0.245712548 0.000000000
0.684614003 0.240876377 0.000000000
0.699581087 0.236114234 0.000000002
0.739690244 0.318864256 0.169131994
0.000000000 0.268297940 0.000000000
0.000000000 0.252039433 0.000000000
0.048028003 0.260501385 0.000000000
0.187463850 0.278251052 0.000000000
0.280008525 0.292006761 0.000000000
0.344798148 0.301469266 0.000000000
0.401710510 0.307996750 0.000000000
0.456835091 0.310139567 0.000000000
0.509930909 0.311654240 0.000000000
0.561688185 0.311283946 0.000000000
0.600070059 0.309038997 0.000000000
0.628009021 0.305396110 0.000000000
0.656373739 0.300044507 0.000000000
0.683401167 0.295550823 0.000000000
0.704380393 0.290777564 0.000000000
0.720222175 0.285829902 0.000000006
0.753119826 0.358431011 0.190903947
0.000000000 0.301802278 0.001281500
0.000000000 0.288675308 0.000000000
0.039150871 0.298071891 0.000000000
0.187753588 0.317573458 0.000000000
0.279508650 0.332732737 0.000000000
0.347261399 0.343616396 0.000000000
0.409038752 0.351010412 0.000000000
0.461967170 0.354430407 0.000000000
0.519304037 0.357356399 0.000000000
0.572955072 0.359879255 0.000000000
0.613355875 0.356599271 0.000000000
0.642587066 0.353421211 0.000000000
0.672394395 0.349871874 0.000000000
0.701673687 0.346860945 0.000000000
0.725612521 0.343477368 0.000000000
0.741954148 0.338937372 0.000000015
0.766827106 0.405294657 0.215193138
0.000000000 0.331248015 0.004484882
0.000000000 0.323044330 0.000000000
0.015130740 0.339477509 0.000000000
0.182321340 0.361329079 0.000000000
0.278282285 0.378464878 0.000000000
0.346227378 0.387561589 0.000000000
0.412198186 0.395124525 0.000000000
0.467604458 0.400281996 0.000000000
0.525915802 0.404445112 0.000000000
0.582777500 0.407751530 0.000000000
0.624676287 0.406456351 0.000000000
0.657768488 0.403943032 0.000000000
0.687962174 0.400524467 0.000000000
0.717251718 0.395928532 0.000000000
0.741344869 0.392578542 0.000000000
0.761096060 0.388535440 0.000000022
0.778306365 0.448620588 0.241679758
0.000000000 0.359137505 0.028783008
0.000000000 0.362036765 0.006604192
0.004928626 0.377456784 0.000000000
0.169092640 0.401594758 0.000000000
0.274766266 0.417135268 0.000000000
0.347408414 0.430641562 0.000000000
0.410672158 0.438881874 0.000000000
0.471811980 0.445768774 0.000000000
0.530477524 0.449713528 0.000000000
0.590716958 0.456045955 0.000000000
0.636278152 0.456436276 0.000000000
0.671615243 0.453995168 0.000000000
0.702474058 0.452975035 0.000000000
0.734673321 0.451285630 0.000000000
0.760623395 0.448166758 0.000000000
0.781124234 0.442776382 0.000000033
0.789497495 0.499493003 0.273923010
0.000000000 0.387197435 0.058879811
0.000000000 0.397141069 0.034155127
0.005273375 0.419151068 0.009808187
0.154159337 0.441886127 0.000000000
0.271524012 0.459935993 0.000000000
0.345647961 0.473372489 0.000000000
0.412114263 0.482786894 0.000000000
0.473838657 0.491520435 0.000000000
0.533413947 0.495257705 0.000000000
0.597171783 0.500985444 0.000000000
0.644717515 0.501435995 0.000000000
0.682858348 0.501237512 0.000000000
0.712015808 0.500957072 0.000000000
0.746368229 0.497504741 0.000000000
0.773200452 0.493989825 0.000000000
0.796056271 0.494178802 0.000000043
0.796314180 0.547299266 0.311094522
0.000000000 0.417362005 0.094128251
0.000000000 0.430389315 0.073917940
0.000000000 0.451874852 0.042241503
0.141158909 0.478703886 0.006505811
0.267109722 0.499332488 0.001478625
0.341849625 0.512871921 0.000295875
0.412922144 0.525234640 0.000000000
0.474705219 0.534219742 0.000000000
0.532986701 0.540320218 0.000000000
0.597269654 0.544829845 0.000000000
0.651415229 0.549112976 0.000000000
0.691265523 0.547645092 0.000000000
0.722749472 0.546701372 0.000000000
0.756754875 0.544410944 0.000000000
0.785508633 0.542278349 0.000000000
0.809263110 0.539441586 0.000985764
0.800846100 0.590978742 0.354241997
0.000000000 0.446879387 0.133147508
0.000000000 0.464304417 0.115693063
0.000246563 0.486221731 0.091412254
0.118074477 0.512882054 0.063749500
0.258219361 0.533102512 0.036717813
0.337492645 0.547085702 0.013997187
0.408644944 0.561347485 0.000837937
0.472583890 0.569170058 0.000000000
0.533361912 0.579112768 0.000000000
0.597733021 0.586974621 0.000000000
0.652272582 0.590871453 0.000000000
0.698354363 0.592228651 0.000000000
0.730798781 0.592723608 0.000000000
0.763610423 0.589025676 0.000000000
0.796096981 0.588550627 0.000000000
0.820935071 0.587371409 0.006294109
0.805583894 0.637526572 0.404709399
0.000000000 0.480776757 0.170329511
0.000000000 0.497016191 0.154975563
0.002070250 0.519093037 0.137889266
0.091456860 0.545762837 0.113478884
0.249417260 0.565435052 0.084092513
0.331820667 0.579688787 0.059198894
0.403942883 0.591763377 0.042872015
0.470730841 0.602733970 0.032982945
0.529445052 0.611290693 0.022868758
0.595366001 0.620904207 0.011286443
0.653723896 0.626736641 0.002168876
0.700892270 0.630161345 0.000000000
0.735599756 0.630517781 0.000000000
0.770982742 0.634131253 0.000000000
0.804704010 0.634204507 0.000000000
0.830044150 0.633260906 0.010601426
0.805945218 0.679417014 0.457905501
0.000000000 0.508579910 0.202807456
0.000000000 0.526246786 0.190663651
0.000000000 0.549794376 0.180069536
0.099004097 0.576255918 0.162957057
0.244543254 0.595799863 0.144763604
0.327824503 0.610437036 0.131101668
0.399509788 0.622716427 0.113900103
0.466553330 0.633080542 0.092425108
0.527587593 0.641552448 0.069268167
0.593111575 0.651843667 0.035190232
0.650121689 0.658080101 0.013159550
0.701220810 0.661878109 0.003844478
0.734646678 0.664103568 0.002612029
0.772090375 0.664631963 0.002759967
0.806327105 0.665148914 0.005618786
0.833943546 0.666404426 0.019005438
0.803962648 0.716334462 0.505051017
0.000000000 0.535395086 0.229049772
0.000000000 0.551920414 0.219792888
0.000000000 0.575616002 0.215830281
0.110317156 0.600861907 0.203218430
0.236207262 0.621345639 0.189816922
0.323834628 0.636625648 0.178588405
0.397602648 0.649148941 0.165037066
0.464385152 0.660216808 0.148071364
0.523734450 0.669720590 0.128994301
0.589700103 0.680046797 0.102810822
0.649775624 0.687289953 0.083533078
0.699485183 0.693373442 0.072548330
0.736044288 0.693479776 0.064058557
0.772233605 0.694358706 0.055276301
0.807907164 0.695156395 0.046804663
0.834037900 0.693209887 0.041355878
0.800657511 0.743734896 0.557298422
0.008517426 0.569261432 0.266088605
0.011266634 0.580757797 0.259977520
0.024282813 0.604629517 0.257740557
0.116254799 0.626927018 0.248284400
0.249350935 0.647449791 0.240652740
0.330472320 0.659098983 0.232932508
0.399902344 0.670813501 0.224147618
0.461528957 0.683793724 0.214093506
0.522149205 0.694505215 0.201919049
0.587924719 0.703500688 0.186784148
0.644687057 0.712328255 0.170764685
0.695884943 0.718760550 0.156081647
0.731029034 0.721764028 0.138063774
0.768733919 0.722928405 0.113524318
0.805120349 0.720495343 0.090046696
0.832257032 0.717831433 0.070134327
0.800877810 0.759428263 0.574142218
0.597846985 0.757242024 0.577385008
0.601998329 0.758529425 0.578355849
0.610173523 0.760963857 0.580116510
0.622442424 0.763935268 0.582427323
0.633996725 0.765873253 0.583969474
0.643106878 0.767211258 0.585216165
0.655121088 0.768782854 0.587092519
0.668822467 0.770075679 0.589214325
0.677821517 0.770250976 0.591713011
0.687544107 0.770153642 0.593177795
0.700544775 0.770468473 0.593227923
0.714791656 0.771009445 0.595253050
0.726848781 0.773552477 0.592470765
0.745466948 0.773270011 0.588684499
0.762693226 0.774018407 0.573649645
0.785753191 0.770253360 0.539851665
0.819419980 0.760675013 0.422477990
0.007935250 0.000739688 0.013701187
0.014638000 0.000000000 0.009068688
0.062398750 0.000690375 0.006210375
0.158376321 0.003449686 0.003992248
0.234839574 0.000000000 0.001478438
0.278551757 0.000000000 0.000739688
0.326059520 0.000000000 0.000246563
0.377485037 0.000000000 0.000000000
0.416276276 0.000000000 0.000000000
0.446374238 0.000000000 0.000000000
0.472063929 0.000000000 0.000000000
0.499731958 0.000000000 0.000000000
0.521890581 0.000000000 0.000000000
0.539078593 0.000000000 0.000000000
0.554005563 0.000000000 0.000000000
0.571495712 0.000000000 0.000000005
0.669038296 0.123944432 0.124428749
0.011829000 0.022129688 0.010695000
0.008821875 0.025283687 0.022967000
0.053304188 0.022720562 0.020552687
0.129440755 0.024346877 0.014440751
0.202181503 0.024544001 0.009955375
0.255849004 0.019714188 0.005766500
0.303811967 0.013258060 0.002464375
0.353415906 0.004633122 0.001922250
0.403959990 0.000000000 0.000000000
0.443695098 0.000000000 0.000000000
0.474236548 0.000000000 0.000000000
0.502996385 0.000000000 0.000000000
0.533890426 0.000000000 0.000000000
0.556691885 0.000000000 0.000000000
0.576738179 0.000000000 0.000000000
0.597358704 0.000000008 0.000000007
0.681969464 0.153757557 0.134359688
0.002020563 0.087898441 0.015179625
0.000049312 0.103849068 0.042595126
0.051993124 0.096440814 0.034451000
0.150588319 0.101998374 0.026515750
0.225946501 0.107087001 0.018137375
0.280781984 0.106959194 0.011483938
0.333353251 0.106597938 0.005618561
0.383510113 0.102640696 0.002218125
0.435175538 0.097332813 0.000345187
0.478599936 0.090721130 0.000000000
0.513017178 0.082326941 0.000000000
0.540092468 0.073506385 0.000000000
0.569368362 0.062966630 0.000000000
0.593625247 0.054236744 0.000000000
0.614897907 0.050142180 0.000000000
0.631415844 0.044817753 0.000049324
0.701375961 0.213129118 0.153305441
0.000000000 0.167638823 0.030064505
0.000000000 0.177528933 0.057229690
0.024199057 0.178940400 0.042876750
0.154247522 0.183240384 0.032035753
0.243570879 0.193938404 0.021685747
0.303445309 0.196679071 0.011434625
0.359500766 0.200384140 0.004928437
0.409804642 0.197271511 0.002513625
0.466760755 0.199101508 0.000345187
0.514885128 0.196858585 0.000000000
0.552336633 0.190854266 0.000000000
0.581032813 0.186260000 0.000000000
0.610668182 0.178789526 0.000000000
0.637537956 0.173921674 0.000000000
0.657474935 0.168279335 0.000000000
0.674712539 0.167076841 0.000098579
0.725092232 0.274263799 0.174777076
0.000000000 0.218371823 0.041908689
0.000000000 0.224699065 0.068183504
0.008082626 0.228020325 0.052010875
0.151061207 0.241010308 0.033268183
0.248198807 0.251133263 0.021390000
0.312821060 0.257533818 0.010596062
0.374441266 0.261562377 0.004681875
0.428451985 0.261401474 0.002513625
0.480493218 0.260606050 0.000492937
0.535193205 0.259124935 0.000000000
0.576685071 0.256882757 0.000000000
0.605750918 0.252824366 0.000000000
0.635632575 0.247360617 0.000000000
0.663745284 0.243537247 0.000000000
0.686841190 0.238254815 0.000000000
0.703453839 0.235317230 0.000000016
0.739749968 0.322453648 0.194223180
0.000000000 0.256484240 0.058180124
0.000000000 0.263434201 0.074896187
0.006801376 0.268373936 0.060800500
0.148188770 0.281345367 0.037406437
0.249358803 0.296079457 0.023312062
0.317108065 0.302915812 0.011828438
0.381626576 0.308254570 0.006013249
0.437672585 0.310879320 0.001774312
0.493591130 0.311132431 0.000000000
0.549337924 0.311844498 0.000000000
0.592423797 0.308242738 0.000000000
0.623947620 0.305011630 0.000000000
0.654014051 0.300364792 0.000000000
0.684088051 0.296683669 0.000000000
0.706567645 0.291156292 0.000000000
0.723889053 0.286967546 0.000000021
0.752469420 0.359367013 0.210375011
0.000000000 0.292671889 0.074112624
0.000000000 0.301664978 0.088121690
0.000000000 0.309919566 0.068891317
0.137801021 0.326482266 0.045608062
0.246922255 0.341131389 0.029521937
0.318877816 0.349018365 0.017594876
0.384246349 0.357036024 0.008378747
0.445160896 0.358772904 0.002956875
0.501252115 0.360514224 0.001232188
0.560884714 0.362520725 0.001232188
0.606840193 0.363283992 0.000000000
0.641373873 0.359272212 0.000000000
0.669960916 0.354814768 0.000000000
0.701714933 0.350846171 0.000000000
0.725667238 0.346999258 0.000000000
0.745763123 0.341926485 0.001281528
0.766672492 0.407099873 0.233542010
0.000000000 0.326325893 0.092984259
0.000000000 0.337532967 0.101929449
0.000000000 0.350640029 0.086100072
0.115314022 0.370000958 0.062258128
0.243794024 0.384860098 0.037654258
0.317893714 0.396940231 0.018974882
0.386796445 0.404787958 0.009216256
0.453443468 0.410342157 0.007097251
0.509786785 0.410886765 0.004139813
0.570799768 0.414396763 0.001429561
0.617994905 0.413186282 0.000000000
0.654906034 0.411420524 0.000000000
0.684949994 0.406760901 0.000000000
0.717058182 0.403265417 0.000000000
0.743873179 0.399713904 0.000000000
0.765268385 0.395915061 0.002464473
0.777290106 0.449506640 0.256875247
0.000000000 0.361924648 0.115296140
0.000000000 0.376106292 0.121130377
0.000000000 0.393277764 0.107186444
0.092666402 0.413631409 0.081453249
0.236824989 0.430073112 0.056355253
0.315630496 0.442860454 0.044219133
0.388116777 0.450721592 0.027994128
0.453775465 0.457444578 0.017397936
0.515594900 0.462873518 0.009659625
0.576644063 0.465613514 0.000049313
0.628931105 0.468162954 0.000295875
0.668125808 0.465338975 0.000000000
0.699373245 0.462852150 0.000197251
0.732912123 0.459068835 0.000394501
0.760821223 0.454206854 0.000000000
0.782549858 0.449605703 0.003698584
0.789411068 0.500820577 0.287826478
0.000000000 0.395013183 0.139105618
0.000000000 0.412052065 0.145446122
0.000000000 0.434158415 0.132093057
0.079182096 0.455440313 0.108786680
0.228362575 0.472272694 0.086686119
0.312364042 0.484072924 0.070147626
0.387706906 0.494486779 0.047690116
0.456258655 0.503589511 0.026614677
0.516948998 0.506903291 0.010152875
0.582099199 0.511192799 0.007639313
0.634925187 0.514339447 0.007343813
0.678172886 0.513576746 0.006308625
0.710360348 0.511263192 0.006012873
0.743731022 0.509297013 0.003548622
0.773321450 0.506238461 0.002020996
0.797442138 0.502497852 0.006170896
0.795371175 0.548920691 0.323984683
0.000000000 0.424875706 0.166307881
0.000000000 0.443586856 0.171769306
0.000000000 0.469755411 0.159123242
0.054286093 0.493674010 0.139639631
0.216510803 0.513192534 0.117879994
0.308596164 0.527283728 0.101841182
0.385402888 0.539153337 0.076592810
0.455411136 0.546509802 0.055675372
0.519500136 0.553077400 0.045752376
0.584166944 0.559068799 0.042879499
0.640569925 0.561848462 0.032085441
0.685751677 0.561951041 0.021735251
0.718251586 0.558974862 0.011089124
0.752806783 0.555389941 0.003400868
0.783361077 0.551738143 0.000000000
0.809250593 0.549890041 0.009536409
0.800034225 0.591772974 0.364327759
0.000000000 0.454287440 0.192606822
0.000000000 0.473494917 0.193588182
0.000000000 0.500413775 0.187429622
0.018778047 0.524213254 0.170817941
0.206750557 0.546057701 0.155772686
0.302685499 0.560607672 0.139918998
0.381280512 0.573524117 0.124923989
0.455669820 0.583976686 0.106616437
0.516142845 0.591572642 0.085648686
0.581482470 0.597786188 0.065532126
0.643143535 0.603406250 0.047238626
0.691384494 0.606102347 0.029374186
0.726357937 0.604284048 0.015968373
0.759957314 0.602592766 0.012419751
0.793026567 0.599319696 0.014194623
0.819223046 0.596453011 0.026061956
0.804724157 0.638254404 0.412129790
0.000000000 0.484236747 0.214544013
0.000000000 0.502979398 0.215866387
0.000000000 0.529595912 0.211607054
0.038910232 0.556522727 0.199625582
0.201847374 0.576636136 0.185878009
0.296803653 0.591362119 0.177764744
0.377336532 0.603738904 0.160675690
0.450278759 0.614374459 0.145659551
0.515191615 0.623952568 0.127346262
0.582341373 0.632192552 0.098941326
0.643220842 0.639930725 0.080871202
0.693494737 0.645237148 0.070851892
0.730202794 0.645206988 0.063992143
0.765018642 0.643356681 0.061720449
0.800394118 0.644413471 0.060599640
0.826159179 0.642476976 0.068911575
0.805258036 0.679849565 0.463267207
0.000000000 0.513909996 0.241972074
0.000000000 0.531228185 0.241036937
0.000000000 0.555335104 0.236162201
0.059772152 0.584496498 0.227379218
0.195046604 0.603977084 0.218735456
0.292212307 0.618617773 0.208752781
0.376294672 0.631933033 0.198524907
0.448922634 0.644623101 0.187960774
0.512105465 0.651797712 0.172461808
0.580329657 0.661104679 0.153190106
0.640144587 0.668038487 0.128478125
0.692608118 0.673593521 0.123836607
0.730335712 0.675746262 0.123662293
0.766679168 0.677029490 0.114506915
0.804237902 0.678575575 0.106841013
0.830896974 0.677730560 0.105914265
0.803658366 0.716714919 0.509176731
0.000000000 0.540995955 0.262426347
0.000000000 0.556418955 0.261285096
0.000000000 0.579338014 0.258635104
0.062471826 0.607181072 0.252894789
0.187160194 0.628718615 0.244323969
0.294076413 0.643180490 0.237931460
0.375475734 0.657943964 0.230767399
0.446932316 0.668916583 0.218774095
0.509224832 0.678107798 0.208457157
0.577700257 0.687432945 0.194590151
0.639105737 0.695713460 0.179321587
0.692656279 0.701004863 0.162860036
0.729892492 0.704687417 0.159300834
0.765923858 0.705524087 0.151132032
0.803699791 0.705484390 0.136821091
0.831573129 0.705628335 0.134947419
0.800133288 0.743595779 0.559759498
0.008425420 0.572306931 0.291405797
0.012857716 0.581599593 0.291272640
0.017247763 0.603696764 0.288490474
0.065042526 0.630845010 0.287004709
0.205067545 0.650572419 0.280125141
0.307922781 0.664150238 0.273386717
0.384049445 0.677530825 0.266985923
0.449884444 0.688687265 0.258434594
0.511373997 0.699106097 0.248394445
0.577268183 0.709594786 0.237554342
0.637458205 0.718641043 0.224532440
0.689274728 0.725249588 0.209498733
0.727502882 0.727449179 0.198295400
0.762943745 0.729237437 0.189756826
0.799345434 0.728643060 0.172755182
0.827602565 0.725956738 0.160288706
0.800630331 0.759425879 0.576445699
0.597699821 0.756939352 0.578944206
0.601852059 0.758299887 0.579911172
0.610022664 0.760737658 0.581768274
0.622330606 0.763842463 0.584270537
0.633576393 0.765832841 0.585968614
0.642676234 0.767227888 0.587350428
0.654913187 0.768770993 0.589190722
0.668595016 0.770099461 0.591327131
0.677668214 0.770269990 0.593979895
0.687714159 0.770153642 0.595411420
0.700550497 0.770605266 0.595223248
0.714450359 0.771207929 0.597065210
0.726590395 0.773879409 0.594281197
0.744878948 0.773580790 0.590345979
0.762351096 0.774264693 0.575676739
0.785410643 0.770891666 0.548166871
0.810116410 0.765410900 0.491185993
0.004337250 0.008674000 0.085773505
0.011730376 0.000000000 0.064898506
0.060131501 0.002956875 0.060904752
0.147464842 0.003943000 0.059949249
0.228098378 0.000000000 0.058153503
0.274262428 0.000000000 0.052936748
0.322798520 0.000000000 0.049497128
0.374556512 0.000000000 0.046021812
0.417116165 0.000000000 0.041637748
0.451855749 0.000000000 0.037994064
0.477925986 0.000000000 0.033810128
0.505945146 0.000000000 0.031197939
0.530390739 0.000000000 0.028092749
0.549339294 0.000000000 0.027550936
0.564128220 0.000000000 0.024544749
0.580225110 0.000000000 0.023558360
0.671624482 0.126668751 0.170610756
0.000000000 0.082430877 0.105769753
0.000887500 0.047382999 0.105517186
0.044055499 0.024199063 0.089655124
0.123007022 0.025086500 0.080668874
0.197526246 0.025283750 0.078014694
0.249033451 0.020256624 0.073534757
0.298736840 0.012518438 0.066263132
0.350321710 0.002759808 0.064755939
0.402159452 0.000000000 0.058030307
0.443769813 0.000000000 0.053338129
0.476891696 0.000000000 0.046049815
0.506315351 0.000000000 0.044186503
0.537492454 0.000000000 0.039137438
0.563019991 0.000000000 0.038126569
0.584215164 0.000000000 0.035190385
0.603293896 0.000000006 0.040207084
0.682252288 0.157220364 0.178288803
0.000000000 0.090526752 0.065493628
0.000000000 0.103077561 0.102935314
0.016659001 0.106384002 0.109366752
0.133266255 0.104638129 0.109144121
0.210200503 0.106359757 0.104077250
0.267512530 0.108691439 0.100839257
0.321683913 0.108956635 0.095301375
0.373220921 0.105811566 0.090820998
0.425137997 0.098893255 0.083082631
0.474255383 0.090564191 0.077460751
0.512628853 0.083483376 0.070862874
0.541250646 0.073494561 0.064181879
0.572134376 0.064731129 0.061341502
0.600692868 0.058799557 0.058204316
0.622884154 0.052607492 0.057412874
0.640394211 0.047766041 0.055100009
0.701816022 0.214015886 0.194604874
0.000000000 0.152019635 0.076789439
0.000000000 0.151084468 0.097668260
0.002316687 0.180953383 0.137570560
0.114427574 0.192642689 0.133151829
0.225799501 0.197384134 0.127852008
0.286515683 0.201081827 0.119415008
0.347108722 0.202609584 0.115566693
0.400488913 0.203470647 0.108834870
0.452870756 0.199913621 0.098391697
0.509284675 0.197004259 0.091267876
0.549383879 0.190136403 0.080387123
0.579831421 0.184337333 0.074104562
0.609829307 0.178465083 0.067002684
0.639067054 0.173672006 0.061375938
0.661275923 0.166416273 0.056797758
0.680211365 0.166174382 0.061508931
0.724618316 0.275544047 0.212784052
0.000000000 0.201432630 0.090293869
0.000000000 0.202431634 0.116117507
0.000000000 0.233147740 0.148501500
0.102087513 0.252455831 0.146702439
0.219894737 0.259259015 0.139370620
0.296103567 0.263702333 0.132096127
0.358394027 0.265323877 0.124838375
0.416634828 0.265367329 0.118204251
0.468192279 0.265340000 0.107236505
0.526600122 0.264178574 0.099250883
0.570826471 0.260058016 0.090890884
0.605729878 0.255528063 0.083925687
0.633826077 0.250835896 0.073281132
0.665683746 0.245669559 0.068141304
0.688619018 0.240038112 0.061740883
0.708045125 0.238234848 0.062908024
