public/lut/36.cube
TITLE "17x17x17 Adobe/IRIDAS cube 3D LUT exported with GrossGrade v0.2.2 (beta) 64 bit"
DOMAIN_MIN 0 0 0
DOMAIN_MAX 1 1 1
LUT_3D_SIZE 5
0.000000000 0.035486002 0.011829000
0.153558999 0.096106246 0.044554748
0.363989532 0.134495497 0.040211502
0.646736741 0.153281003 0.073732749
0.894923985 0.238482997 0.136855006
0.000000000 0.231963247 0.022671251
0.244201005 0.230372250 0.033909000
0.473486751 0.234677508 0.001182749
0.701944232 0.308806241 0.074848756
0.919619501 0.391824752 0.141796991
0.033508513 0.423322499 0.009068502
0.304728746 0.426547050 0.067564502
0.542701542 0.461462557 0.007491492
0.779856741 0.457782805 0.000000000
0.950088978 0.547408462 0.141991511
0.164412498 0.619867504 0.075514004
0.366933763 0.634988308 0.097924255
0.580250025 0.689218521 0.088460259
0.788784027 0.738188028 0.000000000
0.944816709 0.717183769 0.220008507
0.312045991 0.932650983 0.237353995
0.453286767 0.929606497 0.246378750
0.603459001 0.925760984 0.257485002
0.769548774 0.925122023 0.271659493
0.942324996 0.918142021 0.238804996
0.000000000 0.097322248 0.102018252
0.216670766 0.133659005 0.165503740
0.425794780 0.151822761 0.171048254
0.672933757 0.180854261 0.198612243
0.892378747 0.223293751 0.243773252
0.000000000 0.245305002 0.222296745
0.169326752 0.272166729 0.268757015
0.451321006 0.281286240 0.248476252
0.693366528 0.297896266 0.250141025
0.923028946 0.358327508 0.266947001
0.000000000 0.440685511 0.265162766
0.168311253 0.459644020 0.218400761
0.528170764 0.492087513 0.222080261
0.756551266 0.489079267 0.250642270
0.936648726 0.552770495 0.316098750
0.048899259 0.599366248 0.274963737
0.306677043 0.650899053 0.240435511
0.553656697 0.684765518 0.270946473
0.779180527 0.740683496 0.216208249
0.939510465 0.721398473 0.367414504
0.298955500 0.932812750 0.373649985
0.443501264 0.930588484 0.379925728
0.594777286 0.926815271 0.392180771
0.766512275 0.923693061 0.409911513
0.939226508 0.919237971 0.396635741
0.007096997 0.161056012 0.215648502
0.139490247 0.188768759 0.270054758
0.437434018 0.219521999 0.297369003
0.703395724 0.216271490 0.303181529
0.891731024 0.259682477 0.381918013
0.000000000 0.288591504 0.341181517
0.129318237 0.311073005 0.387753785
0.459416032 0.322685510 0.386241794
0.712374568 0.334402025 0.377702773
0.906330228 0.361230969 0.418016762
0.000000000 0.461345524 0.464505523
0.082084507 0.491178274 0.500283003
0.431397021 0.504492998 0.521841526
0.717985034 0.515161037 0.500935555
0.910651505 0.522221982 0.489938021
0.000000000 0.713128269 0.565262556
0.091685250 0.694169998 0.537062466
0.441586494 0.682898283 0.489599049
0.752475262 0.737134516 0.481535494
0.931737185 0.735179067 0.542577744
0.251813501 0.935441017 0.528020978
0.396286488 0.931192756 0.521577299
0.576842010 0.929849982 0.537997007
0.758546233 0.925806046 0.554520965
0.937869549 0.920511484 0.543854475
0.003745752 0.241192013 0.363615006
0.128713757 0.253380030 0.395685285
0.370999008 0.253502756 0.453556269
0.705031216 0.278040528 0.454662025
0.887204766 0.300497979 0.565149784
0.000000000 0.333465487 0.454210997
0.111025251 0.354552716 0.504771471
0.362679005 0.348281533 0.534543991
0.708713770 0.377274007 0.547568083
0.897382021 0.406947762 0.616575480
0.000000000 0.491645515 0.610560060
0.114197001 0.506001234 0.636356533
0.382816046 0.518535554 0.677974224
0.723763287 0.513329983 0.668778181
0.900471210 0.549543202 0.676677227
0.000000000 0.696740270 0.733556032
0.094632007 0.710294485 0.747786760
0.380143255 0.715524733 0.751588762
0.713210762 0.718414545 0.723410785
0.914413452 0.731665492 0.725755274
0.244353503 0.927066982 0.765964270
0.387210757 0.925270736 0.757813990
0.539392233 0.927081764 0.743892789
0.722081721 0.930986762 0.710520744
0.934105992 0.921019971 0.711822510
0.000000000 0.291736990 0.504989982
0.128779501 0.303677499 0.530556738
0.312465519 0.297652990 0.583709002
0.669493258 0.308492243 0.664900482
0.918322980 0.314505011 0.784533024
0.000000000 0.376374751 0.586004257
0.047765750 0.406822741 0.663833499
0.306986511 0.412050009 0.706494749
0.681561768 0.392906755 0.774034739
0.920421243 0.415476501 0.823280752
0.000000000 0.528234005 0.756715000
0.070235752 0.536966443 0.780347943
0.309580505 0.543699026 0.822105050
0.647488475 0.517469287 0.825232506
0.924259007 0.545418501 0.861931503
0.000000008 0.700436473 0.874379992
0.193614021 0.703679264 0.877298951
0.417780280 0.703396261 0.879156232
0.686893702 0.711888790 0.874840021
0.924564242 0.725729764 0.891863763
0.258295000 0.901418984 0.913802981
0.398980975 0.902495265 0.912963510
0.549327016 0.906172991 0.912744045
0.717477024 0.910165489 0.912494242
0.921797991 0.921140015 0.905009985
