public/lut/36.cube
TITLE "17x17x17 Adobe/IRIDAS cube 3D LUT exported with GrossGrade v0.2.2 (beta) 64 bit"
DOMAIN_MIN 0 0 0
DOMAIN_MAX 1 1 1
LUT_3D_SIZE 17
0.000000000 0.035486002 0.011829000
0.002956875 0.040167753 0.016461438
0.047994629 0.056504376 0.022474626
0.107708752 0.078065887 0.032824315
0.153558999 0.096106246 0.044554748
0.194250748 0.102942124 0.045687374
0.244962275 0.114009634 0.043074377
0.302841306 0.125190377 0.040113688
0.363989532 0.134495497 0.040211502
0.429839045 0.140845060 0.045268063
0.506111979 0.142919749 0.056269623
0.575076461 0.143370941 0.061782874
0.646736741 0.153281003 0.073732749
0.712436318 0.169944882 0.090081505
0.773736954 0.186381146 0.105892144
0.833445549 0.210356787 0.125363186
0.894923985 0.238482997 0.136855006
0.000000000 0.072232313 0.014194000
0.011089687 0.076992378 0.025480876
0.069491126 0.077046566 0.020305876
0.122416638 0.097441375 0.035978440
0.174080998 0.106749691 0.044004999
0.213790387 0.116576687 0.046090811
0.262072444 0.125397936 0.043541875
0.316204727 0.135260448 0.039717689
0.377227515 0.148679808 0.038344566
0.442394495 0.157015875 0.042969938
0.516090512 0.166376248 0.058447190
0.583374918 0.170351446 0.066198625
0.651243865 0.183027700 0.082994878
0.715186179 0.197270215 0.097274080
0.776813745 0.215817019 0.112900585
0.838051438 0.241367653 0.126802519
0.898163617 0.265770674 0.138595000
0.000000000 0.130629003 0.018137001
0.011237499 0.141445309 0.019516874
0.067202136 0.136111259 0.030359751
0.160554022 0.123459943 0.023410689
0.209045008 0.136593997 0.028388623
0.247629240 0.148191944 0.028684249
0.293432653 0.158030137 0.030557126
0.344026238 0.169306621 0.034253690
0.403170288 0.180901989 0.038245879
0.464787602 0.188955814 0.049189687
0.532857120 0.197737873 0.061119750
0.600058973 0.205590189 0.069745004
0.662611008 0.217487752 0.082451135
0.723383605 0.235779956 0.097269326
0.782385290 0.253085911 0.112955891
0.846355617 0.277111948 0.127098516
0.902928829 0.301230878 0.139956504
0.000000000 0.191171452 0.020009877
0.013405435 0.198793694 0.015032249
0.081391931 0.197917640 0.027156498
0.162954777 0.193300903 0.047284435
0.236303940 0.177842572 0.026713312
0.288470447 0.174634248 0.010842626
0.335000813 0.186951190 0.007935188
0.386573017 0.197338551 0.011385060
0.440837562 0.211922318 0.020601565
0.499000132 0.226966381 0.040315498
0.559141576 0.244374886 0.054325432
0.623082042 0.256030619 0.069793373
0.681454062 0.272804260 0.087551191
0.737589061 0.288588107 0.102308765
0.795753002 0.305853724 0.118749633
0.856426120 0.326236218 0.128947765
0.910873294 0.347342879 0.142465621
0.000000000 0.231963247 0.022671251
0.014588313 0.243526250 0.010842499
0.091082253 0.240620121 0.017841376
0.182526007 0.231109202 0.049792748
0.244201005 0.230372250 0.033909000
0.301027298 0.218063742 0.024396753
0.358012915 0.212979376 0.005815495
0.418365717 0.221809432 0.000394249
0.473486751 0.234677508 0.001182749
0.535439968 0.253373176 0.010891935
0.593317032 0.268848509 0.026516000
0.647999883 0.291247785 0.053060185
0.701944232 0.308806241 0.074848756
0.755636573 0.326402426 0.097293705
0.810800254 0.346117646 0.114221893
0.867353201 0.370733172 0.128834754
0.919619501 0.391824752 0.141796991
0.000000000 0.271256745 0.018334623
0.015081499 0.281032234 0.003252937
0.095780753 0.281900764 0.012616938
0.189786270 0.271321088 0.049311373
0.263523698 0.274245054 0.027550874
0.306977689 0.272210062 0.034746625
0.371183842 0.259202510 0.019369557
0.436627924 0.255755633 0.000098625
0.499672085 0.264922321 0.000000000
0.560434401 0.280792564 0.000000000
0.617611051 0.300499499 0.003154312
0.673051476 0.317799568 0.025825875
0.724052310 0.338374496 0.056676321
0.773133337 0.363649100 0.082827017
0.824919105 0.386251062 0.101693958
0.877556682 0.408384979 0.119164899
0.929372072 0.427980006 0.135755882
0.000000000 0.313072890 0.015968625
0.017003503 0.327752650 0.000049312
0.109625630 0.330782920 0.005323125
0.202319831 0.320500106 0.037999254
0.279492140 0.325058132 0.032725759
0.330819905 0.329173446 0.014243810
0.382092506 0.328024775 0.036373250
0.452237666 0.314162523 0.007540864
0.519299984 0.310719550 0.000000000
0.585341334 0.318452030 0.000000000
0.640855372 0.333283782 0.000000000
0.694246531 0.351708412 0.002020872
0.746689677 0.374884754 0.026713373
0.795076489 0.397301435 0.062474269
0.842308164 0.422279924 0.086654514
0.890013814 0.447123170 0.109086335
0.937642336 0.467258394 0.129580244
0.000000002 0.368346959 0.011434174
0.048026770 0.377058208 0.000000001
0.132523820 0.378556013 0.009167382
0.220770150 0.372678488 0.041507006
0.289042056 0.372568160 0.054796509
0.354182839 0.385267735 0.026170516
0.406057924 0.390748113 0.006062248
0.462443203 0.390203297 0.029423678
0.536142886 0.375171602 0.000000000
0.602566838 0.374134302 0.000000000
0.659447968 0.379233837 0.000000000
0.713341534 0.391916543 0.000000000
0.765154302 0.412427992 0.003154126
0.813809931 0.434874505 0.038145218
0.858242691 0.460518688 0.071602449
0.903988421 0.484577000 0.097615384
0.946498632 0.509311736 0.125190377
0.033508513 0.423322499 0.009068502
0.085222259 0.425897062 0.009807752
0.159458518 0.428217530 0.023756005
0.239990890 0.426919758 0.048593819
0.304728746 0.426547050 0.067564502
0.364712805 0.438668072 0.057229131
0.432630301 0.451911628 0.012222998
0.486940086 0.458884954 0.000443749
0.542701542 0.461462557 0.007491492
0.617915392 0.447643459 0.000000000
0.674320757 0.446760505 0.000000000
0.728207290 0.447534621 0.000000000
0.779856741 0.457782805 0.000000000
0.827907622 0.476222992 0.012567831
0.873328209 0.501091540 0.052773532
0.918091714 0.522434771 0.086004466
0.950088978 0.547408462 0.141991511
0.078599185 0.469917893 0.021784250
0.122199930 0.474094331 0.023558937
0.188912064 0.474505693 0.038969815
0.262284219 0.475090921 0.058296941
0.323732436 0.477923930 0.073950440
0.375829458 0.486703157 0.075829126
0.442461461 0.506440043 0.048404735
0.508874953 0.519250035 0.000689936
0.560935199 0.531350136 0.000000000
0.616965055 0.535249412 0.000000000
0.683326066 0.519089878 0.000000000
0.736402988 0.513462305 0.000000000
0.788561046 0.511910081 0.000000000
0.836958885 0.521082520 0.000000007
0.885858774 0.541830301 0.024494808
0.930096567 0.563575923 0.070002034
0.954079628 0.587125361 0.158418819
0.110846877 0.519764006 0.038330875
0.154310182 0.522708595 0.043051627
0.211986616 0.524814844 0.055530373
0.278614700 0.528336287 0.069039755
0.339094132 0.532489538 0.082813755
0.387635052 0.539487362 0.089191876
0.444780141 0.554916143 0.081595495
0.511904240 0.573458016 0.045698285
0.577545583 0.589443326 0.000000000
0.625059664 0.602561116 0.000000000
0.680121779 0.607648373 0.000000000
0.742941916 0.589071155 0.000000000
0.793807268 0.578302145 0.000000000
0.845602095 0.574812889 0.000000000
0.894788444 0.585557997 0.000394280
0.937497199 0.605309486 0.048780814
0.952495158 0.628301263 0.180520132
0.138037622 0.569844246 0.057343502
0.178553507 0.570397615 0.060060561
0.232138500 0.572784781 0.069513626
0.294823885 0.578096151 0.080787502
0.351278514 0.584812045 0.090375192
0.398892492 0.590629578 0.096545629
0.453552276 0.603972137 0.097500376
0.513073444 0.621340394 0.084490798
0.581196249 0.641631782 0.047413420
0.638220191 0.657831013 0.000000000
0.682114303 0.670945883 0.000000000
0.733329415 0.675909579 0.000000000
0.800348103 0.653648019 0.000000000
0.847986460 0.640523553 0.000000000
0.903537273 0.634002149 0.000000000
0.939866066 0.648696303 0.003056138
0.946204960 0.669786394 0.199912876
0.164412498 0.619867504 0.075514004
0.202285871 0.620929480 0.077921934
0.253996879 0.622678399 0.083620623
0.311738998 0.628718853 0.091569133
0.366933763 0.634988308 0.097924255
0.410142243 0.640703738 0.103776813
0.463140368 0.652944446 0.103162505
0.517472327 0.668653727 0.102107123
0.580250025 0.689218521 0.088460259
0.638703406 0.708909631 0.057210080
0.693701148 0.725258350 0.004336778
0.734423101 0.735599577 0.001823888
0.788784027 0.738188028 0.000000000
0.856127381 0.717595875 0.000000000
0.904858470 0.699869931 0.000000000
0.937348485 0.696713686 0.024381718
0.944816709 0.717183769 0.220008507
0.179201424 0.683524132 0.083200090
0.216769680 0.685513794 0.084884524
0.265993387 0.689434230 0.086869158
0.321548939 0.695663989 0.091562033
0.375489742 0.703264296 0.093125343
0.418915510 0.711739421 0.096686020
0.468197584 0.721504092 0.098430656
0.519729912 0.735011339 0.099034928
0.575427890 0.752664566 0.096790485
0.629235148 0.764737427 0.093506254
0.685342193 0.777540326 0.081677966
0.742743433 0.791456342 0.037751164
0.785687804 0.798902810 0.024052002
0.844441652 0.797253251 0.000000000
0.911727548 0.777243257 0.000000000
0.934608459 0.760658503 0.074027762
0.942715168 0.769487143 0.245679706
0.164229244 0.805676103 0.044314340
0.204584494 0.805129170 0.046802454
0.258732498 0.803840160 0.051045716
0.316940129 0.804345369 0.056031402
0.372769773 0.807182312 0.061664592
0.420165271 0.807821691 0.065646715
0.469265282 0.812349439 0.070896469
0.519932270 0.817593634 0.078183234
0.570671976 0.822916448 0.088778362
0.624382138 0.831507981 0.092509188
0.678615034 0.840457678 0.093845502
0.733616173 0.845775187 0.092984311
0.789588749 0.853123903 0.073222049
0.838376999 0.859411001 0.061002519
0.904101908 0.851778924 0.000000000
0.932676852 0.824740112 0.105344050
0.937927663 0.820224404 0.269484997
0.186021492 0.909069002 0.046006318
0.224639490 0.907127142 0.048244070
0.275740385 0.904355228 0.054408632
0.330352128 0.901286662 0.064296126
0.382090211 0.900288105 0.073533624
0.427185595 0.899088800 0.080500185
0.475876540 0.899304926 0.091275312
0.523777127 0.899791658 0.104872108
0.572720587 0.899390042 0.118536778
0.622334778 0.899296224 0.134284824
0.672062874 0.898101687 0.149632677
0.724150419 0.898764789 0.158117071
0.777803481 0.900249779 0.161806181
0.831425548 0.900840938 0.161862195
0.882435322 0.907825589 0.142652065
0.931947708 0.889390588 0.099065050
0.939200521 0.872241855 0.263239235
0.312045991 0.932650983 0.237353995
0.344992995 0.932248175 0.238462865
0.380386740 0.931613088 0.240504250
0.416892827 0.930603266 0.243422434
0.453286767 0.929606497 0.246378750
0.488369435 0.928889036 0.248394936
0.524656117 0.928074896 0.251056373
0.563637018 0.927018940 0.253966749
0.603459001 0.925760984 0.257485002
0.643494189 0.924515426 0.261157632
0.683300138 0.924537718 0.265572608
0.724546254 0.923819602 0.270383507
0.769548774 0.925122023 0.271659493
0.814060688 0.927238226 0.269021749
0.858216226 0.928741097 0.269048005
0.901499450 0.929295838 0.256294638
0.942324996 0.918142021 0.238804996
0.000000000 0.043024313 0.028634876
0.011188250 0.055830501 0.041268375
0.068677440 0.061037377 0.053575937
0.120205268 0.075159118 0.058699496
0.168522060 0.079984315 0.060036123
0.205244243 0.088252001 0.056642625
0.251657575 0.097026184 0.054085623
0.308325589 0.102534696 0.051011749
0.369572401 0.111074939 0.054306880
0.440378368 0.119287819 0.066515125
0.514980018 0.126623631 0.073637128
0.582180321 0.137035623 0.083379693
0.651367128 0.150709882 0.096081629
0.712874889 0.163052782 0.110958569
0.773889720 0.180891320 0.123065636
0.834892333 0.204998210 0.143154025
0.894400895 0.230454683 0.159601450
0.000000000 0.072971307 0.053558812
0.011828437 0.076718502 0.060721066
0.064468689 0.090272494 0.064170688
0.122542955 0.102985069 0.067348003
0.175906137 0.121848002 0.069751374
0.216864318 0.129782245 0.071402065
0.266609669 0.139442623 0.065877557
0.320614547 0.145188689 0.064490192
0.383040935 0.150732249 0.066545442
0.448249936 0.156759009 0.075763121
0.522286475 0.158527374 0.083422184
0.589619756 0.163574547 0.089707881
0.654843807 0.175409377 0.102735698
0.715774000 0.190802589 0.117336020
0.776935637 0.209470540 0.131546780
0.839988232 0.238822758 0.152231142
0.900141835 0.259407192 0.158867821
0.000000000 0.132838130 0.064034186
0.007146313 0.135966331 0.057912439
0.066899441 0.142529875 0.076134004
0.149358884 0.136930317 0.072115242
0.202631369 0.151059374 0.075789630
0.244088247 0.158324569 0.074195936
0.294084758 0.162987694 0.069389120
0.345674455 0.172167301 0.067657873
0.405012727 0.180070132 0.076618001
0.467176497 0.186972871 0.082845315
0.536794305 0.194293886 0.088018000
0.601977766 0.205166638 0.099311501
0.665076613 0.216476187 0.113621064
0.722792387 0.232487097 0.126771152
0.783853412 0.252176553 0.142605394
0.846730649 0.275839835 0.156713262
0.906630754 0.296605706 0.160533383
0.000000000 0.185122818 0.054793186
0.004632439 0.199305758 0.052851561
0.065455809 0.205078378 0.062176559
0.160807401 0.197838962 0.078956440
0.235060334 0.184552461 0.062757440
0.282729745 0.183718815 0.048624314
0.331459820 0.193190873 0.051844873
0.381914645 0.206263572 0.060672440
0.437141389 0.220274642 0.074680060
0.495057195 0.233711198 0.086530432
0.559717178 0.245952129 0.092313930
0.622272849 0.259190440 0.106771126
0.681386650 0.273165286 0.120434061
0.737929642 0.287003219 0.133698076
0.795883179 0.303836167 0.145827636
0.856106162 0.322573990 0.158012182
0.914557636 0.342651486 0.163283676
0.000000000 0.221744880 0.047199562
0.006062438 0.241910517 0.054666065
0.067566633 0.249625430 0.046795998
0.173102394 0.238220587 0.076948561
0.246054441 0.237263635 0.065120369
0.298131198 0.224953502 0.059531562
0.355925471 0.220655262 0.043203559
0.411151707 0.229944587 0.042831939
0.468476444 0.244117886 0.054345503
0.528613806 0.260604173 0.064987555
0.589331985 0.276552826 0.076936126
0.643022239 0.296440274 0.096527070
0.699215353 0.314011455 0.116013438
0.753854036 0.328619927 0.131584138
0.808789551 0.348559588 0.147707447
0.864710867 0.371317506 0.157724962
0.922178388 0.387890697 0.163101941
0.000000000 0.255935580 0.048117064
0.008131938 0.280030757 0.052058563
0.066445068 0.290598184 0.036668375
0.180696413 0.280854762 0.065036133
0.262594551 0.282575250 0.059795499
0.307298869 0.281251699 0.059776437
0.367997229 0.265125424 0.058872808
0.435140520 0.263703257 0.039887056
0.498901725 0.270990282 0.028437942
0.560174286 0.286434054 0.037060060
0.616261065 0.305521965 0.054815687
0.667950630 0.323561907 0.078833558
0.719348490 0.343651056 0.100538440
0.769709885 0.368839294 0.122428894
0.822100341 0.386856258 0.137449518
0.876610041 0.408382714 0.152913332
0.931086838 0.427177817 0.160237700
0.000000000 0.296611071 0.060775064
0.009610377 0.324727386 0.052325375
0.077543452 0.336390316 0.029522255
0.191259697 0.333047479 0.059521947
0.267670006 0.328490138 0.075552762
0.330725819 0.336652577 0.053068757
0.380746961 0.335948825 0.068326682
0.449133664 0.319834620 0.053379811
0.517282486 0.316868454 0.030852873
0.587560892 0.321374089 0.014391313
0.643473148 0.337713510 0.023312248
0.693725765 0.357730478 0.051229618
0.741996765 0.379592776 0.079802811
0.790199578 0.403150678 0.105178326
0.837955832 0.424880743 0.128317133
0.887974620 0.449333489 0.144233957
0.939943194 0.466319650 0.153071508
0.000000000 0.350336522 0.071217753
0.017348576 0.379008025 0.047561310
0.103624515 0.384996206 0.034746628
0.208089113 0.382680595 0.062288888
0.280478805 0.378295213 0.088167757
0.345522374 0.389294088 0.072142124
0.405009776 0.394496888 0.049542055
0.460883021 0.398179203 0.069094934
0.533299744 0.381091475 0.035521116
0.603219271 0.378757596 0.019517064
0.661856651 0.382404566 0.018777750
0.716501355 0.396194905 0.024298117
0.763144195 0.416069090 0.057264365
0.810464501 0.438954294 0.085805140
0.855001688 0.463232309 0.110135578
0.901530504 0.488246441 0.134022206
0.944792747 0.509523749 0.159228817
0.010743885 0.423982203 0.057306059
0.057719760 0.427396744 0.041069187
0.138997570 0.435880125 0.047024943
0.230874151 0.434359223 0.072368696
0.299850047 0.432274640 0.093151569
0.356716394 0.440679103 0.094340816
0.428394020 0.454717904 0.063427247
0.485424012 0.461442679 0.039176311
0.541203320 0.470989227 0.054915935
0.615526140 0.450035870 0.018433122
0.672720969 0.449116647 0.020355187
0.729157329 0.449889183 0.019319877
0.781531215 0.458733141 0.027747879
0.824311972 0.480636746 0.064427033
0.871045411 0.503329992 0.096971013
0.915099084 0.525200903 0.125067592
0.950016797 0.549610794 0.174912751
0.054392125 0.469562113 0.056419689
0.103013061 0.474190384 0.052486561
0.171659246 0.479169369 0.060320560
0.254443258 0.479469180 0.083014630
0.319035739 0.482533753 0.099581130
0.370969862 0.489017546 0.107836634
0.436646700 0.508147418 0.090218678
0.504903197 0.523017526 0.045807038
0.559250891 0.534576476 0.025135875
0.616393328 0.540234029 0.029473126
0.681246638 0.523212969 0.018975001
0.735190809 0.515895486 0.021045374
0.787513673 0.514271736 0.023213446
0.836776614 0.522570610 0.035430234
0.883994997 0.545182228 0.078485042
0.927473009 0.565849304 0.113305397
0.951505244 0.589970529 0.194051117
0.092722937 0.519901574 0.071300060
0.136944249 0.524671614 0.071489811
0.199549884 0.527767777 0.077519186
0.270644844 0.531467199 0.094555996
0.334224313 0.536322594 0.109422997
0.382181048 0.542037308 0.118330434
0.439808637 0.555367649 0.116963997
0.508509219 0.574719787 0.091927797
0.576169908 0.590905011 0.039065048
0.624045908 0.604124248 0.022523625
0.679218709 0.611140907 0.020798627
0.740414381 0.590897262 0.021981563
0.791422307 0.579793215 0.021094497
0.844311476 0.575714707 0.025185365
0.894043803 0.587841392 0.047409363
0.936375737 0.606912017 0.096708924
0.950791597 0.629202604 0.213319257
0.123688065 0.569537222 0.090158872
0.165106744 0.573702574 0.089534380
0.223678693 0.575599253 0.094349816
0.289257288 0.580091357 0.106940627
0.347846508 0.585902572 0.117335126
0.395583749 0.591029465 0.125537813
0.450170606 0.604044318 0.128963873
0.509523213 0.621360779 0.121128976
0.578036129 0.643160582 0.090521611
0.637851238 0.659115791 0.042721938
0.681203783 0.671324193 0.032578249
0.732714891 0.678294003 0.023558561
0.799953699 0.655566812 0.024248688
0.846597075 0.641475439 0.023706313
0.901529908 0.635935903 0.025629003
0.939708412 0.650883079 0.067105725
0.946322680 0.672025621 0.234623447
0.150377885 0.621009469 0.106180944
0.190431625 0.623116732 0.106593132
0.244492322 0.625660598 0.110689066
0.304966092 0.630826950 0.120543875
0.361307502 0.636532724 0.126302749
0.407613128 0.642107129 0.134921506
0.460124254 0.652919829 0.136335254
0.514555275 0.668781281 0.135800377
0.575715661 0.688153744 0.127281740
0.637101293 0.709034026 0.101728007
0.691760838 0.725397944 0.059049644
0.734536648 0.734312057 0.051406890
0.787420571 0.739145756 0.025825936
0.854834378 0.717002928 0.026565377
0.902234316 0.700242102 0.026713314
0.935887277 0.697903812 0.073101655
0.944105208 0.717574537 0.252661943
0.165352985 0.688516617 0.112461835
0.205782861 0.690636814 0.114585452
0.258790016 0.692108393 0.116291523
0.316398889 0.699631453 0.120669089
0.370640576 0.705770135 0.123057529
0.416288197 0.714054227 0.126630783
0.464776725 0.721884370 0.131746054
0.517212570 0.734809041 0.134124741
0.573080897 0.751246929 0.133472040
0.627116799 0.765086055 0.129410192
0.683582962 0.777506232 0.123730958
0.740436733 0.790672123 0.089773685
0.784978449 0.798582852 0.081009343
0.844350278 0.797737658 0.026319060
0.910772085 0.777637362 0.028881378
0.931188643 0.758959889 0.129147574
0.942120671 0.769657969 0.278134733
0.152809501 0.807878613 0.077395901
0.195079118 0.808316112 0.077819027
0.248851463 0.807901382 0.082903273
0.310343564 0.807854414 0.088800475
0.366430819 0.808920503 0.093491852
0.415578485 0.811149418 0.098809913
0.465350658 0.812294245 0.104768105
0.517829239 0.818195045 0.114680104
0.568785906 0.823485136 0.124571614
0.622444212 0.831906915 0.129545063
0.677728236 0.839838684 0.133004114
0.731437743 0.845558345 0.132024869
0.788797677 0.851805091 0.116915226
0.837504089 0.859387577 0.105443083
0.904287815 0.851941645 0.029670257
0.929728866 0.824485302 0.160927117
0.938263178 0.820651412 0.302496731
0.176050246 0.911024988 0.081726067
0.223571539 0.908322990 0.094162375
0.275084019 0.905821323 0.105025612
0.330472410 0.903071284 0.112959601
0.381029636 0.900478840 0.121538103
0.429288596 0.899363160 0.129100293
0.476062387 0.899397075 0.139987901
0.523168683 0.898093104 0.150747210
0.572368979 0.898387313 0.165700004
0.620986998 0.897083640 0.180601105
0.670485735 0.895493925 0.196698040
0.721830547 0.896139085 0.207098022
0.774831951 0.898730218 0.210072607
0.827441096 0.897994280 0.209845722
0.876488090 0.902469039 0.192877039
0.928433955 0.886727393 0.157353505
0.939000130 0.872308612 0.297713220
0.311117738 0.932591975 0.269913167
0.343870699 0.932305396 0.270600826
0.378861547 0.931731045 0.272220373
0.415177047 0.930696905 0.274882287
0.452315569 0.929720998 0.278113306
0.487489551 0.929033399 0.280342698
0.523782372 0.928171396 0.283245593
0.562517524 0.927134156 0.286121756
0.602644444 0.925835490 0.290072173
0.642863333 0.924690723 0.293875217
0.683008730 0.924593985 0.298412383
0.724121749 0.923778296 0.303661525
0.769148469 0.924924910 0.305591524
0.813620687 0.927249312 0.303448707
0.858020663 0.928593159 0.303494275
0.901279867 0.928826272 0.292505682
0.941747606 0.918113828 0.277864754
0.000000000 0.062211879 0.052536875
0.004435375 0.072269246 0.061697878
0.063648872 0.082691871 0.090043619
0.149142191 0.095706373 0.095769189
0.191701263 0.102820627 0.096391998
0.233688548 0.107065067 0.100729503
0.282206386 0.110294506 0.097737119
0.336521327 0.112619318 0.095347442
0.395165116 0.119775631 0.098199248
0.459478885 0.130930990 0.106908992
0.530609131 0.139488384 0.115382247
0.596857965 0.150829688 0.125738382
0.658125699 0.159364268 0.135788009
0.717430890 0.173315883 0.147323951
0.775912166 0.185269758 0.158844635
0.835929811 0.197680458 0.166226119
0.892753005 0.215919375 0.177484870
0.000000000 0.087285742 0.080725625
0.012173438 0.098529562 0.089868434
0.062251937 0.106834374 0.105739556
0.154666454 0.115294881 0.109759629
0.201682389 0.122927934 0.110293001
0.244602144 0.124301568 0.108290441
0.293873489 0.123770811 0.099019632
0.343503833 0.126398817 0.100489758
0.403944254 0.138504058 0.105689749
0.466601819 0.147048742 0.112666003
0.534913898 0.156755492 0.119434312
0.599364817 0.167166755 0.126360625
0.659700811 0.176818877 0.137551054
0.720333338 0.191294268 0.148801699
0.777568758 0.204591274 0.159594253
0.838065565 0.221336141 0.170280322
0.899183035 0.243897885 0.179122746
0.000000000 0.130452514 0.114027999
0.014194376 0.135164261 0.120695814
0.064448252 0.143673748 0.129529864
0.147601217 0.152827069 0.136657253
0.201150760 0.159309626 0.127324879
0.245854616 0.165130377 0.123296499
0.295192748 0.167033643 0.115366004
0.351817071 0.174329117 0.119139500
0.409214526 0.172010750 0.113931373
0.474368513 0.180546135 0.122970439
0.543029368 0.184743240 0.125426620
0.605077684 0.194640741 0.132425010
0.666921318 0.209544644 0.145434380
0.725856900 0.223209471 0.157526553
0.784440815 0.240412638 0.171363264
0.845125139 0.267903358 0.187208623
0.911799967 0.282954484 0.184272245
0.000000000 0.201450378 0.140218884
0.004583188 0.206810385 0.139963388
0.043719992 0.208586514 0.129474699
0.138445035 0.212734371 0.141161948
0.224251628 0.200584024 0.138526887
0.269355863 0.210819572 0.136612698
0.318783402 0.220208943 0.139712378
0.373058528 0.227337509 0.142250061
0.432270497 0.234305143 0.140946880
0.496045589 0.241987646 0.142488629
0.560587049 0.248365626 0.146477431
0.623196244 0.257474393 0.151674256
0.680062711 0.266920805 0.161185950
0.738425195 0.278456897 0.174176067
0.794569731 0.296336293 0.185694844
0.854843020 0.317415386 0.195484251
0.920741916 0.331598938 0.185527131
0.000000000 0.246095240 0.136446625
0.006801375 0.245073006 0.124105252
0.022376001 0.254784137 0.117258497
0.127571389 0.262411773 0.119102001
0.238445625 0.253262907 0.123213254
0.290722311 0.239479497 0.131678000
0.347793639 0.238162637 0.121987626
0.400878221 0.250836879 0.126949310
0.459241509 0.263696134 0.132279381
0.521058321 0.279317558 0.138872877
0.578802764 0.293671608 0.145993501
0.638173580 0.305590391 0.156809121
0.693975747 0.317649215 0.167268619
0.750628948 0.330659747 0.179915890
0.805040181 0.345866144 0.189371884
0.864442408 0.363187581 0.198802158
