public/lut/37.cube
TITLE "17x17x17 Adobe/IRIDAS cube 3D LUT exported with GrossGrade v0.2.2 (beta) 64 bit"
DOMAIN_MIN 0 0 0
DOMAIN_MAX 1 1 1
LUT_3D_SIZE 17
0.000000000 0.026023000 0.054933999
0.062509187 0.020650875 0.049070187
0.120145753 0.021784250 0.049409878
0.157327831 0.049966633 0.077003509
0.194974005 0.073631249 0.102520257
0.227163196 0.085219190 0.117583312
0.267805159 0.095389128 0.131379128
0.318700403 0.105097264 0.141582683
0.376801521 0.118907005 0.152173996
0.438817322 0.135957435 0.164055377
0.502544343 0.155366376 0.177593499
0.566917181 0.176354438 0.192092314
0.630904794 0.198333502 0.206981748
0.694102645 0.221431166 0.220915139
0.755960822 0.245748147 0.232627019
0.816857696 0.268966079 0.241636440
0.878950000 0.288531005 0.247461006
0.000000000 0.115399316 0.033415750
0.066029184 0.109935313 0.028733999
0.108532444 0.105680563 0.036668748
0.148474261 0.107045747 0.075342320
0.189300194 0.109129556 0.102903754
0.224622622 0.111823253 0.118465997
0.269345462 0.117345124 0.132268131
0.322546661 0.126448989 0.142721251
0.381773144 0.139751062 0.154092744
0.444084138 0.156253695 0.166653499
0.507792950 0.174808756 0.180491313
0.571652055 0.194818884 0.195287064
0.635030925 0.216024384 0.210322753
0.697328806 0.238303900 0.224014908
0.758663654 0.262536407 0.236002594
0.819391072 0.285969585 0.245329306
0.881382406 0.305905700 0.251056015
0.002070250 0.138947636 0.044511624
0.065218374 0.141445622 0.041341498
0.097856000 0.146499366 0.044647001
0.143384382 0.149628192 0.081364073
0.190306634 0.152272761 0.107317254
0.229990989 0.154975310 0.121843562
0.278648138 0.160286501 0.133151755
0.334171832 0.168536186 0.143817499
0.393855989 0.179931879 0.155763254
0.455797225 0.193944186 0.169074804
0.518451869 0.209947377 0.183797494
0.581091464 0.227543682 0.199507937
0.642915487 0.246184632 0.215034366
0.703889608 0.266647816 0.229401708
0.764285564 0.289919674 0.242601886
0.824532270 0.313223213 0.252914369
0.886312127 0.332928747 0.258843005
0.033859633 0.169594884 0.084126502
0.072165810 0.178719506 0.087691627
0.102933437 0.191967770 0.094884008
0.147689506 0.203122258 0.100976758
0.198803499 0.210475013 0.119653627
0.241553932 0.215491205 0.132402703
0.292743146 0.221533880 0.139464140
0.349928677 0.228702202 0.146803379
0.410053432 0.237224638 0.156721622
0.471076310 0.247556195 0.169267505
0.532163322 0.259781271 0.184426755
0.593012094 0.273823917 0.201450318
0.652988136 0.289239883 0.218670756
0.712472856 0.307388067 0.235354081
0.772039294 0.329281598 0.251797765
0.832292497 0.351808339 0.265052527
0.893190801 0.370309502 0.271958143
0.056952503 0.204346746 0.106769755
0.083632685 0.213442624 0.113402627
0.115160502 0.229431748 0.125086501
0.161138326 0.244503006 0.134645194
0.209888011 0.254316002 0.137693748
0.252138793 0.261586189 0.145584002
0.302614987 0.269430995 0.150560498
0.359456718 0.277130425 0.154336751
0.419661522 0.284314513 0.160146743
0.480596930 0.292435586 0.169707805
0.541132748 0.302246124 0.183287382
0.601038814 0.314287931 0.200242803
0.660236001 0.328125775 0.218725249
0.719088793 0.345353097 0.238261506
0.778522670 0.366479158 0.258177400
0.838683903 0.387995720 0.274846375
0.898727238 0.404915988 0.283968508
0.073373057 0.239547253 0.121027246
0.096383065 0.247987762 0.128320992
0.129338324 0.265067577 0.142126366
0.175876766 0.283292294 0.155013680
0.224248141 0.294986427 0.159653127
0.264533609 0.303312629 0.160135195
0.312669665 0.312650800 0.163184941
0.367228657 0.321503609 0.165918812
0.426005721 0.328628659 0.168297440
0.486772805 0.335462332 0.173306495
0.547487319 0.343638420 0.183436573
0.607233167 0.353915513 0.198573068
0.666179240 0.366993129 0.217377186
0.725018144 0.384178221 0.239292771
0.784580708 0.404885411 0.262782395
0.844546139 0.424873769 0.282945722
0.903811216 0.439952701 0.295548499
0.088546999 0.281709254 0.131682366
0.111954443 0.289660573 0.138731137
0.145985007 0.307569504 0.153143004
0.192993701 0.329560786 0.169152871
0.241699889 0.343423635 0.176272631
0.281944066 0.351951659 0.178211883
0.327520788 0.361565530 0.179083511
0.378045857 0.372009099 0.182214081
0.433415771 0.380508512 0.184300140
0.492600352 0.386959970 0.185116827
0.553046227 0.393340290 0.189239874
0.612771273 0.401653290 0.199533746
0.671947122 0.413787901 0.216739386
0.731351674 0.430753678 0.239960790
0.791309357 0.450486690 0.266341031
0.850978315 0.468404323 0.290677786
0.909712493 0.481475025 0.308279485
0.105553947 0.331440479 0.141864315
0.129048392 0.338947773 0.147534251
0.164124325 0.357051820 0.160899505
0.210898086 0.383019596 0.179812491
0.259652764 0.400181204 0.190920636
0.300921619 0.409146160 0.195143506
0.347330540 0.417729080 0.197700337
0.395467877 0.427668899 0.200050384
0.446389377 0.438277304 0.204342574
0.501692533 0.446007252 0.206526399
0.559660137 0.451318920 0.206150323
0.618232131 0.457374603 0.209302396
0.677410960 0.467853099 0.220891386
0.737747669 0.483577937 0.242261097
0.798476100 0.501662493 0.269671261
0.858020663 0.517237782 0.297016054
0.915244818 0.528129041 0.319984615
0.124463499 0.389513522 0.150464505
0.148275822 0.396005958 0.154566675
0.183494389 0.413046390 0.165877134
0.229054689 0.440779150 0.185529441
0.275908262 0.462077767 0.201135993
0.317593038 0.473027438 0.208902061
0.366480052 0.481215000 0.214373380
0.417647421 0.488661021 0.218419194
0.467273533 0.497893006 0.222666025
0.518008232 0.507596076 0.228763014
0.571531892 0.513862312 0.232703879
0.626431704 0.518906832 0.232028082
0.683366060 0.527323961 0.235539764
0.743561029 0.540918946 0.250282705
0.805233955 0.556695461 0.275250018
0.865514100 0.569555163 0.302688837
0.912880003 0.578627467 0.333561510
0.146031246 0.454510927 0.158697009
0.169616312 0.459483981 0.161048755
0.204834193 0.473316640 0.168934762
0.248110130 0.499123812 0.186671123
0.291087329 0.522798419 0.204931617
0.330364376 0.536810875 0.216712311
0.379386187 0.547122478 0.226381451
0.434975207 0.553388059 0.233155251
0.489885032 0.558837473 0.238661870
0.539918959 0.565674365 0.244183242
0.588965952 0.573336065 0.252806187
0.639739990 0.579135239 0.259980798
0.691939235 0.586780548 0.261597961
0.748676598 0.599207282 0.268272698
0.809915960 0.613560915 0.286662966
0.871525049 0.624051392 0.310710162
0.909775794 0.631155908 0.348311573
0.169762373 0.522204995 0.166778252
0.193338633 0.525215745 0.167698383
0.228153884 0.534413517 0.172164619
0.269821197 0.554499269 0.185588315
0.308320373 0.577140510 0.203099623
0.342961997 0.593363464 0.217049628
0.387358993 0.607518017 0.230773613
0.442116857 0.616164207 0.241433248
0.501999855 0.619990170 0.248840004
0.558561265 0.622272313 0.254663229
0.607736349 0.625955999 0.260916531
0.654811502 0.631909430 0.272953629
0.703629613 0.639396608 0.285967380
0.754676998 0.652046144 0.293905318
0.811868548 0.667903125 0.306280166
0.873455226 0.679000139 0.324386954
0.906287134 0.686229587 0.366478890
0.195396125 0.587963700 0.175540119
0.218676493 0.589303374 0.175314739
0.253432363 0.593857646 0.176791251
0.294894218 0.606412351 0.184661001
0.330787063 0.624214828 0.198109865
0.360872507 0.640153646 0.211374864
0.397606492 0.657462358 0.226884767
0.444755405 0.671293497 0.241612747
0.502375066 0.677995026 0.252038002
0.563949227 0.678689480 0.258733183
0.620435178 0.677422881 0.263975203
0.668396771 0.678012848 0.271735072
0.714674234 0.683413565 0.290200889
0.762778759 0.694490254 0.312632591
0.814663887 0.712983549 0.329537868
0.874035180 0.729946256 0.344163328
0.902717233 0.738237321 0.385406882
0.222446263 0.649222791 0.184261754
0.245561257 0.649208844 0.183577999
0.280027747 0.650242269 0.182891741
0.322264999 0.655603588 0.185476318
0.358533263 0.666345000 0.193081260
0.386645257 0.678801477 0.202641681
0.417351544 0.695997775 0.216744006
0.453956306 0.714459360 0.233354628
0.501068234 0.727893531 0.248073757
0.559220254 0.732230902 0.257752001
0.620665133 0.729078889 0.262638897
0.676439822 0.723673701 0.267836303
0.724506259 0.722746253 0.280824482
0.772562981 0.730103910 0.310439944
0.823590159 0.746293187 0.343255401
0.880956292 0.767250180 0.364574671
0.899445236 0.779369533 0.411092252
0.250146270 0.705366552 0.192010373
0.272845834 0.704746544 0.191009060
0.306554914 0.703748584 0.189340562
0.349109590 0.703985155 0.188337564
0.387489140 0.707936525 0.190184131
0.417144835 0.714785457 0.194753498
0.446906507 0.727518618 0.204142973
0.476807535 0.746038914 0.219001740
0.511168361 0.765538931 0.236646235
0.556438863 0.777665675 0.251442045
0.613504946 0.777567506 0.258725256
0.674980760 0.768960595 0.261791259
0.732304513 0.761860073 0.271292001
0.784078479 0.763995409 0.295608133
0.837544322 0.774755180 0.336324602
0.895973563 0.790114045 0.375581354
0.898845077 0.820111096 0.454761058
0.276024520 0.759030044 0.197481871
0.298486531 0.758074820 0.196474075
0.330838412 0.756324291 0.194123879
0.372536391 0.754245639 0.191254884
0.412001282 0.753806949 0.189458743
0.444315135 0.755700231 0.189562201
0.477220178 0.761767685 0.192774981
0.507965684 0.774728775 0.202105790
0.536065698 0.794197381 0.218853101
0.567644238 0.813378513 0.239245668
0.611976266 0.821798444 0.254665762
0.671064854 0.816055298 0.260885388
0.735752583 0.805271566 0.266315639
0.794942081 0.800436497 0.284453571
0.849211812 0.805569291 0.316633135
0.908224761 0.813910484 0.391028047
0.908285856 0.860242903 0.510179162
0.342580229 0.805362582 0.231942579
0.363320559 0.804655015 0.231510893
0.391535819 0.803195059 0.230348721
0.427557915 0.801451802 0.229061171
0.462721258 0.800473213 0.228594363
0.492977858 0.800939322 0.229588643
0.524780154 0.803612232 0.233219847
0.555587113 0.811007857 0.244035333
0.583034396 0.824470818 0.265123576
0.609071851 0.841314375 0.296266705
0.641400099 0.854500890 0.330043256
0.687773764 0.857389450 0.354944021
0.746998727 0.850912571 0.366973758
0.807607889 0.843663037 0.373521686
0.858888984 0.844741881 0.385722905
0.905523300 0.851956427 0.387045234
0.915138721 0.887648284 0.541107655
0.533954978 0.848272026 0.436201990
0.549368560 0.849317193 0.439404130
0.566316783 0.851709843 0.445895523
0.584969521 0.855619848 0.456045419
0.603599548 0.859994531 0.466796011
0.621387899 0.863889754 0.475451618
0.640146613 0.868902147 0.485884756
0.660115302 0.875036001 0.497758567
0.681289494 0.882218957 0.509809971
0.703706920 0.890040338 0.521116555
0.727857113 0.897950530 0.530648649
0.754291713 0.905029178 0.537850618
0.783663034 0.910165012 0.542276740
0.816803098 0.912866473 0.543946862
0.850301802 0.913000882 0.544095159
0.881490588 0.912149072 0.539788783
0.917361021 0.911107004 0.527534008
0.000000000 0.023755562 0.106001623
0.064850882 0.019073874 0.140386060
0.131598741 0.020207250 0.144189447
0.172858208 0.048497006 0.145744190
0.208886817 0.071210250 0.147659242
0.238613442 0.082959622 0.150107801
0.277441412 0.093603313 0.154283628
0.326170892 0.104132131 0.160823628
0.383123130 0.118064508 0.169629991
0.443815023 0.135386929 0.180311322
0.506429434 0.154757991 0.192917317
0.569730282 0.175467744 0.206928998
0.632747471 0.197217062 0.221336380
0.695019126 0.220091462 0.234619200
0.756537020 0.244373590 0.246181086
0.816959262 0.267445982 0.254917502
0.878826976 0.287001312 0.260684192
0.000000000 0.107118882 0.137080684
0.074043997 0.103824623 0.133558556
0.130317062 0.101573564 0.132335246
0.170249507 0.103365935 0.138108701
0.204911754 0.105445623 0.144757271
0.235792935 0.108633444 0.149072319
0.277842581 0.114670441 0.155342132
0.329041690 0.124462314 0.163015008
0.386844754 0.138334185 0.172466934
0.448164374 0.155136496 0.183591202
0.510728657 0.173701242 0.196283951
0.573851168 0.193644822 0.210292816
0.636239529 0.214626819 0.224526122
0.698084950 0.236881346 0.237619132
0.758987248 0.260964900 0.249204010
0.819284260 0.284285218 0.258245885
0.887748063 0.299573809 0.257531077
0.004139625 0.137643680 0.126536191
0.077203758 0.146043941 0.126244619
0.120497316 0.152268305 0.127921626
0.163500190 0.150631681 0.135483250
0.203079373 0.149946362 0.142588004
0.238788202 0.151926383 0.148284316
0.284825712 0.156986058 0.155739933
0.338624269 0.165613189 0.164607137
0.397349447 0.177517116 0.175059989
0.458485603 0.191959873 0.187035874
0.520355642 0.208179861 0.200505883
0.582175136 0.225906685 0.214937389
0.643433452 0.244483113 0.229395702
0.703972936 0.264829695 0.242813811
0.764094353 0.287939519 0.255386859
0.824216366 0.311166972 0.265389323
0.893622696 0.326020628 0.263437241
0.044901192 0.170108452 0.129411563
0.085311748 0.181889698 0.134281814
0.116351880 0.197417706 0.140589759
0.159190461 0.206686273 0.144792318
0.206352025 0.211064577 0.148511559
0.247222006 0.214608625 0.151998937
0.296806157 0.219433695 0.157283619
0.353095025 0.225975513 0.164759934
0.412419021 0.234316513 0.174397931
0.472860098 0.244749263 0.186483935
0.533264518 0.257310271 0.201104879
0.593267500 0.271560699 0.217040181
0.652830422 0.287092030 0.233051255
0.711920798 0.305187732 0.248680711
0.771326840 0.327026695 0.264306515
0.831518412 0.349438936 0.276932329
0.899977267 0.363945931 0.276781946
0.068700060 0.203244239 0.136583880
0.094821937 0.213183254 0.143300563
0.123305187 0.230804250 0.153294504
0.165157139 0.246722817 0.160779700
0.212651193 0.255974412 0.162003860
0.254630625 0.262261838 0.162557945
0.305127293 0.268800676 0.164581552
0.361897171 0.275146008 0.168266624
0.421729088 0.281584978 0.174670696
0.482090652 0.289306998 0.184786499
0.542021811 0.299493700 0.198877692
0.601194382 0.311593920 0.215626806
0.659673393 0.325671434 0.233204752
0.718167841 0.343118966 0.251858234
0.777505696 0.364249051 0.271035105
0.837775826 0.385664701 0.286962807
0.905061126 0.399145752 0.289653301
0.083496556 0.237689510 0.144554198
0.104672559 0.245952815 0.151422307
0.133923754 0.263420433 0.163777053
0.175680697 0.283746779 0.175120011
0.222636074 0.296745241 0.178302929
0.264051855 0.304729730 0.177403063
0.313449621 0.312976122 0.176609129
0.368701369 0.320403099 0.177185550
0.427699506 0.326138556 0.179543942
0.488146752 0.332202494 0.185481489
0.548295557 0.340294242 0.197010428
0.607225418 0.350867599 0.212892562
0.665446520 0.364383310 0.231826067
0.723810554 0.381825715 0.253389478
0.783335507 0.402572960 0.276173651
0.843543470 0.422538787 0.295607924
0.909655333 0.434919506 0.302590519
0.095484942 0.280002207 0.153843179
0.117306195 0.287089616 0.160381749
0.148499265 0.304186940 0.173826993
0.191083461 0.328365475 0.189491391
0.237700507 0.344626099 0.196024194
0.278450698 0.353776067 0.196637332
0.326317281 0.362872660 0.195209756
0.378545702 0.371447951 0.193951428
0.434414893 0.378187954 0.193052143
0.493494928 0.383326888 0.193678454
0.553483069 0.389216155 0.199274167
0.612590134 0.397835582 0.211540490
0.671108544 0.410716832 0.230176449
0.729919910 0.428227991 0.254041493
0.789907992 0.448267698 0.280503631
0.849829912 0.466232359 0.304132074
0.915057540 0.477218628 0.317265689
0.109107755 0.330197901 0.163458198
0.131711200 0.336481720 0.169026136
0.165323213 0.353186905 0.181690693
0.209438458 0.380203843 0.200479999
0.255971372 0.400337756 0.212127939
0.296871394 0.411027700 0.216054574
0.344490707 0.419870317 0.216949567
0.395251751 0.428356349 0.216141447
0.447502434 0.436812907 0.215802327
0.502465546 0.442513734 0.214369074
0.559797645 0.446718395 0.213271335
0.617805719 0.452819079 0.217751071
0.676502049 0.464090228 0.231935933
0.736440301 0.480713606 0.255483896
0.797014177 0.499373913 0.283978224
0.856901109 0.515065551 0.311278075
0.914929569 0.525978684 0.333685100
0.125698507 0.388575077 0.172714069
0.148932055 0.394059688 0.176694617
0.184048444 0.409294367 0.187136382
0.228608027 0.437162757 0.206724182
0.273750722 0.460806847 0.223274499
0.314341009 0.473870486 0.231735870
0.363274455 0.483609378 0.236741304
0.416495770 0.490963966 0.239097074
0.468843520 0.498378307 0.240562871
0.520161808 0.505654752 0.242275938
0.572310567 0.509791315 0.241144627
0.626100302 0.514069855 0.238660380
0.682582736 0.523021817 0.243638635
0.742624044 0.537761509 0.261574954
0.804277718 0.554392040 0.288904756
0.864788532 0.567581356 0.317226708
0.912283480 0.576963365 0.348168403
0.145657688 0.453893185 0.181471929
0.169281438 0.458076626 0.183607996
0.204918206 0.470396429 0.190903515
0.248425752 0.495195359 0.208453745
0.290414512 0.520020008 0.227521494
0.328643560 0.535847783 0.240218073
0.376838267 0.548142374 0.250514120
0.433020264 0.555624843 0.257112950
0.490495145 0.560679197 0.261478156
0.543262243 0.565949380 0.265076309
0.592144310 0.571252286 0.269241184
0.641015291 0.575342417 0.270524353
0.692044318 0.582885265 0.269586712
0.748585105 0.596313357 0.277826160
0.809813559 0.611528814 0.298993349
0.871337652 0.622413099 0.324774414
0.909374833 0.630003095 0.363444448
0.168925256 0.521863163 0.190004125
0.192420557 0.524598479 0.190728009
0.228120312 0.532509565 0.194779500
0.270551085 0.551224232 0.207720056
0.308995932 0.573680341 0.225550622
0.342737794 0.590738535 0.240189567
0.385846585 0.606387556 0.254913211
0.440052360 0.616802931 0.266489506
0.501221836 0.621605158 0.273962170
0.560875177 0.623897076 0.279451698
0.612361908 0.626151025 0.284146100
0.658884525 0.630159259 0.291959256
0.705586374 0.636740744 0.299225658
0.755548000 0.649973154 0.304559946
0.812514484 0.666770160 0.317825407
0.874000311 0.678215563 0.337648779
0.906056285 0.685159922 0.381695986
0.194664508 0.588150799 0.198990881
0.218100503 0.589252114 0.198622122
0.253337562 0.593087614 0.199912861
0.295771360 0.604233980 0.207197249
0.332139373 0.621107817 0.220443815
0.361796200 0.636829555 0.233810440
0.397546202 0.654686570 0.250070333
0.443484664 0.669838428 0.265648633
0.500904143 0.678159714 0.277242482
0.564280629 0.680112720 0.284479052
0.623639524 0.678876519 0.289673120
0.673332930 0.678172112 0.295755714
0.718448699 0.681877673 0.310521245
0.764608860 0.692838907 0.328227252
0.815720260 0.712543547 0.342880368
0.874890387 0.730410337 0.357295960
0.902570009 0.737139225 0.400540411
0.222151011 0.649615824 0.207742065
0.245250136 0.649525046 0.206955001
0.279926509 0.650197387 0.206282243
0.322886497 0.654607475 0.208422765
0.359768182 0.664333582 0.215561941
0.388156623 0.675995231 0.224931121
0.418577641 0.692839622 0.239088625
0.454170793 0.711642802 0.256370544
0.500200689 0.726410031 0.271915555
0.558313429 0.732411027 0.282544881
0.621408165 0.730290174 0.287982821
0.679344416 0.724443436 0.292215437
0.728151143 0.721695542 0.303366125
0.775047719 0.727997839 0.330738634
0.825123668 0.745276392 0.360728085
0.882030010 0.767879009 0.379731297
0.899148643 0.778946757 0.426265627
0.250080854 0.705727816 0.215575755
0.272708088 0.705043852 0.214514449
0.306456119 0.703889310 0.212750375
0.349430084 0.703764617 0.211592436
0.388178080 0.706951022 0.213230252
0.418310374 0.713095725 0.217525259
0.448453635 0.725006044 0.226621613
0.478300959 0.743070781 0.241439849
0.511777580 0.762910783 0.259476900
0.555874348 0.776324093 0.274881631
0.612602353 0.777598262 0.282737046
0.675196052 0.769207180 0.285448223
0.734117448 0.760998011 0.293576360
0.786575198 0.762247860 0.317044079
0.839708447 0.773010731 0.357399315
0.897819996 0.788813770 0.402288407
0.898852885 0.820359528 0.470496058
0.276024520 0.759199679 0.221098304
0.298370659 0.758249223 0.220033318
0.330736220 0.756455421 0.217807561
0.372447103 0.754291654 0.214935124
0.412211269 0.753534436 0.213002622
0.444878340 0.755006194 0.212933943
0.478310823 0.760336220 0.215878740
0.509642363 0.772426605 0.224788487
0.537854075 0.791446090 0.241316691
0.568608284 0.811233878 0.262015939
0.611667991 0.821026683 0.278179616
0.670432985 0.816285014 0.284702510
0.736199915 0.805240571 0.288926125
0.796743751 0.799804032 0.305637807
0.851206601 0.805119455 0.338574916
0.907367349 0.814166605 0.430755973
0.908352494 0.860361636 0.526436388
0.342090368 0.805594683 0.253162682
0.373881012 0.802861273 0.260541409
0.405774295 0.800800860 0.263178170
0.440384269 0.799312830 0.262556821
0.474099845 0.798725367 0.263110429
0.503027737 0.799429774 0.264652163
0.533597112 0.802412987 0.269682169
0.563288510 0.809645474 0.281292081
0.590455353 0.822046578 0.303325981
0.616730034 0.837435067 0.335164934
0.648881137 0.849935949 0.370059729
0.693891048 0.853612065 0.397939742
0.751151145 0.848772466 0.413417459
0.810394883 0.843297005 0.423347235
0.860351384 0.845059633 0.437269419
0.902442575 0.852200866 0.445419192
0.915134907 0.887703419 0.557506800
0.534072220 0.848988354 0.452587694
0.549199879 0.849934697 0.454854190
0.566045225 0.852130592 0.460787386
0.584844351 0.856099606 0.470992446
0.603547513 0.860356629 0.481483072
0.621309459 0.864200950 0.489980489
0.640113235 0.869190693 0.500396729
0.660043001 0.875389993 0.512201130
0.681136727 0.882545054 0.524270296
0.703563154 0.890421629 0.535730243
0.727634907 0.898352087 0.545523465
0.753946900 0.905379117 0.552923203
0.783327878 0.910507143 0.557804763
0.816487849 0.913135648 0.559781015
0.850071251 0.913256824 0.560247958
0.881000817 0.912395775 0.558016062
0.915376842 0.911619186 0.551649690
0.000690375 0.024248874 0.171566010
0.061259441 0.022721125 0.177894682
0.127135500 0.025333000 0.185497120
0.182285383 0.048641942 0.184322312
0.222515255 0.070582628 0.183106124
0.252673328 0.082870938 0.183725432
0.290834635 0.094045624 0.186125383
0.338547051 0.105585381 0.190491870
0.393815637 0.119654253 0.196833000
0.452765375 0.136343315 0.205401435
0.513532162 0.154888004 0.216258243
0.574936748 0.174635947 0.228966922
0.636240661 0.195344627 0.242371514
0.697354198 0.217654899 0.255158126
0.758022189 0.241608143 0.266237497
0.817475796 0.264241844 0.274242878
0.879026175 0.284201384 0.279701978
0.002759750 0.097084500 0.168579131
0.074373066 0.097380742 0.175420254
0.130705997 0.098506562 0.182325795
0.182471693 0.100636378 0.183304057
0.219351321 0.103788815 0.184657067
0.249477237 0.107485689 0.186614931
0.289535582 0.114233442 0.190209180
0.339301854 0.124699816 0.195283502
0.395464331 0.138566941 0.201983884
0.455210388 0.154863134 0.210392624
0.516185760 0.172831684 0.220761329
0.577667594 0.191963241 0.232916117
0.638664782 0.212085634 0.245593131
0.699441075 0.233861029 0.257674158
0.759801984 0.257575214 0.268607557
0.819371760 0.280588329 0.276795924
0.887736261 0.296561450 0.276645988
0.013405876 0.129615635 0.162571758
0.079753004 0.142425552 0.173515260
0.125173628 0.152405381 0.181992874
0.174451441 0.149635077 0.183264181
0.213966265 0.147418499 0.185864136
0.247928634 0.148666829 0.189083874
0.291938394 0.153896242 0.194049612
0.344805837 0.162864059 0.200366944
0.402484268 0.175036252 0.207770631
0.462506264 0.189385563 0.216288686
0.523272991 0.205281511 0.226699501
0.583866119 0.222560868 0.238265872
0.643994033 0.240651995 0.250371635
0.703933001 0.260922223 0.262198538
0.763784170 0.283752650 0.273508012
0.823761940 0.306940377 0.282640576
0.905780256 0.313334137 0.269080997
0.052792192 0.167123586 0.161467701
0.091467559 0.182395369 0.170314625
0.118476629 0.202012822 0.177769497
0.160268515 0.210615575 0.179940999
0.207770944 0.210776269 0.183084071
0.249141365 0.211841017 0.187212557
0.299373776 0.215307131 0.193137884
0.355861783 0.221366942 0.200186878
0.415187687 0.229686201 0.207938448
0.475116074 0.240058959 0.217312500
0.534549117 0.252613962 0.228694126
0.593476176 0.266854525 0.241395622
0.651987970 0.282462865 0.254368871
0.710513055 0.300569624 0.267775565
0.769873738 0.322248757 0.281526387
0.830544472 0.344474226 0.292946637
0.914971530 0.349120110 0.276927888
0.080852382 0.202472880 0.165287763
0.102785319 0.214205250 0.172175080
0.123539627 0.233841136 0.179885119
0.158289149 0.251025796 0.184936315
0.205518872 0.258394122 0.186989635
0.250234187 0.262218624 0.189575866
0.303790778 0.266284019 0.193729758
0.362824261 0.271116704 0.198989064
0.423601627 0.276717007 0.205390126
0.484053582 0.284133554 0.214354172
0.543123245 0.294121474 0.226126999
0.601138055 0.306450993 0.240181252
0.658363461 0.320789844 0.255113751
0.716112792 0.338357925 0.271260142
0.775291920 0.359136671 0.288354754
0.836329222 0.380470932 0.302732944
