public/lut/37.cube
TITLE "17x17x17 Adobe/IRIDAS cube 3D LUT exported with GrossGrade v0.2.2 (beta) 64 bit"
DOMAIN_MIN 0 0 0
DOMAIN_MAX 1 1 1
LUT_3D_SIZE 5
0.000000000 0.026023000 0.054933999
0.194974005 0.073631249 0.102520257
0.376801521 0.118907005 0.152173996
0.630904794 0.198333502 0.206981748
0.878950000 0.288531005 0.247461006
0.056952503 0.204346746 0.106769755
0.209888011 0.254316002 0.137693748
0.419661522 0.284314513 0.160146743
0.660236001 0.328125775 0.218725249
0.898727238 0.404915988 0.283968508
0.124463499 0.389513522 0.150464505
0.275908262 0.462077767 0.201135993
0.467273533 0.497893006 0.222666025
0.683366060 0.527323961 0.235539764
0.912880003 0.578627467 0.333561510
0.222446263 0.649222791 0.184261754
0.358533263 0.666345000 0.193081260
0.501068234 0.727893531 0.248073757
0.724506259 0.722746253 0.280824482
0.899445236 0.779369533 0.411092252
0.533954978 0.848272026 0.436201990
0.603599548 0.859994531 0.466796011
0.681289494 0.882218957 0.509809971
0.783663034 0.910165012 0.542276740
0.917361021 0.911107004 0.527534008
0.029965501 0.051847249 0.193031996
0.211843014 0.085377499 0.236409992
0.409619778 0.130105749 0.254495502
0.645199001 0.196748763 0.289026260
0.881506741 0.279290497 0.328512251
0.079086751 0.197221756 0.226699993
0.195693001 0.254510015 0.271586716
0.421013504 0.271437496 0.285408765
0.655959010 0.311010242 0.307035238
0.923670232 0.372133493 0.329071015
0.142986491 0.392694771 0.244292736
0.250720531 0.443683505 0.273008764
0.438741744 0.499283016 0.304540485
0.678449750 0.505769253 0.302608490
0.909169257 0.565055490 0.410587490
0.215716004 0.652823269 0.293082267
0.360245496 0.654416800 0.300938278
0.497620761 0.705748558 0.369566232
0.729249477 0.718346536 0.391812980
0.897738278 0.775792718 0.485072017
0.534606755 0.854014993 0.512467504
0.602962971 0.863056958 0.531176448
0.680578709 0.884495020 0.569116235
0.781124294 0.913001299 0.607101977
0.911152244 0.911500990 0.623866737
0.077640504 0.091526501 0.268249005
0.173433498 0.122538000 0.336574018
0.408758521 0.164353997 0.391769022
0.655516744 0.219255507 0.427161515
0.888303518 0.282387495 0.447841525
0.095381260 0.214439750 0.377762258
0.210125744 0.251121521 0.425228775
0.411548048 0.283594728 0.461027026
0.646322489 0.314095527 0.460562766
0.922253251 0.365474015 0.481731534
0.132237002 0.381194532 0.406450510
0.259785533 0.439667016 0.452929258
0.439142525 0.488887012 0.493751049
0.682515025 0.501994789 0.492037296
0.914225996 0.544245481 0.527721524
0.226744503 0.646781802 0.402652770
0.339221776 0.668929935 0.429896772
0.493848741 0.689575493 0.464103281
0.694152713 0.740830541 0.524510443
0.900070786 0.770831287 0.601702988
0.538511992 0.861409009 0.615311503
0.607681036 0.869560003 0.624762297
0.682065487 0.887486458 0.641667962
0.778144777 0.916909218 0.677523494
0.910287023 0.911986470 0.702651024
0.117566258 0.135380000 0.404883027
0.193603754 0.155670002 0.479989260
0.380066752 0.198925257 0.558585525
0.674422741 0.258905530 0.588602543
0.894169271 0.287884504 0.580248237
0.152233511 0.243743256 0.524429500
0.245351762 0.266907513 0.568046272
0.410183758 0.297562242 0.605341733
0.679924786 0.354065478 0.626014531
0.918052197 0.375916481 0.597314715
0.188989758 0.385720253 0.609302282
0.297473729 0.415395766 0.628241777
0.454280049 0.457762748 0.649960756
0.678231299 0.496987015 0.684500813
0.910211027 0.541331768 0.696145296
0.238947242 0.624836266 0.629285753
0.359882742 0.651340008 0.651397526
0.509847760 0.685363531 0.686441779
0.704986036 0.733968794 0.739291787
0.916998506 0.772383034 0.769675255
0.546539485 0.867572784 0.747454762
0.614728034 0.874704719 0.751503587
0.689755738 0.889487028 0.758195519
0.780336261 0.915418267 0.765034735
0.912887275 0.915553451 0.786768258
0.182217002 0.180693001 0.555950999
0.255547762 0.191293001 0.613434494
0.389098525 0.213609993 0.689505994
0.643054008 0.290700763 0.725625038
0.897002995 0.314155012 0.692409992
0.208349749 0.268615007 0.624787211
0.300258249 0.246526003 0.665425062
0.442092776 0.253609747 0.757821739
0.676152825 0.342963278 0.776476741
0.911432743 0.403137982 0.743376732
0.243721500 0.405230016 0.704517961
0.304709494 0.412687004 0.717908740
0.464900017 0.434133023 0.743803978
0.677848220 0.477612287 0.777983785
0.916262031 0.540713549 0.838322520
0.354424536 0.631560981 0.803825498
0.448249280 0.646491528 0.811783016
0.567080736 0.670140982 0.821552277
0.735185027 0.719210029 0.858244956
0.920831442 0.766864538 0.890326977
0.553116977 0.867555976 0.876941979
0.621048272 0.872450531 0.879777253
0.695438027 0.882045507 0.884747982
0.783667743 0.898905277 0.892869771
0.913379014 0.911804974 0.897436023
