public/lut/38.cube
TITLE "17x17x17 Adobe/IRIDAS cube 3D LUT exported with GrossGrade v0.2.2 (beta) 64 bit"
DOMAIN_MIN 0 0 0
DOMAIN_MAX 1 1 1
LUT_3D_SIZE 17
0.025234001 0.026023000 0.026023000
0.073264875 0.024495250 0.024445999
0.116010629 0.022869000 0.022869000
0.144516259 0.022227937 0.022227937
0.167717248 0.022080000 0.021489000
0.184461564 0.021291999 0.021291999
0.204262882 0.020502999 0.020502999
0.227751881 0.020059187 0.020059187
0.254858017 0.019714000 0.019320000
0.286589950 0.018580813 0.018137001
0.325374484 0.017348999 0.017053124
0.374313504 0.015771000 0.015524750
0.435648769 0.013997000 0.013996999
0.510858357 0.011828999 0.011681059
0.597986460 0.009364372 0.008674000
0.691728711 0.006309010 0.006259690
0.777396977 0.170779005 0.148600996
0.019024562 0.083235435 0.019812625
0.065497749 0.078675941 0.018284876
0.117957756 0.074280314 0.017546061
0.161327198 0.072296314 0.016658561
0.197548881 0.072750121 0.015278624
0.223772258 0.073959246 0.014341874
0.252369761 0.075185567 0.013553811
0.282839566 0.077103317 0.011976812
0.314261228 0.078323498 0.011187876
0.347809374 0.079189874 0.010054125
0.384682119 0.079427876 0.008821875
0.426464677 0.078424126 0.007294125
0.476987809 0.076336749 0.006259562
0.539783895 0.072765052 0.004140124
0.617483258 0.067483559 0.002415184
0.706580520 0.061511945 0.000147881
0.783566236 0.195474744 0.155291945
0.013603125 0.136057243 0.014292625
0.059689436 0.134719685 0.012814125
0.122225754 0.133804381 0.011237125
0.180443883 0.135009944 0.009019063
0.230397373 0.137157753 0.007491374
0.268007010 0.139226690 0.005963688
0.310066015 0.141939253 0.004435750
0.354295731 0.145113558 0.002661624
0.398334503 0.148293883 0.001084625
0.440966189 0.150955692 0.000197125
0.482909143 0.152819633 0.000098625
0.526336372 0.154068559 0.000000000
0.573657691 0.154533625 0.000000000
0.627833068 0.154362008 0.000000000
0.692399561 0.152852744 0.000000000
0.768867493 0.149852633 0.000000008
0.796916246 0.240734130 0.169926867
0.010398936 0.169683009 0.010398936
0.059435312 0.172364891 0.008871187
0.130802125 0.180131942 0.005914312
0.195994511 0.188349962 0.002809437
0.249916822 0.194148898 0.001084687
0.290776074 0.198859528 0.000147938
0.338593483 0.204062939 0.000000000
0.391595513 0.209493324 0.000000000
0.446173459 0.214549199 0.000000000
0.499297082 0.219187692 0.000000000
0.549031675 0.222917944 0.000000000
0.596599460 0.225842267 0.000000000
0.645916998 0.228082508 0.000000000
0.701814651 0.229864448 0.000000000
0.767697990 0.231163517 0.000000000
0.843959749 0.231422767 0.000000014
0.828213871 0.304067194 0.199253455
0.007294250 0.198475257 0.007294250
0.058783501 0.201859623 0.005766500
0.137141764 0.214707628 0.001872750
0.206310645 0.226621374 0.000000000
0.261898518 0.233682245 0.000000000
0.302616805 0.239304692 0.000000000
0.350168407 0.245968252 0.000000000
0.404241264 0.253248990 0.000000000
0.462676018 0.260115236 0.000000000
0.521574616 0.266610175 0.000000000
0.577250540 0.272375643 0.000000000
0.628587127 0.277443171 0.000000000
0.677533269 0.281876475 0.000000000
0.731126368 0.285965919 0.000000000
0.796287060 0.288719237 0.000000000
0.874016345 0.289781362 0.000000018
0.863284767 0.357892275 0.230840504
0.004189250 0.228905186 0.004189250
0.057090506 0.231439561 0.002661563
0.140623435 0.246889740 0.000000000
0.213625208 0.261633128 0.000000000
0.271577984 0.268699378 0.000000000
0.312565058 0.273838997 0.000000000
0.359147668 0.280666262 0.000000000
0.412045330 0.288824767 0.000000000
0.471060008 0.296924651 0.000000000
0.533099890 0.304786354 0.000000000
0.593651831 0.312243432 0.000000000
0.649906218 0.319330186 0.000000000
0.701079726 0.326162726 0.000000000
0.751790047 0.333010375 0.000000000
0.812168598 0.338240385 0.000000000
0.887139916 0.340221375 0.000000022
0.896694660 0.408741444 0.263428420
0.000295875 0.266829759 0.000295875
0.053965874 0.267617255 0.000000000
0.142326117 0.283556521 0.000000000
0.218840450 0.301838160 0.000000000
0.280074626 0.308971018 0.000000000
0.322675377 0.312598884 0.000000000
0.368900895 0.318092644 0.000000000
0.419903725 0.325722575 0.000000000
0.477321535 0.334407151 0.000000000
0.540181935 0.343123019 0.000000000
0.604261696 0.351846516 0.000000000
0.665723383 0.360703230 0.000000000
0.722184062 0.370033264 0.000000000
0.773938477 0.380132318 0.000000000
0.830064416 0.389387399 0.000000000
0.900818646 0.393806636 0.000000028
0.926630855 0.465172023 0.298828274
0.000000000 0.309858203 0.000000000
0.049674433 0.308111310 0.000000000
0.140628681 0.321803451 0.000000000
0.220036253 0.344067454 0.000000000
0.284530938 0.353030145 0.000000000
0.329811245 0.355252832 0.000000000
0.377972245 0.358313084 0.000000000
0.428364903 0.364027441 0.000000000
0.483259618 0.371872842 0.000000000
0.544294357 0.380548775 0.000000000
0.609362185 0.389432460 0.000000000
0.674655080 0.399393588 0.000000000
0.736381829 0.410882801 0.000000000
0.793133736 0.424206018 0.000000000
0.850029588 0.437911779 0.000000000
0.918890059 0.446781099 0.000000035
0.944030106 0.522155941 0.330394864
0.000000000 0.356046498 0.000000000
0.043469686 0.352013886 0.000000000
0.137312874 0.360472143 0.000000000
0.217888951 0.385546327 0.000000000
0.283712745 0.398833752 0.000000000
0.331367433 0.401718199 0.000000000
0.382698268 0.402468503 0.000000000
0.435158223 0.405125350 0.000000000
0.489508510 0.410872519 0.000000000
0.548109353 0.418369114 0.000000000
0.611680150 0.426366895 0.000000000
0.678224444 0.435644686 0.000000000
0.743510783 0.447930515 0.000000000
0.805465937 0.464112997 0.000000000
0.866679430 0.482129782 0.000000000
0.936782479 0.496223480 0.000000041
0.950865030 0.577360034 0.356741488
0.000000000 0.404594630 0.000000000
0.036717936 0.398948014 0.000000000
0.132232249 0.400420308 0.000000000
0.214012265 0.424868941 0.000000000
0.279331505 0.444267362 0.000000000
0.327531874 0.450765878 0.000000000
0.380804807 0.451522201 0.000000000
0.436393797 0.451298684 0.000000000
0.493135959 0.453905702 0.000000000
0.551667750 0.459264010 0.000000000
0.613572896 0.465589374 0.000000000
0.679162800 0.472747982 0.000000000
0.746183336 0.483329266 0.000000000
0.811596990 0.500363052 0.000000000
0.876732171 0.522257507 0.000000000
0.948893607 0.540899396 0.000000049
0.955742359 0.630236447 0.384466618
0.000000000 0.455666482 0.000000000
0.030458814 0.449447185 0.000000000
0.126988247 0.444523126 0.000000000
0.210030451 0.463324010 0.000000000
0.274235368 0.487593353 0.000000000
0.321088552 0.499926060 0.000000000
0.374150395 0.504785597 0.000000000
0.431345105 0.503854096 0.000000000
0.490889370 0.503409505 0.000000000
0.552256823 0.505940139 0.000000000
0.614927530 0.510243118 0.000000000
0.679424703 0.514889419 0.000000000
0.746272385 0.521682084 0.000000000
0.813974738 0.535821140 0.000000000
0.882028937 0.558986247 0.000000000
0.955363095 0.581610143 0.000000055
0.958706379 0.683099747 0.419193983
0.000000000 0.509448409 0.000000000
0.024298063 0.503288984 0.000000000
0.122239254 0.494937867 0.000000000
0.206620008 0.504433036 0.000000000
0.269881815 0.528999448 0.000000000
0.315119714 0.547023475 0.000000000
0.366271079 0.559165776 0.000000000
0.422851145 0.561771274 0.000000000
0.483470649 0.559795499 0.000000000
0.547291100 0.559474349 0.000000000
0.612872124 0.561554790 0.000000000
0.678503394 0.564150572 0.000000000
0.744674146 0.567138374 0.000000000
0.813228548 0.575525641 0.000000000
0.884594560 0.594834030 0.000000000
0.960442185 0.618216991 0.000000059
0.960573494 0.738514662 0.460178852
0.000000000 0.566285014 0.000000000
0.019024435 0.560388446 0.000000000
0.118227623 0.551405609 0.000000000
0.203852773 0.551876128 0.000000000
0.267056763 0.571150005 0.000000000
0.310887754 0.591739535 0.000000000
0.359822512 0.611614347 0.000000000
0.414267600 0.621714473 0.000000000
0.474057019 0.621790290 0.000000000
0.538483858 0.619476557 0.000000000
0.606115162 0.619025350 0.000000000
0.674396634 0.620011508 0.000000000
0.741413236 0.620871544 0.000000000
0.809735894 0.623718977 0.000000000
0.883538127 0.634814262 0.000000000
0.963633418 0.652243853 0.000000069
0.966000259 0.787180543 0.507027268
0.000000000 0.626016021 0.000000000
0.013898622 0.620575786 0.000000000
0.114640564 0.612088263 0.000000000
0.201333895 0.607342958 0.000000000
0.265576065 0.617837369 0.000000000
0.308908820 0.636417925 0.000000000
0.355791450 0.660826027 0.000000000
0.407239258 0.679992199 0.000000000
0.464832366 0.686084926 0.000000000
0.528399408 0.683912516 0.000000000
0.596555114 0.681171060 0.000000000
0.667073727 0.680405796 0.000000000
0.736052632 0.680555403 0.000000000
0.804115772 0.680935681 0.000000000
0.878156185 0.684561610 0.000000000
0.960679054 0.691990316 0.000000069
0.971458793 0.820404291 0.562769473
0.000000000 0.688406825 0.000000000
0.010251372 0.683541954 0.000000000
0.110987619 0.675914228 0.000000000
0.198597565 0.669861317 0.000000000
0.264494509 0.672181547 0.000000000
0.308610201 0.684897900 0.000000000
0.354363650 0.708726227 0.000000000
0.402683467 0.734799385 0.000000000
0.456772119 0.749693155 0.000000000
0.518601894 0.750493169 0.000000000
0.586591780 0.746692419 0.000000000
0.658366919 0.743814290 0.000000000
0.729357600 0.743456721 0.000000000
0.796654284 0.743256450 0.000000000
0.868084073 0.743065178 0.000000000
0.948128462 0.742716074 0.000000000
0.976102173 0.856097996 0.625869811
0.000000064 0.753817797 0.000000026
0.005816123 0.749395669 0.000000026
0.107161231 0.742431462 0.000000026
0.194845542 0.736634433 0.000000026
0.262030989 0.734095693 0.000000026
0.307585716 0.740106225 0.000000026
0.353546351 0.759316206 0.000000027
0.399289370 0.787895679 0.000000028
0.449358732 0.810434520 0.000000032
0.508490026 0.816234887 0.000000039
0.575692713 0.811864972 0.000000046
0.647615314 0.806933105 0.000000044
0.719290018 0.804361641 0.000000000
0.785788059 0.803612113 0.000000000
0.852316201 0.800775230 0.000000000
0.925161481 0.794098556 0.000000000
0.981699347 0.861757219 0.607069016
0.560082018 0.781978011 0.393586993
0.565424085 0.782561779 0.394546360
0.576359153 0.783922493 0.397120982
0.592637658 0.786653221 0.402230680
0.608377218 0.790414453 0.409765512
0.620714605 0.794486344 0.418051064
0.635003865 0.800755858 0.431252122
0.650933862 0.810011029 0.451284766
0.668097973 0.822480500 0.478473485
0.686780930 0.837821901 0.511166155
0.709108591 0.854627252 0.544456482
0.738010108 0.869770527 0.567690432
0.777142048 0.879395247 0.566395998
0.826647401 0.878161490 0.518529236
0.873964787 0.858608902 0.396833211
0.893007457 0.833361268 0.000000000
0.959504008 0.820918977 0.000000000
0.024495250 0.025234001 0.096753255
0.071301691 0.023706311 0.093192808
0.121070996 0.022129312 0.092767060
0.156122357 0.021341249 0.094187878
0.183205187 0.020552311 0.094352499
0.204689682 0.019763311 0.095148183
0.229801759 0.019221500 0.096567437
0.257144690 0.018482188 0.097292192
0.287706584 0.017398249 0.097814009
0.321412623 0.016609311 0.097783506
0.358868182 0.015820311 0.096763685
0.402244300 0.014243312 0.093779624
0.456089050 0.012666312 0.087555125
0.524178922 0.010892061 0.077120051
0.605783343 0.008575497 0.063838862
0.695330322 0.006259695 0.049044311
0.783989429 0.174154684 0.175741687
0.019763313 0.074359186 0.081203312
0.065417558 0.070360504 0.081573375
0.122936256 0.066159129 0.082379811
0.171345577 0.065907940 0.083707057
0.210787937 0.067348555 0.085436821
0.239103675 0.068640381 0.086691067
0.271249622 0.071024939 0.087962434
0.304285735 0.073511936 0.089589253
0.337350816 0.076111816 0.090978563
0.370466709 0.078220807 0.091526188
0.404098779 0.078908935 0.091513939
0.440047622 0.078872249 0.089652434
0.481749505 0.077128440 0.084050626
0.538563728 0.072725117 0.074095048
0.616285741 0.066976175 0.060502108
0.707739294 0.060968626 0.046967126
0.789578676 0.198978439 0.182009190
0.014292625 0.128509119 0.065662064
0.059689436 0.130092517 0.068264246
0.123847805 0.132053569 0.071245313
0.184858695 0.134425133 0.074135691
0.235230640 0.136841506 0.076104440
0.272971004 0.139079064 0.077490568
0.316077262 0.142285734 0.079175748
0.362150401 0.146717072 0.081574626
0.408040971 0.151603818 0.083991930
0.451447487 0.156418175 0.086745314
0.491170973 0.160011634 0.089176506
0.526690900 0.161880314 0.090190873
0.559115529 0.161495507 0.087940000
0.596103907 0.158215448 0.079054989
0.654867232 0.152480006 0.064618804
0.738159359 0.147045627 0.050655879
0.801544726 0.244699880 0.195481002
0.010398936 0.167170569 0.056295127
0.059962124 0.171426266 0.060345065
0.130537316 0.183909312 0.067273811
0.195382521 0.195067897 0.071830250
0.249505937 0.201759651 0.073887751
0.289839327 0.206101701 0.074833311
0.336688340 0.211437762 0.076229624
0.389159948 0.217299998 0.077665687
0.445088387 0.223587573 0.080179937
0.500854850 0.229578957 0.083322003
0.553287506 0.234491765 0.087116688
0.600836575 0.237711132 0.091255561
0.642228782 0.238464817 0.094153747
0.678719997 0.236045331 0.091382682
0.723111212 0.231555641 0.080943182
0.789842188 0.227159902 0.067628950
0.830821514 0.308449924 0.222461939
0.007294250 0.197247073 0.050495062
0.059500001 0.200389251 0.054843310
0.137454063 0.216223314 0.063444190
0.206185952 0.233655363 0.071643502
0.261898428 0.243359938 0.075117812
0.302206933 0.249480680 0.076213315
0.348210067 0.256671399 0.076974504
0.400281399 0.264757514 0.077849813
0.457550138 0.273074329 0.079290748
0.517106473 0.280956388 0.081531376
0.575423241 0.287854731 0.085187629
0.630047917 0.292832524 0.089747317
0.679446936 0.295465350 0.094736435
0.724123538 0.294933856 0.097319685
0.770621598 0.291461676 0.092802122
0.831758440 0.287187517 0.083435878
0.864869416 0.362375170 0.252174616
0.004189250 0.228049695 0.045048811
0.058275189 0.228686795 0.047908440
0.142509252 0.244211301 0.057721376
0.215458214 0.265911371 0.069612071
0.273949236 0.277749568 0.075161807
0.315229118 0.284343243 0.077017441
0.360366106 0.291966647 0.077961124
0.410574704 0.301489562 0.078796998
0.466574728 0.311791867 0.079419874
0.526786387 0.321845591 0.080980688
0.587486506 0.330764890 0.083775058
0.645486176 0.338005751 0.088290751
0.699209571 0.343121231 0.093934126
0.749576807 0.345542908 0.099099010
0.801842749 0.344720691 0.100355245
0.864687443 0.341036618 0.095998198
0.897707164 0.412368864 0.282938063
0.000295875 0.265589476 0.037802435
0.054802686 0.263768256 0.038537744
0.144356757 0.276426613 0.046698116
0.221850947 0.301336229 0.063303068
0.284806758 0.315581620 0.072710939
0.328857750 0.321973771 0.075624377
0.375133753 0.328575134 0.077429816
0.423689961 0.337490678 0.078379557
0.476963252 0.348843098 0.079300061
0.535876930 0.360976756 0.080181316
0.597687125 0.372261524 0.082484558
0.658188164 0.382126123 0.086498372
0.714586377 0.390131980 0.092764191
0.767861247 0.396595955 0.099634945
0.824632764 0.400276750 0.105625883
0.892666757 0.399310797 0.106987827
0.927977443 0.467933893 0.316936731
0.000000000 0.308105886 0.028043432
0.049674433 0.304259330 0.026466433
0.142611623 0.312432170 0.031394929
0.222703755 0.339019120 0.050598621
0.289270371 0.356967896 0.065189183
0.337492317 0.363915294 0.070469052
0.387934357 0.368423581 0.072863936
0.437647849 0.374324977 0.074330434
0.488550872 0.383960217 0.076188877
0.544589281 0.396581143 0.077874124
0.605974078 0.410011113 0.079928935
0.668425858 0.422166437 0.083919622
0.727772593 0.432872891 0.090481371
0.783148587 0.443072230 0.099455446
0.841526389 0.452252418 0.108606316
0.912942410 0.456491977 0.114975154
0.946149707 0.524075150 0.347122163
0.000000000 0.353500873 0.016018059
0.043469686 0.348648489 0.012222935
0.138501376 0.351180822 0.013060933
0.219529778 0.376526892 0.032479562
0.286913753 0.399211675 0.051702749
0.337660521 0.409041643 0.060887810
0.393025845 0.413318455 0.064752311
0.447566897 0.415526360 0.066034436
0.499600708 0.420874298 0.068117872
0.553216636 0.431061387 0.071652055
0.612338424 0.444491118 0.075265564
0.675442278 0.458183080 0.079537749
0.737657666 0.470601499 0.085931502
0.796383321 0.483331293 0.096405141
0.856242299 0.497175753 0.109460518
0.927683592 0.507481098 0.119579904
0.953377426 0.579213798 0.371907890
0.000000000 0.401086062 0.002661437
0.036717936 0.395799994 0.001133687
0.133499935 0.392888695 0.000394500
0.215491638 0.411927968 0.009758630
0.281363755 0.438041359 0.032430127
0.331706494 0.453146696 0.046168752
0.389377594 0.461315572 0.054383252
0.448966682 0.462527812 0.055789627
0.505705833 0.463212788 0.056451939
0.560349464 0.468554258 0.060522314
0.617732227 0.478880793 0.066414870
0.679920793 0.492089689 0.072620749
0.743895829 0.505398870 0.078828506
0.806090117 0.519236088 0.089422584
0.868644774 0.535667539 0.105723016
0.939943671 0.550192118 0.120845906
0.957462490 0.632726669 0.397958577
0.000000000 0.451271564 0.000000000
0.030508064 0.445674986 0.000000000
0.128439754 0.439006925 0.000000000
0.212361202 0.448158681 0.000000000
0.276852638 0.472250223 0.007392938
0.324857503 0.492053866 0.024987813
0.380844206 0.507520080 0.039447501
0.441923827 0.513023138 0.045233689
0.503117800 0.511915028 0.045495436
0.561987460 0.512184560 0.047251754
0.620923221 0.517376184 0.053886250
0.682940423 0.527030885 0.062469065
0.747432888 0.539350271 0.069942690
0.811774313 0.553381622 0.079262704
0.877316475 0.570664763 0.096344516
0.949893296 0.587417483 0.116743974
0.959577084 0.686325133 0.430323005
0.000000000 0.504473925 0.000000000
0.025086688 0.498889506 0.000000000
0.124243684 0.490546018 0.000000000
0.209954068 0.490629762 0.000000000
0.274315834 0.506677151 0.000000000
0.320350677 0.526553571 0.001626563
0.372718215 0.548502862 0.018038694
0.431099445 0.562753320 0.031296317
0.493007839 0.565442145 0.035486188
0.555430710 0.563263893 0.036570124
0.618181348 0.563382864 0.041400127
0.682968855 0.567620873 0.050455313
0.749137998 0.575821757 0.060326569
0.814903200 0.588195324 0.068898067
0.882635117 0.604858339 0.082960077
0.957869172 0.621800005 0.102631107
0.961239755 0.741984189 0.469048053
0.000000000 0.561218560 0.000000000
0.020502873 0.555712044 0.000000000
0.120271057 0.547239125 0.000000000
0.207411632 0.542321444 0.000000000
0.272990853 0.548893452 0.000000000
0.318348169 0.563434839 0.000000000
0.367991686 0.586363137 0.000295876
0.422003984 0.608835340 0.012370879
0.480799317 0.620326936 0.024790686
0.543457985 0.620559275 0.029127812
0.608972609 0.617839694 0.033415686
0.677578628 0.617315292 0.041720562
0.747588396 0.620058894 0.051740255
0.815977812 0.627750039 0.060640946
0.885697246 0.641050875 0.069924325
0.963804901 0.654908836 0.081023872
0.966114521 0.789880157 0.513610661
0.000000000 0.621282697 0.000000000
0.015968807 0.616141379 0.000000000
0.117013365 0.608187497 0.000000000
0.204636633 0.602010131 0.000000000
0.271357328 0.602079034 0.000000000
0.317533255 0.609678626 0.000000000
0.366462260 0.627949595 0.000000000
0.417165130 0.653267264 0.000000000
0.471289873 0.673834503 0.011236990
0.531183183 0.681014299 0.024248619
0.597111344 0.678726196 0.030409375
0.668110549 0.675438166 0.038140815
0.741745174 0.674488842 0.047417879
0.813839138 0.677309096 0.056243569
0.885657191 0.685104430 0.062699504
0.965202212 0.693639040 0.065169118
0.970803976 0.822797477 0.568329155
0.000000000 0.684318066 0.000000000
0.011729935 0.679809451 0.000000000
0.113762446 0.672651768 0.000000000
0.201795697 0.666844785 0.000000000
0.269229889 0.664191365 0.000000000
0.316441268 0.666690588 0.000000000
0.366279572 0.678206801 0.000000000
0.415827096 0.700975716 0.000000000
0.466006130 0.726728737 0.000689999
0.521720886 0.741961181 0.018137367
0.586269498 0.743387878 0.030754440
0.658064365 0.739302456 0.039008252
0.733485043 0.736582398 0.047402568
0.807206452 0.736301541 0.054819442
0.879626691 0.739376247 0.059367437
0.956888497 0.742542505 0.059780870
0.975458086 0.858512342 0.630295157
0.000000064 0.750385165 0.000000032
0.007984120 0.746301115 0.000000032
0.110266536 0.739844322 0.000000032
0.198110476 0.734597981 0.000000032
0.265801907 0.731181264 0.000000031
0.313751459 0.730685294 0.000000031
0.364867717 0.736559153 0.000000032
0.414753437 0.754291654 0.000000033
0.462487400 0.780748725 0.000000036
0.513910949 0.801847339 0.010202339
0.575661182 0.807533860 0.030211970
0.646789134 0.803508103 0.040203474
0.721839309 0.798937082 0.047142871
0.795387387 0.796618581 0.052702747
0.865536332 0.795197487 0.055590056
0.936230302 0.791886032 0.054392368
0.981818020 0.863520145 0.612682641
0.560363412 0.782740712 0.400566816
0.565808535 0.783321202 0.401581854
0.576479554 0.784507513 0.403676242
0.593078792 0.787057459 0.408584684
0.608816564 0.790558159 0.415516287
0.621323884 0.794413328 0.423409730
0.635707736 0.800470114 0.436077863
0.651795566 0.809422135 0.455641627
0.668993175 0.821700633 0.482350320
0.687655687 0.837056994 0.515240014
0.709667444 0.853875458 0.548675418
0.738052607 0.869419456 0.573072672
0.776497066 0.879617512 0.573288798
0.825792909 0.879384637 0.527952671
0.873808801 0.860460460 0.407059729
0.904948652 0.829198480 0.043984689
0.969020724 0.819236159 0.042484000
0.023755625 0.024445999 0.139225498
0.070247062 0.022918250 0.144486010
0.123180129 0.021390500 0.151041240
0.165981442 0.019861937 0.154937252
0.202212751 0.019122999 0.159451485
0.230939925 0.018235626 0.163138241
0.266140372 0.017447498 0.167150393
0.304970086 0.016116187 0.171319574
0.344994754 0.015081501 0.175665244
0.384678602 0.013947875 0.179394558
0.426162004 0.012715626 0.182713374
0.471225828 0.011138625 0.184527636
0.519282997 0.010152625 0.183169499
0.570872962 0.008624873 0.174370736
0.633735180 0.006998498 0.158500493
0.711482942 0.004829635 0.141147316
0.799669385 0.182890251 0.223562747
0.020502999 0.062253438 0.132506683
0.066457555 0.060532127 0.141805246
0.126805320 0.059218876 0.152272329
0.181816563 0.060772002 0.157929510
0.224942997 0.063450374 0.161043808
0.256521314 0.065814130 0.163083375
0.293644428 0.068646938 0.165658996
0.334430873 0.071127251 0.168828756
0.375168025 0.073761746 0.172490299
0.413830638 0.075637564 0.176260009
0.452086955 0.076596558 0.179089993
0.494022310 0.076801874 0.180878058
0.538267136 0.076182634 0.179330498
0.584374189 0.073561743 0.170785427
0.643621266 0.067910746 0.154874295
0.722975373 0.061429009 0.138428167
0.805330038 0.208576441 0.229858235
0.014391124 0.117825374 0.123224005
0.060845189 0.122958690 0.135136992
0.124811754 0.129573762 0.149481118
0.190780446 0.133491248 0.156489432
0.243714377 0.136629626 0.159135744
0.281875759 0.139550254 0.161244750
0.324876398 0.143320367 0.163538754
0.371817172 0.148262873 0.166693389
0.420329154 0.154105023 0.170924872
0.466634005 0.160413757 0.175603807
0.508189142 0.165991247 0.179362148
0.545991480 0.169330195 0.181349620
0.581037641 0.169876382 0.179701626
0.615120411 0.166168243 0.171394169
0.663745046 0.157562241 0.156207725
0.740636945 0.148709998 0.141565874
0.816580176 0.255464375 0.242518991
0.009758687 0.164778754 0.115166381
0.058922376 0.174304947 0.127076373
0.124471381 0.193265945 0.144076437
0.191347763 0.206838697 0.153392062
0.248744875 0.212267324 0.157155126
0.290870070 0.215681762 0.159091875
0.338261753 0.219725877 0.161473006
0.389964163 0.224560022 0.164551571
0.445241958 0.230797693 0.169453621
0.501834035 0.237911895 0.175862581
0.556640446 0.245065019 0.182674870
0.606014132 0.250479519 0.188264504
0.646824360 0.252384722 0.190708503
0.675959289 0.248427138 0.185405225
0.705873728 0.238016754 0.170220673
0.763366640 0.227059960 0.153889135
0.841446340 0.319301337 0.264881760
0.006506000 0.199524373 0.110825256
0.058304373 0.207374051 0.121330507
0.128747866 0.229698628 0.139156505
0.194642827 0.251886368 0.152789325
0.252362758 0.262579858 0.158547878
0.295235306 0.267850131 0.160811320
0.343546242 0.273342371 0.162852138
0.396330595 0.279616624 0.165211752
0.452957869 0.286709011 0.169247761
0.512365997 0.294694245 0.175351009
0.572990835 0.302573353 0.183292121
0.632214129 0.309300095 0.191628635
0.684564114 0.312649608 0.198363006
0.723774076 0.310297608 0.199465066
0.752701163 0.300576508 0.189548865
0.795956731 0.288265437 0.173416302
