public/lut/38.cube
TITLE "17x17x17 Adobe/IRIDAS cube 3D LUT exported with GrossGrade v0.2.2 (beta) 64 bit"
DOMAIN_MIN 0 0 0
DOMAIN_MAX 1 1 1
LUT_3D_SIZE 5
0.025234001 0.026023000 0.026023000
0.167717248 0.022080000 0.021489000
0.254858017 0.019714000 0.019320000
0.435648769 0.013997000 0.013996999
0.777396977 0.170779005 0.148600996
0.007294250 0.198475257 0.007294250
0.261898518 0.233682245 0.000000000
0.462676018 0.260115236 0.000000000
0.677533269 0.281876475 0.000000000
0.863284767 0.357892275 0.230840504
0.000000000 0.356046498 0.000000000
0.283712745 0.398833752 0.000000000
0.489508510 0.410872519 0.000000000
0.743510783 0.447930515 0.000000000
0.950865030 0.577360034 0.356741488
0.000000000 0.566285014 0.000000000
0.267056763 0.571150005 0.000000000
0.474057019 0.621790290 0.000000000
0.741413236 0.620871544 0.000000000
0.966000259 0.787180543 0.507027268
0.560082018 0.781978011 0.393586993
0.608377218 0.790414453 0.409765512
0.668097973 0.822480500 0.478473485
0.777142048 0.879395247 0.566395998
0.959504008 0.820918977 0.000000000
0.023657000 0.023657000 0.180840001
0.219250992 0.018137001 0.242888749
0.398701489 0.012222999 0.298612505
0.599028528 0.006505999 0.317061752
0.838222027 0.208301246 0.327126980
0.005125499 0.199105740 0.218549252
0.250499487 0.279985011 0.299896538
0.456884801 0.295429498 0.308805764
0.679226518 0.319698751 0.326323032
0.880687237 0.391385764 0.369457722
0.000000000 0.366788030 0.202869758
0.249184489 0.421246767 0.260141760
0.460859776 0.494706273 0.318974257
0.710999787 0.542461514 0.335319489
0.954876721 0.586438954 0.461841017
0.000000000 0.582050562 0.169769004
0.278350979 0.547894835 0.178945750
0.468362510 0.619742513 0.271871984
0.757914960 0.661851048 0.323415518
0.960736036 0.799863517 0.558619261
0.559781730 0.790533483 0.450927258
0.609288454 0.794389009 0.458612770
0.673002481 0.818850756 0.510979950
0.773234725 0.880514503 0.618416548
0.975405216 0.838992238 0.322332501
0.022080000 0.022080000 0.340228498
0.225734502 0.015771000 0.454434514
0.436938047 0.009856999 0.456434011
0.623859525 0.003942999 0.525832772
0.861915469 0.242229000 0.503789544
0.002563000 0.204620749 0.429587245
0.253330737 0.279884517 0.500439286
0.465712517 0.315462530 0.527863503
0.678394556 0.340296000 0.528002262
0.904852033 0.421912014 0.547477484
0.000000000 0.375799000 0.429334521
0.243505746 0.454072267 0.501790285
0.468529999 0.528080463 0.556769013
0.712671220 0.534273028 0.560525060
0.942658484 0.587013543 0.599628925
0.000000000 0.576664686 0.412106991
0.263626218 0.616467476 0.450591505
0.460970014 0.636483252 0.475432992
0.710964322 0.734114289 0.569619298
0.945011973 0.793931007 0.657945275
0.552594543 0.823574483 0.574681520
0.598541498 0.823747277 0.576484799
0.665816545 0.834857941 0.594039559
0.760695040 0.886927247 0.679998279
0.963475466 0.889039040 0.624416530
0.019714000 0.019517001 0.593970537
0.236301512 0.013208751 0.618048966
0.420443028 0.008280000 0.705410004
0.677340031 0.001379999 0.662945747
0.863862991 0.275197506 0.686784029
0.000000000 0.228764266 0.622638285
0.211792752 0.263155729 0.628585935
0.465488732 0.323950529 0.724316001
0.703950226 0.370863497 0.699558020
0.920668483 0.457672238 0.701236248
0.000000000 0.395453751 0.668076515
0.239723489 0.451770276 0.682646990
0.469735503 0.512022018 0.723082483
0.722926795 0.560014725 0.758494735
0.943912029 0.617853761 0.762011766
0.000000000 0.593309999 0.653717041
0.265132993 0.617632031 0.677085340
0.475186765 0.673349500 0.722576261
0.719260037 0.752099037 0.789673030
0.954561710 0.782152772 0.812402248
0.550600290 0.848063231 0.740615726
0.595687270 0.855105042 0.746882796
0.658654928 0.865204513 0.750524044
0.745808005 0.904548287 0.749922276
0.929014981 0.924020231 0.758638740
0.012617000 0.034697000 0.781570017
0.203416005 0.041567750 0.771621287
0.377487004 0.123112008 0.839248002
0.604870498 0.220490992 0.836374283
0.886859000 0.320611000 0.827911019
0.001380000 0.264905751 0.760415733
0.175908238 0.273605764 0.765729249
0.421234995 0.309306771 0.841079772
0.658531010 0.412209004 0.880711496
0.907178760 0.474990010 0.856931984
0.113657013 0.441435039 0.822966993
0.254882276 0.473630756 0.812124491
0.444204032 0.508086026 0.834633470
0.701160252 0.568094730 0.891980529
0.954898000 0.651139498 0.899507046
0.304130524 0.630959511 0.846701503
0.406104505 0.652984262 0.867660522
0.552736461 0.691101015 0.885599494
0.744742513 0.747184753 0.922884464
0.956363201 0.787014246 0.951900244
0.535347998 0.848138988 0.878472984
0.568928242 0.853585005 0.885308027
0.624671519 0.863789976 0.897436023
0.712414980 0.888099253 0.916660726
0.934707999 0.929377019 0.929880023
