public/lut/39.cube
TITLE "17x17x17 Adobe/IRIDAS cube 3D LUT exported with GrossGrade v0.2.2 (beta) 64 bit"
DOMAIN_MIN 0 0 0
DOMAIN_MAX 1 1 1
LUT_3D_SIZE 17
0.000000000 0.026023000 0.054933999
0.093683869 0.019812625 0.048379939
0.137246370 0.018137001 0.046269875
0.199846700 0.014489686 0.042656250
0.274997264 0.010448249 0.038837250
0.332314998 0.007343562 0.035732251
0.376539260 0.005026874 0.033119999
0.425711542 0.001922187 0.030310748
0.479155540 0.000000000 0.027206000
0.536013067 0.000000000 0.024100812
0.596207500 0.000000000 0.020996124
0.660045862 0.000000000 0.017890749
0.730158269 0.000000000 0.013996998
0.809009135 0.000000000 0.009315060
0.897013307 0.000000000 0.004632497
0.989098966 0.000000000 0.000000000
0.999945998 0.000000000 0.000000000
0.000000000 0.129046559 0.032430563
0.066287182 0.123377748 0.027058374
0.103553124 0.117997877 0.026170876
0.147619888 0.114226125 0.023952812
0.209049940 0.113831691 0.019468125
0.261582941 0.115257561 0.016165437
0.306045443 0.117221057 0.012568187
0.355448961 0.120028555 0.008723810
0.410594881 0.124281056 0.004090373
0.469638169 0.129310623 0.000147875
0.532738030 0.135303572 0.000000000
0.598845303 0.142138377 0.000000000
0.667390466 0.149655625 0.000000000
0.740935385 0.157153055 0.000000000
0.825289309 0.163290113 0.000000000
0.921029687 0.165614992 0.000000000
0.999994993 0.163347319 0.000739688
0.000000000 0.144125879 0.029275626
0.051543754 0.148426622 0.022375688
0.086784877 0.157907128 0.018432751
0.131014198 0.164575890 0.013948124
0.191554874 0.170101762 0.008575874
0.245159313 0.173940554 0.003893437
0.291265786 0.176634505 0.000690125
0.343075603 0.179875880 0.000000000
0.399074644 0.183969125 0.000000000
0.458155692 0.188717127 0.000000000
0.519921780 0.193440631 0.000000000
0.584522963 0.197241381 0.000000000
0.653053761 0.200457245 0.000000000
0.725620151 0.203833431 0.000000000
0.804365039 0.207432747 0.000000000
0.892106950 0.210957885 0.000000000
0.981938004 0.212862134 0.000000000
0.000000000 0.185777068 0.020157624
0.043014064 0.190856397 0.013306999
0.082660623 0.209807575 0.007097498
0.131064832 0.224013194 0.000887062
0.191636816 0.234149382 0.000000000
0.243537754 0.241000131 0.000000000
0.289433539 0.245602071 0.000000000
0.342960835 0.249880970 0.000000000
0.401970208 0.254748970 0.000000000
0.463355571 0.260445714 0.000000000
0.525351226 0.266690224 0.000000000
0.587042034 0.271620929 0.000000000
0.649356067 0.273017764 0.000000000
0.716315031 0.272009015 0.000000000
0.791723132 0.271853238 0.000000000
0.875193119 0.272582531 0.000000000
0.960196733 0.272802889 0.000000000
0.000000000 0.229235247 0.011434250
0.040282622 0.232343003 0.004485125
0.086286001 0.255846500 0.000000000
0.136813194 0.275065571 0.000000000
0.197909743 0.285743505 0.000000000
0.246842995 0.293840855 0.000000000
0.289633155 0.300244749 0.000000000
0.340556592 0.306095868 0.000000000
0.399436265 0.311315745 0.000000000
0.463402629 0.317018062 0.000000000
0.528711677 0.324207366 0.000000000
0.592158973 0.331764817 0.000000000
0.653321981 0.336083263 0.000000000
0.715664089 0.334815055 0.000000000
0.785172701 0.331813753 0.000000000
0.865737081 0.331201494 0.000000000
0.949680746 0.331038743 0.000000000
0.000000000 0.262709379 0.003893375
0.039319001 0.263464570 0.000049312
0.091332376 0.289496750 0.000000000
0.142022640 0.314627469 0.000000000
0.204926446 0.326446980 0.000000000
0.252864569 0.334109604 0.000000000
0.292805463 0.341312051 0.000000000
0.339777410 0.348534942 0.000000000
0.395934135 0.355097115 0.000000000
0.459717631 0.360881060 0.000000000
0.527445078 0.367324173 0.000000000
0.593754828 0.375344306 0.000000000
0.656484902 0.382454187 0.000000000
0.718024492 0.384078503 0.000000000
0.783908844 0.380182356 0.000000000
0.860721648 0.377563238 0.000000000
0.943071425 0.376692444 0.000000000
0.000000000 0.300207794 0.000000000
0.037556127 0.297999084 0.000000000
0.097800627 0.324883282 0.000000000
0.147390261 0.358693153 0.000000000
0.211093515 0.373559177 0.000000000
0.260454327 0.380441368 0.000000000
0.298904657 0.387075275 0.000000000
0.342245281 0.395134985 0.000000000
0.393398762 0.403347373 0.000000000
0.453932375 0.410230517 0.000000000
0.522237122 0.415888250 0.000000000
0.592191935 0.422330379 0.000000000
0.657939553 0.430494756 0.000000000
0.720419288 0.436490208 0.000000000
0.784731269 0.435136616 0.000000000
0.857464552 0.430635720 0.000000000
0.937306523 0.427986503 0.000000000
0.000000000 0.341602981 0.000000000
0.033711500 0.337043762 0.000000000
0.104428068 0.361633152 0.000000000
0.152057022 0.404273361 0.000000000
0.214053750 0.426054418 0.000000000
0.265582442 0.432714760 0.000000000
0.305323124 0.437730730 0.000000000
0.347438723 0.444764793 0.000000000
0.394237071 0.453437656 0.000000000
0.449184179 0.461895645 0.000000000
0.514324069 0.468123376 0.000000000
0.586191475 0.472388893 0.000000000
0.656483293 0.478202015 0.000000000
0.721311092 0.486805707 0.000000000
0.785972297 0.491026342 0.000000000
0.856464684 0.487771660 0.000000000
0.933145404 0.483316392 0.000000000
0.000000000 0.387609005 0.000000000
0.027008686 0.382057518 0.000000000
0.109877624 0.400965273 0.000000000
0.157670081 0.449173689 0.000000000
0.213820264 0.480697513 0.000000000
0.265428752 0.489531279 0.000000000
0.307469547 0.493043780 0.000000000
0.351692468 0.497619569 0.000000000
0.397931516 0.504397035 0.000000000
0.448665679 0.512902617 0.000000000
0.507993221 0.520435452 0.000000000
0.577295840 0.524553776 0.000000000
0.651012480 0.526712537 0.000000000
0.720283031 0.533138752 0.000000000
0.786414623 0.542460859 0.000000000
0.856372833 0.544789910 0.000000000
0.930573463 0.540812969 0.000000000
0.000000000 0.438820004 0.000000000
0.018975439 0.433931440 0.000000000
0.112774059 0.445400923 0.000000000
0.164756835 0.492149740 0.000000000
0.213443443 0.533353031 0.000000000
0.261549741 0.547409594 0.000000000
0.304421932 0.551348984 0.000000000
0.351580024 0.553647935 0.000000000
0.400494009 0.557084382 0.000000000
0.451229513 0.562950075 0.000000000
0.506627798 0.570419550 0.000000000
0.570267797 0.575883150 0.000000000
0.642740250 0.576686025 0.000000000
0.716541827 0.578126669 0.000000000
0.786174417 0.587474763 0.000000000
0.855912447 0.596941769 0.000000000
0.928103089 0.597725689 0.000000000
0.000000000 0.495125234 0.000000000
0.009462751 0.491401196 0.000000000
0.111983627 0.496251643 0.000000000
0.172318444 0.534186900 0.000000000
0.215896130 0.581336141 0.000000000
0.257934481 0.602472782 0.000000000
0.298718125 0.609259784 0.000000000
0.346896410 0.611073554 0.000000000
0.398855001 0.611675858 0.000000000
0.452614307 0.613705814 0.000000000
0.508514762 0.618442655 0.000000000
0.568506956 0.623977304 0.000000000
0.635886192 0.625753999 0.000000000
0.710199058 0.623776138 0.000000000
0.784517050 0.628481150 0.000000000
0.855437100 0.641663551 0.000000000
0.925248384 0.650584340 0.000000000
0.000000000 0.555446625 0.000000000
0.004928438 0.552155852 0.000000000
0.107787132 0.552480459 0.000000000
0.178673193 0.577486277 0.000000000
0.221969306 0.623797536 0.000000000
0.257683426 0.651889861 0.000000000
0.293931961 0.663704515 0.000000000
0.340127528 0.667522609 0.000000000
0.393204987 0.666852832 0.000000000
0.449698001 0.665434062 0.000000000
0.508408487 0.665999591 0.000000000
0.568965793 0.669129729 0.000000000
0.632689595 0.671373546 0.000000000
0.703094065 0.668478489 0.000000000
0.779449701 0.667366266 0.000000000
0.854120553 0.678519011 0.000000000
0.923228741 0.693566620 0.000000000
0.000000000 0.617727757 0.000000000
0.002956874 0.614128351 0.000000000
0.101337135 0.611980259 0.000000000
0.182454199 0.623734951 0.000000000
0.230810761 0.662099779 0.000000000
0.261918187 0.694499254 0.000000000
0.292491376 0.712494135 0.000000000
0.334092766 0.721161187 0.000000000
0.385466516 0.721335769 0.000000000
0.442769885 0.717702508 0.000000000
0.503825545 0.714123249 0.000000000
0.566955507 0.713020921 0.000000000
0.630469024 0.713617027 0.000000000
0.696522057 0.710427046 0.000000000
0.770444810 0.704352260 0.000000000
0.848581791 0.708374321 0.000000000
0.921393752 0.722317994 0.000000000
0.000000000 0.680413902 0.000000000
0.001330685 0.675843239 0.000000000
0.094034992 0.671999216 0.000000000
0.182545260 0.673658311 0.000000000
0.240195826 0.699128449 0.000000000
0.270666867 0.731010675 0.000000000
0.296017230 0.754255414 0.000000000
0.330880046 0.769889355 0.000000000
0.377772242 0.774062574 0.000000000
0.433776557 0.769938469 0.000000000
0.495385796 0.762914777 0.000000000
0.560522795 0.756715953 0.000000000
0.625768542 0.753601909 0.000000000
0.689590693 0.749844730 0.000000000
0.758828700 0.740675390 0.000000000
0.836933196 0.735156417 0.000000000
0.914690793 0.740083694 0.000000000
0.000000000 0.742216289 0.000000000
0.000000000 0.736263156 0.000000000
0.087198615 0.730942547 0.000000000
0.179930627 0.726985574 0.000000000
0.247903377 0.738375187 0.000000000
0.282161146 0.763986349 0.000000000
0.304520369 0.789347827 0.000000000
0.332269073 0.811914802 0.000000000
0.371729374 0.823020697 0.000000000
0.423884749 0.821056783 0.000000000
0.484660238 0.811702788 0.000000000
0.550524831 0.800481081 0.000000000
0.617961526 0.792097688 0.000000000
0.681829214 0.787252188 0.000000000
0.746718466 0.778075397 0.000000000
0.821573138 0.765513539 0.000000000
0.900038123 0.759101868 0.000000000
0.000000000 0.802554250 0.000000000
0.000000000 0.795127928 0.000000000
0.081478626 0.788331568 0.000000000
0.175925627 0.781694770 0.000000000
0.252217501 0.782003164 0.000000000
0.293341368 0.797771037 0.000000000
0.316454619 0.820424676 0.000000000
0.338880330 0.847120106 0.000000000
0.369266152 0.866119146 0.000000000
0.414429754 0.869205832 0.000000000
0.472596943 0.859216511 0.000000000
0.538495302 0.844018579 0.000000000
0.608174920 0.829975247 0.000000000
0.674068809 0.822636962 0.000000000
0.735262275 0.815681100 0.000000000
0.804946065 0.801995993 0.000000000
0.880772591 0.789036691 0.000000000
0.000000000 0.861082017 0.000000000
0.000000000 0.852268696 0.000000000
0.076839373 0.844740510 0.000000000
0.171685830 0.836520910 0.000000000
0.252770245 0.830076754 0.000000000
0.301293075 0.835468829 0.000000000
0.328135997 0.851509392 0.000000000
0.348302752 0.877656639 0.000000000
0.370057523 0.902675033 0.000000000
0.405831754 0.912492156 0.000000000
0.459479630 0.903751254 0.000000000
0.524657428 0.885971785 0.000000000
0.596055269 0.867368221 0.000000000
0.665249109 0.855623960 0.000000000
0.724487662 0.850722015 0.000000000
0.787256658 0.840117037 0.000000000
0.856818020 0.824977994 0.000000000
0.000000000 0.023657000 0.184162498
0.085838072 0.018235562 0.185660303
0.148405626 0.015081501 0.185203373
0.216482699 0.011187936 0.184951574
0.287707657 0.006703249 0.184912324
0.343678862 0.004189250 0.184394434
0.389557719 0.001133812 0.184237942
0.439120591 0.000000000 0.185203508
0.492458314 0.000000000 0.188328743
0.547199070 0.000000000 0.192269951
0.605291784 0.000000000 0.196138054
0.669576049 0.000000000 0.200087056
0.743135691 0.000000000 0.207286939
0.826264501 0.000000000 0.218435645
0.913906872 0.000000000 0.226606235
0.995599449 0.000000000 0.223359227
0.999947667 0.000000000 0.211240739
0.000000000 0.110782184 0.157152757
0.075805821 0.113960192 0.163902506
0.139321938 0.111434124 0.166099802
0.189406276 0.105089873 0.166295320
0.239294305 0.101974934 0.167516798
0.286954165 0.103265502 0.168271199
0.330269337 0.106322564 0.168668881
0.379760623 0.111451566 0.169172615
0.433273405 0.118503377 0.170474127
0.488759965 0.126816377 0.171720684
0.546216249 0.135328695 0.171431631
0.607217371 0.143358812 0.168963313
0.674257457 0.150852636 0.167382136
0.749251187 0.160013214 0.171829969
0.835344732 0.169332251 0.179884553
0.929655850 0.171478137 0.180122435
0.999996603 0.167113185 0.170510262
0.000000000 0.137623310 0.142782316
0.070680439 0.153935179 0.150540128
0.120653689 0.169377059 0.155203760
0.166627690 0.167385131 0.155821070
0.216985807 0.162857383 0.158768177
0.264019281 0.162227616 0.161717251
0.306692839 0.164054185 0.164309576
0.356168002 0.167795688 0.167735696
0.410713822 0.173277244 0.172271997
0.468332529 0.179976061 0.177188009
0.528157234 0.187523872 0.181564689
0.589582026 0.195361510 0.183377683
0.653388977 0.202929497 0.182143003
0.720569074 0.211172074 0.180674195
0.798475266 0.221193463 0.182768747
0.894099534 0.226747632 0.181196973
0.990169227 0.223135382 0.170505375
0.000000000 0.177755952 0.136960253
0.069878995 0.186305761 0.145335495
0.112975001 0.210312560 0.156426191
0.154206455 0.226328939 0.162192181
0.208532333 0.231996149 0.163085818
0.257905692 0.235567078 0.163192615
0.301543444 0.238985151 0.163516015
0.351454347 0.242613643 0.164970696
0.405974060 0.246717513 0.168369204
0.463929564 0.251558065 0.174555436
0.524904668 0.256977379 0.182891250
0.587667942 0.261693031 0.191699311
0.650929511 0.265437365 0.199331492
0.714184225 0.269803464 0.205427930
0.783908427 0.276860178 0.210425064
0.872325361 0.284315556 0.205926999
0.966706932 0.285014421 0.189573884
0.000000000 0.218430698 0.135108054
0.065982684 0.219870433 0.144748747
0.116352066 0.239800885 0.161261454
0.157606021 0.264510244 0.175925493
0.211507052 0.279500842 0.179912388
0.259504169 0.287624955 0.178551942
0.301056534 0.293456703 0.176884368
0.348838270 0.298931658 0.175271988
0.402121991 0.303927213 0.175303489
0.459947437 0.308789730 0.178409368
0.521439075 0.314524502 0.184822828
0.585339487 0.320257306 0.193330556
0.649282515 0.324337751 0.202466443
0.710787535 0.326726347 0.212633431
0.774768054 0.330301553 0.225308076
0.855268836 0.335975021 0.231777310
0.946580172 0.338206738 0.223690823
0.000000000 0.250926673 0.133959308
0.058896940 0.249624431 0.144896120
0.119117685 0.265268803 0.162614256
0.164926842 0.293945014 0.183832377
0.219524875 0.314177632 0.193326175
0.266529262 0.324610323 0.193650946
0.305802345 0.331841856 0.192074880
0.350080162 0.339191645 0.190370262
0.400049090 0.345838815 0.189167991
0.456029505 0.351697445 0.189584807
0.517512202 0.357978940 0.192814425
0.582245350 0.364903122 0.198838681
0.647232652 0.370995820 0.206142381
0.708734274 0.374380618 0.215134203
0.768717706 0.376232773 0.228840441
0.842269063 0.379927695 0.243830830
0.929598927 0.382358164 0.248775318
0.000000000 0.288276643 0.132780001
0.048967060 0.285753787 0.144543692
0.119723193 0.297367126 0.159895182
0.172927886 0.328885406 0.185194820
0.229891434 0.354881823 0.202602312
0.277963489 0.366921842 0.207049236
0.316541821 0.374615431 0.207902819
0.357626617 0.382990330 0.208213955
0.402570516 0.391859651 0.208486691
0.453926682 0.400031269 0.208664387
0.513376832 0.407534540 0.209529579
0.578325689 0.415189505 0.211923003
0.644648790 0.423034072 0.216114312
0.707610488 0.428772777 0.222165003
0.765607238 0.430727720 0.232709944
0.831766605 0.432782888 0.249924779
0.913253009 0.434888840 0.265609890
0.000000000 0.330699384 0.131549567
0.037591740 0.328235388 0.143139750
0.119154930 0.336186141 0.153002992
0.179526314 0.368591726 0.177220419
0.238141820 0.401130706 0.202276558
0.288290679 0.415790826 0.212993622
0.328911632 0.423231423 0.217579752
0.370757520 0.431023359 0.221319482
0.412726313 0.440636098 0.225204319
0.458357930 0.451197207 0.228612080
0.512448370 0.460946441 0.230608851
0.575394452 0.469620824 0.231496319
0.642328918 0.478228331 0.232844323
0.707330823 0.485695273 0.235987246
0.766355753 0.489043832 0.242541507
0.827559114 0.490588039 0.255844891
0.902882099 0.492448658 0.272678435
0.000000000 0.379215062 0.130397379
0.026614686 0.377516538 0.139951438
0.117787749 0.382045537 0.143447310
0.185297698 0.410901368 0.161398873
0.242562756 0.449086040 0.190814108
0.292460740 0.468495667 0.208311006
0.335724503 0.477091610 0.217489004
0.381906092 0.483389586 0.224462315
0.426434219 0.491086602 0.231429681
0.469585061 0.501590550 0.238905177
0.517475009 0.513288379 0.245673493
0.575329244 0.523870826 0.249880880
0.640960813 0.533046782 0.251468271
0.707465708 0.540881097 0.252804935
0.769573033 0.545894146 0.257567048
0.829859018 0.548569918 0.267150074
0.899767876 0.550700903 0.278649807
0.000000000 0.433886856 0.129104435
0.016757311 0.433169752 0.134992242
0.115902938 0.434991091 0.132835746
0.191210389 0.455530763 0.141853690
0.246811062 0.494147390 0.170474127
0.292362958 0.519587219 0.193855822
0.334771395 0.531978190 0.208245561
0.384014159 0.538550377 0.219144568
0.434367269 0.543146610 0.227654248
0.481227368 0.550226033 0.236594200
0.526982784 0.560661554 0.247059494
0.578928709 0.572305143 0.257480711
0.640718520 0.582829535 0.264196247
0.707326472 0.590776563 0.266963303
0.772610128 0.596276641 0.271513671
0.835092247 0.601444900 0.281374812
0.901719272 0.605622053 0.290804267
0.000000000 0.493668228 0.126456112
0.007984312 0.493095428 0.127929881
0.112749569 0.493017644 0.122485936
0.196047828 0.503187418 0.123010129
0.254209995 0.534733117 0.145547643
0.294468611 0.563733280 0.172053009
0.331588387 0.581820428 0.192151770
0.378476113 0.592916012 0.208666503
0.431797504 0.597075939 0.219839960
0.484817803 0.599468887 0.228423491
0.534300447 0.604804873 0.238581002
0.584469795 0.613994360 0.252339512
0.641943455 0.624601007 0.266012371
0.706528962 0.633599281 0.274372935
0.773580611 0.639454544 0.280345351
0.839474559 0.645998359 0.292592019
0.905533493 0.653242171 0.305818379
0.000000000 0.556378186 0.121439308
0.004928438 0.554437816 0.118466258
0.108356684 0.552697062 0.111220062
0.197600201 0.554802120 0.106520183
0.262964338 0.573377848 0.119253755
0.301977366 0.599695146 0.144079000
0.333262473 0.622095525 0.168494448
0.372828096 0.640568674 0.192533091
0.422312886 0.649821579 0.210504681
0.477863163 0.650906384 0.221092433
0.533156931 0.650298417 0.229405180
0.586932540 0.653061092 0.241655320
0.643583119 0.659787595 0.258757234
0.705855012 0.668295622 0.274129182
0.772469401 0.675637901 0.284026116
0.840974510 0.682593405 0.297223002
0.908485889 0.690831780 0.314234883
0.000000000 0.619280040 0.112743124
0.003499313 0.615433216 0.106289692
0.102894813 0.611916065 0.097999685
0.195542142 0.609175265 0.091107748
0.269248009 0.614906073 0.094310626
0.312629998 0.632102191 0.112238809
0.342033207 0.653070211 0.136510685
0.374083698 0.677030504 0.167166889
0.414327383 0.695220470 0.195628002
0.465058237 0.701447070 0.214291126
0.522486985 0.698326468 0.224063993
0.581673384 0.693744838 0.233310938
0.642087996 0.692750573 0.248412326
0.705193162 0.696097732 0.267726153
0.770833135 0.703272343 0.283138305
0.839773774 0.711118579 0.295566440
0.909750462 0.717264056 0.309394360
0.000000000 0.680948615 0.100375175
0.002070185 0.675164461 0.091965862
0.097287431 0.669754326 0.083114862
0.191655770 0.664393842 0.075171985
0.271248013 0.661755204 0.072157353
0.321463645 0.667981565 0.080633655
0.354178071 0.681760490 0.099445224
0.383910894 0.704338431 0.131273031
0.414924622 0.729260504 0.169695914
0.454846203 0.745197356 0.201936796
0.507478058 0.746007204 0.220106632
0.568987668 0.737062335 0.229232669
0.634472907 0.727402866 0.240064770
0.702018619 0.721818745 0.257615089
0.769278884 0.723506689 0.276888609
0.837243736 0.730672002 0.289364815
0.908276677 0.735112786 0.295395285
0.000000000 0.740898013 0.086115301
0.000739687 0.733323455 0.076185673
0.092567191 0.726124883 0.067147985
0.187978148 0.718935966 0.059355050
0.269983619 0.712507069 0.052642547
0.325545222 0.711006641 0.053520728
0.363871127 0.716195405 0.063845225
0.397094786 0.731324136 0.089680292
0.424513698 0.755720854 0.131774902
0.453490466 0.779342532 0.178221226
0.494978487 0.788790643 0.211715609
0.553095818 0.780702949 0.226922691
0.621764898 0.764766932 0.234799564
0.694711983 0.750625968 0.246823490
0.766409457 0.743943453 0.264792323
0.834372163 0.746716380 0.278878123
0.903097808 0.750624359 0.280676246
0.000000000 0.799047053 0.070267618
0.000000000 0.789826035 0.060048364
0.088798761 0.781158626 0.050889798
0.184664831 0.772684693 0.042717103
0.267491400 0.764576614 0.035140857
0.325549960 0.759516656 0.031740356
0.368104547 0.758694470 0.034401599
0.407129794 0.765266061 0.050074603
0.437121063 0.783212006 0.087447099
0.459972948 0.808089018 0.142647386
0.489107937 0.825017631 0.193968982
0.538696945 0.822024286 0.221970916
0.607428849 0.804162502 0.230656072
0.684610486 0.784609258 0.236443877
0.760477424 0.771685958 0.248668447
0.828849912 0.769009411 0.262966484
0.894145608 0.771147013 0.267418444
0.000000000 0.855552375 0.054698065
0.000000000 0.844896793 0.044231124
0.085415252 0.835568845 0.034549065
0.181173831 0.825987637 0.026170747
0.264169008 0.816791356 0.018186750
0.322675794 0.810146332 0.012222688
0.367552102 0.806165874 0.010350001
0.411240280 0.806391835 0.017003259
0.446032643 0.816415250 0.045027073
0.467983693 0.837061405 0.101128131
0.487669259 0.857212961 0.167244300
0.526688755 0.859806657 0.211638436
0.592339158 0.843404770 0.224654377
0.671618223 0.821868837 0.226098999
0.750567555 0.805883884 0.231131524
0.818511367 0.799192309 0.243236810
0.878401220 0.796761394 0.252392560
0.000000000 0.022869000 0.211603865
0.075529747 0.018186312 0.224063814
0.126335502 0.015081501 0.236085877
0.203115374 0.010546874 0.234980941
0.286103129 0.005914249 0.237795994
0.348590434 0.002612250 0.241685688
0.398236752 0.000098625 0.243232995
0.451745749 0.000000000 0.242871121
0.506975412 0.000000000 0.241350755
0.563103199 0.000000000 0.240994364
0.619102240 0.000000000 0.243485868
0.678370237 0.000000000 0.247977808
0.747150898 0.000000000 0.251730382
0.828220785 0.000000000 0.254856646
0.916344166 0.000000000 0.263983995
0.997030377 0.000000000 0.278075755
0.999939382 0.000000000 0.284829140
0.000000000 0.096726194 0.190180451
0.062527634 0.099038750 0.208328620
0.116533309 0.104537815 0.226575866
0.181389704 0.106149822 0.228475943
0.246713504 0.106079437 0.227277935
0.301004887 0.109055623 0.227667138
0.347778767 0.112785622 0.227186069
0.400976479 0.117917128 0.225304872
0.457766920 0.123817816 0.222454369
0.515426993 0.130230248 0.220431671
0.572793007 0.137284741 0.221720189
0.630487263 0.144628510 0.225650311
0.693848193 0.150094822 0.227603257
0.768783092 0.152943194 0.223915637
0.854650199 0.157249182 0.221669063
0.944677472 0.162993059 0.226717815
0.999945998 0.162570551 0.229597569
0.000000000 0.125466496 0.182220876
0.064577572 0.140121996 0.200482070
0.107056499 0.161019638 0.224736750
0.160886705 0.163401634 0.232338995
0.219799116 0.158813879 0.232491001
0.269294262 0.157849565 0.233379692
0.313416243 0.159684122 0.234590366
0.364479154 0.163472071 0.235599235
0.420639515 0.168941125 0.235768765
0.479844779 0.175185814 0.235671878
0.541271865 0.182693630 0.236450747
0.603982389 0.191867694 0.238043442
0.667888761 0.203577235 0.236971259
0.735484481 0.213431120 0.228587925
0.812533200 0.217698500 0.219159365
0.903602421 0.220439062 0.221724451
0.996303976 0.221437991 0.228564262
0.000000000 0.167029321 0.178774178
0.074457757 0.179846391 0.192633703
0.106474809 0.209051460 0.212246001
0.142085522 0.227442071 0.221134618
0.199538559 0.229460075 0.222625613
0.253070354 0.229289830 0.224715874
0.299964219 0.230370700 0.227471054
0.352788478 0.232298568 0.230303735
0.409585267 0.235052451 0.232874691
0.468003392 0.238919884 0.235570371
0.528377235 0.244627446 0.240048438
0.591503203 0.251486570 0.245996192
0.657729030 0.259622335 0.250073820
0.724856853 0.270546377 0.247153938
0.793716669 0.278753817 0.234844059
0.875727952 0.280753016 0.226795241
0.967455566 0.280440867 0.230792493
0.000000000 0.206942633 0.177395493
0.083034813 0.215902761 0.188852817
0.119278744 0.240119755 0.204276741
0.142919630 0.267728686 0.214284122
0.191850141 0.282073617 0.218539640
0.244233817 0.286768496 0.220908135
0.291756153 0.289306879 0.222725749
0.345851660 0.291668206 0.224160194
0.404124856 0.293487012 0.224771500
0.463961869 0.295568705 0.226199880
0.524561048 0.299923360 0.231301993
0.587133586 0.306922734 0.240772620
0.653374791 0.314436883 0.252033740
0.722085774 0.323501378 0.261002094
0.790540695 0.333117366 0.260725856
0.864410639 0.336848140 0.251101822
