public/lut/39.cube
TITLE "17x17x17 Adobe/IRIDAS cube 3D LUT exported with GrossGrade v0.2.2 (beta) 64 bit"
DOMAIN_MIN 0 0 0
DOMAIN_MAX 1 1 1
LUT_3D_SIZE 5
0.000000000 0.026023000 0.054933999
0.274997264 0.010448249 0.038837250
0.479155540 0.000000000 0.027206000
0.730158269 0.000000000 0.013996998
0.999945998 0.000000000 0.000000000
0.000000000 0.229235247 0.011434250
0.197909743 0.285743505 0.000000000
0.399436265 0.311315745 0.000000000
0.653321981 0.336083263 0.000000000
0.949680746 0.331038743 0.000000000
0.000000000 0.387609005 0.000000000
0.213820264 0.480697513 0.000000000
0.397931516 0.504397035 0.000000000
0.651012480 0.526712537 0.000000000
0.930573463 0.540812969 0.000000000
0.000000000 0.617727757 0.000000000
0.230810761 0.662099779 0.000000000
0.385466516 0.721335769 0.000000000
0.630469024 0.713617027 0.000000000
0.921393752 0.722317994 0.000000000
0.000000000 0.861082017 0.000000000
0.252770245 0.830076754 0.000000000
0.370057523 0.902675033 0.000000000
0.596055269 0.867368221 0.000000000
0.856818020 0.824977994 0.000000000
0.000000000 0.022080000 0.262282014
0.264779031 0.005914250 0.314126492
0.491515756 0.000000000 0.329652250
0.730479062 0.000000000 0.328985006
0.999913275 0.000000000 0.337545753
0.000000000 0.194028243 0.243701503
0.190744504 0.274672270 0.326910734
0.395324022 0.287250996 0.336563259
0.644288540 0.294456989 0.328766018
0.939932704 0.317138284 0.297659248
0.000000000 0.343428493 0.238692999
0.221922010 0.421223998 0.284147501
0.382485271 0.491853774 0.330461740
0.631643534 0.491682023 0.308681250
0.914889574 0.536062956 0.389085501
0.000000000 0.574359775 0.185090750
0.264952749 0.612311482 0.290884227
0.433263779 0.652198434 0.346758276
0.671133518 0.699172020 0.415408999
0.891918004 0.758549750 0.441370755
0.000000000 0.820438743 0.146028250
0.279787540 0.798336267 0.281399250
0.484433293 0.776854992 0.254998744
0.634462476 0.846091747 0.345361263
0.897567987 0.819567740 0.456669271
0.000000000 0.019320000 0.412628531
0.296695769 0.000394499 0.512855053
0.459148526 0.000000000 0.516812980
0.689086974 0.000000000 0.495807230
0.988155007 0.000000000 0.534901500
0.000000000 0.200780749 0.438954532
0.202721506 0.257589251 0.515452266
0.393745303 0.291926265 0.540555477
0.648589253 0.316356003 0.526535749
0.936668992 0.329224765 0.466118991
0.000000000 0.318158507 0.420281529
0.222144991 0.398602962 0.501816273
0.394891500 0.465609521 0.554253936
0.630240798 0.487532526 0.567924738
0.909054518 0.489600003 0.554264486
0.000000000 0.532123208 0.397483259
0.275469542 0.599817514 0.444337249
0.421950996 0.642583251 0.492495000
0.610013306 0.702412307 0.559228301
0.883262992 0.719840050 0.575802505
0.000000000 0.806905985 0.392262012
0.327796996 0.782256246 0.394267738
0.449111998 0.793351531 0.453472495
0.677849531 0.790846229 0.511656523
0.883057952 0.849133968 0.654982507
0.000000000 0.015771000 0.608732045
0.377183765 0.000000000 0.598544002
0.433532774 0.000000000 0.720527768
0.669694304 0.000000000 0.661222696
0.995451987 0.000000000 0.704052210
0.000000000 0.238592744 0.631601751
0.248781756 0.241215259 0.595671773
0.394771755 0.254768252 0.690743446
0.669340551 0.347347021 0.676231205
0.931376994 0.319986999 0.625766039
0.000000000 0.333714783 0.661390781
0.241626740 0.373238772 0.645099938
0.395850509 0.415150523 0.670955539
0.624037266 0.457037538 0.684958518
0.909002006 0.487589270 0.671220541
0.000000000 0.519161522 0.629087746
0.273588777 0.562522054 0.651913285
0.435769498 0.610398233 0.679223716
0.634495795 0.671019793 0.743503451
0.889533937 0.707143307 0.773091197
0.000000000 0.752852976 0.586479008
0.313439250 0.763447285 0.628746986
0.460511267 0.787627518 0.668758750
0.667718232 0.813316703 0.716380537
0.868494749 0.877125502 0.783845782
0.000000000 0.013406000 0.726360977
0.386880279 0.000000000 0.692551017
0.439114511 0.000000000 0.809564471
0.659011483 0.000000000 0.776168466
0.988864005 0.000000000 0.720489025
0.000000000 0.257582247 0.696169734
0.292499989 0.233777761 0.639748573
0.429049045 0.218720496 0.722641230
0.627997041 0.329951018 0.749778211
0.914391756 0.354519010 0.646443725
0.000000000 0.351830006 0.782757044
0.237190247 0.375857532 0.695986748
0.397182524 0.396077514 0.687956452
0.621093988 0.436528027 0.744853497
0.909070492 0.486429006 0.765347958
0.000000000 0.527351022 0.761787772
0.262748748 0.539080977 0.734501541
0.437911510 0.588824511 0.774622023
0.651931763 0.645161033 0.789972246
0.878098488 0.697807789 0.821184039
0.000000000 0.753787994 0.728115022
0.303497016 0.754079223 0.745485246
0.454355001 0.781624496 0.777526975
0.664777994 0.807644010 0.821508288
0.876399994 0.873549998 0.853883028
