public/lut/40.cube
TITLE "17x17x17 Adobe/IRIDAS cube 3D LUT exported with GrossGrade v0.2.2 (beta) 64 bit"
DOMAIN_MIN 0 0 0
DOMAIN_MAX 1 1 1
LUT_3D_SIZE 17
0.086071998 0.097126000 0.110072002
0.095621191 0.106622063 0.113248065
0.123418495 0.116126500 0.115656003
0.149996504 0.125695929 0.116726004
0.174993500 0.135089248 0.117320247
0.203094125 0.141849369 0.117404997
0.234789640 0.146572247 0.118627377
0.269579887 0.151210502 0.120973743
0.303646505 0.158211499 0.125599995
0.338740200 0.166865364 0.134009555
0.380517364 0.174762875 0.146937639
0.426776499 0.182957008 0.161118507
0.477699995 0.192774251 0.175578251
0.530476332 0.203990072 0.190784767
0.582594633 0.216099024 0.206181020
0.633877993 0.229668140 0.220533207
0.682183981 0.243413001 0.232939005
0.090381876 0.130766630 0.110116936
0.097543433 0.133047879 0.115699001
0.129848689 0.130940884 0.111925006
0.154016197 0.136706054 0.113005690
0.178255007 0.143977121 0.114446253
0.207327947 0.149365693 0.116256058
0.240900874 0.152029619 0.117869757
0.277875900 0.155032381 0.120890871
0.312366694 0.160938740 0.126743555
0.348282456 0.168655634 0.136810005
0.390024006 0.176969498 0.149628624
0.435954601 0.186174884 0.162747309
0.486107498 0.196592763 0.176253498
0.538399756 0.208614886 0.190308318
0.591022074 0.222193018 0.204265714
0.642499745 0.235992312 0.218068138
0.690296948 0.249638438 0.230486751
0.097275250 0.153701633 0.109032378
0.104291439 0.160553128 0.106388249
0.132767498 0.158517629 0.118414126
0.157703564 0.152495682 0.115456745
0.188297376 0.151520252 0.108713999
0.221506506 0.158082187 0.108325876
0.254771769 0.165159494 0.109754749
0.290217698 0.172188506 0.113267750
0.326771647 0.179639876 0.119958632
0.363660485 0.187906757 0.129790694
0.408403993 0.195069507 0.143952370
0.456072062 0.203392059 0.159221619
0.506167889 0.212276891 0.174814373
0.557666898 0.223542526 0.189102069
0.609769762 0.236674890 0.202764645
0.660714626 0.250440449 0.216122881
0.707283854 0.264069885 0.228153378
0.106151685 0.176410511 0.105902754
0.120086938 0.186067879 0.107888818
0.142690822 0.184791312 0.118078873
0.163224861 0.180267438 0.130501702
0.190477133 0.176152259 0.119416699
0.228882313 0.170067623 0.110854685
0.270551503 0.175067499 0.104753882
0.309790611 0.183232188 0.109026261
0.348523319 0.191976264 0.119953506
0.389294267 0.200976059 0.132110745
0.432916135 0.209810004 0.145433307
0.479910553 0.219367117 0.159297749
0.529580176 0.230890259 0.173620939
0.581768632 0.245623574 0.187126145
0.634503186 0.261311710 0.200629577
0.686481237 0.276615739 0.213828638
0.732890427 0.291284263 0.225524500
0.121394753 0.200199500 0.113002002
0.133519679 0.210251063 0.115458131
0.149489760 0.213995486 0.120992742
0.172180861 0.208718255 0.132266507
0.197257996 0.205551013 0.140098006
0.232548743 0.200892180 0.126974553
0.276161253 0.192322388 0.113306619
0.321529686 0.195042193 0.108596757
0.369537234 0.203215003 0.121802002
0.418145329 0.212173626 0.137311310
0.465780139 0.222217113 0.152492628
0.514407694 0.233736753 0.165962875
0.562397301 0.247326002 0.178705260
0.611593902 0.262801528 0.191146210
0.662151217 0.280510902 0.203150004
0.711539626 0.299791992 0.214282751
0.755212009 0.319400996 0.223943740
0.134457126 0.222290754 0.121115565
0.143749937 0.232423946 0.123658746
0.156588569 0.241822943 0.125658303
0.179095820 0.239013180 0.133787006
0.207956314 0.230526894 0.144790366
0.244848445 0.236198127 0.140809014
0.280690372 0.224909559 0.135787606
0.329469085 0.216258809 0.119201995
0.379468024 0.216709748 0.119140066
0.434474379 0.224850938 0.136528447
0.491341561 0.236736313 0.154893622
0.544724584 0.250102490 0.170551747
0.593722999 0.264937580 0.183291376
0.640399814 0.280740410 0.194725633
0.687155128 0.298698545 0.205945656
0.734296620 0.318675399 0.216134891
0.776814878 0.339661062 0.224385753
0.145509630 0.244824126 0.129160374
0.151650816 0.253320187 0.131362945
0.163884625 0.263196528 0.133454621
0.187279001 0.269025326 0.137250870
0.218172371 0.262089282 0.146604016
0.255974263 0.263152748 0.146076426
0.297811031 0.270007521 0.143546253
0.338807285 0.256820142 0.142932057
0.391308248 0.247085273 0.127368003
0.447346240 0.245684505 0.131965309
0.505896330 0.253854364 0.150288120
0.561455905 0.266276211 0.168312252
0.615058184 0.282017857 0.183534250
0.664948165 0.299004227 0.196232378
0.710398197 0.317455530 0.206562251
0.754110873 0.338023037 0.215222880
0.794621229 0.359551758 0.221946239
0.154258817 0.267556012 0.137124494
0.158822745 0.273685485 0.138824567
0.171777695 0.284108520 0.141106561
0.197734192 0.293582380 0.144217074
0.230937764 0.294773251 0.150145993
0.265830636 0.292423427 0.155736819
0.315076977 0.303268969 0.149666131
0.358934730 0.311928600 0.156174496
0.403989881 0.294683337 0.148651898
0.463042796 0.283779651 0.140918434
0.519954681 0.281118333 0.146408513
0.574632585 0.287964940 0.161397621
0.627704740 0.300837874 0.178138122
0.679271996 0.316867828 0.192531824
0.728514969 0.336578608 0.203932017
0.772032320 0.357834399 0.212562636
0.810416996 0.380472511 0.217957690
0.161572501 0.289097995 0.144791007
0.166178375 0.294904709 0.146246389
0.182547390 0.306855857 0.148831636
0.210950762 0.317632735 0.152242318
0.245773256 0.323562503 0.156944990
0.280550808 0.321445882 0.163633317
0.326440632 0.333250254 0.160861492
0.377880454 0.344246864 0.163126618
0.426958978 0.357471019 0.169838503
0.476368189 0.335026830 0.161052942
0.534910083 0.324122727 0.157475382
0.587588847 0.321419656 0.161781684
0.638476312 0.325901747 0.171526998
0.688875437 0.338996232 0.185472891
0.737476468 0.355957747 0.198099524
0.784256279 0.378021061 0.207646191
0.823886037 0.401473999 0.214703500
0.167506367 0.308867455 0.151423812
0.176836565 0.319986254 0.153951257
0.195811138 0.330666751 0.156137243
0.225250959 0.342191547 0.159589380
0.261115074 0.349599004 0.164027572
0.296705484 0.348872989 0.170278817
0.338204652 0.358959109 0.170993254
0.394147605 0.376870006 0.171362445
0.442968369 0.388606191 0.178352743
0.494070649 0.403867871 0.185463816
0.544011235 0.378303885 0.177931935
0.600258470 0.367542148 0.174454868
0.650116980 0.364193559 0.178755194
0.699150026 0.365992635 0.184366077
0.746878266 0.380062222 0.194361895
0.792157590 0.397991419 0.204614833
0.833407819 0.420868307 0.214488000
0.177593499 0.331966758 0.158211753
0.190017685 0.345862418 0.161556944
0.209725112 0.354277730 0.163225368
0.239921585 0.365859568 0.166509748
0.276317865 0.373361379 0.171035752
0.312176079 0.374165177 0.176661253
0.351059020 0.383079350 0.179097250
0.402988821 0.403704107 0.178362370
0.459532529 0.420417249 0.186751992
0.505709529 0.437324136 0.194947392
0.554933727 0.453403771 0.202297509
0.605422497 0.425458580 0.196023434
0.660134435 0.413841516 0.192611128
0.708427131 0.409459025 0.196139500
0.755491078 0.408895612 0.200966641
0.800883532 0.423645616 0.209257454
0.841693759 0.441392750 0.218445882
0.191492438 0.360434860 0.166256309
0.203252241 0.370406091 0.168524936
0.223868936 0.379366517 0.170717001
0.254330188 0.390460074 0.174307257
0.289980888 0.396376729 0.178680241
0.325831443 0.398679167 0.184351683
0.363171965 0.407339960 0.187495247
0.409284532 0.426528066 0.187101811
0.465495020 0.449804485 0.193061262
0.518428802 0.466868132 0.203106612
0.560680509 0.487985373 0.212100744
0.609076023 0.504707515 0.220052242
0.663012743 0.476460427 0.214778930
0.715095818 0.461910367 0.211472824
0.762747943 0.455101192 0.213103816
0.807293415 0.452933818 0.217831179
0.847956657 0.467455983 0.226121560
0.203749999 0.389008254 0.175017759
0.215295821 0.398777306 0.177306503
0.236462757 0.408765614 0.179867133
0.266683638 0.415399611 0.183293372
0.301899731 0.419113755 0.187547997
0.338462383 0.423344523 0.193040252
0.374663264 0.430931628 0.196607873
0.417222589 0.448960871 0.196645930
0.468839258 0.473337531 0.199425757
0.524982929 0.497259498 0.210169435
0.571316898 0.515330374 0.219833627
0.614814639 0.542798460 0.230854496
0.659223258 0.554373264 0.237259746
0.716878176 0.526100039 0.232888699
0.767336369 0.509209633 0.229929879
0.812531710 0.498840213 0.229517013
0.852177739 0.496714026 0.233432502
0.214938447 0.413194895 0.183913708
0.225958705 0.418538749 0.186019450
0.247782573 0.429685831 0.188713700
0.278152376 0.434771150 0.192341268
0.313438296 0.439697832 0.196307957
0.350600064 0.446148157 0.201783821
0.387046576 0.454387665 0.206181690
0.428137898 0.472152710 0.206064463
0.474925101 0.494854480 0.207608342
0.528477669 0.522194445 0.215778679
0.580351532 0.545834541 0.227552563
0.621056020 0.564951956 0.236880645
0.666778326 0.598171532 0.250126183
0.709557056 0.605589867 0.256019354
0.770250082 0.572395205 0.249744892
0.814588070 0.552721262 0.246837884
0.855900109 0.539773285 0.244143143
0.225190639 0.426914394 0.192598403
0.236325473 0.432547361 0.194602817
0.258792877 0.444547504 0.197306395
0.289494365 0.451576293 0.201008335
0.324997485 0.457898408 0.205470398
0.362803638 0.466538817 0.211181015
0.400173545 0.476613283 0.216121510
0.440389037 0.494448215 0.216369763
0.485210896 0.517753899 0.216637641
0.533303201 0.543162167 0.222452894
0.583798349 0.570519984 0.232787251
0.632091999 0.595109224 0.244991809
0.669223011 0.616176009 0.254642993
0.715648651 0.652654052 0.268972099
0.758209646 0.649897099 0.272417128
0.817542851 0.611327887 0.264303714
0.854114115 0.590664923 0.261009276
0.236572579 0.438642055 0.202041462
0.247564256 0.444975257 0.203561127
0.270612955 0.459623545 0.206135958
0.301686883 0.470220089 0.210351884
0.337230563 0.479514420 0.215006962
0.375697941 0.491431683 0.220719755
0.414519668 0.506406903 0.225663126
0.453831881 0.525312960 0.227336451
0.497748941 0.550663292 0.229214132
0.541405976 0.573789716 0.234918073
0.585121334 0.596937120 0.241344571
0.631475687 0.622527301 0.250528395
0.678062022 0.647375345 0.262716055
0.711289763 0.665736794 0.271527141
0.760355711 0.701175988 0.286217928
0.804548919 0.683823705 0.286146522
0.859471858 0.645470858 0.276650041
0.252945006 0.473334998 0.213523000
0.263849437 0.483132958 0.214941055
0.286772013 0.505083025 0.218069240
0.316907436 0.522327423 0.222229689
0.350841492 0.534180760 0.225535497
0.386104941 0.544637680 0.228047431
0.425258905 0.562027454 0.233041003
0.465679169 0.579512477 0.239724010
0.508841038 0.600667477 0.247998506
0.551085830 0.620508194 0.253985316
0.591574490 0.638213277 0.258679360
0.631363869 0.655317247 0.262872368
0.674603760 0.675924778 0.269046009
0.719275236 0.697014809 0.279213190
0.752119184 0.713707685 0.287896395
0.799110830 0.738845110 0.300375998
0.848371983 0.711875975 0.298150986
0.094157495 0.118811503 0.136284381
0.105260059 0.121706247 0.139127761
0.140562445 0.125832617 0.141703755
0.164686009 0.130998999 0.141087249
0.190564007 0.134329200 0.141122490
0.220072940 0.136739999 0.140339196
0.249159381 0.137453943 0.137538314
0.275382251 0.139490619 0.136681065
0.304883927 0.146432996 0.141118005
0.339863628 0.154661506 0.148608565
0.380322635 0.163846493 0.158490241
0.424996316 0.174021512 0.169809625
0.475203216 0.186068505 0.183182448
0.527085900 0.199342385 0.197315767
0.578731179 0.212845951 0.211158693
0.629970610 0.226782888 0.224491954
0.677532315 0.240105942 0.236512557
0.098153062 0.130194753 0.142232001
0.105260059 0.134043425 0.145470947
0.130276993 0.139176503 0.148641959
0.153448567 0.144712761 0.147413254
0.181108624 0.147644192 0.145039260
0.211306319 0.151678994 0.140888572
0.245666310 0.157423556 0.137337446
0.282899767 0.161526069 0.134290874
0.321859807 0.166523799 0.135125369
0.358420372 0.172322497 0.139574558
0.396422952 0.179442197 0.150439814
0.441285640 0.186706558 0.164672747
0.489524961 0.195405751 0.179256886
0.539616346 0.206051022 0.193560570
0.590739012 0.218776330 0.207819447
0.641948938 0.232937276 0.221224457
0.689189076 0.246630818 0.233270004
0.103802755 0.155835196 0.151266932
0.105710067 0.158053875 0.146581188
0.128755882 0.157581866 0.150242805
0.153504506 0.158831120 0.148202121
0.182878822 0.163703129 0.149261758
0.215637058 0.168395936 0.146411821
0.252530873 0.171533376 0.142299697
0.292265147 0.174172878 0.138080746
0.333758831 0.178301945 0.136595249
0.374499977 0.183625802 0.138735890
0.412559688 0.190771699 0.148204014
0.457689047 0.198453128 0.163400263
0.506441295 0.207440436 0.177749455
0.556538820 0.218805701 0.191146880
0.607187212 0.231647819 0.204481006
0.657081842 0.245392829 0.217589378
0.703192174 0.258905798 0.229680389
0.111431561 0.182264119 0.145517871
0.109661184 0.181085825 0.135596246
0.128065750 0.189753398 0.142876551
0.157273948 0.187870190 0.149877757
0.192457318 0.181614757 0.146155819
0.230369687 0.179019064 0.139085189
0.267410189 0.184426069 0.135282874
0.305834383 0.190896302 0.132658318
0.346393704 0.198101938 0.132398754
0.388512671 0.204898760 0.134162381
0.429917008 0.212400049 0.142770872
0.476256847 0.220177129 0.157636687
0.526792765 0.229619399 0.173307255
0.577422738 0.241942644 0.187533826
0.628287911 0.255103350 0.201080695
0.677646875 0.268434763 0.214044452
0.722977161 0.281205684 0.225888506
0.116956443 0.204091445 0.134292379
0.116252944 0.204283565 0.128627002
0.132441118 0.220897809 0.134306803
0.164777815 0.218097761 0.145732746
0.198387504 0.212782323 0.155112833
0.235592499 0.207673013 0.146478876
0.282705307 0.198239550 0.132351428
0.327314079 0.201605126 0.123751000
0.369596094 0.209259421 0.123354495
0.412070900 0.218088880 0.131131053
0.456218928 0.228285134 0.143707246
0.502929568 0.239248380 0.158233806
0.550922632 0.251670301 0.172216147
0.599576414 0.266085327 0.184927076
0.648859918 0.281431049 0.197801694
0.698615968 0.297741592 0.210096583
0.742854416 0.313674927 0.220995188
0.128672436 0.224948809 0.127693802
0.126502797 0.226882115 0.125102937
0.143716693 0.248326570 0.133079499
0.171885386 0.248219684 0.144286692
0.206738263 0.240838945 0.153936267
0.244658366 0.241940364 0.154227823
0.285896331 0.233033553 0.150859639
0.338550597 0.222625867 0.133696854
0.390541881 0.223260567 0.122036949
0.439560980 0.232068494 0.133888260
0.489150941 0.243213326 0.149205446
0.537447631 0.255557418 0.164053380
0.584022045 0.269550771 0.176758245
0.630588353 0.285171568 0.188581586
0.676193237 0.302432507 0.199417964
0.721450746 0.321567535 0.209353074
0.762554348 0.341279119 0.217400447
0.141121820 0.246390015 0.130601943
0.141191378 0.249609068 0.131873935
0.155084297 0.271821678 0.138552368
0.179669768 0.279606760 0.145199433
0.215243071 0.273045868 0.153171629
0.254980356 0.269959658 0.157913685
0.299867511 0.277032375 0.153644562
0.344612718 0.266398221 0.155959129
0.401032180 0.255478889 0.134818569
0.459135085 0.253518283 0.133990750
0.517791390 0.261436284 0.151215509
0.568189263 0.274111450 0.166593373
0.613638282 0.288585424 0.178956315
0.658315539 0.304283082 0.190452769
0.702151954 0.322299033 0.200142324
0.746059656 0.342967421 0.208525568
0.785346925 0.364651173 0.214702114
0.150780246 0.267478943 0.137451828
0.151158750 0.272754252 0.139951810
0.164320871 0.293059260 0.145611003
0.190746009 0.307824820 0.149714753
0.226557627 0.304796934 0.156226426
0.264405906 0.299460322 0.165140063
0.314691424 0.309959114 0.159602746
0.358995914 0.317585349 0.161952198
0.409813285 0.305532366 0.159403890
0.472522378 0.293431967 0.144450948
0.530509830 0.289803296 0.149156317
0.586560071 0.296441317 0.162610754
0.637809277 0.309274018 0.177624941
0.682035625 0.325046360 0.189052582
0.724036157 0.343196779 0.198273331
0.764914095 0.364040732 0.206053749
0.803413391 0.386608124 0.211851940
0.157155678 0.288694799 0.145341009
0.158244565 0.294499695 0.147587255
0.175618187 0.316768110 0.153088331
0.204067320 0.332376003 0.156786680
0.240538388 0.333146065 0.162502363
0.278759152 0.329040289 0.171418801
0.324194938 0.337938428 0.171671182
0.379925579 0.351269484 0.165533051
0.426344275 0.362774938 0.172446877
0.480930686 0.346225947 0.166771695
0.544214785 0.335524589 0.161249250
0.596624196 0.331555337 0.165198877
0.647894800 0.335084677 0.172937080
0.698332667 0.347837478 0.185460806
0.742114484 0.365231395 0.195922151
0.782308459 0.386090636 0.203717321
0.819273055 0.408483237 0.211369559
0.161742881 0.308586329 0.152211875
0.166148379 0.317115068 0.154598370
0.189770550 0.342930257 0.160504684
0.218270436 0.355691433 0.163846076
0.254654199 0.358234823 0.169123247
0.294031441 0.356683612 0.177467510
0.336041451 0.363544971 0.181819499
0.393467009 0.383107901 0.175143793
0.445501089 0.394966811 0.179857060
0.493953943 0.410193950 0.187282190
0.546844542 0.389991790 0.182360932
0.607869327 0.380097777 0.178546995
0.656990469 0.374741614 0.181947500
0.705555260 0.375468880 0.187386751
0.753885567 0.388737768 0.196108148
0.797558904 0.407813668 0.205423698
0.834190607 0.429959446 0.215075493
0.166390553 0.326147705 0.157787815
0.179639056 0.344452769 0.162460938
0.204177931 0.367481381 0.167253122
0.232506961 0.377376646 0.170629442
0.268618166 0.380216002 0.175775856
0.308320314 0.381316811 0.183744386
0.348885149 0.387878627 0.189478889
0.401114523 0.408465177 0.184967875
0.461289555 0.428164929 0.188342065
0.507229865 0.442854941 0.196351066
0.555759251 0.460894525 0.204427063
0.608484209 0.437247008 0.200524315
0.665817916 0.426474273 0.197114736
0.713094890 0.419669271 0.198846623
0.759930670 0.418213308 0.203891754
0.806663990 0.432073712 0.212399200
0.847100556 0.451465011 0.221573383
0.174714133 0.347263545 0.163773194
0.196189389 0.375536889 0.171195552
0.217766672 0.390507817 0.174521059
0.245940566 0.398599178 0.177945867
0.281298488 0.401255935 0.183008566
0.320735246 0.404961526 0.190717131
0.360562235 0.411724061 0.197821677
0.407495290 0.430589974 0.197363362
0.465734065 0.456238449 0.194760203
0.522518396 0.475645870 0.205391452
0.561832666 0.493119568 0.213451058
0.610606432 0.512626529 0.222404197
0.664314389 0.486292511 0.217900127
0.719238460 0.473259985 0.215809003
0.765799165 0.464184433 0.215282753
0.810550153 0.461419940 0.220266581
0.853564143 0.475857675 0.228774682
0.185779184 0.375137508 0.172018752
0.209408194 0.402297705 0.180347294
0.229417264 0.411540598 0.183065131
0.257652521 0.419219464 0.186348751
0.292531699 0.421695143 0.191172704
0.331712812 0.427391022 0.198230937
0.371834397 0.435272962 0.205918312
0.416063994 0.452904522 0.208439693
0.468611866 0.478216887 0.204884261
0.526858687 0.504641831 0.211724818
0.576275468 0.524241984 0.222396374
0.614539623 0.546017230 0.231521204
0.660104275 0.561444581 0.239603817
0.718242884 0.534990132 0.235395551
0.769663751 0.518648446 0.233134627
0.815114915 0.505883694 0.231241822
0.856373847 0.504227877 0.235401750
0.200165331 0.406534523 0.181766078
0.220772892 0.419818252 0.189364582
0.240812629 0.428108245 0.191560328
0.269337922 0.437261522 0.194727018
0.304249555 0.440636784 0.199539781
0.342704773 0.447672099 0.206001624
0.383018672 0.457337528 0.213642523
0.426020712 0.474563211 0.217374817
0.474979967 0.499160141 0.216468260
0.529323280 0.527622402 0.217395499
0.582780957 0.553128541 0.229410127
0.626147747 0.573218584 0.239410326
0.665336788 0.599562943 0.250250369
0.708518267 0.609781742 0.257129908
0.772251725 0.579395235 0.251636893
0.816405416 0.560217381 0.249585271
0.859060049 0.545617044 0.246325016
0.213764578 0.428876668 0.191701770
0.231921583 0.432823986 0.198581204
0.252417564 0.443088055 0.200288832
0.281370252 0.453467578 0.203499198
0.316092998 0.458054781 0.208242387
0.354229838 0.466359079 0.214234591
0.394514471 0.477131516 0.221887127
0.436819553 0.494612455 0.226387769
0.484612405 0.520605326 0.226824313
0.534148812 0.547583401 0.226152390
0.585415602 0.576154470 0.234156683
0.634867013 0.601921856 0.246846452
0.671835780 0.621405184 0.256177455
0.713470936 0.652218401 0.268622994
0.755732059 0.650024652 0.272262275
0.819633722 0.617423534 0.266155094
0.858285069 0.596974075 0.263030797
0.225956887 0.441692144 0.201750442
0.244468883 0.446980357 0.208606377
0.265235007 0.458989769 0.209701821
0.294455320 0.471367389 0.213018700
0.328951329 0.478357047 0.217320263
0.366457820 0.488169283 0.222966269
0.406530827 0.501241744 0.229856312
0.448554367 0.521805704 0.234839752
0.494501740 0.551332712 0.235891193
0.541384280 0.579951584 0.238338128
0.585846841 0.604190588 0.244261131
0.631897330 0.628739893 0.252205193
0.679405153 0.652777135 0.263972878
0.712297976 0.668422282 0.272271425
0.757467151 0.699039519 0.285312742
0.802095056 0.682114899 0.285363317
0.864331305 0.653125823 0.279178917
0.246065438 0.485412002 0.214669511
0.263357610 0.494270086 0.220731750
0.282918453 0.508378386 0.221771553
0.311051250 0.524083078 0.225309387
0.343684375 0.532601178 0.228670001
0.380105257 0.544961572 0.232245684
0.418269336 0.556998730 0.235657752
0.458155543 0.572247624 0.240044683
0.502552271 0.596441448 0.246928245
0.548680305 0.622836530 0.255150378
0.592101336 0.644901454 0.261437446
0.632784843 0.662153959 0.265803635
0.674892664 0.680003226 0.270452321
0.719553828 0.699106872 0.279740870
0.750625908 0.712686419 0.287557989
0.796251416 0.736510575 0.299389064
0.847099245 0.709823310 0.297420561
0.102730878 0.136118755 0.154127255
0.110312000 0.135805935 0.153608516
0.134776250 0.140625373 0.161407009
0.175957143 0.144287571 0.161444440
0.205967501 0.146974877 0.159362376
0.234059930 0.149299249 0.157909676
0.269096911 0.152275369 0.157389134
0.304705858 0.155541748 0.156560630
0.343116373 0.159771115 0.157858640
0.382125318 0.165443122 0.160824999
0.416368246 0.172964007 0.165578261
0.454103202 0.182318375 0.174546123
0.500326514 0.193204626 0.187229514
0.547796428 0.205253646 0.200359449
0.595052421 0.217686892 0.213108510
0.642104506 0.230642200 0.225855321
0.685875773 0.242802754 0.237494871
0.103924125 0.139344513 0.155414686
0.111142755 0.144597113 0.161024988
0.131635502 0.148341566 0.164688051
0.166275263 0.152889118 0.169804499
0.198400944 0.156035244 0.165499002
0.231910929 0.157181635 0.162960693
0.269146532 0.157338247 0.159361616
0.306868345 0.158347309 0.156749249
0.347058207 0.162745506 0.158406064
0.388917863 0.168665111 0.161962122
0.425537229 0.175971895 0.166786179
0.461211085 0.184964374 0.174872071
0.505356252 0.195313886 0.187137678
0.551283717 0.206734449 0.199796572
0.597368956 0.218732268 0.212571889
0.643385112 0.231152758 0.225330070
0.687257826 0.243579492 0.237009749
0.109661251 0.151119128 0.164547876
0.113525748 0.155679494 0.168746129
0.131938368 0.160072625 0.173801750
0.156246334 0.165955484 0.179339364
0.187640756 0.171076864 0.176154256
0.223079309 0.171372250 0.169682890
0.261129022 0.169118881 0.160494879
0.301306099 0.169621199 0.155764371
0.344726264 0.172434628 0.156670377
0.388891071 0.176904261 0.160125688
0.432145983 0.182531878 0.165242255
0.467934847 0.190265015 0.172907755
0.509903371 0.198957622 0.185165137
0.555423260 0.209731385 0.197899446
0.602278292 0.222291753 0.210396394
0.650943339 0.236175895 0.222739935
0.697014272 0.250105619 0.234072506
0.116440691 0.178881705 0.178445444
0.118494004 0.184196413 0.179746687
0.129921496 0.188644648 0.180951625
0.152285874 0.189356893 0.182377368
0.182530701 0.192303821 0.181997120
0.220027566 0.196967244 0.180270746
0.261594832 0.201191753 0.173952997
0.304203272 0.203232437 0.168154687
0.349112213 0.204260007 0.165927619
0.395710379 0.205638319 0.166346878
0.443031430 0.207136437 0.167479485
0.486566365 0.209703982 0.170721382
0.526072800 0.216235876 0.180317700
0.571619689 0.226783454 0.192786023
0.620525181 0.239876524 0.205244333
0.669784188 0.254725695 0.217578441
0.716098487 0.269820631 0.228702247
0.130002379 0.215773255 0.185808003
0.129264191 0.218180820 0.177246749
0.127523243 0.218530387 0.167664111
0.148222178 0.225629255 0.169479251
0.183600143 0.227219388 0.174411252
0.234489068 0.216665745 0.172363430
0.277397871 0.211777493 0.165912881
0.319733202 0.216357946 0.163260937
0.362624496 0.223053738 0.164892629
0.408311397 0.229582876 0.167171001
0.455958009 0.235763013 0.169206873
0.504193604 0.241603434 0.171362251
0.549734116 0.248679385 0.176945001
0.593607068 0.257879227 0.186401516
0.638178587 0.269123465 0.198764876
0.687247157 0.282954305 0.211608201
