public/lut/40.cube
TITLE "17x17x17 Adobe/IRIDAS cube 3D LUT exported with GrossGrade v0.2.2 (beta) 64 bit"
DOMAIN_MIN 0 0 0
DOMAIN_MAX 1 1 1
LUT_3D_SIZE 5
0.086071998 0.097126000 0.110072002
0.174993500 0.135089248 0.117320247
0.303646505 0.158211499 0.125599995
0.477699995 0.192774251 0.175578251
0.682183981 0.243413001 0.232939005
0.121394753 0.200199500 0.113002002
0.197257996 0.205551013 0.140098006
0.369537234 0.203215003 0.121802002
0.562397301 0.247326002 0.178705260
0.755212009 0.319400996 0.223943740
0.161572501 0.289097995 0.144791007
0.245773256 0.323562503 0.156944990
0.426958978 0.357471019 0.169838503
0.638476312 0.325901747 0.171526998
0.823886037 0.401473999 0.214703500
0.203749999 0.389008254 0.175017759
0.301899731 0.419113755 0.187547997
0.468839258 0.473337531 0.199425757
0.659223258 0.554373264 0.237259746
0.852177739 0.496714026 0.233432502
0.252945006 0.473334998 0.213523000
0.350841492 0.534180760 0.225535497
0.508841038 0.600667477 0.247998506
0.674603760 0.675924778 0.269046009
0.848371983 0.711875975 0.298150986
0.120826498 0.162976503 0.193627745
0.199193493 0.171697751 0.206220746
0.379880011 0.187225014 0.195799753
0.570827782 0.218767747 0.217207253
0.715693712 0.255225241 0.238964498
0.136554241 0.201654002 0.220954746
0.170068011 0.229434505 0.255762249
0.371746987 0.240847498 0.240483001
0.569395959 0.243377477 0.232690752
0.742391706 0.271404237 0.244525492
0.185367256 0.367832750 0.298809528
0.171105504 0.343509495 0.235058248
0.409334004 0.394235253 0.244573265
0.635379493 0.370120734 0.238572508
0.801764488 0.439658761 0.258030236
0.193934008 0.408015758 0.274201751
0.200994253 0.421143502 0.217546254
0.442400515 0.484962225 0.270206988
0.655736983 0.582689524 0.264476001
0.844181776 0.521078229 0.237997741
0.209085003 0.454759240 0.282738000
0.265013993 0.552056015 0.243058234
0.480626792 0.605835497 0.281543732
0.666106761 0.687416434 0.310552001
0.848179996 0.707000971 0.296562254
0.155546501 0.227317512 0.284152985
0.185050249 0.224538997 0.282969266
0.379295021 0.257472515 0.276148498
0.639510751 0.269628733 0.259316504
0.775354981 0.306093007 0.286390990
0.161385745 0.244571239 0.297754765
0.176866740 0.272813499 0.342834741
0.355548263 0.285813242 0.344620258
0.622720718 0.300379753 0.299430519
0.774520755 0.337251246 0.328420997
0.190147489 0.322678506 0.365401506
0.212864757 0.372748017 0.420309782
0.314367503 0.407661527 0.468973011
0.600407243 0.442655802 0.447937250
0.780696511 0.437281013 0.426366985
0.244697496 0.498167753 0.478218496
0.266998053 0.551521778 0.509326696
0.293403029 0.553590536 0.496035278
0.632336259 0.602264285 0.468024492
0.822187245 0.613861799 0.473303497
0.309012502 0.650715470 0.575347066
0.285029739 0.614874721 0.478811771
0.308290005 0.642456055 0.411080480
0.637464523 0.693254232 0.444432735
0.833310008 0.723966002 0.407194018
0.180418491 0.279186726 0.356679767
0.195500761 0.275809228 0.343277752
0.351026267 0.300788015 0.343302011
0.622152269 0.317914486 0.298204750
0.787443995 0.349785507 0.347223997
0.185861245 0.291509271 0.369208008
0.199134752 0.311625272 0.410724998
0.290318012 0.318168998 0.420603245
0.595741987 0.355490744 0.381453753
0.776283264 0.386229485 0.418749988
0.214877501 0.354480505 0.438693017
0.237301990 0.395687759 0.493828982
0.304950237 0.418550491 0.541579962
0.588406563 0.443753749 0.547221482
0.788223982 0.487659514 0.546756983
0.263473749 0.461854994 0.543583572
0.287064016 0.511748254 0.593798041
0.316326499 0.539543986 0.635096967
0.560751796 0.593448281 0.661121964
0.794434249 0.635414004 0.649563968
0.321208507 0.614489496 0.655062735
0.330369502 0.661510229 0.676915705
0.345006526 0.712230444 0.707051814
0.494391263 0.730303705 0.647670746
0.820831001 0.751945496 0.607587755
0.201095998 0.318897009 0.411390007
0.205516249 0.315609992 0.393208236
0.313311517 0.333671987 0.394029498
0.590002060 0.368131012 0.379530519
0.792204022 0.404074997 0.457165003
0.207929000 0.330371499 0.430503011
0.220808238 0.346071750 0.471915722
0.282913268 0.352821499 0.467908978
0.576717496 0.384756744 0.468584985
0.801578522 0.424323261 0.534355760
0.237835497 0.387977988 0.502793014
0.258727998 0.423619509 0.554849982
0.292769492 0.430135489 0.584834993
0.520163298 0.441761255 0.601538777
0.819210529 0.491262496 0.642918468
0.281156480 0.472529739 0.599111497
0.302395225 0.513660252 0.644735992
0.317936242 0.534172237 0.676260769
0.524196744 0.581008017 0.719939291
0.818074763 0.620923281 0.711014032
0.332424015 0.591820002 0.695703983
0.343044996 0.621676505 0.713362992
0.356006503 0.651866496 0.738682985
0.499637008 0.699820518 0.765129507
0.789389014 0.765654027 0.751408994
