public/lut/41.cube
TITLE "17x17x17 Adobe/IRIDAS cube 3D LUT exported with GrossGrade v0.2.2 (beta) 64 bit"
DOMAIN_MIN 0 0 0
DOMAIN_MAX 1 1 1
LUT_3D_SIZE 5
0.000000000 0.000000000 0.000000000
0.195872247 0.023262750 0.002366000
0.367998004 0.069468498 0.003548499
0.551171541 0.127939507 0.012025508
0.753437996 0.203610003 0.050347999
0.000000000 0.238203257 0.212540254
0.178804755 0.253273010 0.088725999
0.402059525 0.246691763 0.000000000
0.580126524 0.263147473 0.001971502
0.779095054 0.298492998 0.019517500
0.000000000 0.435092032 0.393095016
0.018531747 0.450165272 0.376098514
0.350682497 0.459212512 0.184013009
0.606268048 0.447994500 0.007294002
0.817777038 0.455605030 0.000000000
0.000000000 0.619413793 0.561047018
0.000000000 0.628538728 0.555122793
0.177819505 0.646647990 0.502033532
0.561730266 0.640631735 0.224502757
0.816085994 0.623253763 0.015377508
0.000000000 0.765845001 0.694796026
0.000000000 0.770610511 0.691038489
0.025234513 0.783089519 0.665383995
0.324017525 0.796365976 0.531436980
0.750509024 0.760137022 0.143963993
0.000000000 0.070099503 0.078941502
0.032528497 0.128846258 0.155054003
0.378854007 0.058430247 0.261797249
0.589875817 0.048613757 0.247533500
0.816534519 0.070267253 0.205294758
0.000000000 0.251053751 0.255703241
0.153444260 0.262727022 0.262946248
0.379227281 0.263482749 0.226264253
0.571546793 0.275150001 0.219746515
0.767139196 0.313596249 0.236147508
0.000000000 0.441178501 0.419689000
0.095095992 0.452247053 0.410797536
0.324389786 0.466604263 0.307361245
0.606136739 0.449921250 0.250777751
0.810933232 0.462277532 0.225940257
0.000000000 0.622778237 0.581016779
0.026417490 0.631925344 0.566778004
0.266927004 0.642798960 0.520003200
0.552314758 0.643591762 0.335783511
0.817776442 0.622231483 0.251232773
0.000000000 0.767253995 0.707856774
0.000000000 0.772714972 0.697687030
0.184649274 0.780250549 0.668794990
0.369183511 0.792559743 0.551263452
0.741245270 0.760732770 0.313421488
0.000000000 0.152550519 0.167352021
0.000000000 0.190286264 0.211522758
0.097502008 0.252310038 0.298976988
0.512450278 0.198557258 0.447138727
0.809713483 0.096312501 0.472348005
0.000000000 0.283121765 0.301239252
0.036444746 0.302456260 0.321142733
0.165897995 0.338735998 0.367042005
0.500839293 0.325111747 0.440587252
0.812048197 0.274517506 0.451309741
0.000000000 0.456520498 0.463911027
0.000788748 0.468892038 0.474303275
0.298469484 0.476271987 0.476411998
0.541485488 0.480270982 0.443113744
0.806871474 0.472158521 0.386406004
0.000000000 0.631423712 0.613695800
0.000000000 0.639317751 0.616531253
0.262646765 0.647870004 0.597354531
0.504979730 0.653889775 0.522031546
0.800273538 0.629588485 0.440759778
0.000000000 0.771196008 0.732635975
0.000000000 0.775590181 0.731575012
0.187936023 0.782015562 0.710553527
0.434288740 0.784477234 0.623261750
0.723453045 0.761540532 0.500050545
0.000000000 0.220144495 0.239600003
0.000000000 0.247181490 0.270782232
0.003154251 0.302444011 0.338392258
0.207869262 0.367417753 0.446463019
0.712500274 0.280476242 0.613659501
0.000000000 0.322139740 0.345624238
0.001379999 0.340179503 0.365012497
0.073026754 0.377823502 0.411146760
0.245705754 0.428664476 0.486108243
0.710398793 0.373652279 0.610919714
0.000000000 0.478416026 0.500777543
0.000000000 0.489916027 0.512482226
0.189257011 0.509061694 0.528190017
0.339573801 0.541112483 0.566952229
0.712253451 0.520887256 0.601882696
0.000000000 0.643541515 0.650294483
0.000000000 0.650799274 0.656305194
0.174315512 0.663256526 0.664177001
0.486801744 0.659963250 0.654911518
0.738737285 0.652824283 0.595623016
0.000000000 0.776892543 0.759259522
0.000000000 0.780743241 0.761722505
0.036589522 0.789874494 0.759731948
0.428974748 0.783626437 0.722907722
0.669997454 0.770752013 0.648265243
0.000000000 0.267783999 0.290715009
0.000000000 0.289655745 0.315694273
0.000000000 0.337283492 0.372549504
0.120208517 0.405570745 0.465269506
0.489654005 0.431634009 0.662402987
0.000000000 0.354401499 0.380902767
0.000000000 0.370649219 0.398562491
0.011828755 0.406963497 0.442651510
0.166228265 0.460857779 0.512520790
0.502635717 0.483748496 0.681937039
0.000000000 0.498657525 0.526764989
0.000000000 0.509490013 0.538196325
0.129073009 0.531396985 0.559339523
0.269509733 0.566926479 0.601855516
0.515303493 0.594806015 0.683928013
0.000000000 0.655235529 0.675278544
0.000000000 0.662225485 0.681894004
0.054718517 0.677918255 0.696318507
0.370703042 0.687300980 0.698057950
0.572435498 0.699014485 0.718253493
0.000000000 0.782088995 0.780938029
0.000000000 0.785722733 0.783820748
0.026417017 0.794079483 0.787922025
0.430864781 0.784671009 0.773589790
0.653110981 0.770667017 0.753670990
