public/lut/41.cube
TITLE "17x17x17 Adobe/IRIDAS cube 3D LUT exported with GrossGrade v0.2.2 (beta) 64 bit"
DOMAIN_MIN 0 0 0
DOMAIN_MAX 1 1 1
LUT_3D_SIZE 17
0.000000000 0.000000000 0.000000000
0.047444187 0.003893687 0.003055437
0.094565749 0.010053875 0.006309000
0.142129198 0.020848375 0.008033749
0.195872247 0.023262750 0.002366000
0.234903127 0.040044937 0.009216438
0.281850904 0.045911752 0.003943002
0.320255160 0.063742511 0.013060811
0.367998004 0.069468498 0.003548499
0.406232804 0.088710934 0.017496062
0.456093878 0.096314996 0.005520000
0.496604890 0.120132565 0.025480563
0.551171541 0.127939507 0.012025508
0.598737717 0.152197182 0.027402654
0.652563453 0.167265907 0.031247409
0.709614515 0.181181580 0.018137002
0.753437996 0.203610003 0.050347999
0.000000000 0.073264875 0.063677192
0.043169938 0.080895938 0.023114875
0.117595814 0.077666692 0.004533875
0.165789381 0.079064310 0.000000001
0.206992626 0.084097065 0.004583250
0.250047058 0.089149438 0.001724875
0.287534267 0.099822752 0.010645877
0.330867827 0.105704442 0.007935309
0.368564844 0.118951939 0.017249942
0.412382692 0.127548307 0.017447375
0.454270184 0.140115619 0.023805499
0.502034783 0.150498495 0.023706188
0.547610343 0.166252747 0.034697123
0.603324771 0.174501702 0.024248876
0.650938451 0.196280763 0.048410919
0.708186209 0.204984337 0.032674786
0.755918086 0.222891197 0.051768251
0.000000000 0.131227002 0.115844250
0.010300375 0.139297128 0.100396246
0.083894119 0.142708629 0.033416126
0.169847831 0.136518389 0.002513751
0.217144519 0.136442006 0.001084625
0.260641247 0.138103515 0.000542437
0.302087545 0.141595989 0.001675999
0.342517018 0.146715745 0.001429505
0.381471753 0.153633878 0.011237126
0.423771799 0.160324752 0.007047999
0.465238780 0.169753760 0.019615876
0.511907876 0.177704692 0.013701625
0.558022797 0.189830124 0.028586121
0.609329581 0.200786263 0.021488708
0.661318660 0.213740259 0.036274113
0.711848259 0.229459912 0.037502460
0.763652742 0.238957867 0.039814875
0.000000000 0.185861945 0.165133953
0.000739687 0.191584826 0.160090074
0.040103685 0.197618201 0.134693950
0.136326581 0.198398083 0.060844939
0.216910705 0.192863703 0.008575881
0.265043944 0.192143634 0.003351627
0.310416102 0.192203522 0.000147938
0.352301776 0.194562823 0.000887064
0.394491076 0.197319269 0.000443624
0.435057551 0.202317879 0.002956875
0.477172136 0.208619565 0.008033746
0.521400273 0.215657145 0.008181749
0.567690372 0.224702090 0.021094617
0.617861986 0.233735517 0.019172020
0.669838905 0.244285017 0.026910486
0.721224427 0.255658060 0.033366449
0.770949662 0.266132146 0.030409623
0.000000000 0.238203257 0.212540254
0.000000000 0.242449820 0.210081384
0.015475499 0.248210132 0.200322270
0.076730266 0.254669964 0.161842868
0.178804755 0.253273010 0.088725999
0.261608899 0.247590512 0.016165378
0.311201900 0.246374384 0.010152495
0.358003557 0.245755762 0.002611999
0.402059525 0.246691763 0.000000000
0.444493741 0.249035314 0.001577000
0.488845736 0.251825124 0.000000000
0.532918513 0.257112265 0.005421375
0.580126524 0.263147473 0.001971502
0.627488017 0.271831691 0.017200882
0.679180264 0.280052751 0.013898510
0.729461491 0.290242434 0.031099245
0.779095054 0.298492998 0.019517500
0.000000000 0.288936943 0.259593636
0.000000000 0.292548358 0.257667184
0.000591375 0.297526300 0.251142204
0.046834014 0.302994370 0.235026374
0.109289505 0.310481936 0.179828122
0.221391872 0.306412727 0.115470819
0.306673139 0.300483882 0.031427369
0.356569409 0.299097568 0.016017746
0.405147225 0.298061758 0.004041560
0.450929880 0.298274696 0.001183250
0.496079743 0.299724132 0.000000000
0.542099476 0.302305371 0.000246563
0.590361655 0.305893421 0.000197252
0.640167654 0.311260939 0.001232185
0.689933300 0.318823159 0.006210022
0.740594804 0.326746613 0.012567552
0.787649512 0.335156620 0.018137001
0.000000000 0.338561773 0.304706901
0.000000000 0.341551751 0.303700715
0.000000000 0.345698267 0.300055504
0.016757442 0.351305038 0.290110469
0.086036488 0.356479496 0.267447263
0.147497237 0.363883078 0.202105656
0.258155167 0.359607756 0.135656267
0.350635201 0.352174520 0.043296196
0.401665866 0.350694388 0.027994625
0.451790065 0.349400520 0.012518569
0.500958383 0.348928124 0.000690126
0.548886716 0.349939823 0.000000000
0.597612381 0.352347136 0.000394249
0.649099946 0.355108261 0.000000000
0.700685561 0.359921873 0.002760246
0.752301872 0.365449071 0.000000002
0.798321962 0.372972518 0.012518618
0.000000000 0.387383342 0.349059880
0.000000000 0.389746159 0.348384619
0.000000000 0.393239945 0.345916897
0.000197254 0.398481339 0.339087784
0.048660483 0.403777063 0.325560331
0.123709619 0.409195542 0.295628011
0.187731877 0.415773898 0.224306464
0.305490464 0.409626275 0.161571696
0.394474119 0.402742207 0.068743601
0.447910190 0.401091158 0.035781763
0.500374138 0.399662971 0.016806703
0.552298129 0.398807704 0.003302320
0.603860080 0.399395257 0.000000000
0.655731797 0.401391029 0.000000000
0.708610594 0.404313713 0.000000000
0.761030495 0.408002913 0.000098568
0.809953868 0.412345916 0.000000000
0.000000000 0.435092032 0.393095016
0.000000000 0.437238842 0.392256647
0.000000000 0.440193892 0.390671372
0.000000000 0.444766253 0.385629535
0.018531747 0.450165272 0.376098514
0.089684620 0.455173761 0.358671933
0.159412146 0.461074650 0.319946498
0.220953465 0.467646301 0.241098493
0.350682497 0.459212512 0.184013009
0.439846754 0.452450573 0.079670466
0.495715261 0.450634390 0.046135757
0.550729275 0.449094653 0.028339818
0.606268048 0.447994500 0.007294002
0.661288142 0.448191822 0.000000001
0.715251088 0.449915886 0.000000000
0.767832637 0.452706814 0.000345187
0.817777038 0.455605030 0.000000000
0.000000000 0.482244492 0.435362011
0.000000000 0.484034270 0.435379922
0.000000000 0.486668944 0.434297085
0.000000000 0.490588278 0.430812746
0.002809313 0.495721042 0.423851639
0.049203247 0.500999928 0.411315322
0.131678194 0.505892932 0.389643371
0.192193344 0.512642086 0.339741230
0.255390197 0.519062281 0.249955416
0.399808943 0.507492542 0.205441430
0.487338632 0.501167059 0.097562626
0.545926630 0.499289155 0.057267625
0.604276538 0.497589052 0.030360248
0.662951469 0.496385872 0.005963616
0.720386982 0.496254861 0.000000000
0.773410201 0.497346818 0.000000000
0.821088314 0.498181403 0.000000000
0.000000000 0.528603613 0.478468001
0.000000000 0.530293524 0.477639437
0.000000000 0.532533467 0.476956517
0.000000000 0.536016762 0.474239618
0.000000000 0.540665388 0.468892872
0.017890749 0.546087921 0.459774792
0.092597529 0.550961256 0.444377244
0.169815466 0.556094706 0.416986406
0.226333141 0.563362002 0.357364237
0.300252944 0.568535209 0.262753248
0.450646996 0.554903507 0.219616503
0.538304806 0.548999488 0.100525692
0.599602878 0.547014236 0.059718367
0.660147786 0.544929624 0.039339706
0.719188213 0.542390823 0.011434475
0.774493754 0.540689647 0.001035247
0.823368013 0.540314734 0.000000000
0.000000000 0.574488223 0.519838810
0.000000000 0.575899065 0.519698322
0.000000000 0.577922881 0.519157410
0.000000000 0.581035674 0.517266512
0.000000000 0.585127115 0.513136089
0.005667875 0.590251267 0.505846500
0.051464025 0.595595717 0.494099796
0.136706039 0.600371897 0.475782901
0.206405893 0.605898976 0.440675229
0.261723518 0.613837361 0.368884057
0.363778770 0.614010513 0.285216779
0.505976975 0.599921227 0.228607550
0.590241730 0.593769550 0.101173744
0.652030468 0.590636194 0.072265342
0.713181317 0.587476730 0.042868666
0.771334231 0.584634542 0.013258234
0.822676182 0.582271874 0.000000000
0.000000000 0.619413793 0.561047018
0.000000000 0.620811880 0.560369253
0.000000000 0.622566760 0.560247898
0.000000000 0.625097454 0.558607101
0.000000000 0.628538728 0.555122793
0.000000000 0.632997811 0.549154580
0.019714013 0.637911677 0.539674520
0.095671967 0.642412484 0.525019348
0.177819505 0.646647990 0.502033532
0.241578057 0.652255893 0.457510144
0.293973118 0.660427451 0.369823664
0.425937474 0.654639184 0.298392147
0.561730266 0.640631735 0.224502757
0.641781569 0.635117769 0.107879050
0.704427958 0.631235600 0.072290987
0.763525844 0.627091289 0.040926110
0.816085994 0.623253763 0.015377508
0.000000000 0.660361290 0.598354697
0.000000000 0.661425948 0.598085582
0.000000000 0.662948072 0.597573757
0.000000000 0.665170968 0.596373260
0.000000000 0.668343484 0.593565345
0.000000000 0.672253430 0.588617980
0.006653499 0.676926553 0.580878675
0.052864000 0.681733727 0.569189429
0.139751554 0.685800612 0.551852524
0.216254413 0.690058470 0.522966027
0.276479840 0.696276426 0.466175675
0.336235791 0.703646660 0.363998890
0.496245176 0.691041172 0.310449392
0.618446231 0.677929699 0.209405303
0.691745043 0.672037601 0.106895447
0.751213074 0.666685164 0.075389057
0.804158032 0.661488593 0.046876591
0.000000000 0.699429810 0.633959770
0.000000000 0.700437129 0.633209705
0.000000000 0.701735914 0.632977307
0.000000000 0.703714132 0.632153213
0.000000000 0.706335843 0.629916728
0.000000000 0.709804237 0.625723422
0.000394499 0.713965297 0.619389713
0.022080004 0.718632460 0.609713376
0.095527485 0.722597718 0.595314443
0.183686525 0.725903511 0.574250400
0.253248483 0.730022550 0.536376953
0.309522301 0.736580849 0.462476581
0.384113848 0.741028666 0.348040044
0.565101027 0.721475184 0.311017275
0.670964479 0.709528267 0.186290964
0.735199571 0.703413129 0.113992698
0.789323032 0.697404981 0.078436792
0.000000000 0.734825790 0.666100323
0.000000000 0.735612512 0.665820897
0.000000000 0.736676395 0.665409386
0.000000000 0.738265574 0.664578557
0.000000000 0.740448773 0.662422597
0.000000000 0.743228316 0.658680201
0.000000000 0.746634781 0.653040528
0.008427876 0.750586808 0.644667506
0.054830678 0.754531205 0.632445574
0.144422069 0.757695317 0.615229189
0.223393530 0.760760903 0.588955820
0.289337695 0.765148044 0.539660513
0.344673932 0.771780670 0.447434068
0.463330209 0.767605245 0.352132559
0.624917150 0.747602940 0.299302936
0.715820134 0.736923456 0.161653101
0.770681977 0.730518758 0.117937148
0.000000000 0.765845001 0.694796026
0.000000000 0.766478717 0.693934441
0.000000000 0.767415524 0.693425298
0.000000000 0.768785059 0.692727983
0.000000000 0.770610511 0.691038489
0.000000000 0.772994995 0.687659025
0.000000000 0.775890648 0.682686865
0.000000003 0.779393852 0.675671935
0.025234513 0.783089519 0.665383995
0.098693065 0.786256969 0.650724411
0.189181119 0.788807392 0.630099118
0.261767685 0.791734576 0.595924675
0.324017525 0.796365976 0.531436980
0.388802826 0.801342905 0.422970146
0.548792541 0.786746860 0.360172838
0.677171767 0.769497871 0.276556283
0.750509024 0.760137022 0.143963993
0.000049312 0.008476876 0.010053875
0.008033812 0.024790438 0.038936127
0.084008873 0.020256562 0.075405933
0.156697065 0.010497498 0.083743811
0.211877823 0.006702750 0.080928065
0.257728696 0.011286562 0.070297122
0.303103507 0.013800254 0.065891750
0.350345969 0.017298995 0.049299486
0.392096758 0.021882694 0.043754004
0.436141431 0.040243875 0.036027875
0.478347808 0.048385121 0.031099750
0.522381008 0.078082189 0.034253810
0.566843450 0.095608383 0.037847877
0.619837165 0.119059518 0.030113369
0.665664911 0.143277392 0.051929742
0.721263409 0.162362948 0.034890030
0.767050862 0.184123427 0.057438999
0.000000000 0.079943940 0.081838563
0.037999317 0.085034370 0.086321123
0.097349316 0.086866811 0.082504876
0.158621326 0.085442752 0.067793503
0.206048682 0.087210499 0.067816190
0.248899743 0.091404192 0.067450933
0.288104832 0.097692892 0.068389006
0.326950163 0.109180935 0.074613251
0.375791997 0.109912753 0.064507060
0.412120938 0.122344367 0.071258001
0.458867759 0.134679005 0.071261249
0.504508436 0.143087387 0.067162313
0.552530229 0.160566196 0.074886680
0.603562772 0.172383413 0.070745155
0.658814907 0.187968805 0.072594792
0.707307935 0.204961523 0.080451384
0.761863708 0.217743620 0.073183559
0.000000000 0.134514123 0.128915995
0.030902255 0.139088690 0.125611499
0.093877755 0.141174495 0.107502878
0.163645133 0.138797253 0.088326618
0.213892698 0.139422119 0.071505181
0.255722642 0.142779142 0.068171754
0.294594735 0.148045436 0.072730809
0.332208723 0.155702069 0.074209124
0.370996714 0.164333567 0.079493374
0.414271176 0.169814631 0.082221754
0.454789996 0.180714622 0.083891056
0.500747979 0.190681428 0.089223683
0.550355256 0.198283747 0.085579447
0.600296438 0.212467685 0.092624232
0.654417157 0.222067952 0.088905193
0.708237767 0.235161498 0.092383109
0.756101429 0.248563066 0.094835937
0.000000000 0.188070387 0.175710693
0.018137494 0.192486644 0.170872390
0.081994124 0.195500210 0.151969373
0.133631513 0.199634090 0.111411750
0.214282751 0.193635628 0.099929318
0.266314834 0.192309886 0.080803379
0.312008381 0.192840576 0.062093750
0.353179574 0.195391029 0.059197500
0.392560184 0.199665576 0.063850746
0.432759583 0.205088064 0.064633369
0.473653257 0.212227821 0.068868309
0.517098367 0.220325574 0.075040117
0.563502014 0.229067028 0.076934502
0.613481462 0.238596082 0.080773629
0.664867759 0.249655738 0.082646251
0.717424989 0.260375679 0.084275320
0.765941381 0.271994442 0.087163992
0.000000000 0.239917248 0.222009003
0.011434188 0.243771493 0.215931460
0.068362691 0.246397004 0.205492884
0.105771393 0.252848387 0.175930604
0.179544985 0.254202127 0.126375318
0.259194553 0.248051509 0.106650002
0.312622905 0.246249571 0.088547431
0.360642910 0.245620564 0.065093994
0.405291051 0.246102050 0.049340181
0.448221654 0.248315200 0.042881250
0.490543574 0.252057642 0.048176497
0.533721328 0.257599890 0.049583122
0.578303933 0.265356153 0.059171379
0.626489520 0.273678511 0.065832622
0.676126480 0.283381701 0.072701700
0.727478147 0.292791814 0.076465748
0.775704980 0.302170992 0.078097314
0.000000000 0.290292948 0.266748488
0.004879125 0.293897003 0.260856986
0.046701249 0.296959937 0.253938735
0.090520754 0.301614553 0.239539132
0.132180691 0.309118927 0.193000749
0.224102244 0.306831181 0.142074004
0.303523183 0.301235944 0.115118861
0.356891185 0.299020797 0.096340872
0.406961828 0.297773182 0.073178053
0.454629660 0.297449380 0.042809248
0.500257552 0.298688799 0.036274500
0.546800733 0.300896376 0.026861187
0.593783140 0.305042058 0.035384186
0.641890526 0.311071098 0.033859398
0.690167308 0.319501638 0.054087069
0.739811122 0.328060061 0.055942263
0.786582768 0.336607814 0.066565871
0.000000000 0.339884639 0.310629457
0.002710625 0.342707455 0.306787580
0.029621053 0.346175760 0.299406081
0.066568375 0.350490898 0.291593075
0.119040251 0.355448842 0.270314753
0.163874373 0.362793028 0.215300083
0.262127191 0.359633297 0.157446444
0.347078532 0.352909207 0.123132810
0.401353151 0.350912809 0.104200251
0.453281015 0.349342436 0.078053385
0.504089534 0.348341882 0.049480636
0.552955091 0.348911077 0.026614629
0.602557659 0.350654751 0.021439310
0.653300941 0.353801996 0.021291630
0.704844892 0.358386010 0.022227801
0.753640354 0.365379155 0.033070888
0.800000250 0.372726023 0.043121487
0.000000000 0.388301760 0.354263216
0.000049312 0.391013891 0.350256413
0.007294501 0.394234240 0.346092105
0.038436182 0.398420036 0.339294106
0.096978232 0.402786344 0.324658960
0.148066163 0.408379704 0.297508568
0.201691508 0.414773524 0.235984787
0.309816450 0.409484029 0.177986458
0.392200649 0.403364837 0.132314503
0.447085500 0.401374549 0.110588327
0.501042485 0.399679095 0.084601201
0.554880917 0.398411959 0.047259457
0.608221889 0.398269564 0.018581005
0.659861624 0.400132239 0.018974807
0.713548362 0.402449578 0.008083000
0.765374064 0.406300038 0.017742921
0.813298941 0.411118895 0.011433933
0.000000000 0.436053067 0.396979332
0.000739688 0.438129455 0.394415557
0.004681934 0.441380471 0.389961958
0.011631001 0.445467442 0.386019558
0.062366057 0.449854583 0.375627905
0.127285302 0.454385072 0.357235640
0.177943453 0.460307568 0.323414624
0.232853785 0.466905445 0.251195610
0.354754537 0.458995700 0.197576120
0.437730044 0.452997059 0.141172394
0.494920194 0.450882763 0.116538882
0.551305413 0.449180275 0.089867435
0.608369827 0.447673023 0.049023066
0.664742112 0.447391570 0.022326857
0.719300330 0.448771268 0.006998508
0.772503793 0.451041251 0.007737854
0.821600616 0.454032660 0.008230438
0.000000000 0.482954919 0.439326376
0.000000000 0.484982997 0.436638772
0.000345187 0.487717092 0.434270144
0.002119502 0.491478622 0.430552453
0.030261317 0.496065110 0.422371686
0.097043499 0.500363350 0.408985376
0.158055454 0.505182564 0.387911320
0.206732824 0.511865199 0.345122844
0.266280144 0.518213034 0.259503782
0.403361201 0.507266104 0.216844752
0.485999882 0.501553059 0.149295747
0.545287192 0.499482870 0.121378183
0.604642093 0.497679561 0.093988299
0.664619982 0.496189058 0.051643208
0.723650217 0.495524824 0.014046433
0.777498484 0.495999813 0.001675744
0.824630260 0.496999949 0.008329000
0.000000000 0.529283106 0.481226861
0.000000000 0.531032741 0.479367763
0.000000000 0.533453405 0.476559669
0.000000000 0.536906064 0.474431962
0.007047876 0.541408181 0.468679488
0.058210686 0.545973420 0.457743078
0.131204888 0.550373912 0.441645682
0.189560592 0.555448771 0.416459620
0.238842815 0.562628388 0.363733470
0.311387986 0.567483068 0.271694988
0.453346819 0.554809391 0.230186000
0.536967635 0.549381137 0.152996615
0.599163949 0.547179699 0.124413989
0.660416424 0.544985116 0.095056333
0.720817566 0.542058885 0.047010094
0.777666569 0.539867282 0.013159600
0.826525927 0.539488375 0.006505813
0.000000000 0.575081408 0.522632360
0.000000000 0.576621532 0.520627916
0.000000000 0.578775704 0.519034266
0.000000000 0.581879139 0.517069697
0.001527938 0.586026609 0.512507319
0.026910188 0.590738595 0.504090488
0.092799336 0.595226943 0.491760671
0.164551720 0.599773586 0.473477304
0.221046194 0.605331182 0.442898780
0.272008896 0.613097668 0.375971943
0.371802121 0.613178492 0.293117702
0.507830262 0.599816203 0.239853576
0.588986337 0.594051480 0.154152229
0.651855052 0.590739250 0.126996025
0.713437140 0.587523758 0.095954880
0.772816777 0.584444880 0.049220145
0.825155616 0.581680119 0.015524751
0.000000000 0.620066345 0.563389540
0.000000000 0.621421158 0.561900556
0.000000000 0.623276651 0.559919894
0.000000000 0.625813067 0.558502793
0.000000000 0.629267752 0.555267751
0.008132122 0.633567810 0.548005402
0.055064574 0.637875974 0.537273705
0.132084519 0.641780853 0.522294223
0.198087066 0.646054447 0.500326157
0.253315806 0.651624441 0.460641265
0.302912772 0.659684241 0.376589715
0.432376355 0.653900385 0.305163264
0.562750876 0.640670776 0.236653924
0.641019166 0.635257006 0.155695856
0.704090297 0.631287456 0.127678156
0.763731360 0.627143204 0.094362028
0.817238629 0.622988880 0.048327073
0.000000000 0.660762191 0.600322485
0.000000000 0.662036300 0.598788083
0.000000000 0.663545847 0.597386122
0.000000000 0.665880084 0.596146047
0.000000000 0.668974340 0.593349397
0.001330934 0.672930956 0.587611198
0.024199555 0.677284658 0.579099298
0.088126868 0.681439221 0.567114770
0.168050230 0.685200512 0.549763799
0.230812535 0.689534485 0.523426652
0.285876989 0.695707262 0.470668733
0.343764573 0.702986538 0.370719582
0.500439823 0.690528393 0.316779166
0.618597925 0.677917898 0.227147728
0.691012383 0.672088027 0.155054629
0.750880897 0.666597128 0.128055498
0.804407597 0.661407411 0.091950849
0.000000000 0.699844778 0.635743499
0.000000000 0.700892270 0.634455323
0.000000000 0.702283323 0.633001924
0.000000000 0.704309642 0.631709993
0.000000000 0.706939220 0.629996896
0.000000000 0.710329831 0.625695705
0.008920873 0.714477003 0.617982149
0.051537257 0.718577862 0.607418597
0.128709242 0.722075045 0.592977583
0.203781977 0.725377202 0.572429359
0.264445901 0.729459167 0.538083315
0.317635179 0.735941231 0.467287272
0.391257465 0.740286589 0.354135931
0.567833960 0.721075714 0.317114949
0.670460463 0.709578097 0.209690541
0.734777689 0.703332663 0.155293882
0.789064348 0.697321773 0.125002280
0.000000000 0.735071719 0.667786539
0.000000000 0.736049056 0.666483641
0.000000000 0.737139642 0.665059924
0.000000000 0.738710344 0.664122820
0.000000000 0.740871489 0.662296176
0.000000000 0.743668973 0.658088028
0.001133623 0.747134387 0.651537538
0.023706313 0.750845850 0.642818987
0.086766668 0.754266202 0.630547881
0.169571519 0.757115185 0.613393903
0.237693667 0.760249078 0.588191211
0.297875911 0.764541686 0.542722642
0.351713687 0.771140933 0.452657014
0.468982756 0.766901672 0.357525676
0.626613677 0.747374296 0.305973798
0.715309680 0.736958444 0.190600425
0.770310938 0.730478764 0.157572776
0.000000000 0.766104877 0.695760310
0.000000000 0.766749501 0.694490254
0.000000000 0.767821610 0.693473756
0.000000000 0.769218683 0.692263603
0.000000000 0.770981610 0.690875888
0.000000000 0.773336709 0.687732518
0.000000000 0.776286125 0.682257771
0.007688200 0.779721975 0.674447834
0.048848137 0.783073783 0.663607299
0.128686011 0.785826445 0.648942828
0.207603619 0.788258970 0.628476620
0.272256672 0.791186750 0.596553087
0.330995321 0.795768321 0.535091400
0.394718200 0.800655246 0.428470463
0.552189231 0.786187232 0.364729911
0.677636564 0.769459844 0.285546452
0.749471545 0.760064840 0.180598572
0.000000000 0.023854500 0.027698999
0.000000000 0.042439561 0.050718125
0.012913125 0.059967376 0.079979628
0.091424450 0.060066998 0.124919370
0.193315744 0.031543002 0.142604262
0.252079993 0.020946875 0.146789879
0.302506417 0.015574254 0.144428745
0.346762359 0.024248434 0.139130622
0.394523889 0.021883251 0.131192878
0.440345794 0.031543002 0.123515308
0.489579499 0.029078625 0.111935750
0.537998676 0.043183375 0.100131251
0.588626683 0.048934758 0.089446992
0.641343355 0.065582991 0.075499624
0.691546977 0.092400022 0.070794113
0.745339513 0.098617025 0.057706751
0.790694118 0.140219629 0.061705250
0.000000000 0.088029936 0.094739877
0.010251063 0.096750006 0.103231065
0.037556186 0.106184252 0.113853000
0.100849450 0.109792002 0.130331069
0.191638887 0.097442374 0.134655878
0.256144524 0.088261567 0.133685872
0.307557225 0.084231317 0.129670694
0.351388752 0.086582191 0.124125056
0.395932704 0.088624999 0.119002439
0.441810191 0.091390938 0.110110879
0.486102611 0.098279819 0.103580870
0.531535566 0.107332885 0.101628065
0.580120206 0.121369995 0.091873378
0.628234506 0.134249330 0.094843984
0.680162847 0.154342383 0.087718382
0.730588555 0.170897022 0.089737549
0.777955115 0.189658254 0.091220878
0.000000000 0.139623493 0.142380506
0.012419874 0.145140380 0.146998629
0.079634130 0.146454856 0.147158369
0.129213721 0.150137812 0.147131681
0.198085010 0.147845238 0.132085010
0.254366964 0.145460501 0.117087498
0.302176535 0.145503014 0.114573628
0.340617537 0.151447624 0.117661372
0.377905607 0.159327120 0.120597243
0.417629808 0.168015763 0.125679865
0.463720262 0.174344987 0.125701621
0.506768584 0.184009805 0.126689121
0.553217709 0.196448982 0.133921877
0.607357740 0.205391884 0.126541317
0.656722605 0.220259756 0.137373745
0.712588072 0.231599018 0.126454383
0.759476602 0.245647997 0.139741004
0.000000000 0.191530079 0.186891764
0.001774187 0.196168825 0.188960895
0.071648180 0.197949514 0.184120700
0.141279459 0.198279575 0.176713631
0.198979512 0.198987141 0.155732870
0.257244885 0.197572500 0.137648627
0.301792771 0.199492633 0.122293070
0.342080057 0.203411400 0.121488631
0.379937649 0.208980396 0.126369372
0.418467999 0.216316700 0.130744308
0.459375620 0.224136829 0.135490447
0.504903316 0.231056690 0.140562803
0.549773633 0.241816014 0.144096881
0.599403858 0.252736926 0.149654076
0.653510213 0.260933727 0.148666009
0.703922749 0.275120109 0.155251324
0.757194042 0.281500429 0.149555936
0.000000000 0.242270753 0.231080011
0.000986000 0.246427327 0.230978563
0.048526626 0.249304131 0.225378886
0.131358832 0.250128388 0.209577948
0.172061503 0.255884856 0.177748248
0.254853874 0.249621123 0.164439499
0.310454369 0.247694001 0.149071604
0.356969595 0.247885808 0.132858053
0.400143147 0.249731883 0.122639254
0.440510690 0.253497124 0.123615131
0.481171995 0.258655161 0.127614245
0.524346650 0.264756203 0.130823940
0.569619000 0.272234261 0.134270757
0.617610693 0.281199723 0.138728872
0.667994082 0.290711880 0.141008496
0.718985260 0.300839186 0.145239875
