public/lut/42.cube
TITLE "17x17x17 Adobe/IRIDAS cube 3D LUT exported with GrossGrade v0.2.2 (beta) 64 bit"
DOMAIN_MIN 0 0 0
DOMAIN_MAX 1 1 1
LUT_3D_SIZE 5
0.000000000 0.000000000 0.000000000
0.120512754 0.031937249 0.019319750
0.352987528 0.110397004 0.045100499
0.557676256 0.204982013 0.099907756
0.744132996 0.305494010 0.171011001
0.096852504 0.233746260 0.104293756
0.105575755 0.215174749 0.072970755
0.397971272 0.224714503 0.071690001
0.574652016 0.266549021 0.096305259
0.756050766 0.344398737 0.159466997
0.260519028 0.523841500 0.248889506
0.242968991 0.527868748 0.282451272
0.476648033 0.477065533 0.213748008
0.633179784 0.484318525 0.185478017
0.798028469 0.486810505 0.178148001
0.368221253 0.724328279 0.339235485
0.340078771 0.728631020 0.368701249
0.426215529 0.709750772 0.288446009
0.682898045 0.632381976 0.339118510
0.833404243 0.665085495 0.287811518
0.428209007 0.874800980 0.383753002
0.393487483 0.876990259 0.418339252
0.240997046 0.869318008 0.425107509
0.700839043 0.833796024 0.244159788
0.810670018 0.706481993 0.422883987
0.027403250 0.107089758 0.165276513
0.032529000 0.060006998 0.232576758
0.334830284 0.055056754 0.263091266
0.584441006 0.122677498 0.196566999
0.769994974 0.239007741 0.213145256
0.024051750 0.249038249 0.291363508
0.122341260 0.266861767 0.297536731
0.384476274 0.244178757 0.257927001
0.596961260 0.310363770 0.251874268
0.776479304 0.395047516 0.301851511
0.157680511 0.513466001 0.311061263
0.140624762 0.519403517 0.298558235
0.417952001 0.510586798 0.341704249
0.617376328 0.481997520 0.290963262
0.796782732 0.492759526 0.304213732
0.290713996 0.712602496 0.291828752
0.276580006 0.718166828 0.239980504
0.328097999 0.719152272 0.168038994
0.686014771 0.665961981 0.440978020
0.829681516 0.675042987 0.376895756
0.369701266 0.864603519 0.240840510
0.341127753 0.869197011 0.165149510
0.226944059 0.869342268 0.240823239
0.654870749 0.838459790 0.295873284
0.813423991 0.728521228 0.498825014
0.090877503 0.256396025 0.351291507
0.106565759 0.248024508 0.395655751
0.326553524 0.090229504 0.500083506
0.599346280 0.130720258 0.534432054
0.787535489 0.216236502 0.499826521
0.112443000 0.404082239 0.492080271
0.199481249 0.417297542 0.494618744
0.357922256 0.257076740 0.534540176
0.621792078 0.277518988 0.552359939
0.806443453 0.341227770 0.495212257
0.038634006 0.522823513 0.568341970
0.175448507 0.529156566 0.569311321
0.437850475 0.540460467 0.561090469
0.618641973 0.523576260 0.564567804
0.821248472 0.548547506 0.522096992
0.060810745 0.699767292 0.589999437
0.171786025 0.700475574 0.587148488
0.431402743 0.700299025 0.589726746
0.639782786 0.694683015 0.629692793
0.810032487 0.659751534 0.540789962
0.197636485 0.847937465 0.584839463
0.117715493 0.851157784 0.578538477
0.349475056 0.854972005 0.549534559
0.587541223 0.845941722 0.491232276
0.817287982 0.763819993 0.623071551
0.153477505 0.385726243 0.505221486
0.169488996 0.375361502 0.526506007
0.203051254 0.189769998 0.598081470
0.594312012 0.162425250 0.674660981
0.798220217 0.221291497 0.696471751
0.192098498 0.504458785 0.610585749
0.261719495 0.514058292 0.613686562
0.293826491 0.417411506 0.618367791
0.618238747 0.297913253 0.696770191
0.814408958 0.342895985 0.706448495
0.181547761 0.612287045 0.695483267
0.285645008 0.621683002 0.694911242
0.479304016 0.638216019 0.690693736
0.637575746 0.524332225 0.719785511
0.836442709 0.538175225 0.710852504
0.112285756 0.703996778 0.735890746
0.240283012 0.704388738 0.736329317
0.463154554 0.707572818 0.733748257
0.651647270 0.711958051 0.725605965
0.841332495 0.690642715 0.695214272
0.132516012 0.839238763 0.730991781
0.254822761 0.838832796 0.729317486
0.446700037 0.837079287 0.725320756
0.615594268 0.836841702 0.708680034
0.821362257 0.798165262 0.729797482
0.201873004 0.467711985 0.595160007
0.218602747 0.459535748 0.607685268
0.223467499 0.353952467 0.640138507
0.586109519 0.202065498 0.752089977
0.804122984 0.222599998 0.798336983
0.241988748 0.564867496 0.679141521
0.305010498 0.573481500 0.683725476
0.328975499 0.516920745 0.683473229
0.608447790 0.325665236 0.780758500
0.820857227 0.347124249 0.814708710
0.272040009 0.674317479 0.773114502
0.358502030 0.684727550 0.773292005
0.512509465 0.699991941 0.771040499
0.559689045 0.563418269 0.782641768
0.837274492 0.538893998 0.830916524
0.236365497 0.748969257 0.830444992
0.339208484 0.754039228 0.829209745
0.520461977 0.767318487 0.826567054
0.685064495 0.785979509 0.823142529
0.844124258 0.690022767 0.837893724
0.164623007 0.836120009 0.836188018
0.275597513 0.834580481 0.834171534
0.467957020 0.832046032 0.831583977
0.647719264 0.824623466 0.823558986
0.795477986 0.818965971 0.820918977
