public/lut/42.cube
TITLE "17x17x17 Adobe/IRIDAS cube 3D LUT exported with GrossGrade v0.2.2 (beta) 64 bit"
DOMAIN_MIN 0 0 0
DOMAIN_MAX 1 1 1
LUT_3D_SIZE 17
0.000000000 0.000000000 0.000000000
0.003055437 0.003844438 0.005372125
0.008970126 0.010152500 0.011631750
0.048648514 0.016116377 0.015918937
0.120512754 0.031937249 0.019319750
0.182810932 0.053500872 0.022376187
0.239494264 0.071239009 0.033810124
0.295649976 0.090560131 0.040739629
0.352987528 0.110397004 0.045100499
0.408291608 0.134395197 0.058673251
0.457512259 0.157015502 0.071509503
0.510308146 0.182704881 0.087000124
0.557676256 0.204982013 0.099907756
0.604090631 0.228265092 0.114803202
0.650317192 0.252310932 0.132241279
0.695025146 0.278218716 0.150729403
0.744132996 0.305494010 0.171011001
0.003844438 0.036866251 0.023854561
0.003104750 0.029128127 0.020158000
0.009216500 0.033809874 0.024100937
0.072851524 0.054328818 0.022523940
0.174041003 0.074677318 0.023804938
0.230614126 0.090100557 0.029374626
0.276445210 0.106222510 0.037260253
0.324808180 0.122312509 0.044951130
0.373279899 0.139676437 0.052584875
0.421466082 0.154900074 0.060974311
0.467578322 0.175755873 0.073220499
0.513220787 0.193538427 0.085191064
0.559442997 0.216141999 0.098516509
0.604131937 0.236699358 0.111671016
0.650469065 0.261727750 0.132699937
0.696290731 0.286783159 0.150577098
0.744840026 0.311051250 0.168762878
0.026515750 0.098473124 0.046250373
0.023804750 0.099607751 0.044757999
0.009167250 0.086071253 0.042228624
0.020552076 0.084172808 0.040794872
0.127882630 0.101569377 0.037162002
0.227904245 0.115508124 0.036718063
0.288675636 0.128282115 0.037359003
0.341351271 0.142475516 0.044948254
0.389330506 0.157465249 0.052344002
0.433762789 0.172388181 0.059107814
0.477241635 0.190676630 0.069461249
0.517920911 0.205626681 0.079965189
0.561539233 0.226057500 0.093158379
0.605046868 0.246766582 0.108262584
0.650424182 0.268278658 0.126220778
0.697770596 0.294314325 0.147164330
0.746541739 0.316217631 0.163532257
0.062498566 0.166847393 0.077100500
0.062221691 0.167029262 0.073554315
0.053848818 0.164659202 0.062575065
0.029670319 0.150252774 0.057962999
0.081613317 0.130034760 0.063742317
0.176076800 0.149919391 0.066557191
0.269132078 0.163755327 0.057071503
0.341496140 0.172907323 0.054681629
0.396684200 0.182336807 0.055718817
0.444597483 0.195421696 0.064155936
0.485857964 0.209666684 0.070357248
0.526136756 0.226440564 0.080526061
0.567100585 0.242000952 0.092818692
0.608797312 0.261391550 0.107098453
0.653831661 0.282313079 0.122458577
0.700059056 0.304244846 0.141496584
0.751003444 0.327642173 0.157992750
0.096852504 0.233746260 0.104293756
0.099494942 0.235834509 0.107998997
0.096196994 0.236518115 0.105323009
0.078154691 0.234162569 0.098559000
0.105575755 0.215174749 0.072970755
0.160147369 0.179071248 0.097205184
0.236557782 0.200407505 0.095785499
0.325028539 0.221241564 0.080943003
0.397971272 0.224714503 0.071690001
0.451223552 0.229263812 0.072444253
0.494059861 0.237539381 0.075589500
0.534900427 0.253027886 0.084761001
0.574652016 0.266549021 0.096305259
0.615919232 0.284193724 0.111071259
0.659750283 0.303531528 0.126142263
0.706615448 0.323975593 0.142091572
0.756050766 0.344398737 0.159466997
0.140349433 0.308253944 0.140922382
0.139989004 0.309164822 0.141789868
0.140787065 0.311005503 0.145168573
0.129382432 0.312196434 0.152928188
0.114482567 0.310122073 0.140121236
0.207993984 0.281864136 0.108913250
0.239295959 0.234027252 0.129570931
0.313593358 0.254319757 0.125703067
0.392697275 0.282823503 0.107816741
0.458312899 0.293070734 0.095800869
0.507140696 0.291817874 0.093082570
0.545123696 0.293426365 0.094307125
0.582634687 0.301645935 0.101205878
0.624406874 0.315145999 0.114568830
0.668569326 0.331628799 0.129369631
0.715225160 0.350554973 0.146263018
0.766945481 0.368895262 0.163105696
0.181972131 0.386592895 0.182213143
0.184065640 0.387199163 0.182658762
0.186796263 0.388308883 0.187846020
0.182484642 0.389780343 0.200207442
0.126849025 0.387908369 0.199372515
0.195309907 0.383386642 0.156119138
0.307426989 0.350264132 0.127754778
0.324467093 0.296724588 0.156949371
0.389137536 0.311847657 0.154951155
0.460109860 0.345225900 0.141849265
0.519987106 0.361322641 0.122762010
0.562359154 0.363397628 0.117349699
0.598672152 0.358148634 0.116259016
0.633655787 0.359420478 0.121124640
0.675941050 0.368960649 0.132280141
0.725043058 0.383793652 0.149516255
0.775983393 0.399961144 0.165555000
0.222758323 0.458224028 0.216629148
0.223575264 0.457101077 0.218220890
0.227765709 0.458630532 0.226606011
0.228812635 0.462124914 0.238808066
0.193772152 0.461683780 0.246369407
0.141262397 0.458912522 0.230068088
0.311094582 0.448220342 0.156944200
0.400308728 0.421340048 0.176391646
0.404291898 0.360908747 0.185803577
0.458135873 0.365731448 0.185430646
0.526057601 0.401475489 0.174771607
0.577950656 0.425578892 0.154928893
0.617630064 0.430359900 0.142046019
0.652565539 0.427130103 0.141959339
0.689176083 0.425122589 0.146605819
0.734740794 0.427832633 0.155024201
0.785759389 0.437493771 0.168600678
0.260519028 0.523841500 0.248889506
0.263989151 0.526377916 0.253550529
0.267952800 0.527701676 0.263853014
0.264036596 0.526743531 0.273184329
0.242968991 0.527868748 0.282451272
0.154192388 0.526574731 0.281770885
0.251911551 0.519974470 0.229655221
0.414699316 0.507250547 0.149204403
0.476648033 0.477065533 0.213748008
0.479788244 0.421240032 0.214271069
0.522637248 0.418065637 0.213685125
0.585527778 0.454999834 0.208918944
0.633179784 0.484318525 0.185478017
0.671403646 0.492525637 0.169319063
0.707841158 0.490407020 0.168674752
0.749903500 0.486400187 0.171407953
0.798028469 0.486810505 0.178148001
0.293282747 0.581559062 0.277184069
0.296836942 0.582839608 0.282425463
0.298903435 0.584873557 0.290863812
0.295904636 0.586540699 0.301665366
0.278144211 0.587043643 0.311439931
0.215496555 0.586562037 0.314428061
0.190710381 0.581276178 0.296435297
0.383307338 0.571118355 0.204814076
0.502806485 0.562347829 0.191152647
0.540113807 0.524961710 0.248365134
0.543360174 0.473130435 0.245053634
0.585351765 0.470870465 0.246192068
0.640891016 0.507016778 0.240112439
0.686669528 0.538549602 0.217863336
0.727123737 0.550758481 0.196936369
0.766053855 0.545859575 0.192559943
0.809628487 0.540928125 0.195214748
0.321569622 0.633396506 0.301620126
0.324411273 0.634639084 0.307798743
0.324623376 0.635628700 0.316509277
0.319898874 0.638733804 0.324414611
0.304116994 0.640212297 0.335875392
0.251043171 0.637142301 0.338721424
0.175616026 0.635843277 0.334672987
0.332590044 0.626363754 0.275413483
0.488908917 0.617474079 0.177850112
0.574801445 0.610147357 0.247287750
0.598454535 0.570595622 0.280036241
0.595506668 0.515468001 0.272171259
0.638773322 0.519491494 0.276886731
0.691609085 0.555583894 0.268779248
0.737599015 0.586024344 0.243708596
0.778231680 0.597827077 0.221764624
0.819933116 0.594095230 0.214983121
0.345631748 0.680415809 0.320616007
0.347782999 0.682313800 0.326495558
0.346838117 0.683734715 0.333422065
0.340420723 0.684857607 0.342908233
0.324141294 0.685956717 0.353299290
0.277728230 0.685163558 0.358670563
0.172192752 0.683666945 0.359797925
0.281770796 0.676783025 0.327769399
0.458052456 0.666400790 0.224871174
0.570225835 0.657618701 0.188410684
0.636110425 0.650914550 0.296782881
0.644171834 0.607918024 0.310652703
0.645143032 0.555940211 0.301803261
0.688344836 0.565185130 0.307383180
0.740342379 0.598825991 0.297344655
0.787073314 0.628403664 0.265766919
0.828424811 0.638573945 0.242493182
0.368221253 0.724328279 0.339235485
0.367637694 0.724441528 0.343375236
0.364171743 0.724790871 0.348551750
0.355952024 0.727192461 0.357801199
0.340078771 0.728631020 0.368701249
0.292663187 0.725994229 0.374665797
0.198886514 0.726109385 0.379155397
0.247689426 0.720070839 0.361973733
0.426215529 0.709750772 0.288446009
0.546548188 0.698889375 0.175258130
0.632746875 0.693704128 0.266341090
0.683054686 0.682721972 0.335824877
0.682898045 0.632381976 0.339118510
0.688418627 0.591079652 0.331347823
0.733758986 0.605837703 0.333070248
0.788988471 0.639328599 0.320945084
0.833404243 0.665085495 0.287811518
0.384104133 0.763170838 0.350084662
0.382774234 0.763163865 0.355495125
0.379389405 0.763414204 0.362280726
0.371500492 0.763898790 0.371213764
0.354742438 0.764045238 0.382324427
0.311789125 0.764828146 0.387417018
0.225469396 0.763479948 0.392026126
0.181440279 0.761880636 0.386352658
0.380719930 0.750904679 0.339480013
0.518626750 0.740494967 0.216057360
0.613773108 0.731770396 0.199158832
0.686641455 0.728257656 0.324192405
0.723091900 0.707459033 0.365568519
0.717925549 0.653349340 0.363054723
0.732344508 0.623224497 0.359039903
0.783656836 0.644181848 0.355925322
0.830714107 0.673073053 0.340256989
0.399122983 0.800158441 0.360946625
0.397409707 0.800792217 0.365892559
0.393861502 0.801924288 0.372745126
0.386958629 0.803736567 0.384393126
0.369211733 0.804835320 0.396370262
0.326252222 0.803787112 0.400852889
0.239112839 0.802441418 0.404222757
0.182888642 0.799150705 0.403064817
0.332972735 0.792364180 0.377120882
0.484254658 0.781390190 0.299427211
0.593806744 0.772513449 0.180896044
0.670787692 0.766927183 0.258205593
0.735402763 0.760735154 0.366625607
0.759702384 0.730794728 0.392869532
0.752629399 0.674716949 0.386248350
0.775341928 0.654088378 0.382219464
0.823025763 0.674325764 0.378394395
0.416435122 0.839714885 0.374982625
0.414044589 0.840727806 0.379108310
0.408977270 0.841143310 0.385299742
0.398962796 0.839167833 0.395769984
0.380096048 0.840107083 0.406370074
0.338944852 0.840915740 0.412439018
0.258825749 0.838913858 0.415526658
0.185559258 0.837232530 0.418844938
0.284137070 0.833506465 0.404912889
0.447732359 0.822825789 0.355358332
0.560300052 0.813263118 0.255520046
0.651560426 0.803173363 0.197200343
0.723267734 0.796161234 0.330831379
0.779752493 0.787763834 0.402286649
0.791891158 0.747554779 0.415328115
0.784188092 0.690716267 0.405826271
0.815053225 0.681134939 0.405360222
0.428209007 0.874800980 0.383753002
0.425446361 0.875304997 0.388854921
0.420087993 0.875384986 0.395810753
0.410017699 0.875628173 0.405687004
0.393487483 0.876990259 0.418339252
0.352472305 0.876661003 0.424197882
0.278240085 0.875384629 0.426825255
0.158518031 0.873044848 0.430413187
0.240997046 0.869318008 0.425107509
0.399834812 0.859765589 0.394728124
0.524785280 0.851763129 0.325885743
0.619978189 0.841288686 0.193316504
0.700839043 0.833796024 0.244159788
0.771099210 0.825717092 0.379639745
0.819757879 0.815784454 0.432727158
0.818204999 0.760319471 0.435608387
0.810670018 0.706481993 0.422883987
0.002316688 0.020897686 0.041120499
0.004681750 0.030458312 0.065936938
0.004681750 0.033613250 0.069245130
0.004238257 0.029916685 0.074364938
0.057237312 0.011730313 0.077283189
0.126102552 0.023805376 0.073078685
0.200159714 0.035239320 0.059981376
0.269839197 0.057647578 0.057883438
0.338605762 0.083118886 0.060184188
0.402963877 0.115471058 0.071163006
0.459260881 0.147179499 0.085355252
0.514360309 0.177441552 0.102231562
0.562358975 0.202034444 0.115188628
0.606417239 0.227261469 0.130829766
0.655251563 0.253561467 0.148756832
0.699925363 0.279510915 0.165951699
0.747019529 0.306832999 0.186904877
0.006210375 0.059615750 0.084511369
0.005470688 0.061179250 0.084155254
0.020256938 0.061362877 0.079015434
0.070028260 0.065318190 0.074802436
0.123898745 0.066379189 0.077356189
0.183806762 0.079489633 0.070861936
0.245858386 0.093345940 0.067861125
0.304731280 0.112090193 0.070897564
0.361889511 0.134931132 0.078964688
0.416835517 0.155685559 0.086768627
0.467559397 0.177304685 0.097528003
0.518042326 0.199837938 0.110123374
0.565064132 0.221579447 0.122345254
0.609251976 0.244939521 0.136414573
0.655579686 0.268044591 0.153861895
0.701366663 0.293694764 0.171707034
0.747983873 0.317422926 0.189532444
0.002563125 0.097209379 0.090143442
0.003992250 0.100869685 0.096692443
0.006998499 0.100612938 0.106631257
0.066988647 0.102406934 0.086368062
0.171521023 0.113587059 0.068114690
0.235314444 0.123413250 0.066110499
0.286542505 0.136973128 0.069704749
0.335270971 0.151133120 0.076532818
0.384309679 0.165910691 0.082457811
0.431429237 0.180579185 0.088079557
0.477605313 0.200235754 0.098101005
0.522249579 0.217105061 0.108305499
0.565990150 0.235388070 0.120314248
0.610236943 0.258499444 0.135530591
0.654999614 0.279388249 0.152113944
0.702009678 0.304257065 0.171062648
0.749990523 0.328229368 0.189049006
0.026170760 0.161706761 0.096521184
0.027009008 0.162551820 0.096276313
0.025037318 0.165092319 0.106492870
0.024593450 0.158091009 0.109691806
0.104932055 0.149111062 0.104070187
0.205564111 0.158359960 0.089715138
0.291945130 0.166009948 0.075458944
0.350882679 0.175853148 0.073700242
0.400122106 0.188135996 0.077600189
0.442821383 0.202654198 0.084866375
0.486396730 0.217465490 0.093853377
0.527907670 0.233106256 0.102884121
0.567868710 0.249452949 0.114086062
0.611261725 0.270158082 0.130780071
0.655881047 0.291688859 0.145362824
0.703170478 0.313546121 0.164281085
0.752131343 0.338348508 0.183238447
0.072116002 0.231337070 0.089947745
0.074921884 0.232953757 0.085322373
0.075004563 0.233040884 0.084699191
0.073775746 0.236344442 0.080496818
0.084831633 0.225193560 0.092470065
0.159681737 0.200554252 0.126775488
0.250419021 0.213674366 0.120838627
0.339405745 0.223856866 0.101454057
0.403221577 0.225363493 0.089839496
0.452445567 0.232348770 0.090826504
0.493925363 0.243590757 0.096316747
0.534767330 0.257256508 0.106488816
0.575812578 0.273106068 0.117809378
0.616834641 0.290426165 0.130070254
0.659695327 0.308895707 0.143776879
0.708408713 0.330531657 0.161487207
0.756678402 0.350961685 0.176116750
0.119760379 0.306332380 0.090165310
0.120535180 0.306621820 0.089216687
0.123437189 0.308777571 0.093001939
0.123472117 0.310436398 0.098422445
0.096893631 0.311818212 0.110001564
0.193914622 0.296066195 0.115838185
0.242431760 0.252405882 0.156960815
0.320356339 0.269397795 0.149597973
0.399153352 0.288683951 0.128510311
0.459797889 0.290103197 0.114394322
0.503252029 0.289067626 0.108575001
0.543545604 0.293045431 0.111789808
0.582037568 0.303698510 0.119427569
0.624107659 0.319080353 0.133484080
0.668397129 0.336411834 0.148704648
0.715650439 0.355122954 0.163645133
0.765645862 0.373890191 0.180521622
0.167034566 0.383172572 0.123630323
0.167300388 0.383566350 0.123372942
0.171686336 0.384966016 0.127886504
0.176208451 0.387632370 0.153410569
0.138711825 0.389927298 0.168330655
0.147670612 0.386555374 0.143522695
0.296284348 0.361577272 0.123977661
0.327072501 0.313748896 0.183960646
0.390236020 0.323734969 0.178897440
0.460985810 0.353542209 0.160477281
0.518754363 0.360808015 0.141413331
0.557279885 0.357494801 0.133266956
0.595227182 0.354000837 0.132838085
0.632134616 0.359552085 0.138715148
0.676717162 0.372151166 0.151952699
0.725124002 0.385778189 0.167336196
0.777129531 0.404234618 0.184473187
0.210287705 0.456804663 0.166995451
0.212010518 0.457240522 0.171177149
0.217999712 0.458238721 0.182417467
0.218070447 0.460361511 0.199596316
0.197319835 0.461768389 0.216687754
0.147278756 0.463851929 0.219880089
0.274769902 0.454162419 0.164521813
0.391237736 0.427559525 0.187419266
0.409908175 0.377528042 0.211012140
0.461247146 0.379685014 0.208826900
0.527379572 0.412721992 0.194706708
0.577099085 0.427807540 0.173462272
0.615164220 0.427849144 0.160757259
0.648869753 0.422705799 0.157617211
0.686547339 0.422468364 0.161708012
0.734258711 0.427572668 0.172554895
0.786329031 0.438989520 0.186849877
0.247774675 0.520026982 0.206099764
0.252349287 0.522885859 0.211410895
0.257436126 0.524743974 0.224711388
0.255610645 0.524819970 0.241534650
0.240271807 0.526522696 0.255879402
0.163688645 0.527968585 0.266435802
0.220003739 0.521546841 0.232792228
0.398352414 0.512442887 0.147094399
0.472285300 0.485511512 0.227206886
0.478480637 0.431072295 0.238280952
0.525809705 0.430635393 0.236858264
0.587591708 0.465862840 0.227278069
0.632400513 0.487695694 0.201594934
0.668757379 0.492093563 0.187299311
0.705441356 0.486879498 0.184756443
0.746727109 0.482654631 0.187405825
0.797325850 0.485132128 0.194855183
0.281281918 0.580156088 0.237471685
0.286401302 0.581077099 0.248078272
0.291008264 0.583988428 0.259423941
0.288210511 0.585557938 0.271467477
0.274198979 0.585636973 0.285768747
0.225419179 0.588432908 0.297294676
0.163643807 0.585667253 0.289185405
0.352834791 0.572831392 0.210537001
0.491595238 0.565467834 0.197781727
0.542878866 0.537163854 0.269803703
0.543980539 0.481867135 0.266206086
0.585807800 0.480114967 0.266008288
0.641315699 0.515886545 0.257724434
0.685799897 0.543134809 0.232360467
0.724977314 0.550646663 0.214627549
0.763619542 0.543430448 0.210914120
0.807266176 0.537676573 0.210445002
0.313102752 0.632138968 0.266906738
0.316186875 0.633185625 0.275204599
0.317309052 0.634815276 0.284230649
0.313417315 0.636379898 0.296761125
0.297986269 0.638787746 0.309484482
0.255163312 0.637489855 0.321918488
0.186821654 0.636726141 0.322949201
0.305446625 0.629137278 0.277009487
0.470827252 0.616969466 0.180750310
0.565734088 0.610006154 0.254459232
0.599355042 0.578550875 0.299135268
0.597726405 0.524425089 0.293534994
0.641191483 0.528492093 0.297063917
0.692950010 0.563833356 0.286686093
0.736819446 0.590021789 0.258802772
0.777565956 0.597258985 0.236402050
0.818816602 0.592296958 0.231625751
0.338046521 0.679246724 0.289176315
0.339771241 0.680108070 0.295321941
0.339681506 0.681362152 0.303689927
0.334630132 0.683242619 0.315340698
0.320000082 0.685407460 0.330357760
0.279153585 0.684565902 0.342393994
0.155857921 0.683931053 0.346583247
0.254389405 0.678793609 0.324442506
0.440739304 0.667503417 0.224917293
0.559067965 0.658692062 0.189068437
0.631546676 0.652639329 0.311535299
0.644828320 0.614420414 0.328377664
0.645787001 0.563994050 0.321666747
0.688393354 0.571646512 0.323722601
0.741380036 0.606127501 0.313012064
0.785739541 0.631437421 0.282132387
0.826915979 0.638124704 0.258498043
0.358928204 0.721996605 0.306592643
0.359401554 0.722737014 0.312783808
0.358165830 0.724401414 0.321137309
0.350316375 0.725568891 0.331218213
0.336764634 0.726184070 0.346881360
0.294302642 0.725619376 0.357578367
0.201968253 0.726572096 0.363113552
0.220309943 0.722000420 0.355199933
0.401301414 0.711940289 0.293372929
0.533166945 0.701021791 0.186410859
0.625099182 0.694604039 0.273149490
0.680582047 0.685761213 0.348403007
0.683057785 0.637809157 0.355288476
0.690082192 0.597842991 0.349253267
0.735015869 0.611940503 0.349265069
0.788836837 0.643783450 0.335000426
0.832725406 0.667523444 0.301488221
0.376575768 0.760620475 0.319252193
0.376305073 0.761807501 0.325839847
0.373785883 0.762927055 0.334182918
0.366550982 0.763849199 0.345639318
0.351050675 0.764070809 0.361730486
0.311045945 0.765228510 0.369442254
0.221686959 0.763999999 0.375266343
0.162737802 0.761773944 0.376502007
0.360249937 0.753123224 0.338249654
0.505304515 0.743250132 0.219771892
0.605213046 0.732467115 0.203273624
0.679797292 0.728501558 0.331200957
0.722567856 0.711872041 0.378368199
0.718715489 0.658917129 0.378881902
0.733262956 0.628469706 0.374035895
0.784156680 0.648790658 0.370041430
0.832179666 0.677666545 0.352656156
0.392883658 0.799921811 0.333293855
0.391444713 0.800478816 0.338860571
0.387751132 0.799922347 0.345425576
0.380560517 0.801948607 0.357308358
0.364458174 0.804624677 0.372408301
0.324901462 0.803656876 0.383411258
0.237168238 0.801773071 0.388287604
0.176444814 0.799418569 0.390195251
0.314640164 0.793466389 0.371182591
0.467896789 0.783063591 0.301766247
0.580871940 0.773760974 0.181810036
0.663975596 0.767173886 0.262757659
0.730982125 0.762025237 0.374938548
0.759592533 0.734695733 0.405269027
0.754013956 0.679436147 0.400144279
0.775124133 0.658251762 0.397113860
0.824550390 0.679033339 0.390653670
0.409078181 0.836642265 0.346721739
0.406269759 0.838894069 0.350655824
0.401081443 0.840280533 0.357260734
0.391113281 0.839111269 0.368758142
0.375986367 0.840767503 0.383884490
0.338616729 0.840847850 0.393577874
0.257810712 0.838689506 0.398230493
0.182069018 0.837756395 0.404293060
0.273173332 0.834374309 0.395624161
0.433944553 0.824593604 0.353172958
0.549478829 0.813021183 0.251104712
0.640664101 0.805296421 0.199718028
0.717819214 0.797403574 0.333861709
0.775684536 0.789548695 0.411911249
0.790688396 0.750445366 0.426631033
0.783631682 0.693121076 0.417736351
0.814503968 0.685383618 0.417115211
0.421295196 0.873444080 0.353661925
0.419035822 0.873925030 0.360158622
0.414049000 0.874508023 0.368242443
0.404298007 0.875297010 0.379174232
0.388261497 0.876707196 0.393753946
0.350599498 0.876786947 0.405536324
0.277683347 0.874544382 0.410293192
0.160014912 0.872665524 0.414090127
0.234928921 0.869781971 0.413049072
0.386866629 0.861013353 0.388349175
0.513028979 0.852611482 0.323090047
0.609980106 0.842059851 0.194611430
0.694174170 0.834456742 0.248809606
0.765935063 0.825522602 0.385310858
0.818872809 0.818528831 0.441436946
0.818749070 0.762598753 0.445671558
0.810351014 0.709512293 0.433190793
0.006210375 0.043038625 0.083601505
0.006949187 0.052192938 0.101219505
0.008575500 0.058402002 0.118667625
0.010547190 0.049998056 0.129811764
0.044131629 0.016559750 0.136473134
0.115700938 0.015820624 0.138635814
0.178811759 0.027600378 0.130789116
0.252554089 0.040394444 0.114845246
0.325767606 0.053545505 0.095949493
0.396883994 0.081680067 0.086564004
0.460256249 0.113616876 0.094490878
0.518927634 0.149423689 0.105703250
0.569271743 0.180851504 0.122085132
0.615878105 0.211372793 0.138683900
0.661771536 0.243670776 0.160016268
0.707681775 0.272382706 0.178757265
0.751359582 0.300943106 0.200557247
0.014687250 0.097107440 0.130450740
0.015278187 0.097134374 0.133595750
0.016067125 0.092073746 0.136012375
0.023509566 0.078409560 0.141057253
0.067795567 0.053872563 0.141970932
0.140327126 0.059765875 0.139428243
0.207476452 0.069739632 0.125887126
0.276773214 0.086202264 0.113272622
0.346757948 0.104110509 0.100606680
0.412293702 0.131677628 0.104691565
0.469900310 0.157297119 0.112918064
0.522373438 0.187440500 0.126811251
0.573384464 0.214804620 0.141128451
0.617363572 0.241558030 0.155855894
0.662161350 0.266183466 0.172510013
0.708929420 0.293901086 0.191505626
0.752969801 0.318652749 0.209927991
0.010744250 0.120426752 0.148814991
0.009364376 0.122116059 0.150735810
0.011336125 0.125845999 0.154790640
0.038827635 0.124788560 0.148986444
0.116557874 0.122292124 0.135674760
0.183790699 0.116351120 0.129713252
0.248283267 0.125979498 0.117581248
0.312366664 0.140519023 0.113753192
0.373371124 0.162564993 0.117571756
0.429126322 0.182278186 0.123174436
0.479649872 0.200619370 0.131980360
0.527240336 0.224060804 0.141967982
0.574666500 0.245293379 0.153601006
0.617379308 0.267288923 0.166623518
0.661951542 0.288723022 0.182244033
0.708698869 0.312937975 0.200312838
0.755692124 0.338231623 0.217383385
0.002415253 0.159829944 0.155834943
0.002661689 0.158285767 0.154432073
0.006998439 0.167198092 0.174592122
0.038611323 0.169704884 0.186303079
0.123337053 0.162928343 0.153350145
0.229470432 0.166373760 0.118017696
0.295074552 0.174993157 0.110752881
0.347183019 0.186688691 0.110806942
0.396269709 0.199939758 0.115911387
0.443380386 0.215894252 0.123060383
0.486257076 0.229173437 0.128005624
0.530923605 0.246243060 0.139094383
0.573736250 0.264252007 0.150834441
0.617417037 0.285021693 0.165892527
0.661125958 0.306436032 0.181070521
0.708626866 0.328936756 0.199863583
0.756929576 0.352334082 0.216653243
0.035584375 0.229460999 0.161253110
0.032873563 0.229403630 0.163390622
0.036373381 0.228492633 0.168242499
0.054142695 0.229550317 0.195440948
0.089072369 0.227540374 0.194400758
0.167688504 0.218413994 0.174943507
0.274766117 0.218079612 0.140407503
0.352411956 0.223843515 0.119073056
0.409046263 0.228724882 0.115307629
0.452348322 0.237473249 0.116819881
0.495201528 0.252544254 0.125330374
0.534830153 0.265263289 0.133809805
0.575869679 0.281510144 0.144176260
0.619451642 0.299761951 0.159337640
0.661694646 0.319501638 0.172334388
0.711126089 0.342377037 0.190844566
