public/lut/43.cube
TITLE "17x17x17 Adobe/IRIDAS cube 3D LUT exported with GrossGrade v0.2.2 (beta) 64 bit"
DOMAIN_MIN 0 0 0
DOMAIN_MAX 1 1 1
LUT_3D_SIZE 17
0.000000000 0.000000000 0.000000000
0.023755999 0.000789000 0.000789000
0.090349250 0.000000000 0.000789000
0.148076132 0.000000001 0.000641064
0.202106506 0.000986000 0.003154000
0.256412566 0.001873187 0.003991937
0.309504509 0.005618247 0.007688373
0.362218648 0.006604194 0.009314943
0.414406002 0.007491496 0.012222998
0.464974999 0.009955812 0.015919063
0.516313910 0.008280250 0.017249750
0.564748883 0.015426187 0.023854624
0.617125750 0.008082752 0.023657002
0.665156603 0.020009877 0.032627694
0.718239963 0.008772631 0.032529131
0.766093850 0.024298115 0.041041814
0.817077994 0.010251000 0.042516001
0.000000000 0.042930439 0.030754440
0.038394000 0.047747001 0.004632438
0.110509500 0.048400879 0.000000000
0.165499330 0.052352689 0.000000000
0.218100563 0.057782188 0.000000000
0.269993633 0.060228188 0.000000000
0.321552038 0.065246128 0.000000000
0.373437911 0.063582242 0.000049312
0.424363017 0.063903756 0.000000000
0.474232346 0.062308125 0.000591625
0.524341583 0.060268059 0.000640688
0.573539734 0.061067939 0.003942875
0.623641312 0.057896942 0.005322689
0.673382759 0.058836855 0.009709437
0.723788738 0.057890460 0.012272506
0.774120212 0.055334982 0.016214693
0.821777403 0.059526436 0.020059001
0.000000000 0.112974875 0.089113250
0.000000000 0.122525692 0.072144814
0.096400127 0.122320622 0.000098625
0.174108014 0.120142184 0.000000000
0.226129010 0.121910252 0.000000000
0.277094632 0.123601131 0.000000000
0.327383280 0.125778750 0.000000000
0.378251404 0.126120612 0.000000000
0.427479029 0.127491251 0.000000000
0.478191376 0.126085192 0.000000000
0.526689768 0.127718121 0.000000000
0.576926470 0.123961560 0.000000000
0.625971854 0.127010986 0.000000000
0.677058756 0.120093256 0.000000000
0.726573288 0.125106856 0.000000001
0.777609468 0.115554884 0.000394250
0.825358629 0.122263372 0.000394250
0.000000000 0.173483506 0.140493140
0.000000000 0.180057019 0.131763637
0.024689678 0.190524071 0.079423144
0.168187514 0.184021503 0.007934686
0.232414022 0.181475937 0.000000000
0.283149123 0.182083070 0.000000000
0.333050579 0.183042079 0.000000000
0.383141488 0.183380827 0.000000000
0.431737125 0.184025511 0.000000000
0.481168836 0.183859944 0.000000000
0.529654205 0.184203893 0.000000000
0.579258740 0.183341086 0.000000000
0.628264844 0.183791444 0.000000000
0.678735018 0.182776451 0.000000000
0.728461504 0.182566077 0.000000000
0.779130518 0.182516381 0.000000000
0.827269614 0.179983765 0.000000000
0.000000000 0.229601502 0.186586753
0.000000000 0.234966502 0.180046186
0.000000000 0.243714005 0.158464879
0.073513210 0.251431525 0.081329055
0.228525996 0.240356743 0.015180002
0.287783027 0.238445997 0.000000000
0.337257534 0.238636509 0.000000000
0.386964023 0.238797247 0.000000000
0.435536027 0.239000261 0.000000000
0.484392226 0.238908634 0.000000000
0.532756090 0.238923997 0.000000000
0.581713319 0.238797247 0.000000000
0.630848527 0.238523260 0.000000000
0.680718303 0.238178194 0.000000000
0.730793953 0.237751007 0.000000000
0.780372620 0.237634510 0.000000000
0.829020500 0.236414000 0.000000000
0.000000000 0.283246934 0.230772689
0.000000000 0.287701607 0.224654436
0.000000000 0.294429183 0.211383998
0.025874954 0.303864390 0.170504227
0.135930836 0.308242261 0.080873251
0.281823426 0.294848323 0.017151188
0.340269059 0.292699128 0.000000000
0.389846832 0.292531013 0.000000000
0.438743353 0.292486310 0.000000000
0.487366885 0.292413801 0.000000000
0.535717964 0.292224109 0.000000000
0.584147573 0.292057872 0.000000000
0.633469701 0.291746050 0.000000000
0.682788789 0.291744143 0.000000000
0.733014464 0.290941000 0.000000000
0.782343447 0.290933102 0.000000000
0.831015170 0.290060133 0.000000000
0.000000000 0.335132271 0.272929281
0.000000000 0.338975281 0.267713308
0.000000000 0.344504267 0.258181274
0.007590130 0.352455974 0.235142455
0.072537489 0.361326009 0.174653411
0.207647279 0.359976202 0.105651073
0.334133387 0.347570896 0.028585618
0.391699463 0.345454395 0.000000000
0.440884262 0.345066667 0.000000000
0.489506990 0.344675064 0.000000000
0.538099229 0.344493538 0.000000000
0.586513996 0.344290823 0.000000000
0.635692477 0.343904525 0.000000000
0.684894562 0.343675435 0.000000000
0.734999299 0.343169749 0.000000000
0.784092546 0.342994094 0.000000000
0.832695842 0.342328757 0.000000000
0.000000000 0.385767221 0.313268542
0.000000000 0.388962030 0.309621722
0.000000000 0.393542647 0.302264273
0.001281314 0.400378406 0.286358774
0.042865928 0.408300221 0.253399551
0.115660921 0.417240739 0.169516727
0.265761912 0.410730362 0.124202386
0.384376019 0.398948789 0.032774881
0.442261428 0.396618187 0.000000000
0.491102576 0.396085709 0.000000000
0.539951622 0.395666152 0.000000000
0.588416934 0.395296276 0.000000000
0.637594521 0.394921422 0.000000000
0.686913550 0.394621223 0.000000000
0.736836314 0.394145161 0.000000000
0.786133945 0.393908203 0.000000000
0.834365427 0.393523663 0.000000000
0.000000000 0.435050011 0.354151011
0.000000000 0.437941313 0.349843621
0.000000000 0.441859901 0.344478637
0.000000000 0.447742879 0.332151681
0.017940000 0.455202520 0.309596241
0.088983998 0.462985873 0.262997091
0.170813397 0.470121771 0.171154007
0.326662540 0.459840566 0.144132286
0.434229016 0.449202538 0.037797987
0.491617084 0.446805835 0.000000000
0.541019797 0.446153134 0.000000000
0.589932799 0.445668131 0.000000000
0.639284492 0.445183039 0.000000000
0.688595593 0.444849372 0.000000000
0.738542676 0.444361269 0.000000000
0.787982821 0.443912625 0.000000000
0.836085975 0.443462521 0.000000000
0.000000000 0.483564198 0.392633826
0.000000000 0.485954672 0.390369862
0.000000000 0.489373386 0.385433793
0.000000000 0.494525731 0.375791430
0.004830065 0.501314402 0.358486772
0.056518752 0.508635879 0.328731418
0.131138206 0.516623735 0.268002629
0.227386206 0.520521343 0.184997424
0.382718146 0.508262813 0.161294729
0.483780742 0.498402327 0.046183750
0.541315913 0.496087074 0.000000000
0.590776324 0.495309919 0.000000000
0.640346289 0.494767755 0.000000000
0.690065742 0.494228214 0.000000000
0.740005672 0.493734747 0.000000000
0.788484097 0.492549300 0.000000000
0.834574282 0.490826458 0.000000000
0.000000000 0.531067610 0.432208359
0.000000000 0.533243597 0.428602189
0.000000000 0.536253214 0.425393283
0.000000000 0.540798783 0.417461872
0.000000000 0.546896100 0.403651625
0.026860623 0.554017484 0.380983174
0.103822768 0.561037481 0.343424857
0.165234089 0.570046067 0.261864185
0.284534067 0.569698691 0.196629375
0.437671244 0.555876851 0.175444990
0.533348382 0.546882033 0.040926747
0.590539873 0.544485152 0.000000000
0.640651882 0.543530703 0.000000000
0.689851165 0.542033195 0.000000000
0.738430560 0.540347934 0.000000000
0.786257207 0.538576245 0.000000000
0.832093239 0.536798358 0.000000000
0.000000000 0.577949286 0.470211297
0.000000000 0.579882443 0.468201548
0.000000000 0.582602262 0.464611918
0.000000000 0.586689472 0.457931131
0.000000000 0.592099309 0.446780264
0.008132438 0.598820090 0.428584874
0.065195657 0.605734110 0.400642157
0.146471471 0.612981558 0.352860719
0.207570270 0.621349156 0.261384845
0.345499873 0.616692245 0.213210061
0.490152985 0.601798058 0.187051684
0.581665218 0.592433989 0.050419498
0.637212396 0.589285851 0.000000000
0.686602473 0.587248981 0.000000000
0.735377073 0.585245788 0.000000000
0.783148944 0.583239734 0.000000000
0.828919888 0.581225574 0.000000000
0.000000000 0.623922467 0.507780790
0.000000000 0.625752926 0.504963100
0.000000000 0.627983928 0.502743244
0.000000000 0.631359279 0.496920884
0.000000000 0.635883510 0.487308264
0.000000000 0.641705990 0.472144395
0.033402391 0.647993028 0.449153513
0.115586653 0.654016554 0.415915549
0.182881519 0.661134243 0.355144769
0.256653011 0.666924059 0.262388080
0.409427226 0.657504618 0.236536264
0.540125132 0.643385649 0.192668200
0.627350271 0.634548783 0.032923255
0.681772530 0.631198227 0.000591748
0.731072426 0.628766298 0.000000000
0.778788984 0.626363456 0.000000000
0.824268222 0.623898745 0.000000000
0.000000000 0.665579259 0.542132437
0.000000000 0.667056203 0.540143430
0.000000000 0.669144332 0.537278116
0.000000000 0.672109485 0.532303810
0.000000000 0.676200986 0.524008751
0.000000000 0.681347191 0.511458278
0.010350062 0.687401295 0.492500246
0.072944120 0.693357825 0.465511292
0.158466175 0.699231863 0.424971730
0.213328794 0.706966579 0.348384261
0.301293731 0.710047305 0.259188890
0.467584193 0.696680427 0.252764761
0.589217901 0.682775438 0.194254830
0.672145903 0.674100995 0.035633739
0.725052536 0.670501411 0.000000000
0.772720933 0.667499065 0.000000000
0.817989230 0.664404213 0.000000000
0.000000000 0.705714941 0.574699044
0.000000000 0.707012117 0.571968496
0.000000000 0.708849847 0.570332170
0.000000000 0.711439610 0.566194355
0.000000000 0.715059936 0.559100926
0.000000000 0.719603479 0.548323154
0.000000003 0.725155354 0.532254338
0.038110193 0.730943263 0.509619951
0.122027859 0.736276150 0.478688568
0.194818780 0.742197633 0.429174125
0.244602859 0.749853373 0.337705463
0.352687031 0.749106109 0.262216985
0.522225559 0.732743680 0.265534043
0.636350572 0.719039381 0.191814974
0.714256287 0.710478485 0.024347205
0.764074504 0.706373811 0.000000000
0.809553266 0.702584565 0.000000000
0.000000000 0.743554533 0.605893314
0.000000000 0.744680166 0.604241431
0.000000000 0.746259153 0.601900995
0.000000000 0.748559535 0.598132610
0.000000000 0.751675785 0.591622233
0.000000000 0.755680501 0.582133353
0.000000000 0.760553241 0.568673372
0.014243572 0.766000330 0.549207628
0.081688553 0.771137476 0.523277164
0.166537777 0.776052594 0.487115413
0.226511866 0.782094061 0.425958812
0.285322666 0.788202286 0.329011083
0.422299981 0.781631529 0.283594519
0.574233174 0.764987051 0.273553908
0.680472910 0.751398027 0.180345714
0.752264798 0.742863834 0.017693413
0.798453927 0.738302827 0.000000000
0.000000000 0.778554976 0.634824991
0.000000000 0.779582679 0.632179618
0.000000000 0.780966520 0.630244374
0.000000000 0.782851636 0.627225280
0.000000000 0.785565734 0.621689260
0.000000000 0.789079607 0.613245845
0.000000000 0.793261111 0.601429224
0.003105013 0.798170328 0.584700108
0.047104016 0.803066969 0.562290490
0.130597740 0.807480812 0.532899737
0.202815503 0.812141001 0.489615232
0.255091369 0.818181753 0.415277570
0.332016528 0.821327507 0.321240723
0.484855443 0.809906065 0.300529748
0.622722745 0.792972922 0.276643187
0.720131516 0.779798448 0.164711505
0.784642994 0.771233976 0.007097000
0.000000000 0.001527750 0.003055437
0.018531688 0.004583187 0.025530126
0.095873751 0.000000000 0.043571811
0.150978073 0.000000000 0.049646877
0.206559867 0.000000000 0.057666127
0.260239750 0.000000000 0.064591624
0.314555764 0.000000000 0.068834379
0.366289139 0.000000000 0.072816864
0.420102149 0.000000000 0.069139376
0.469441444 0.000000000 0.074860439
0.521965981 0.000000000 0.068044625
0.569813371 0.000049312 0.076780505
0.622062266 0.000000000 0.069844693
0.670522094 0.000147874 0.078775868
0.722914040 0.000000000 0.074404955
0.771236360 0.000246437 0.082524180
0.821105242 0.000000000 0.080763623
0.000000000 0.046395563 0.046395563
0.029965434 0.051710125 0.045019690
0.117578506 0.045570623 0.046945252
0.185474709 0.037896309 0.040908374
0.248435751 0.022030748 0.026762564
0.295352370 0.027797313 0.033120316
0.349826217 0.017200995 0.023903558
0.398430645 0.015081324 0.021833634
0.444979519 0.018235806 0.027205683
0.495991081 0.006358000 0.018235750
0.538697898 0.023558440 0.033612810
0.590734243 0.005716813 0.024002124
0.634998739 0.022523493 0.036767308
0.687238514 0.006407076 0.032627694
0.732788324 0.026121862 0.043816812
0.784947872 0.008280264 0.041851573
0.829542041 0.026713375 0.049583063
0.000000000 0.115365557 0.100758746
0.027846316 0.120367244 0.087092318
0.101288944 0.123411134 0.052018311
0.178053215 0.119958870 0.040385373
0.238282070 0.116977125 0.031887937
0.294235796 0.113419250 0.030507749
0.349457622 0.108362317 0.014243313
0.398582816 0.105597243 0.019911811
0.452228516 0.095542811 0.003942997
0.497627556 0.099006303 0.009955500
0.548127353 0.086188689 0.006703062
0.594130754 0.093506120 0.005914000
0.645107031 0.076410249 0.005816061
0.691576958 0.087784640 0.007984136
0.742410302 0.074148230 0.012764866
0.789625108 0.082793206 0.012469634
0.838994682 0.068125814 0.015574438
0.000000000 0.175091892 0.150113389
0.010350123 0.181268319 0.133451387
0.062270492 0.188305333 0.097039133
0.169528767 0.184681639 0.056313373
0.235610381 0.181572139 0.035633750
0.291712582 0.179758206 0.029079000
0.346001774 0.177410185 0.017003629
0.397239029 0.175071895 0.019369490
0.449341774 0.171639502 0.002612126
0.497003078 0.170785010 0.010399251
0.547590017 0.166651458 0.000345187
0.594768882 0.166364834 0.004189063
0.646098316 0.161781132 0.000000000
0.692748666 0.162734941 0.003006313
0.744543433 0.158077776 0.000000000
0.791712284 0.159277886 0.000788939
0.841731906 0.152551711 0.000000000
0.000000000 0.230662242 0.195491001
0.009314626 0.236120194 0.181431875
0.040075563 0.243181124 0.159613118
0.102262840 0.249744818 0.101419553
0.227621943 0.241291314 0.062825501
0.289926738 0.238795877 0.030508000
0.343819916 0.237242877 0.020502876
0.396123350 0.235476807 0.016018113
0.447252095 0.233646393 0.005470564
0.496086121 0.232260555 0.010793563
0.546115875 0.230218947 0.000295875
0.594474196 0.228934065 0.004287938
0.645000994 0.226354629 0.000000000
0.693013668 0.226062313 0.003302243
0.743891537 0.223789185 0.000000000
0.792361557 0.223136067 0.000739685
0.841201603 0.220754743 0.000000000
0.000000000 0.284203500 0.238499239
0.002414813 0.289175928 0.224326864
0.020256562 0.295220762 0.210221931
0.068893947 0.302859604 0.174607113
0.155183375 0.306619227 0.106819935
0.281502545 0.295617938 0.065277807
0.341913521 0.293324262 0.024791064
0.394733459 0.291776270 0.015229115
0.445702881 0.290519744 0.008526126
0.495650351 0.289087057 0.008625187
0.545134306 0.287727654 0.002168688
0.594520092 0.286230713 0.002316375
0.644047797 0.284900188 0.000000003
0.693418920 0.283837050 0.001873055
0.743674457 0.282365978 0.000000001
0.793015957 0.281085014 0.000000000
0.841144264 0.280005425 0.000000000
0.000000000 0.336016148 0.279270351
0.001971562 0.340172321 0.268517584
0.012124558 0.345437288 0.256677270
0.046020694 0.352081716 0.235035390
0.103963934 0.360209912 0.183141381
0.220423594 0.358423978 0.127922639
0.333857536 0.348177135 0.070784748
0.392770290 0.346021265 0.023804866
0.444486976 0.344719887 0.012765191
0.495047390 0.343417406 0.007540312
0.544552147 0.342360109 0.004337250
0.594581664 0.340895951 0.000295875
0.643616855 0.339979023 0.000788501
0.693749785 0.338672221 0.000000000
0.743429065 0.337922424 0.000197129
0.793753207 0.336240023 0.000000000
0.841186643 0.335780084 0.000000000
0.000000000 0.386518210 0.319399327
0.000000000 0.390158832 0.309090614
0.000690377 0.394667715 0.301146656
0.026220310 0.400748700 0.284302354
0.081676990 0.407619894 0.254008681
0.135708988 0.416342318 0.180968240
0.276500881 0.409360170 0.141533941
0.384288341 0.399461776 0.075160623
0.442891330 0.397167027 0.019319948
0.494290918 0.395961910 0.007146251
0.544022977 0.394908845 0.006062250
0.594258428 0.393578231 0.000000000
0.643451214 0.392777532 0.002858625
0.694027185 0.391482621 0.000000000
0.743542552 0.390795022 0.001182938
0.794042408 0.389363170 0.000000000
0.841473281 0.389057517 0.000443813
0.000000000 0.435784101 0.358425230
0.000739688 0.438859642 0.350492537
0.001774436 0.442915261 0.342927754
0.011187816 0.448385417 0.331187665
0.055302873 0.454874009 0.308276445
0.117152318 0.462182999 0.266659439
0.184898853 0.469235122 0.185586303
0.335007966 0.458708584 0.160323888
0.434101969 0.449653506 0.076648191
0.492252856 0.447369456 0.018186318
0.543332934 0.446233630 0.008033314
0.593746483 0.445024818 0.000000000
0.643396318 0.444165170 0.004090561
0.694065452 0.442948878 0.000000000
0.743962526 0.442160249 0.001922369
0.794397354 0.441000968 0.000000000
0.842066526 0.440397143 0.000739688
0.000000000 0.484075725 0.397510737
0.000000000 0.486889005 0.389802277
0.000000000 0.490376711 0.384187192
0.000641066 0.495432228 0.374121755
0.030162815 0.501581192 0.356637985
0.092667751 0.508022547 0.328520954
0.150215641 0.515927613 0.274130344
0.237190008 0.519827008 0.197369859
0.388715595 0.507409096 0.174777851
0.483957916 0.498823285 0.081340693
0.541615963 0.496599197 0.016412187
0.592974603 0.495313108 0.001922438
0.643160403 0.494382918 0.005027059
0.694068611 0.493281245 0.000000000
0.744225681 0.492403924 0.001330620
0.793434262 0.490678817 0.000000000
0.839574575 0.488689482 0.000394500
0.000000000 0.531587422 0.435365915
0.000000000 0.533979356 0.429353446
0.000000000 0.537129402 0.423836946
0.000000000 0.541633308 0.416588038
0.011779564 0.547469318 0.402229160
0.062677935 0.553717196 0.379826069
0.130453572 0.560406685 0.344630688
0.179813832 0.569333494 0.269710809
0.293797612 0.568800628 0.208194375
0.442578822 0.555223465 0.188747749
0.533334732 0.547264636 0.077951312
0.591110528 0.544961154 0.011483500
0.642280400 0.543620348 0.005914496
0.692517936 0.541749835 0.000000001
0.741490245 0.539648235 0.000887372
0.789907336 0.537471831 0.000000000
0.836098731 0.535356343 0.000000000
0.000000000 0.578360021 0.473658741
0.000000000 0.580618441 0.467507511
0.000000000 0.583360553 0.463297367
0.000000000 0.587418437 0.457017064
0.000345188 0.592841983 0.445140064
0.031345751 0.599000037 0.427087754
0.101190522 0.605243444 0.400432050
0.164945215 0.612405121 0.356205642
0.218981653 0.620707870 0.270442933
0.353204727 0.615827322 0.224123761
0.493980408 0.601204813 0.199487373
0.581543982 0.592742443 0.080047436
0.637437820 0.589670777 0.014391556
0.688266873 0.587258756 0.000000001
0.737472951 0.585052788 0.001971680
0.785912514 0.582635522 0.000000000
0.831898570 0.580314696 0.000789000
0.000000000 0.624403656 0.510384560
0.000000000 0.626292408 0.505763650
0.000000000 0.628704727 0.501437008
0.000000000 0.632007360 0.496172488
0.000000000 0.636574388 0.486273646
0.012518245 0.642058909 0.470507205
0.065556891 0.647789121 0.448219508
0.140419036 0.653445482 0.416110873
0.196523070 0.660528421 0.359548062
0.264698982 0.666405022 0.271216124
0.415918052 0.656657994 0.245857805
0.543289721 0.642934740 0.205387264
0.627112687 0.634832323 0.067224130
0.682288706 0.631529093 0.009364109
0.732246041 0.628858805 0.003745746
0.780690670 0.626115739 0.000000000
0.826452851 0.623397112 0.000986000
0.000000000 0.665928662 0.544742167
0.000000000 0.667545378 0.539627254
0.000000000 0.669720888 0.535875320
0.000000000 0.672701836 0.531568408
0.000000000 0.676755846 0.523125231
0.000394499 0.681959689 0.509880126
0.032922864 0.687499940 0.491242349
0.105343372 0.692888260 0.465151608
0.176252753 0.698724806 0.426485747
0.224296048 0.706397474 0.354042023
0.307521403 0.709663332 0.267772228
0.472269803 0.696038306 0.261065722
0.591657400 0.682374179 0.206585318
0.671931207 0.674449623 0.064920530
0.725290000 0.670810640 0.007491332
0.773926198 0.667524457 0.000000000
0.819484711 0.664229214 0.001675690
0.000000000 0.705969274 0.576583207
0.000000000 0.707429886 0.572745323
0.000000000 0.709279418 0.569512308
0.000000000 0.711984813 0.565433562
0.000000000 0.715559959 0.558492601
0.000443811 0.720117629 0.547170103
0.012518315 0.725390434 0.530823946
0.064753503 0.730753362 0.508730888
0.146271229 0.735806704 0.478680998
0.207847029 0.741710484 0.431810915
0.253816068 0.749331653 0.343949378
0.358691841 0.748528957 0.270167381
0.526436806 0.732087016 0.273218066
0.637967408 0.718697250 0.205806434
0.714016914 0.710698426 0.051702030
0.764549673 0.706590593 0.004041497
0.810452044 0.702624738 0.002316628
0.000000000 0.743749797 0.608141541
0.000000000 0.745067358 0.604093373
0.000000000 0.746791899 0.600518703
0.000000000 0.749030352 0.597295046
0.000000000 0.752210438 0.591086149
0.000000000 0.756116807 0.581058383
0.001872690 0.760988057 0.567102313
0.036614940 0.766014993 0.548141420
0.108394355 0.770792663 0.522842228
0.183430791 0.775588691 0.487762541
0.236858115 0.781544745 0.429626226
0.292821139 0.787634611 0.335618645
0.427628577 0.781002283 0.291131735
0.578006744 0.764301777 0.280477375
0.681786954 0.751131713 0.196072370
0.751947343 0.743099093 0.038591102
0.798731685 0.738467574 0.003745815
0.000000000 0.778771996 0.635857582
0.000000000 0.779873669 0.632305264
0.000000000 0.781293511 0.629666746
0.000000000 0.783307374 0.626384616
0.000000000 0.786001682 0.621282518
0.000000000 0.789428234 0.612715125
0.000739688 0.793595195 0.600440502
0.014539519 0.798305750 0.583536863
0.070670210 0.802891970 0.561567128
0.151242748 0.807111740 0.532653213
0.214857951 0.811701477 0.491251290
0.263635635 0.817766428 0.419402301
0.337720603 0.820829511 0.327787757
0.489739090 0.809234440 0.307334542
0.625457406 0.792451620 0.283382744
0.720871270 0.779587030 0.184239015
0.784273982 0.771493316 0.018630251
0.000000000 0.006801250 0.009068750
0.000049312 0.017693438 0.029226687
0.063817754 0.016264249 0.096093625
0.155438572 0.000788937 0.111626372
0.209065020 0.000000000 0.118598126
0.261329532 0.000000000 0.123804249
0.315059662 0.000000000 0.129029885
0.367208093 0.000000000 0.132471815
0.419067144 0.000000000 0.136192501
0.469558477 0.000000000 0.136523694
0.519722044 0.000000000 0.140470743
0.570421815 0.000000000 0.137604877
0.619743645 0.000000000 0.143498749
0.671524584 0.000000000 0.137600124
0.720916331 0.000000000 0.144705638
0.773079276 0.000000000 0.137189001
0.819768727 0.000000000 0.145566374
0.000000000 0.054242313 0.064125560
0.012913063 0.063634694 0.077547133
0.084589496 0.061782874 0.117347002
0.182954758 0.038961500 0.129408121
0.244428068 0.025431562 0.127196252
0.296422362 0.026023000 0.123217806
0.351607889 0.012666560 0.119492002
0.399132967 0.012913065 0.118061312
0.451047778 0.002119121 0.108604878
0.496888250 0.003450125 0.112953752
0.545631051 0.001971313 0.105101682
0.592923582 0.000492812 0.107174940
0.642176628 0.000049312 0.101483002
0.690599442 0.000000002 0.102691770
0.739500880 0.000246437 0.104438543
0.788722634 0.000000000 0.102744207
0.836017013 0.000000000 0.105434127
0.000000000 0.119345121 0.119011000
0.011927563 0.125544116 0.121241882
0.100339994 0.125634238 0.119298004
0.173466638 0.121932559 0.120938122
0.235486493 0.118022621 0.120190129
0.293976307 0.113275692 0.117151186
0.351231635 0.105185367 0.110204250
0.406562835 0.093528993 0.100309931
0.457392663 0.085312627 0.093228370
0.511066854 0.069476560 0.081189312
0.559578240 0.059935499 0.071493872
0.608100653 0.054248191 0.070798308
0.660112798 0.032134384 0.052142505
0.704000056 0.048075095 0.066353992
0.756840408 0.023065642 0.052655008
0.800843120 0.041099280 0.063909434
0.852755606 0.009068750 0.051433876
0.000000000 0.177920267 0.162996635
0.002070252 0.184037939 0.158836216
0.094197124 0.184554204 0.148772508
0.160965636 0.186578900 0.127791882
0.230326623 0.183505759 0.122166999
0.287938207 0.181687266 0.119058311
0.343974143 0.178463891 0.112485364
0.398696840 0.174262509 0.103908189
0.452803820 0.168535829 0.093408123
0.505307734 0.163259014 0.078572191
0.556692064 0.155801684 0.070655882
0.609364450 0.147607893 0.051523749
0.658811390 0.141005695 0.041648626
0.709878623 0.131978437 0.038847469
0.758248270 0.131253496 0.028536700
0.809205532 0.115051821 0.027896024
0.855685353 0.119846702 0.015179686
0.000000000 0.232848749 0.206909120
0.002119187 0.238089189 0.199493453
0.085952751 0.240398750 0.178580999
0.136485144 0.246480942 0.144475698
0.223849893 0.242263258 0.131528497
0.286359549 0.239864826 0.119522437
0.341842145 0.238148883 0.112241372
0.395878404 0.235805005 0.104703754
0.449602753 0.232408136 0.092170373
0.501849353 0.228823692 0.078871191
0.553744912 0.224541008 0.070344500
0.606372178 0.219002992 0.047598626
0.657061636 0.214380875 0.040979750
0.708180964 0.209729880 0.029965984
0.757977366 0.206371754 0.025136124
0.809547246 0.200339496 0.009758541
