public/lut/43.cube
TITLE "17x17x17 Adobe/IRIDAS cube 3D LUT exported with GrossGrade v0.2.2 (beta) 64 bit"
DOMAIN_MIN 0 0 0
DOMAIN_MAX 1 1 1
LUT_3D_SIZE 5
0.000000000 0.000000000 0.000000000
0.202106506 0.000986000 0.003154000
0.414406002 0.007491496 0.012222998
0.617125750 0.008082752 0.023657002
0.817077994 0.010251000 0.042516001
0.000000000 0.229601502 0.186586753
0.228525996 0.240356743 0.015180002
0.435536027 0.239000261 0.000000000
0.630848527 0.238523260 0.000000000
0.829020500 0.236414000 0.000000000
0.000000000 0.435050011 0.354151011
0.017940000 0.455202520 0.309596241
0.434229016 0.449202538 0.037797987
0.639284492 0.445183039 0.000000000
0.836085975 0.443462521 0.000000000
0.000000000 0.623922467 0.507780790
0.000000000 0.635883510 0.487308264
0.182881519 0.661134243 0.355144769
0.627350271 0.634548783 0.032923255
0.824268222 0.623898745 0.000000000
0.000000000 0.778554976 0.634824991
0.000000000 0.785565734 0.621689260
0.047104016 0.803066969 0.562290490
0.332016528 0.821327507 0.321240723
0.784642994 0.771233976 0.007097000
0.000000000 0.030952001 0.041713752
0.157964259 0.059806000 0.217199266
0.420726269 0.000000000 0.245011747
0.620457530 0.000000000 0.251771748
0.820082247 0.000000000 0.256265759
0.000000000 0.239472747 0.238271758
0.210053995 0.246980995 0.238382012
0.443368256 0.236033753 0.239784494
0.655093312 0.216233999 0.224553496
0.866291761 0.177003518 0.191398501
0.000000000 0.439358771 0.388321251
0.185367495 0.449692041 0.340797305
0.425644040 0.452187747 0.256835759
0.643758297 0.444683522 0.224442497
0.855953276 0.432534754 0.179740503
0.000000000 0.626167476 0.533556283
0.116996504 0.636270761 0.490175784
0.265548050 0.657115817 0.380224228
0.622448206 0.635982752 0.250818491
0.829646468 0.622789502 0.179238260
0.000000000 0.779524744 0.652829528
0.015574500 0.787719488 0.621502221
0.199861005 0.800077021 0.564702749
0.373791277 0.817619979 0.363259733
0.779896975 0.771988988 0.220595509
0.000000000 0.114285007 0.139133513
0.001971500 0.167219013 0.223921761
0.324909031 0.166983992 0.396844983
0.622468948 0.000000000 0.457515538
0.821283996 0.000000000 0.460819513
0.000000000 0.266054034 0.295617491
0.130443737 0.283339262 0.326007247
0.374513984 0.276324034 0.439136267
0.648569942 0.220190510 0.467494011
0.863277316 0.177913010 0.459470004
0.000000000 0.450670004 0.446021020
0.101859480 0.462799042 0.451626241
0.401847512 0.460662007 0.446027517
0.630372822 0.451153517 0.451048017
0.843031526 0.439716518 0.446055532
0.000000000 0.632194519 0.577748060
0.004928751 0.643540263 0.561683476
0.387004524 0.641253054 0.531205475
0.598830342 0.640967011 0.467680991
0.815146744 0.626687765 0.438288033
0.000000000 0.782311976 0.689947486
0.000000000 0.789599717 0.673298478
0.333614022 0.792350531 0.605764985
0.463092506 0.806229949 0.477593988
0.764069498 0.773515522 0.438212991
0.000000000 0.191385254 0.228245750
0.000000000 0.227311254 0.281102479
0.106194764 0.283232272 0.413132250
0.502322495 0.243957013 0.569143534
0.822934747 0.000000000 0.648460507
0.000000000 0.304513752 0.347975254
0.064516246 0.323569000 0.382028967
0.198242009 0.356452733 0.476917028
0.539047480 0.322343260 0.600442767
0.855451286 0.187690988 0.666527271
0.000000000 0.469561756 0.503759742
0.009462745 0.483309031 0.522175789
0.331199259 0.490269780 0.535710692
0.580109298 0.474478483 0.633358002
0.835532963 0.441439271 0.650505066
0.000000000 0.641877234 0.632684469
0.000394500 0.651386738 0.635327697
0.333805025 0.653849244 0.634757280
0.575497508 0.648177505 0.623169720
0.809144258 0.627428055 0.620333016
0.000000000 0.787425756 0.730815291
0.000000000 0.793825030 0.723513246
0.255441010 0.800320029 0.693600774
0.549555302 0.785768986 0.681036234
0.736720979 0.776798725 0.617876291
0.000000000 0.256673992 0.304163009
0.000000000 0.283770025 0.342460245
0.018137008 0.336531997 0.437817514
0.258805513 0.372556508 0.637430549
0.715512991 0.281192988 0.742467999
0.000000000 0.346597999 0.400247991
0.017546251 0.365029514 0.430890501
0.120735012 0.401400506 0.504829526
0.316286743 0.427119762 0.670945764
0.739162266 0.351312011 0.763112247
0.000000000 0.494699001 0.545716047
0.000000000 0.507615685 0.565854788
0.269573987 0.521325469 0.594390512
0.423117012 0.537996292 0.707263708
0.772912025 0.483416021 0.787921488
0.000000000 0.654744744 0.686697006
0.000000000 0.663190484 0.695792019
0.244348764 0.673421264 0.706845760
0.502259791 0.671990752 0.717826009
0.779617250 0.635656774 0.789333522
0.000000000 0.793698013 0.777396977
0.000000000 0.799356759 0.775553226
0.227179021 0.804731011 0.774698973
0.523253262 0.792222261 0.764232278
0.714720011 0.779672980 0.748510003
