public/lut/44.cube
TITLE "17x17x17 Adobe/IRIDAS cube 3D LUT exported with GrossGrade v0.2.2 (beta) 64 bit"
DOMAIN_MIN 0 0 0
DOMAIN_MAX 1 1 1
LUT_3D_SIZE 5
0.000000000 0.000000000 0.000000000
0.198731005 0.057934999 0.015376750
0.405807018 0.147914007 0.030360503
0.596733272 0.196303755 0.064067505
0.755536973 0.262800992 0.092168003
0.148165256 0.232071757 0.130918249
0.179008991 0.202056006 0.102504499
0.444648266 0.221766010 0.046996497
0.608654022 0.251065731 0.048447251
0.767547965 0.305301994 0.062227000
0.252921999 0.500891984 0.223365515
0.208175004 0.503527761 0.254122734
0.470638037 0.408469975 0.201380506
0.650914311 0.465255260 0.128405511
0.794950485 0.456356525 0.071559504
0.337418973 0.701701760 0.286129266
0.288950503 0.704165041 0.324171513
0.501388013 0.679425299 0.129048496
0.670266509 0.580626011 0.287902027
0.817419231 0.641057014 0.214332268
0.386489987 0.846435010 0.317864001
0.327732742 0.847671270 0.359920770
0.306661069 0.835201025 0.340590477
0.718452513 0.802511454 0.252643287
0.793479979 0.682937026 0.373032004
0.063654751 0.121616252 0.173812255
0.133100256 0.023263248 0.250843227
0.401022017 0.059984006 0.213604748
0.635353804 0.113048002 0.131320253
0.785942256 0.209224254 0.139526993
0.021686250 0.234712258 0.255890489
0.171935752 0.249150753 0.271203279
0.440260261 0.247457266 0.195488006
0.618235469 0.294876009 0.198509246
0.775496542 0.355400503 0.222303510
0.183105007 0.492024243 0.238935247
0.166859239 0.498617798 0.191139236
0.469213992 0.461040735 0.312511027
0.634059548 0.460192800 0.228925258
0.788793445 0.461143017 0.219006747
0.274869502 0.692643762 0.147656754
0.248655021 0.699422717 0.108332992
0.400477052 0.691329479 0.117670745
0.672901750 0.612228751 0.383144498
0.812286735 0.651364446 0.305894792
0.336874485 0.838909268 0.078603752
0.290577978 0.842931509 0.079618745
0.249372050 0.838739753 0.216316760
0.683081508 0.804435492 0.283673525
0.794697285 0.703114986 0.442738503
0.122046001 0.224217504 0.299956024
0.137712508 0.210833251 0.367960751
0.411265492 0.062219001 0.478041530
0.643633962 0.102343500 0.472229242
0.809181511 0.143546999 0.412095010
0.118823752 0.353520989 0.438529491
0.204693764 0.362365514 0.429674745
0.423493773 0.241985753 0.490449250
0.655498266 0.254457504 0.468093276
0.816420257 0.293724239 0.396494001
0.000000000 0.485254526 0.501126528
0.178329006 0.490833521 0.503553271
0.431435525 0.510061026 0.527384996
0.627515256 0.480858028 0.438091993
0.796746492 0.525898993 0.453133017
0.057188984 0.677036524 0.515552998
0.088008508 0.680393219 0.510971546
0.425930977 0.682137012 0.511073053
0.665953279 0.665970206 0.557736039
0.790019989 0.647475541 0.467895508
0.170118481 0.822934508 0.496290505
0.051139735 0.825375795 0.480621517
0.306408525 0.832046032 0.412855566
0.600505233 0.817391992 0.387832761
0.797524452 0.738821507 0.565878987
0.157898009 0.336654007 0.454959750
0.170951247 0.326872021 0.494477004
0.360938787 0.117548749 0.645174265
0.645931721 0.109075248 0.662950754
0.811836720 0.145548508 0.666658521
0.166657269 0.459580243 0.568020225
0.245490253 0.469285786 0.568262815
0.335954010 0.295554727 0.629986048
0.654738307 0.260971010 0.670935273
0.818406999 0.294959724 0.663596511
0.122358993 0.568918288 0.652695775
0.253987789 0.578991473 0.648787022
0.470534503 0.579675794 0.615827024
0.617731333 0.512898266 0.655721068
0.822864771 0.512651801 0.640670002
0.008082751 0.674871802 0.680829048
0.203084499 0.675488532 0.680718482
0.475248784 0.674926758 0.676526010
0.634966016 0.684635758 0.695307016
0.792093992 0.666512549 0.633693516
0.001774505 0.810209513 0.672037005
0.179894269 0.810926020 0.667998493
0.417665780 0.812683523 0.657006800
0.588530242 0.814382970 0.616698980
0.794705987 0.779523492 0.671996236
0.190054998 0.441635996 0.577714026
0.206988752 0.431889266 0.599629760
0.229036003 0.251377463 0.695909500
0.636885762 0.141798258 0.780752003
0.816622019 0.143963993 0.805123985
0.213793993 0.539606988 0.659914017
0.288020998 0.548110485 0.661590755
0.312951505 0.458260715 0.681634247
0.647567272 0.285182744 0.793624997
0.821840286 0.298799247 0.810961723
0.225620002 0.648982525 0.748286963
0.336040497 0.659149468 0.746399760
0.511817455 0.671317995 0.736218572
0.587316036 0.521380305 0.785068035
0.821092486 0.512843966 0.811906993
0.168518737 0.723841012 0.805328965
0.309778243 0.727888525 0.800337791
0.518394530 0.738532722 0.791071951
0.670024276 0.754720271 0.787250757
0.813547015 0.670246243 0.806007028
0.049669001 0.806550980 0.804944992
0.234738261 0.804587781 0.802098989
0.466724038 0.801739991 0.795967460
0.639577746 0.799203753 0.781652987
0.749059021 0.796239972 0.775261998
