public/lut/44.cube
TITLE "17x17x17 Adobe/IRIDAS cube 3D LUT exported with GrossGrade v0.2.2 (beta) 64 bit"
DOMAIN_MIN 0 0 0
DOMAIN_MAX 1 1 1
LUT_3D_SIZE 17
0.000000000 0.000000000 0.000000000
0.023213437 0.003104750 0.006998437
0.057452377 0.008772626 0.017545626
0.141949639 0.021686070 0.007540626
0.198731005 0.057934999 0.015376750
0.244003490 0.087774999 0.023755563
0.294932902 0.106378257 0.028585628
0.349383831 0.130087256 0.028536620
0.405807018 0.147914007 0.030360503
0.457045853 0.160021186 0.035140812
0.506303906 0.172242254 0.045665875
0.554432929 0.183669761 0.056196000
0.596733272 0.196303755 0.064067505
0.636203766 0.210416019 0.072489135
0.675349951 0.226448894 0.081115261
0.714680672 0.243880570 0.086127810
0.755536973 0.262800992 0.092168003
0.030606564 0.059099998 0.037063375
0.017398249 0.047000624 0.034845252
0.066304244 0.060349438 0.030507624
0.165561259 0.088240437 0.023164250
0.232302815 0.109364688 0.017792124
0.275456011 0.126927376 0.022474749
0.320293814 0.142493516 0.029768689
0.369398892 0.155309111 0.028487563
0.419037580 0.165070683 0.034007564
0.467701435 0.172993317 0.033859249
0.512407780 0.182968691 0.044957001
0.556394458 0.192845315 0.048373375
0.597613871 0.205171004 0.059565753
0.636291146 0.219359383 0.067532703
0.675531268 0.234304130 0.080208495
0.715806186 0.252677143 0.083542824
0.756148338 0.268828928 0.088399813
0.075059250 0.129747003 0.065335125
0.067727193 0.129617989 0.062522754
0.039034124 0.114526004 0.060756750
0.107395217 0.119071878 0.054085314
0.213199392 0.139199257 0.042656377
0.279628694 0.151937366 0.027206125
0.334039658 0.160664245 0.025234126
0.384602278 0.168030322 0.022622440
0.431231916 0.175268739 0.023657372
0.476509750 0.184133872 0.026023000
0.519197643 0.193177372 0.032430377
0.559843898 0.203830555 0.038143374
0.599006951 0.214671120 0.048723504
0.636481404 0.227617815 0.059211016
0.676111579 0.242520630 0.071905747
0.716380954 0.259508908 0.075130694
0.758039296 0.275793761 0.079878002
0.115069635 0.184496135 0.101063319
0.113630131 0.184639320 0.095301256
0.095559262 0.182803765 0.079724692
0.088697024 0.164602876 0.079671621
0.170950487 0.165142745 0.092803076
0.250447810 0.179304123 0.074204385
0.328055143 0.182949260 0.050410811
0.389767140 0.186989322 0.034303185
0.441481560 0.191814065 0.025825940
0.485470057 0.199566305 0.024642814
0.526198328 0.209231377 0.026811626
0.564839661 0.218598381 0.034648065
0.603057086 0.229342952 0.044188250
0.639429867 0.240850955 0.052421946
0.678366482 0.254394770 0.061602883
0.718981206 0.271054268 0.067474879
0.760833502 0.286444932 0.065705441
0.148165256 0.232071757 0.130918249
0.150431991 0.233836681 0.132196367
0.143068522 0.234626129 0.129943758
0.130427316 0.229847386 0.107847676
0.179008991 0.202056006 0.102504499
0.224404559 0.198229253 0.127277315
0.303718895 0.217082500 0.101139866
0.385701388 0.222468063 0.070504680
0.444648266 0.221766010 0.046996497
0.492519736 0.225158006 0.034155063
0.533839107 0.232221499 0.033613004
0.571806669 0.241242632 0.039417688
0.608654022 0.251065731 0.048447251
0.645290494 0.262470067 0.053565569
0.683848739 0.275877357 0.062442757
0.723861337 0.290027320 0.064873241
0.767547965 0.305301994 0.062227000
0.175760195 0.293906391 0.157922566
0.176218748 0.294361740 0.159162432
0.175321937 0.296009064 0.163633510
0.157651559 0.296875328 0.166923061
0.181443453 0.287426174 0.140716180
0.243328005 0.243232682 0.146120191
0.291128278 0.238022506 0.151561812
0.373146653 0.265150875 0.127021223
0.446278900 0.275547802 0.093963876
0.500084996 0.274820060 0.069403626
0.541620791 0.273216188 0.054043628
0.578553438 0.275446445 0.049715936
0.614502668 0.282759070 0.054522187
0.651219606 0.292142332 0.059302378
0.689441323 0.303454190 0.063414887
0.730714262 0.317051619 0.066202000
0.773984611 0.331426561 0.062806003
0.200019136 0.364900142 0.182497889
0.201318890 0.365441501 0.183169141
0.204265624 0.367526144 0.190087378
0.188584566 0.367355347 0.197255448
0.166001514 0.365502626 0.185079500
0.280328751 0.349603951 0.136371315
0.320591271 0.295840144 0.169522390
0.368560731 0.288294554 0.166564450
0.441605628 0.317496896 0.147272870
0.507161498 0.337552577 0.118215330
0.553171337 0.340032756 0.095169134
0.589679122 0.334170759 0.078283638
0.623016298 0.332851768 0.068193883
0.657611310 0.334578902 0.064258695
0.694978476 0.342248023 0.065224126
0.737543583 0.351668894 0.065188929
0.782158494 0.363848627 0.059492376
0.225934520 0.434940398 0.202836901
0.228438079 0.434904456 0.205605328
0.231935441 0.437311023 0.215044767
0.223137513 0.440459669 0.224824324
0.172077462 0.437433541 0.224889144
0.232121840 0.430626422 0.184291586
0.377374530 0.409062266 0.152211070
0.398338825 0.354406029 0.185522079
0.439308971 0.339384645 0.179240823
0.507264495 0.370403111 0.164801717
0.563678682 0.396328092 0.137279093
0.603641033 0.403966725 0.111865766
0.637088895 0.403009534 0.096074447
0.668813944 0.398234338 0.086451754
0.702584863 0.395647913 0.076793499
0.743528068 0.398917794 0.066832557
0.788034141 0.404830694 0.060536254
0.252921999 0.500891984 0.223365515
0.256005824 0.502647698 0.228466451
0.258618891 0.503425121 0.238454387
0.251842320 0.504451036 0.249170005
0.208175004 0.503527761 0.254122734
0.180191308 0.500520349 0.233719438
0.355884016 0.490317881 0.159600869
0.459115982 0.465662658 0.179881275
0.470638037 0.408469975 0.201380506
0.504710913 0.389921635 0.195057005
0.565342069 0.419021368 0.182428122
0.614427209 0.450751305 0.157440335
0.650914311 0.465255260 0.128405511
0.683143020 0.466812581 0.110192060
0.716381669 0.463339746 0.097497612
0.752859235 0.458428502 0.084464110
0.794950485 0.456356525 0.071559504
0.278435558 0.560364187 0.243037000
0.281584442 0.561261594 0.248821989
0.281941950 0.563214779 0.259126633
0.274429262 0.564158797 0.270503640
0.238053992 0.564773142 0.278044045
0.171453938 0.561238527 0.271363795
0.304838091 0.552200377 0.207108364
0.464862972 0.542536557 0.150162727
0.528802335 0.515511632 0.213127255
0.534239888 0.459861398 0.219043046
0.564802289 0.440832376 0.214950562
0.615923703 0.466841996 0.205726624
0.661414802 0.500864267 0.182589680
0.696064413 0.520793915 0.150305033
0.729325116 0.525156975 0.123690173
0.764316380 0.520613551 0.108914360
0.803095281 0.514407933 0.092359751
0.300054997 0.611964881 0.260459006
0.302540511 0.613387644 0.268004000
0.302099496 0.614910364 0.276921749
0.293210804 0.616816580 0.287852943
0.259831131 0.617288232 0.297331750
0.180086121 0.616066515 0.297606260
0.236311063 0.608626366 0.260956228
0.434848309 0.598137319 0.164109036
0.547335267 0.591115117 0.185656399
0.587590098 0.560106039 0.242665008
0.587089598 0.505355000 0.240483373
0.615573883 0.488316774 0.238304570
0.660151780 0.513858795 0.230467618
0.703089714 0.545222223 0.208970532
0.738679051 0.566961467 0.172736347
0.772088468 0.574079990 0.142378345
0.809314251 0.569796145 0.120690748
0.319166750 0.658484399 0.273825556
0.320873499 0.660187542 0.281137705
0.318791747 0.661982834 0.289668351
0.308285952 0.663563609 0.301502317
0.278669119 0.663572192 0.311250448
0.192024574 0.662282288 0.314666122
0.188906312 0.657743812 0.297295988
0.390218526 0.647571862 0.204230815
0.530666113 0.637780309 0.137335196
0.611380637 0.632066607 0.231656685
0.634065688 0.598969221 0.268134683
0.633404732 0.547898710 0.264391065
0.657668173 0.531704903 0.263022333
0.698563516 0.554018497 0.255559772
0.741471648 0.583315551 0.234584719
0.778799772 0.606501281 0.194047719
0.815064132 0.615239918 0.156772822
0.337418973 0.701701760 0.286129266
0.337226123 0.702470601 0.292910427
0.332856655 0.702790856 0.300401986
0.320161730 0.704313636 0.313535243
0.288950503 0.704165041 0.324171513
0.205488935 0.703318596 0.328256309
0.171447650 0.700199246 0.320910484
0.343491614 0.690140903 0.264107645
0.501388013 0.679425299 0.129048496
0.598842859 0.672079802 0.176435426
0.660082877 0.667365551 0.276104748
0.673705876 0.630988836 0.294633508
0.670266509 0.580626011 0.287902027
0.695900500 0.569720745 0.287623584
0.736521304 0.590424776 0.278424591
0.779343247 0.618326128 0.257099569
0.817419231 0.641057014 0.214332268
0.350498736 0.739578426 0.293868393
0.349005878 0.739663601 0.300858676
0.344711006 0.739954770 0.310079128
0.332717597 0.740589678 0.322499484
0.299546748 0.740925014 0.333189309
0.212244689 0.740082145 0.339235693
0.134889424 0.738548815 0.338154852
0.287425041 0.730640054 0.301348060
0.466169506 0.719775736 0.190846801
0.576663196 0.711485147 0.117915563
0.652587712 0.705560803 0.236988232
0.700537205 0.696916342 0.308183610
0.707765520 0.657676280 0.319081724
0.706384003 0.612643242 0.311063051
0.731558621 0.603675961 0.310236812
0.773430824 0.623086393 0.300863266
0.813394368 0.648605049 0.277619362
0.363416493 0.775577903 0.301970005
0.361402512 0.776261687 0.309242666
0.356656730 0.777277231 0.318564892
0.343557119 0.778068781 0.332261622
0.310078144 0.777912855 0.342871636
0.223905712 0.776489854 0.348697484
0.123165511 0.774508536 0.350340128
0.223745257 0.769585550 0.330335766
0.423580855 0.760411680 0.258297414
0.547106802 0.751049638 0.119065106
0.633241892 0.743373334 0.152356535
0.696312129 0.738089561 0.281191260
0.737378001 0.725857377 0.335274220
0.741274238 0.684488118 0.342610717
0.738694727 0.639643908 0.333616167
0.765553176 0.632520556 0.332185447
0.805057108 0.650019169 0.322198272
0.376773626 0.811566234 0.311670482
0.373541325 0.812102199 0.317452610
0.366547048 0.812614083 0.326356053
0.351725698 0.813043594 0.340376854
0.318055451 0.812827528 0.351858377
0.242370233 0.812669098 0.357051641
0.114799596 0.810573101 0.360823840
0.177013099 0.806680739 0.351125598
0.369799286 0.799521148 0.308128685
0.508797765 0.790137947 0.203148961
0.606692135 0.779846728 0.073485836
0.678362608 0.773666739 0.207426727
0.736631155 0.768696487 0.319527090
0.771799386 0.752802312 0.361553133
0.771581054 0.708896995 0.364295572
0.767907619 0.662853062 0.355149955
0.797074556 0.657431662 0.353716344
0.386489987 0.846435010 0.317864001
0.383185506 0.847130716 0.325688899
0.375535250 0.846823871 0.334392607
0.360021681 0.847060144 0.346816331
0.327732742 0.847671270 0.359920770
0.247868687 0.845694840 0.365108997
0.106411472 0.844869852 0.368467897
0.106934905 0.841670871 0.366613328
0.306661069 0.835201025 0.340590477
0.464106232 0.826238394 0.275908381
0.570488632 0.816572607 0.133478880
0.651847303 0.807876050 0.061524749
0.718452513 0.802511454 0.252643287
0.771698773 0.797889411 0.349532485
0.801210642 0.777265787 0.385488629
0.796746552 0.728864670 0.384404868
0.793479979 0.682937026 0.373032004
0.011681125 0.028782751 0.062233813
0.025776563 0.048387751 0.094857626
0.025086189 0.047079876 0.093404122
0.071484581 0.021932304 0.097182497
0.159285948 0.020256814 0.093873128
0.218283996 0.041951314 0.077750936
0.277388901 0.068067946 0.064131744
0.341351151 0.099891640 0.053709686
0.403215945 0.129563883 0.052745692
0.459465444 0.153000429 0.062316127
0.512321889 0.167809561 0.070870876
0.561111391 0.181193128 0.081523940
0.604016483 0.194075882 0.086945631
0.643127859 0.210740775 0.094197445
0.682617724 0.225988388 0.097994946
0.721552730 0.244164884 0.100838818
0.762128353 0.262629986 0.105382815
0.027452124 0.080965757 0.107487999
0.028733438 0.081803814 0.105630055
0.090654187 0.083410308 0.090910256
0.164098948 0.094502755 0.085858501
0.206981689 0.104519315 0.082993060
0.253118575 0.119708128 0.076755241
0.305475712 0.135789335 0.070907630
0.360603392 0.154624566 0.076746628
0.414319217 0.165501490 0.075107127
0.464517266 0.174885929 0.079159118
0.514714360 0.185879380 0.083347313
0.559378982 0.198106930 0.091821939
0.601388574 0.209658191 0.092448190
0.639908314 0.225763753 0.101291075
0.678758800 0.239947826 0.104653314
0.718459368 0.259324700 0.109408945
0.759030879 0.275180817 0.111541934
0.024938313 0.132602632 0.112787433
0.033809874 0.133175179 0.118609570
0.049365874 0.129203185 0.122827679
0.152021438 0.134649813 0.096520178
0.226697579 0.148472875 0.078368887
0.278595626 0.158258691 0.075408004
0.328836709 0.166804940 0.072789751
0.378879428 0.173943639 0.075580440
0.427758902 0.181311265 0.073998690
0.473450065 0.189430565 0.074412614
0.519217730 0.200020999 0.079901621
0.561814129 0.210216507 0.086278878
0.600842178 0.222706869 0.087910630
0.638711691 0.235497311 0.096556254
0.677779794 0.251490593 0.101350367
0.717518568 0.267700940 0.104488820
0.759754181 0.285711259 0.108774565
0.078107387 0.181531444 0.108670563
0.081500076 0.182616949 0.108432874
0.072422072 0.183895767 0.113637298
0.090265937 0.175288975 0.124969937
0.184835121 0.173695192 0.121526442
0.266952813 0.181118131 0.098892570
0.337049693 0.184513122 0.077704385
0.391271532 0.189595193 0.069041252
0.439525902 0.196290925 0.065606624
0.483836681 0.204669446 0.066433564
0.525443017 0.213749185 0.069296435
0.564820468 0.223567247 0.074067309
0.602714479 0.235662445 0.081534065
0.639839172 0.247825697 0.088331059
0.678682208 0.262336969 0.090958886
0.719675064 0.278334081 0.095489249
0.760867596 0.295203209 0.096809380
0.127223253 0.230291635 0.107449621
0.129749179 0.231261626 0.103768930
0.132114068 0.233894631 0.101682939
0.120692685 0.233103141 0.098268509
0.169630691 0.213290080 0.126370683
0.227639198 0.208980858 0.151282310
0.314498812 0.220652685 0.123804055
0.388849080 0.222344875 0.095995434
0.446822852 0.223548457 0.078710936
0.491760939 0.228336364 0.071633376
0.531744540 0.236882567 0.074103624
0.570682108 0.245614186 0.077128187
0.607988715 0.256361365 0.081747442
0.644623935 0.267416418 0.083847560
0.682983398 0.280982316 0.088141441
0.723758996 0.295426935 0.090396807
0.766030312 0.310577393 0.087868311
0.164329693 0.292305321 0.111969188
0.164797485 0.292566627 0.111124247
0.168315679 0.295437306 0.119882748
0.156390741 0.297314733 0.136120066
0.162215889 0.292483062 0.134065062
0.241868928 0.255068302 0.158811495
0.292119831 0.250390828 0.169720665
0.376247227 0.271402240 0.144862682
0.444911867 0.275106370 0.116873682
0.497913569 0.272831976 0.095823303
0.538922071 0.272052318 0.084852815
0.577093005 0.276917487 0.081685752
0.613486707 0.285788804 0.085702695
0.650203943 0.296000987 0.087230064
0.688773453 0.307807982 0.089828067
0.729658246 0.321146607 0.090400308
0.771362901 0.335487127 0.090742499
0.191088319 0.362258911 0.144589886
0.191919565 0.363804638 0.145699084
0.196596071 0.365764827 0.155874819
0.190062866 0.367626756 0.171901137
0.158272251 0.367097735 0.175049827
0.258265823 0.354977578 0.125842318
0.322980940 0.309846073 0.182097554
0.367458910 0.298226863 0.181281701
0.442247570 0.325658321 0.161734015
0.505621612 0.339030385 0.135330886
0.550196290 0.337369829 0.114928007
0.586200833 0.331911832 0.101433374
0.620417595 0.331727028 0.093941003
0.655816197 0.335746258 0.089337386
0.693270504 0.344070137 0.090692125
0.736809134 0.354289949 0.089753054
0.781378567 0.367881626 0.088879123
0.217861518 0.434370041 0.169297770
0.219162017 0.433868170 0.174225703
0.225000203 0.434668213 0.186310083
0.219716579 0.438208699 0.201395065
0.180389017 0.439177543 0.211523890
0.201180533 0.434317589 0.184930354
0.362937093 0.415905863 0.155072004
0.400936544 0.365673542 0.201234818
0.441059232 0.351144135 0.195722893
0.507574379 0.379099309 0.178256139
0.562723339 0.400663167 0.152488798
0.601300240 0.404290974 0.128877327
0.634273231 0.400804609 0.114921317
0.666141987 0.396315575 0.105769634
0.701062977 0.394902527 0.098503813
0.742886424 0.399177969 0.090973370
0.787475586 0.406387657 0.088029623
0.243758500 0.497772127 0.192277312
0.248346195 0.500576138 0.199359015
0.252156198 0.502923965 0.212304130
0.247317880 0.504681945 0.226983249
0.211985365 0.504617512 0.238846257
0.173827872 0.501732111 0.229966000
0.331396908 0.493400246 0.163767323
0.453918397 0.473063052 0.183638856
0.471414477 0.418415755 0.218105674
0.505727768 0.400035262 0.211417511
0.565472782 0.427861929 0.197679877
0.613484383 0.456253111 0.172127947
0.648859501 0.466648966 0.144452944
0.680698693 0.465355694 0.128098801
0.714147925 0.461538196 0.117914125
0.750799358 0.456534773 0.106438123
0.793744862 0.455662668 0.096718132
0.268960685 0.558379233 0.213366881
0.274221629 0.560148239 0.223208755
0.276865065 0.562620282 0.234854698
0.269342661 0.564170778 0.248578176
0.240437120 0.565162957 0.261237502
0.169976249 0.563842177 0.263846755
0.272938848 0.555163980 0.212483227
0.450492173 0.543839455 0.153476402
0.526502550 0.522192419 0.224379197
0.534232259 0.466980457 0.235184625
0.564980745 0.448435634 0.231219560
0.616195321 0.475086153 0.220383063
0.660610616 0.506508827 0.196466759
0.694502473 0.522287726 0.165087610
0.727177680 0.524692059 0.143112361
0.761818767 0.518880069 0.129405484
0.801159739 0.512855291 0.116143435
0.292937607 0.611276746 0.232250512
0.296018839 0.612711906 0.241555810
0.296497464 0.613789558 0.253006548
0.289094687 0.616102159 0.266242057
0.259955496 0.617005885 0.280129105
0.185322508 0.616241574 0.286374271
0.214479327 0.610925317 0.260484159
0.415504128 0.599738777 0.169512719
0.537912965 0.591502428 0.189261645
0.586409450 0.566254795 0.256389290
0.587306440 0.512080431 0.257112205
0.615596175 0.494907677 0.254104704
0.660388410 0.520381927 0.245910883
0.702292621 0.550997555 0.223923787
0.737448454 0.569124460 0.187566280
0.770790935 0.574223816 0.160533592
0.808107257 0.568480015 0.142231077
0.313570201 0.658927500 0.247721568
0.315232694 0.659310579 0.255871952
0.313551128 0.660125673 0.265638739
0.303382576 0.662660122 0.279681951
0.278453171 0.663677514 0.295407683
0.190593809 0.662071466 0.302079558
0.165473580 0.659437358 0.291875660
0.367368221 0.649390519 0.207933396
0.519075513 0.638951182 0.137702569
0.605665803 0.633256912 0.238566816
0.633838117 0.604720175 0.282713860
0.633329928 0.553785563 0.279885501
0.657618701 0.537463427 0.278907508
0.698541999 0.559713066 0.270855397
0.741044283 0.588061690 0.248906955
0.777910471 0.608898997 0.208747655
0.813683510 0.615253270 0.174976826
0.330922782 0.700301766 0.258046716
0.331149757 0.701170743 0.266285777
0.327772945 0.702118278 0.277449399
0.316666722 0.703203917 0.292570680
0.288348436 0.703880608 0.307321131
0.207999125 0.703393579 0.314310879
0.157613263 0.701125324 0.312632859
0.323734164 0.691799521 0.263706535
0.488197953 0.681237638 0.133729562
0.591319978 0.672858298 0.179493919
0.656307817 0.668849349 0.285571098
0.673857212 0.635638535 0.308617622
0.670413017 0.585963249 0.302959859
0.696373820 0.575074494 0.302386642
0.736418903 0.595046103 0.292393088
0.779720008 0.622508466 0.270644665
0.816597879 0.643395007 0.228547081
0.344253570 0.737497628 0.266673356
0.343474895 0.738172472 0.275322765
0.340099931 0.739468396 0.287087142
0.329153568 0.740812540 0.301889509
0.298750073 0.741057038 0.316134691
0.212481126 0.740229011 0.323545873
0.123170242 0.738464177 0.327155888
0.260661960 0.732391119 0.299210906
0.451763511 0.721450090 0.194339871
0.567266107 0.712594151 0.120105751
0.646368921 0.706109166 0.242193788
0.697927296 0.699103057 0.316766500
0.708562076 0.662264347 0.331888407
0.706163704 0.616702259 0.325139701
0.731730998 0.607849538 0.323468775
0.774082541 0.627308130 0.313730747
0.813582122 0.651861608 0.289882064
0.357793570 0.774750292 0.274045706
0.356180131 0.775695205 0.282499433
0.351718575 0.776395500 0.293581009
0.339319021 0.777968526 0.309787452
0.308786035 0.778108954 0.325053692
0.225509644 0.776384115 0.333211064
0.119600877 0.774809301 0.337300301
0.205979928 0.770290792 0.323724210
0.406960160 0.761830032 0.258465648
0.536081553 0.752343297 0.121542603
0.626353800 0.744412303 0.154272705
0.691689849 0.738631904 0.286932319
0.735854983 0.728847623 0.344660074
0.741592050 0.688975036 0.354577273
0.739143848 0.643497467 0.345925540
0.765808940 0.636378169 0.344888777
0.805409014 0.653638363 0.333915859
0.370722145 0.810117006 0.284890383
0.367798626 0.811564982 0.292289823
0.361457944 0.812852085 0.302967608
0.346798688 0.813240051 0.317261398
0.317556769 0.813444316 0.334368736
0.240302116 0.812733531 0.341713548
0.116731599 0.810471237 0.346766293
0.163057148 0.807619393 0.342213869
0.353585780 0.799858928 0.304728985
0.498253018 0.791365206 0.203305885
0.597274840 0.781461477 0.074424274
0.672756135 0.775108993 0.208807170
0.732429028 0.769490242 0.324643880
0.770608604 0.756138563 0.370644838
0.771663845 0.711946011 0.375137776
0.767862618 0.666128635 0.366333216
0.796920538 0.660672843 0.364867747
0.380268753 0.845220029 0.288029432
0.377253950 0.846148610 0.297158808
0.370391995 0.846096337 0.308355004
0.355819434 0.846740782 0.323184729
0.325575411 0.847727776 0.340688318
0.249246120 0.845539868 0.349076807
0.109405093 0.844421804 0.353300184
0.096259020 0.842020512 0.354507297
0.293751836 0.835919797 0.333926231
0.452692032 0.827180445 0.272779137
0.560956359 0.818233550 0.132834136
0.644614756 0.808564425 0.062786937
0.713464737 0.802690089 0.256317079
0.768243134 0.798673153 0.354923487
0.800396264 0.779784322 0.393972993
0.797324836 0.731244981 0.394412190
0.793624997 0.686500728 0.383763552
0.030162625 0.057257127 0.104019128
0.038837563 0.071783379 0.131516382
0.045532625 0.077445000 0.146986246
0.067875765 0.036212675 0.161209702
0.146021500 0.005026875 0.159090504
0.201463178 0.017791938 0.153218627
0.261569530 0.035978880 0.128231242
0.331213921 0.057942569 0.104135424
0.399460882 0.090129130 0.082115002
0.462041676 0.126958370 0.078351997
0.518725336 0.149437994 0.087114751
0.568344474 0.166941196 0.092639498
0.610555649 0.184435621 0.102622628
0.649893701 0.202115461 0.107959069
0.688626468 0.221961632 0.113481380
0.727739811 0.240190953 0.117737696
0.766212106 0.261664361 0.124716997
0.051968750 0.117764562 0.153136566
0.049006812 0.115044817 0.151565880
0.058645185 0.111294381 0.154832229
0.096398704 0.092725553 0.156769887
0.167019069 0.080549315 0.155341059
0.222340256 0.093550377 0.140548185
0.282217383 0.111811690 0.120743312
0.347339213 0.133136839 0.111073814
0.410908222 0.150412008 0.104545876
0.467837542 0.166450828 0.107381180
0.521087825 0.180149868 0.112475000
0.567848802 0.193998873 0.115716688
0.609411955 0.208714277 0.118692130
0.648078322 0.225386634 0.121433496
0.686687768 0.241213813 0.123986751
0.726245940 0.259524763 0.128022939
0.766511559 0.278086483 0.132666573
0.031148750 0.143498376 0.164363503
0.029965937 0.147381574 0.166812301
0.043038625 0.147183999 0.165904373
0.136662692 0.146529630 0.149952307
0.210172132 0.149077237 0.133689880
0.260001719 0.156130120 0.126281440
0.314919531 0.165372998 0.120095126
0.370106339 0.175448433 0.118699498
0.425176233 0.184860379 0.119277872
0.474838227 0.194309816 0.119702250
0.522347987 0.204810992 0.120763376
0.565626025 0.217537239 0.121624433
0.606621981 0.230429620 0.124099754
0.644441247 0.244747370 0.125919625
0.682754993 0.259909034 0.129796878
0.722406864 0.277114362 0.133620501
0.764040589 0.295726627 0.139896125
0.020010453 0.180744529 0.167578876
0.025530199 0.182162955 0.168283507
0.043789566 0.184574082 0.181713745
0.101413205 0.182829693 0.180679619
0.198549807 0.180749193 0.150282383
0.277109087 0.185255632 0.126856193
0.336976200 0.189718559 0.114960127
0.388194025 0.196871385 0.113367379
0.436249435 0.204962015 0.114396445
0.481103748 0.213339120 0.112899818
0.524176419 0.222862437 0.115207128
0.566185951 0.233854935 0.118415818
0.603908300 0.246471137 0.120364748
0.641508877 0.259012818 0.122811623
0.679941654 0.274638444 0.126714632
0.720465243 0.290712625 0.130563200
0.761952937 0.307691246 0.135928437
0.093392506 0.229352996 0.164150119
0.092119500 0.229769260 0.163340062
0.097800501 0.230258748 0.169133246
0.109024569 0.231307641 0.173182741
0.160369009 0.224804759 0.175058261
0.235016808 0.217344612 0.169999376
0.324807495 0.222570628 0.141854256
0.392990857 0.223450139 0.121559247
0.445125759 0.226374120 0.112025999
0.489937127 0.233728081 0.110081561
0.530403972 0.242355496 0.110565625
0.568957984 0.252035111 0.113188811
0.606765091 0.263512373 0.113987379
0.644189537 0.275369525 0.115473762
0.682459772 0.289731264 0.118974999
0.723523378 0.304879069 0.120781496
