public/lut/45.cube
TITLE "17x17x17 Adobe/IRIDAS cube 3D LUT exported with GrossGrade v0.2.2 (beta) 64 bit"
DOMAIN_MIN 0 0 0
DOMAIN_MAX 1 1 1
LUT_3D_SIZE 5
0.038640000 0.051020000 0.057438999
0.175645754 0.099614002 0.069735751
0.315400511 0.143538505 0.099315003
0.458782524 0.192925245 0.152370512
0.593837976 0.244978994 0.200510994
0.082522251 0.187689245 0.072099753
0.231589764 0.195926756 0.088829994
0.422648489 0.208281502 0.116621748
0.573836029 0.265359998 0.166117504
0.699014246 0.322901249 0.202067003
0.123519003 0.277832001 0.102250002
0.283880740 0.318033993 0.127097487
0.487239510 0.336596012 0.134927511
0.645280302 0.335274518 0.167430490
0.770154953 0.389153481 0.204567999
0.169842750 0.368360251 0.135385260
0.335039020 0.407827258 0.160209507
0.531954765 0.486606002 0.183127493
0.678457260 0.513557792 0.203885257
0.803173721 0.481333256 0.213567495
0.211138994 0.427648008 0.171011001
0.378284514 0.485413015 0.195759997
0.548156977 0.572988987 0.211414009
0.692577779 0.652605057 0.246687502
0.817323029 0.676524997 0.267924994
0.059566502 0.124553010 0.147031993
0.243771762 0.148712516 0.161871493
0.401642263 0.187533244 0.168423757
0.546857297 0.231807262 0.199072510
0.643746734 0.264694512 0.217838004
0.083907999 0.197964758 0.202028751
0.160008252 0.247969761 0.235164747
0.394990504 0.261271775 0.223309755
0.547990024 0.274638474 0.222892761
0.672217190 0.305528224 0.238565505
0.152094752 0.365372032 0.280943006
0.182312503 0.367740273 0.186952740
0.469336540 0.402976513 0.225882247
0.638581276 0.379099518 0.217026249
0.752519488 0.430541515 0.236728251
0.161621988 0.396079272 0.254929274
0.271914989 0.440719277 0.210196003
0.505551755 0.506701529 0.248122752
0.670589805 0.552724481 0.231578752
0.794724464 0.503552496 0.215511754
0.168837011 0.412219018 0.269363016
0.318408012 0.500626266 0.235501245
0.521761715 0.574492276 0.270913750
0.687536716 0.667837024 0.273729265
0.812842488 0.677207947 0.267643005
0.086515501 0.190147504 0.225008011
0.186660260 0.198682755 0.248138011
0.447611511 0.241741493 0.222160503
0.590403318 0.270679772 0.235072255
0.691386998 0.309323996 0.261646509
0.101082996 0.226882249 0.257390499
0.151095748 0.273289502 0.313337743
0.434599757 0.296404749 0.295968503
0.578481555 0.319872975 0.291006237
0.687847733 0.349750757 0.308534265
0.140442491 0.326607019 0.339603484
0.169128492 0.394992769 0.403306246
0.340869993 0.446660012 0.416512549
0.581575274 0.463859528 0.425133288
0.713487029 0.480704993 0.413745493
0.209880739 0.490834773 0.442634493
0.226588249 0.527901769 0.453145742
0.364630997 0.519605756 0.375009000
0.641588688 0.592775226 0.400197506
0.767166972 0.573315501 0.402301252
0.258644998 0.597894013 0.513108015
0.223106265 0.525898993 0.399268538
0.446696997 0.604017496 0.364818037
0.653915763 0.665530503 0.409141302
0.795060992 0.704847991 0.383936524
0.110071003 0.242463499 0.286743999
0.174012497 0.245441496 0.289039493
0.419110507 0.286027730 0.276658267
0.627830267 0.311951011 0.256965995
0.714637041 0.342593998 0.288198769
0.121483758 0.269105494 0.312326491
0.146692500 0.305839986 0.363227248
0.381893009 0.319565505 0.383105278
0.607971966 0.355390996 0.338002026
0.701802254 0.385116756 0.360614985
0.151583254 0.337538511 0.380647987
0.181988254 0.400394499 0.453315258
0.324866742 0.437032759 0.498464733
0.600616515 0.463208795 0.488914043
0.729273498 0.492125243 0.488639742
0.201719254 0.453084767 0.482835770
0.227528751 0.512277484 0.536543190
0.313908517 0.562896013 0.586621046
0.554342031 0.603676975 0.565983534
0.735174298 0.634602249 0.587996483
0.255561769 0.592016459 0.588788986
0.285248995 0.660360217 0.629491746
0.304620504 0.667312980 0.612442017
0.583791018 0.677514553 0.528553545
0.779384255 0.734944284 0.570648253
0.131196007 0.287366003 0.340487003
0.175336510 0.287949264 0.331358492
0.403784990 0.328907013 0.333508015
0.585232258 0.352240980 0.323245496
0.724355996 0.388843000 0.362805992
0.141091496 0.309054255 0.363805503
0.155926496 0.336504757 0.407956511
0.297624528 0.343272239 0.422888756
0.579004288 0.385939479 0.426298767
0.736711979 0.418543756 0.453927755
0.172624499 0.375245988 0.437832505
0.197946489 0.426205516 0.499778748
0.296028495 0.454140007 0.546899557
0.531520247 0.463236004 0.583927989
0.747920036 0.500623465 0.572624505
0.211273760 0.456804752 0.523796260
0.237874240 0.512607276 0.583528221
0.309622526 0.540610731 0.616583943
0.524872005 0.592480481 0.652320266
0.748931766 0.619460464 0.657459021
0.258295000 0.565078020 0.617600024
0.276626498 0.607954025 0.651924729
0.303713500 0.648492992 0.688503981
0.513365030 0.711831272 0.719951510
0.733424008 0.742506981 0.698719025
