public/lut/45.cube
TITLE "17x17x17 Adobe/IRIDAS cube 3D LUT exported with GrossGrade v0.2.2 (beta) 64 bit"
DOMAIN_MIN 0 0 0
DOMAIN_MAX 1 1 1
LUT_3D_SIZE 17
0.038640000 0.051020000 0.057438999
0.068944126 0.065468498 0.063917309
0.103792630 0.076780379 0.064521000
0.139751196 0.089456938 0.066756003
0.175645754 0.099614002 0.069735751
0.212635756 0.109523252 0.074693307
0.249359012 0.119415253 0.081241250
0.281998098 0.131241933 0.089077815
0.315400511 0.143538505 0.099315003
0.350410879 0.155109629 0.111826748
0.385993510 0.167070001 0.124994375
0.422257185 0.179740176 0.138512939
0.458782524 0.192925245 0.152370512
0.493809849 0.205777138 0.165685892
0.528079450 0.218955263 0.178210899
0.561245561 0.231985137 0.189820200
0.593837976 0.244978994 0.200510994
0.048854187 0.097784370 0.061055999
0.074936748 0.102421507 0.067166246
0.119146869 0.095896870 0.061165873
0.157628134 0.106797688 0.063237622
0.195256189 0.118131310 0.067646503
0.232343495 0.128858492 0.073230743
0.270638824 0.138934761 0.080828510
0.305838108 0.149833754 0.089808695
0.340492934 0.160816610 0.100955449
0.376861036 0.171864375 0.113959253
0.412749320 0.183660939 0.127227992
0.448510945 0.195661694 0.140429437
0.483818740 0.208119065 0.153349757
0.518651783 0.221043333 0.165460899
0.552636266 0.234097511 0.177293390
0.585843146 0.247091025 0.188362896
0.617736816 0.259801924 0.198756307
0.056584250 0.130522013 0.058737624
0.089992560 0.139726371 0.068256997
0.122987747 0.133467749 0.075915873
0.167966500 0.125102058 0.065397747
0.214392498 0.131213754 0.065992877
0.257314622 0.142849952 0.071089938
0.294301122 0.155273497 0.080407754
0.330259204 0.167918488 0.091544814
0.365990639 0.179826871 0.103198253
0.402174205 0.191495568 0.115493253
0.438457876 0.203162760 0.127988249
0.474756300 0.215231180 0.140889823
0.510865629 0.228306249 0.153220251
0.546336114 0.242276266 0.164723456
0.581203163 0.256198883 0.176146001
0.614673138 0.269334882 0.187116385
0.646652758 0.282246232 0.197606504
0.069290318 0.161070868 0.064199440
0.099763937 0.175718322 0.072328568
0.136519819 0.167809129 0.085045502
0.174533069 0.165649876 0.081773750
0.221444190 0.154634878 0.073356748
0.270189703 0.157010123 0.072519630
0.315432638 0.168963432 0.083326876
0.358810157 0.181857377 0.098033257
0.397852749 0.194497377 0.111505881
0.435626537 0.207110941 0.124648623
0.472795010 0.219712570 0.137021497
0.508265674 0.233137131 0.148572937
0.542176485 0.246846497 0.159272313
0.576362014 0.261062622 0.169694588
0.609890759 0.275570661 0.179784626
0.642891347 0.290305614 0.189392194
0.674104989 0.305018246 0.198398501
0.082522251 0.187689245 0.072099753
0.109008498 0.208413377 0.077703938
0.145936996 0.202258885 0.087289751
0.187624156 0.197552994 0.094339624
0.231589764 0.195926756 0.088829994
0.278732359 0.182850331 0.081942312
0.327217519 0.183839619 0.084419131
0.375095725 0.194015950 0.099574573
0.422648489 0.208281502 0.116621748
0.466342002 0.223119110 0.131861627
0.505439520 0.237411991 0.144953012
0.541165471 0.251631767 0.156210065
0.573836029 0.265359998 0.166117504
0.606058538 0.279090673 0.175891191
0.637771547 0.293374360 0.185248882
0.669012725 0.308094859 0.194084585
0.699014246 0.322901249 0.202067003
0.094175503 0.211672068 0.079458125
0.118607253 0.232846439 0.084570184
0.155327573 0.235314503 0.090295374
0.197628140 0.226082817 0.101257309
0.248656318 0.233433947 0.094621621
0.289941192 0.224681690 0.099440254
0.339369893 0.212997243 0.092528187
0.388593078 0.213767380 0.099456258
0.438356817 0.223621249 0.115959570
0.484976500 0.237760812 0.132824689
0.527744353 0.253166378 0.147749498
0.566155851 0.268186629 0.160316750
0.600894094 0.282643497 0.170962751
0.632537007 0.296555012 0.180388883
0.662555218 0.310521573 0.188806012
0.691841722 0.325140566 0.196884632
0.720705330 0.339896053 0.204197317
0.105428383 0.235527501 0.087183878
0.128019869 0.254080176 0.091899507
0.166323990 0.264904380 0.095953383
0.209539264 0.258414298 0.106169745
0.259599000 0.263996601 0.103681505
0.310338914 0.273512065 0.105264440
0.354598641 0.262168497 0.108891495
0.405732900 0.249550343 0.105719447
0.454841852 0.249850273 0.116366751
0.501910925 0.256657124 0.130897000
0.543945193 0.269422889 0.146257758
0.582236886 0.283226699 0.159664243
0.618858516 0.297668129 0.171556994
0.652687192 0.312406242 0.182011515
0.684578955 0.327278614 0.191060513
0.713306069 0.341666400 0.198694050
0.740648985 0.356514126 0.205449745
0.115672074 0.257662565 0.095005877
0.138190508 0.275221616 0.099393129
0.179222256 0.288552225 0.103895888
0.224686474 0.289419055 0.112596132
0.270142168 0.291839898 0.116826758
0.328633428 0.305237949 0.113035254
0.376462966 0.316071779 0.121350445
0.422182322 0.297594339 0.118765324
0.473773450 0.288148165 0.122675389
0.518048882 0.287715644 0.133089945
0.558830798 0.291904688 0.144421816
0.596772790 0.302084386 0.157040566
0.632592320 0.314491421 0.169272318
0.666504264 0.327842802 0.180375770
0.699154317 0.342526704 0.190079570
0.730159163 0.358092338 0.198558509
0.757896423 0.373475760 0.205604136
0.123519003 0.277832001 0.102250002
0.151361674 0.297680378 0.107289881
0.193952620 0.312166989 0.112383008
0.240260392 0.316540778 0.120240316
0.283880740 0.318033993 0.127097487
0.341417938 0.335555673 0.123353504
0.394100130 0.346919894 0.130759627
0.442892849 0.359403074 0.138582885
0.487239510 0.336596012 0.134927511
0.535961866 0.327358186 0.139440507
0.573881507 0.327312529 0.148590505
0.610497057 0.328899473 0.157781512
0.645280302 0.335274518 0.167430490
0.678726554 0.346807063 0.178100511
0.710338235 0.359695017 0.187839270
0.740809441 0.373579264 0.196698084
0.770154953 0.389153481 0.204567999
0.130733058 0.296135187 0.109051630
0.165509120 0.319596201 0.115351684
0.208581313 0.334670126 0.120742001
0.255166799 0.340518802 0.128029495
0.298048943 0.341951996 0.135641634
0.351021379 0.360086173 0.132799491
0.409654826 0.376314312 0.139460742
0.457576841 0.391183138 0.149156377
0.504299998 0.401939064 0.156016007
0.545796752 0.377241552 0.151659876
0.589432240 0.368283182 0.154797629
0.623733819 0.367183179 0.162915811
0.657358944 0.367315054 0.171150446
0.689771414 0.370076686 0.179288834
0.721610785 0.380204350 0.187903896
0.751769841 0.392733306 0.196548015
0.780055702 0.405728132 0.204735130
0.142627999 0.318002999 0.116806626
0.179964870 0.340896755 0.123052813
0.222826749 0.355988383 0.128732875
0.269380629 0.362076432 0.135658056
0.311677754 0.364525884 0.142949000
0.360100865 0.380822927 0.142461628
0.418982536 0.402803868 0.146729499
0.469805151 0.416217923 0.157254055
0.515098095 0.437095135 0.167897254
0.554462194 0.444146693 0.173097685
0.594427764 0.420708358 0.168516010
0.637527406 0.410384685 0.170214191
0.669422746 0.408063233 0.176283374
0.700522900 0.407151252 0.184059635
0.730462551 0.407136858 0.191521883
0.760519624 0.414811641 0.199554577
0.789241493 0.426905245 0.207199872
0.157290801 0.343357056 0.125754997
0.193771377 0.362790883 0.131266370
0.236159936 0.377063751 0.137067065
0.281756133 0.382715821 0.143868938
0.323941916 0.386254638 0.151205629
0.368717015 0.401074916 0.152683631
0.423181713 0.424551308 0.153816119
0.479496628 0.444599181 0.165451258
0.522069573 0.459110439 0.174739242
0.564092338 0.483273566 0.185926244
0.599971771 0.489506066 0.190775007
0.636655152 0.466507554 0.185887873
0.679681003 0.453235388 0.186146006
0.711070299 0.449431181 0.189271256
0.740851045 0.446860224 0.195757881
0.768180847 0.444606990 0.203007504
0.796182573 0.449560881 0.210445255
0.169842750 0.368360251 0.135385260
0.205656067 0.388367444 0.140857130
0.247748643 0.398405999 0.146501005
0.292698741 0.402963638 0.153072804
0.335039020 0.407827258 0.160209507
0.377823859 0.421458602 0.162308246
0.427417755 0.443624526 0.162552878
0.482622206 0.468267679 0.171286806
0.531954765 0.486606002 0.183127493
0.566512108 0.501505136 0.191324890
0.608737350 0.529283345 0.203840747
0.641348422 0.534598649 0.208157063
0.678457260 0.513557792 0.203885257
0.717202485 0.495860159 0.202470243
0.749703884 0.490193874 0.203484133
0.777933121 0.485744506 0.207574815
0.803173721 0.481333256 0.213567495
0.181221768 0.391625643 0.144652769
0.216678515 0.410299718 0.150498331
0.258405268 0.416343898 0.155480266
0.302987307 0.421646714 0.161785573
0.345734507 0.428271145 0.169052690
0.387376606 0.441075772 0.171442837
0.433946609 0.462459832 0.171688318
0.485671073 0.487869024 0.177177057
0.536265492 0.510755420 0.189280495
0.577904701 0.528108597 0.199659184
0.607209384 0.543619275 0.207461938
0.648257315 0.572778165 0.220440820
0.678410888 0.577655673 0.224733889
0.716451645 0.559319496 0.221381381
0.753441513 0.538766444 0.218618453
0.783147156 0.529430389 0.217863515
0.811343849 0.522983313 0.219375387
0.191574022 0.407911360 0.153353646
0.226609886 0.424063325 0.158871770
0.268225253 0.431473017 0.164469004
0.312797427 0.438706875 0.170528695
0.356231749 0.447428912 0.177737504
0.397602975 0.459974736 0.181141824
0.442846507 0.481453151 0.180554390
0.490265548 0.505235612 0.184406132
0.539383352 0.530907869 0.194191620
0.583475173 0.551853597 0.206165940
0.619247973 0.568858981 0.215624139
0.647007883 0.586256862 0.223818675
0.684704363 0.615032494 0.236273140
0.714137375 0.621246040 0.241385072
0.750217557 0.602272928 0.238196760
0.788217366 0.579274297 0.233760148
0.814976752 0.566631913 0.231921136
0.201058328 0.418459117 0.162081212
0.236428142 0.435949504 0.167062327
0.278092623 0.445122629 0.172811449
0.322812438 0.453621417 0.179414213
0.366963625 0.464340180 0.187062651
0.408340365 0.478100479 0.190970823
0.453034133 0.500567615 0.190092832
0.497798771 0.523817837 0.192673072
0.542680442 0.548046112 0.200053081
0.586110532 0.571807563 0.210670501
0.625304937 0.592181742 0.222094744
0.657842815 0.609886765 0.231308505
0.682720602 0.626846015 0.239122674
0.719197094 0.656447232 0.251678079
0.748068213 0.662422299 0.256857246
0.784015179 0.641294479 0.253787637
0.821601450 0.616195083 0.247284830
0.211138994 0.427648008 0.171011001
0.246550620 0.447497874 0.175711930
0.288567871 0.460250616 0.181402117
0.333204418 0.471518934 0.188454002
0.378284514 0.485413015 0.195759997
0.419850141 0.502047718 0.199997500
0.463742405 0.526403606 0.201022878
0.507510483 0.551144600 0.204768941
0.548156977 0.572988987 0.211414009
0.587251008 0.594507396 0.218344882
0.625529766 0.616117239 0.227344632
0.662230849 0.636288524 0.237996385
0.692577779 0.652605057 0.246687502
0.713790417 0.666194618 0.253326863
0.751514196 0.695296168 0.265980005
0.778000712 0.698570371 0.270549178
0.817323029 0.676524997 0.267924994
0.043958686 0.074405812 0.086205065
0.087279312 0.081588559 0.099378698
0.129846826 0.086956121 0.093578063
0.167345077 0.094043568 0.093757182
0.199099749 0.102192067 0.094640560
0.231673121 0.110190570 0.096201435
0.266825825 0.118460380 0.100487441
0.297694325 0.128390178 0.106542125
0.326069951 0.139459997 0.114284627
0.358866572 0.151873127 0.125412613
0.392803252 0.164957494 0.137335628
0.426894128 0.178315073 0.149843931
0.461320013 0.191774502 0.162412316
0.494949281 0.205063760 0.174477696
0.528105557 0.218188465 0.185767084
0.560095131 0.230924517 0.196871892
0.591060281 0.243226439 0.207176805
0.049495440 0.095813490 0.102165192
0.067935370 0.103162870 0.106848814
0.108096190 0.114736497 0.113219127
0.150787443 0.126059309 0.111054316
0.193767935 0.135290384 0.104962312
0.236486048 0.142747506 0.100414187
0.277878582 0.150191322 0.099756189
0.318469793 0.157169312 0.102988005
0.356239021 0.164819688 0.109115995
0.385747701 0.173645929 0.118280753
0.417939812 0.183355689 0.131146505
0.451205671 0.193622679 0.144370005
0.484285831 0.204979256 0.157388255
0.517141700 0.217060968 0.169418454
0.549634278 0.229551330 0.180758893
0.581967533 0.242544889 0.191228211
0.612843037 0.254928768 0.201472878
0.062288005 0.140504315 0.121010497
0.075652495 0.142669365 0.108850434
0.110512622 0.144762561 0.115438506
0.164437756 0.139675379 0.107917249
0.204677269 0.150337696 0.105088316
0.246698812 0.158028677 0.102693878
0.288711339 0.164942816 0.103078753
0.329425335 0.172932073 0.105937749
0.369825661 0.180468187 0.110825315
0.403876066 0.188649312 0.118700184
0.435755879 0.197952121 0.130136579
0.469367564 0.208477929 0.142964870
0.503264725 0.220214114 0.155206636
0.536913872 0.233062014 0.166419119
0.569989264 0.246127844 0.177349150
0.602303684 0.258984536 0.187983707
0.632833898 0.271196067 0.198014811
0.071641877 0.171817377 0.108667880
0.077205755 0.181497082 0.096993066
0.119446933 0.184089392 0.106722377
0.175091758 0.177243933 0.114088193
0.223003626 0.166898698 0.101218186
0.270740718 0.170040637 0.095099121
0.312253267 0.180041939 0.097818129
0.353658110 0.190579012 0.102267064
0.392327636 0.201076999 0.109386876
0.426598817 0.212106824 0.118010625
0.460008889 0.222948179 0.128613681
0.494112551 0.234205559 0.140447319
0.528472722 0.246311128 0.152274579
0.562087357 0.258781761 0.163270384
0.594829321 0.271480322 0.173996523
0.627028227 0.284188449 0.184249088
0.657910645 0.296856344 0.194085941
0.078097314 0.197302446 0.099516936
0.082205132 0.213305622 0.087315314
0.129200324 0.217999697 0.102045000
0.184052199 0.210023075 0.116951309
0.232573822 0.207679570 0.112200566
0.283107072 0.194087252 0.102450632
0.335082144 0.193760008 0.095592633
0.379198015 0.203500196 0.099980630
0.419187397 0.215694502 0.110685498
0.457716912 0.228678703 0.123163000
0.493916810 0.241584629 0.135523319
0.528031647 0.254609704 0.146683320
0.560205579 0.267686486 0.156975180
0.591398358 0.280727684 0.166478097
0.622134328 0.294170290 0.175864264
0.651816249 0.307554871 0.184610397
0.681148231 0.321055979 0.193121865
0.085504748 0.219761923 0.090815812
0.094016686 0.236071378 0.089430623
0.139128879 0.250445694 0.102411069
0.192057446 0.241371438 0.116130374
0.247603893 0.243785873 0.115517564
0.292706192 0.239146620 0.118567072
0.346303195 0.225833759 0.107464679
0.398874670 0.224416375 0.103701442
0.446759969 0.233525008 0.115555689
0.489424139 0.246281803 0.129938737
0.526244640 0.259731889 0.142383993
0.560061157 0.273172379 0.153103992
0.591733158 0.286395609 0.163039699
0.622290909 0.299758106 0.172364205
0.651519358 0.313417524 0.180539757
0.680686593 0.327639878 0.188571692
0.708922684 0.342075378 0.195835128
0.097669691 0.238439381 0.090751566
0.106911130 0.257566184 0.096179247
0.150868505 0.282018006 0.105893314
0.203322634 0.274546683 0.117446870
0.254809082 0.272103727 0.125489816
0.310806066 0.283057511 0.118347555
0.357850552 0.277349085 0.126719430
0.414041370 0.262983799 0.112910070
0.463765919 0.261206716 0.118906379
0.511941433 0.266891807 0.132225931
0.553257704 0.278892398 0.146119997
0.588148713 0.292061716 0.157562360
0.619114637 0.305337250 0.167073876
0.648792505 0.318620920 0.175948337
0.677375853 0.332196832 0.184021130
0.704714954 0.346341312 0.191151053
0.731995881 0.361178994 0.198039368
0.107566878 0.257426322 0.096310876
0.118823007 0.279673934 0.103725947
0.165023372 0.308304787 0.112512439
0.216761276 0.304239303 0.122792751
0.265843421 0.300271302 0.135154754
0.327347249 0.315155566 0.125454560
0.374989212 0.324242532 0.129601821
0.425261915 0.313672513 0.130639434
0.482068390 0.302144617 0.126044497
0.526370108 0.300321758 0.135614753
0.567939579 0.303452164 0.146292374
0.606569648 0.312340736 0.157862812
0.640615344 0.324258536 0.168803379
0.670680523 0.337217510 0.177878469
0.698542178 0.350825191 0.185675561
0.725250840 0.364920199 0.192828253
0.751399577 0.379813403 0.199445441
0.114118814 0.276294619 0.102994375
0.134006575 0.305869520 0.112840064
0.179948688 0.331037164 0.120386377
0.230705947 0.329776704 0.129859373
0.279671580 0.327285022 0.142869309
0.336418986 0.342605531 0.138294861
0.395445466 0.356092453 0.133408561
0.442094713 0.368713200 0.143410116
0.488912493 0.352331281 0.140487328
0.543871224 0.342530906 0.142749935
0.581680417 0.341196597 0.151218742
0.617635250 0.341408163 0.160098568
0.652792633 0.346423000 0.169169262
0.685832083 0.356756687 0.178641006
0.716297150 0.369276136 0.187326699
0.743508339 0.383213401 0.194817618
0.769191802 0.398044199 0.201642185
0.118688248 0.293813199 0.109619185
0.151399434 0.332973301 0.122173309
0.194361314 0.351422131 0.128129065
0.244269267 0.352191806 0.136969119
0.293463439 0.351918191 0.149522886
0.345406830 0.365312368 0.150772691
0.408846885 0.385890275 0.142735317
0.456646472 0.397396624 0.150703117
0.504648209 0.412753761 0.159552306
0.546858311 0.393446296 0.156600058
0.596527696 0.384326905 0.158641756
0.630666733 0.381777853 0.165398195
0.662619054 0.380135953 0.173237637
0.694738925 0.381710887 0.181316823
0.726469338 0.390336752 0.189637646
0.757227302 0.402244717 0.197840467
0.783867538 0.416095257 0.205199316
0.122769430 0.309416711 0.115869127
0.168049574 0.357354134 0.130597919
0.208421826 0.369795412 0.135564804
0.257272571 0.371601492 0.144211307
0.306069076 0.373976260 0.156046808
0.354506195 0.385687530 0.161657453
0.415209055 0.410068691 0.152727559
0.473229676 0.427079231 0.160211802
0.513536930 0.442634284 0.169230759
0.555405319 0.456007838 0.176679567
0.596227884 0.436838686 0.174001694
0.642319262 0.426326245 0.174639061
0.675067246 0.422426552 0.178831756
0.704389513 0.419177562 0.185554057
0.734002769 0.418404311 0.193081260
0.764213622 0.424601704 0.200948626
0.793647587 0.436196148 0.209004760
0.127346814 0.323832422 0.121629626
0.182555512 0.377627671 0.138858005
0.221166745 0.387089074 0.143157572
0.268502891 0.389964491 0.151481196
0.316999674 0.394881874 0.163306385
0.363593549 0.406124443 0.170900434
0.418762386 0.429846376 0.166010186
0.479132414 0.453964949 0.167522371
0.526825011 0.469825596 0.178202435
0.562860250 0.488442451 0.187394753
0.601406217 0.501012683 0.194498435
0.637759745 0.480957031 0.190870494
0.682495713 0.468193978 0.190792173
0.714903116 0.462411195 0.192415059
0.743639052 0.457703769 0.197031945
0.771093011 0.454575926 0.204016387
0.798707008 0.459010780 0.211507380
0.133322999 0.341128260 0.128735945
0.193747818 0.394141197 0.147637010
0.231935367 0.404434830 0.151502371
0.278477579 0.407958210 0.159194067
0.326660067 0.414566666 0.170592368
0.372774363 0.425927311 0.179078192
0.423666418 0.448271453 0.178912759
0.481007963 0.475452244 0.174392134
0.534396291 0.496751398 0.185837373
0.571548343 0.511705339 0.194660142
0.606522918 0.532911479 0.204594254
0.642764568 0.544807434 0.211673945
0.678247213 0.524896026 0.207462505
0.719200671 0.509576440 0.206827879
0.751335621 0.501294732 0.206403375
0.779874980 0.494852513 0.208838627
0.805226445 0.489458591 0.214170367
0.144812703 0.365161419 0.138302639
0.204154581 0.407828301 0.156215996
0.242616698 0.420011818 0.159883514
0.288268685 0.424309134 0.167190075
0.335815638 0.432581902 0.177327991
0.381617785 0.444320112 0.186569884
0.430636942 0.466401994 0.189063266
0.483623475 0.493140638 0.184178695
0.536594987 0.518963516 0.190847874
0.581934214 0.538544297 0.202868134
0.611211538 0.552125037 0.210263699
0.645632207 0.575138509 0.220714688
0.678273320 0.585276604 0.227225259
0.715651810 0.566824377 0.223448634
0.755019426 0.549642563 0.222039953
0.784513414 0.538811922 0.220847636
0.812502980 0.530460715 0.221101582
0.159717068 0.392546475 0.148497269
0.214459583 0.420632809 0.164981514
0.253087014 0.434242457 0.168229312
0.298389822 0.439555556 0.175213709
0.345026940 0.449030817 0.184510857
0.390552372 0.461425543 0.193890393
0.438495755 0.483460188 0.197651386
0.488494277 0.509425938 0.195980713
0.538686395 0.536597192 0.195818067
0.584846199 0.559880793 0.208085567
0.623835921 0.578698099 0.218697369
0.649657249 0.592616677 0.225830629
0.681933105 0.615999460 0.236233264
0.712343693 0.625510693 0.242454126
0.748448491 0.606332898 0.239131704
0.789489806 0.587435603 0.236021817
0.815821946 0.574644148 0.234745011
0.174190462 0.416152775 0.158464894
0.225024939 0.432473391 0.173526525
0.263406873 0.447214246 0.176608443
0.308568865 0.453719944 0.183240399
0.354637116 0.464105278 0.191903561
0.399949312 0.477190137 0.201601505
0.446999401 0.499980181 0.205613315
0.495625764 0.527070403 0.205944508
0.542110741 0.552918375 0.204684764
0.586368203 0.577936888 0.212040693
0.626894355 0.599776089 0.223937675
0.661233425 0.617819130 0.233761206
0.684058130 0.631234646 0.240402877
0.715312719 0.654844701 0.250749618
0.745219052 0.662990034 0.256681859
0.781779766 0.642395556 0.253778458
0.823289990 0.623751462 0.249713510
0.186058074 0.429382801 0.167641059
0.236030936 0.444907874 0.182500318
0.274613678 0.461227626 0.185582444
0.319294274 0.470056623 0.191714749
0.364554375 0.481337011 0.199503750
0.409874618 0.496872187 0.208733127
0.455780774 0.522277832 0.213030562
0.503006995 0.553586721 0.213896379
0.547064304 0.580563247 0.216134250
0.586411774 0.602280796 0.221846998
0.624689341 0.623123169 0.229226246
0.662085593 0.642831445 0.239272624
0.694417298 0.658425868 0.248374119
0.714330554 0.668750584 0.253946990
0.747350156 0.692483962 0.264716744
0.774129152 0.696320653 0.269441783
0.814880192 0.675406814 0.267219990
0.048206750 0.090830252 0.106171124
0.074166626 0.097690061 0.115981624
0.140449882 0.104145251 0.123348497
0.184606627 0.109382749 0.115623251
0.219470501 0.115126505 0.113086246
0.253605992 0.126097307 0.116114445
0.288097411 0.136872888 0.120811999
0.325680226 0.146365702 0.125899315
0.364010125 0.156361133 0.131670505
0.394333690 0.166080058 0.137440428
0.421867728 0.176472485 0.144955486
0.453183830 0.188602358 0.156068370
0.485169619 0.201185375 0.167813376
0.516518772 0.213459820 0.178887814
0.546594620 0.225467265 0.189404383
0.576047838 0.237149268 0.199591964
0.604541004 0.248499632 0.209215000
0.052096687 0.102765627 0.115981624
0.071600065 0.115888752 0.128111184
0.114760250 0.124123119 0.141826063
0.172089696 0.130403578 0.134843066
0.212069497 0.133986682 0.127617136
0.250071883 0.136638999 0.121735565
0.290500283 0.143284872 0.122203812
0.332133412 0.152506053 0.127317429
0.372271657 0.162664324 0.133629188
0.407991379 0.172918379 0.140463933
0.435382187 0.182740882 0.147155181
0.462542564 0.193159059 0.156035870
0.492191643 0.204570621 0.167028755
0.521448076 0.215859070 0.177528754
0.550234079 0.227163643 0.187798575
0.578928113 0.238481075 0.197852939
0.607366085 0.249829814 0.207693875
0.059487000 0.130054131 0.135212004
0.071771562 0.141638309 0.145751625
0.100968122 0.147476360 0.148483127
0.149646521 0.157802433 0.154872298
0.201131627 0.168080136 0.148812741
0.247701570 0.173575431 0.137596563
0.292016000 0.177623987 0.132834613
0.334377646 0.181733996 0.133946687
0.375234663 0.186329991 0.137394994
0.414909452 0.190948755 0.141693875
0.447760403 0.195370987 0.145221502
0.474481136 0.202997372 0.152122438
0.503251135 0.213443622 0.162245363
0.534104109 0.225334197 0.172810018
0.565129519 0.237691268 0.182944894
0.596351027 0.250540257 0.192675143
0.627288163 0.263500750 0.202067003
0.072582319 0.170629948 0.155633688
0.078971125 0.185688645 0.152200431
0.103941120 0.188138008 0.148539811
0.152250826 0.191924825 0.151630312
0.214198425 0.182958812 0.145905122
0.258027941 0.191137448 0.140548050
0.301130056 0.199509442 0.140188009
0.343875319 0.206731007 0.142255560
0.385832459 0.213127434 0.145091370
0.426710606 0.219493240 0.148678064
0.465466022 0.225798696 0.152313888
0.501316905 0.232442826 0.156689495
0.533320904 0.240459070 0.162831813
0.560554147 0.249465242 0.169518441
0.588057578 0.259996712 0.177975506
0.617224634 0.271525890 0.186997950
0.647025764 0.284100801 0.196185619
0.090396747 0.217557251 0.165140256
0.086171940 0.210880488 0.136005059
0.098959751 0.226879507 0.129147008
0.158528939 0.228771880 0.137667492
0.229671746 0.221725255 0.143377513
0.276536554 0.208907932 0.135618567
0.326092303 0.208836377 0.130045623
0.370039344 0.219110683 0.133991197
0.412130743 0.230372384 0.138842613
0.452443361 0.241203696 0.143463925
0.490643114 0.251351506 0.148005500
0.524858832 0.261499017 0.153758556
0.556304872 0.271751016 0.160357386
0.585206032 0.281673551 0.166951612
0.612588525 0.291760236 0.174447894
0.641280413 0.302789450 0.182620212
