public/lut/46.cube
TITLE "17x17x17 Adobe/IRIDAS cube 3D LUT exported with GrossGrade v0.2.2 (beta) 64 bit"
DOMAIN_MIN 0 0 0
DOMAIN_MAX 1 1 1
LUT_3D_SIZE 17
0.000000000 0.000000000 0.000000000
0.066451624 0.000000000 0.001527750
0.129221126 0.006013250 0.003844375
0.204342827 0.012962377 0.007738063
0.265277505 0.018531751 0.010054000
0.326020181 0.025283625 0.013159438
0.382146031 0.031444751 0.015475501
0.436041713 0.041165445 0.018137002
0.483676523 0.050344504 0.019714000
0.527535141 0.057890564 0.021636751
0.569615602 0.066473246 0.023164500
0.608453572 0.073928252 0.024445999
0.647009492 0.082298249 0.026812002
0.683247030 0.089134574 0.027747940
0.721335292 0.096160755 0.030754000
0.759980023 0.103901818 0.031543002
0.799636006 0.112213999 0.033119999
0.020207249 0.091136813 0.020207249
0.056867439 0.081034690 0.015623188
0.105515249 0.083070248 0.008033812
0.199218839 0.093672507 0.004928250
0.275285512 0.101171002 0.006998563
0.338260174 0.108470373 0.010054000
0.390729338 0.114654563 0.012370751
0.439580262 0.120673060 0.015032252
0.484733641 0.126045749 0.017003812
0.525786638 0.131356001 0.018531499
0.566219568 0.136169821 0.020897437
0.604883552 0.141439319 0.022375874
0.641153276 0.146499813 0.023903562
0.679688036 0.151832446 0.026023000
0.717446744 0.156310871 0.027747940
0.756372809 0.162628502 0.030064505
0.795999587 0.168540195 0.033119999
0.041073374 0.155641750 0.041073374
0.084011495 0.155756682 0.026466999
0.095034622 0.134263381 0.022769876
0.163790017 0.133797377 0.024741249
0.244347125 0.147332251 0.012814125
0.321867585 0.152473375 0.004780438
0.386639267 0.157516122 0.006998626
0.438892931 0.162705377 0.010103377
0.485239655 0.167242378 0.013208626
0.527947128 0.172282994 0.015524874
0.567960382 0.176276878 0.017743001
0.605962634 0.181281999 0.019024501
0.642871141 0.186174631 0.020897375
0.681097507 0.190889135 0.023115253
0.718861580 0.195703000 0.024741627
0.757958889 0.201310381 0.026959755
0.797031879 0.206747875 0.029275626
0.064449944 0.223078638 0.064449944
0.110602632 0.222696751 0.060423072
0.111953445 0.218164384 0.045916822
0.171039522 0.186578900 0.033563755
0.223836809 0.179463819 0.038294941
0.300706714 0.198508367 0.027994629
0.377716839 0.210256830 0.011335690
0.437191218 0.211731330 0.005372063
0.486614943 0.214543939 0.006998687
0.530175984 0.215259150 0.010103436
0.569288135 0.218409941 0.011779498
0.607187808 0.222105145 0.014736248
0.643704057 0.225705147 0.016264124
0.681566477 0.229848072 0.018580627
0.719766676 0.234722018 0.020749565
0.758440018 0.239761204 0.023213940
0.797509074 0.243973136 0.025381938
0.089119755 0.291148752 0.089234255
0.136546195 0.291047692 0.086792812
0.142066255 0.289241284 0.082422376
0.187359840 0.285068214 0.052755434
0.241253763 0.238551751 0.050838001
0.291120261 0.228650615 0.049235187
0.364959657 0.246660247 0.042580124
0.434057087 0.265775323 0.027156556
0.490469992 0.273529530 0.012025999
0.536258578 0.273683876 0.003844063
0.577234507 0.273346394 0.004140000
0.612557054 0.272058010 0.007146500
0.648501039 0.272277266 0.009068251
0.684009790 0.274032593 0.011582189
0.720190406 0.277061373 0.014686877
0.758608580 0.280487001 0.017003564
0.798472762 0.285108507 0.019517500
0.113714941 0.359399825 0.114063874
0.161940068 0.359432012 0.113533191
0.179228380 0.358833373 0.111461066
0.173944756 0.355197430 0.098847121
0.285095215 0.340857744 0.058049187
0.313427448 0.294019490 0.063438192
0.358215809 0.278866142 0.060190748
0.426758289 0.295333624 0.054361306
0.487859875 0.316355437 0.044223558
0.539267182 0.330866933 0.028684314
0.583507776 0.336646020 0.013159437
0.620703101 0.336997956 0.004829938
0.655837953 0.334793985 0.002366000
0.690633595 0.332789242 0.003794752
0.726153374 0.331114918 0.005569003
0.762693286 0.330743134 0.008674315
0.801450372 0.331313938 0.011236938
0.138376504 0.424961776 0.138487890
0.186008200 0.424255967 0.138132885
0.208498865 0.424848646 0.137150511
0.187073827 0.421205759 0.132894129
0.266671628 0.417056024 0.085795768
0.363105804 0.395839274 0.068149939
0.382314503 0.349031001 0.075413637
0.421112448 0.329746187 0.071180820
0.480841756 0.343356997 0.067557625
0.538792491 0.363931477 0.059275884
0.586945593 0.382023633 0.046379011
0.627281368 0.393696219 0.030803761
0.662931681 0.397783250 0.015475881
0.697717607 0.397177070 0.007688685
0.731677294 0.395044237 0.003252999
0.767802000 0.392823279 0.003006626
0.804954410 0.389885396 0.004238500
0.159455016 0.484693915 0.159565702
0.206534326 0.483354747 0.158636585
0.230428070 0.483610332 0.158998266
0.226736695 0.484668463 0.158299893
0.219720259 0.479363084 0.141056880
0.368894428 0.470881790 0.074111640
0.430810273 0.447002709 0.088438198
0.443461090 0.399160117 0.086031757
0.480045497 0.381026387 0.082402319
0.532959044 0.389437288 0.080338761
0.584206343 0.408702135 0.073743328
0.628502786 0.427053690 0.062425204
0.667185903 0.442462206 0.046978887
0.703358293 0.451487035 0.031296566
0.738524258 0.454335600 0.017348561
0.774419010 0.455180109 0.007146313
0.809653223 0.451500177 0.003154003
0.179137498 0.539775014 0.179246008
0.227726191 0.540475547 0.179923892
0.251085132 0.539749742 0.179273874
0.258092195 0.540053368 0.178282261
0.227595508 0.535043955 0.170756251
0.343079805 0.529235959 0.121543072
0.448760539 0.520952642 0.076737136
0.489612341 0.492624700 0.103233188
0.501767516 0.448394984 0.097725004
0.531334579 0.426601708 0.093236253
0.579102278 0.433954895 0.092050128
0.624536514 0.450959146 0.086749442
0.668004990 0.469617784 0.078583002
0.706006050 0.486686051 0.064566806
0.742418766 0.498847008 0.047246240
0.778943837 0.506943226 0.030114055
0.814638495 0.508567512 0.014589004
0.196527630 0.589493334 0.196813062
0.243013248 0.587393999 0.195350438
0.267913103 0.587372601 0.196050063
0.278791636 0.587976098 0.195851311
0.237829939 0.585493445 0.192226380
0.308243394 0.579373956 0.160561189
0.439846337 0.572084129 0.076747298
0.511975586 0.562710106 0.102313399
0.539179862 0.531639934 0.114569567
0.551249623 0.490670115 0.107699066
0.579289913 0.471918583 0.104558006
0.621675849 0.476379752 0.103131436
0.663663864 0.491536647 0.098338939
0.705039024 0.509495914 0.089815676
0.743753016 0.527753770 0.077495605
0.780725300 0.541935682 0.060705669
0.816501677 0.551661313 0.042694062
0.209162116 0.631464243 0.209417999
0.257562816 0.631763101 0.209858373
0.282618493 0.632072985 0.210993007
0.296257019 0.631945968 0.210936114
0.270594627 0.630800128 0.208716750
0.276420861 0.625784814 0.191519871
0.420327157 0.616252005 0.122356974
0.514311492 0.613288462 0.081449769
0.565542519 0.602443218 0.126657128
0.584417999 0.568997860 0.125654817
0.597169042 0.532174110 0.119204879
0.622491181 0.513244033 0.115496188
0.660522580 0.517537773 0.114309244
0.701390982 0.530684829 0.108652800
0.740744352 0.547703743 0.102373615
0.780543566 0.566243470 0.090475544
0.816994250 0.582032859 0.073052123
0.222650245 0.671099663 0.222997680
0.270416826 0.671085596 0.222596183
0.295843840 0.671065688 0.222574309
0.310741007 0.670604050 0.222703993
0.297899187 0.670335710 0.222747490
0.231592253 0.666347265 0.211256757
0.393835723 0.658951819 0.165417537
0.502381921 0.653517008 0.078576125
0.572787762 0.650909483 0.115986638
0.609995425 0.635296464 0.140601635
0.623760462 0.604525030 0.137557700
0.637630284 0.571075797 0.130215749
0.662291586 0.553082407 0.125891745
0.699441910 0.555502832 0.125418127
0.737620533 0.568607688 0.120651938
0.777551949 0.585714281 0.112525992
0.817158639 0.602913499 0.101326063
0.233266756 0.707759023 0.233761251
0.280792117 0.707773805 0.233152628
0.306998491 0.708395183 0.233903259
0.323343128 0.707874000 0.234775513
0.317562759 0.707410514 0.234704256
0.239396766 0.704369247 0.227677181
0.369391680 0.697346270 0.191628993
0.491152823 0.689921260 0.121706538
0.565123796 0.687528551 0.089406759
0.621068239 0.685027719 0.141082495
0.646746755 0.664582133 0.152595878
0.660836339 0.633972883 0.148445204
0.673970997 0.603730321 0.140663743
0.700862408 0.588825345 0.136428952
0.736331820 0.592808962 0.135715380
0.774014294 0.604340672 0.130918443
0.813494503 0.620009780 0.122446254
0.244595453 0.744037211 0.245092392
0.291162729 0.743073225 0.243587196
0.317240238 0.743328750 0.245336577
0.335051686 0.743379831 0.245755821
0.333668888 0.741542578 0.245872453
0.283837289 0.739305496 0.241602018
0.335295856 0.733440340 0.214857519
0.474706650 0.725968301 0.157700449
0.558044136 0.722253263 0.089175247
0.620210946 0.720123827 0.124050349
0.663137317 0.715456903 0.161595374
0.683255851 0.690900326 0.164453387
0.695777357 0.662358999 0.157595143
0.710358620 0.635152161 0.150382325
0.736389637 0.623128593 0.146688759
0.773853242 0.627676249 0.145663336
0.809937239 0.637663960 0.140817955
0.254106879 0.776750803 0.254274368
0.301136374 0.776591182 0.253281504
0.328071117 0.778071642 0.255745232
0.346775681 0.777812779 0.256440431
0.348039150 0.775246680 0.255708724
0.307800651 0.774006486 0.254702926
0.302114159 0.768501043 0.234427273
0.454428405 0.761547804 0.189923316
0.546800196 0.756727934 0.117580637
0.614305913 0.753200114 0.090941660
0.664513230 0.753216326 0.151254341
0.703162730 0.745496988 0.177331448
0.718408525 0.716927290 0.175271511
0.731933594 0.691058159 0.170003816
0.744244456 0.664122224 0.160770521
0.774654150 0.654967725 0.159120396
0.811068118 0.660184383 0.155608147
0.264833510 0.810878575 0.265411943
0.312589377 0.809895813 0.264708251
0.338156939 0.810731053 0.266157895
0.356697559 0.810890138 0.266732872
0.360749394 0.808756649 0.266980439
0.329855263 0.807057381 0.266051382
0.296549588 0.803404033 0.252264589
0.428864419 0.797157049 0.215535745
0.531982303 0.790676594 0.157685518
0.605721474 0.788230240 0.087624334
0.660064101 0.785901308 0.126219586
0.709147334 0.785334587 0.176777422
0.738872945 0.771325171 0.191137508
0.751465201 0.743424773 0.186772838
0.764588654 0.716063857 0.180225000
0.780426025 0.692581177 0.171401009
0.810221076 0.685837984 0.170994461
0.274583995 0.842342973 0.275404006
0.323819578 0.843951404 0.276381433
0.348239988 0.842591286 0.276593119
0.367265821 0.842895985 0.276627004
0.374947488 0.843871713 0.278416991
0.353410006 0.842119515 0.278063357
0.291329741 0.838147402 0.267826140
0.403560072 0.832526624 0.238146916
0.517381072 0.826135516 0.192810982
0.594458103 0.822609186 0.123247370
0.655226827 0.819677532 0.063478246
0.705924988 0.819433153 0.158515319
0.748939514 0.815340221 0.195647001
0.772990108 0.797370315 0.203345820
0.787557602 0.770988762 0.199555621
0.799016237 0.743355215 0.190713167
0.813634992 0.719579995 0.182650000
0.010152437 0.019418312 0.086668693
0.059273001 0.019566188 0.089631252
0.101348251 0.003844000 0.091856748
0.166722387 0.002267376 0.084590316
0.232720941 0.006752063 0.073146373
0.301794320 0.010152437 0.058237001
0.371336758 0.013947750 0.058267314
0.435243040 0.014588436 0.061917502
0.490829140 0.014834940 0.064360373
0.540802300 0.021094624 0.066048503
0.585708201 0.026959375 0.068478316
0.624566793 0.033219062 0.069183879
0.662793815 0.041119628 0.070086062
0.700715363 0.049742509 0.071630061
0.737372577 0.057390634 0.071107060
0.775382400 0.065428883 0.071626931
0.811452091 0.072905317 0.071558878
0.007097000 0.093253992 0.094148748
0.056287125 0.096437193 0.094917506
0.129254371 0.097905941 0.080453187
0.207227126 0.103717633 0.075903177
0.268229723 0.110568941 0.073543370
0.326431930 0.117855631 0.074269377
0.383081406 0.125806183 0.073896751
0.434150398 0.131740868 0.073052809
0.481476188 0.138909504 0.072787687
0.526062310 0.144562379 0.072750121
0.568071365 0.151153952 0.073813491
0.606845438 0.155707061 0.073375814
0.644531786 0.160863489 0.073412314
0.682298541 0.166544303 0.073102742
0.719863057 0.172441304 0.074404061
0.759242117 0.177895576 0.072595000
0.798432529 0.184081197 0.071558878
0.020848375 0.154684514 0.090539500
0.068021625 0.155552879 0.092133626
0.094983257 0.148923740 0.097890563
0.182533324 0.148682997 0.086608119
0.267642051 0.156155437 0.077596501
0.333077669 0.160280123 0.073034748
0.389022201 0.165546745 0.071538374
0.438354343 0.171714142 0.070851751
0.483333617 0.176980898 0.070285127
0.524930596 0.182245120 0.068945877
0.565853775 0.187523425 0.069377810
0.603731453 0.191843763 0.068751380
0.641282499 0.196948126 0.068655752
0.678495944 0.201403454 0.068253942
0.716720581 0.206636205 0.067273438
0.755175471 0.211751938 0.067277625
0.795627534 0.217914253 0.066318631
0.047906507 0.218878195 0.082387254
0.095276505 0.219869763 0.080629125
0.119701624 0.221638322 0.076857075
0.158396706 0.205594778 0.089670196
0.229356840 0.201858342 0.102269992
0.313662052 0.210702762 0.087068565
0.382758319 0.212718397 0.078662939
0.437690228 0.213578016 0.074394375
0.484299630 0.217442453 0.072289497
0.526027143 0.221919447 0.071274251
0.566491246 0.226711094 0.071430936
0.604524136 0.231074452 0.071198881
0.641876161 0.235114023 0.070541814
0.679611266 0.239453256 0.070076570
0.717014849 0.245190069 0.070617311
0.757195830 0.250235200 0.069696002
0.796683311 0.255478173 0.068727501
0.076193132 0.288839251 0.095938064
0.122988880 0.288839251 0.096522495
0.149714932 0.290980250 0.102635875
0.161419317 0.288857043 0.103709258
0.241489574 0.261968553 0.105574816
0.293512762 0.251084447 0.112909123
0.369472504 0.268013626 0.099821746
0.436152786 0.274536610 0.086353682
0.486208439 0.272994459 0.080012001
0.529786766 0.271427810 0.076922745
0.568453193 0.271165818 0.074313186
0.605912089 0.273613244 0.073061809
0.643002033 0.276884317 0.072929867
0.680650830 0.280475408 0.072381936
0.717992485 0.285051912 0.072173566
0.757952571 0.289644301 0.071695372
0.797632754 0.294167191 0.071068123
0.102573000 0.357642889 0.129885435
0.150258616 0.358701020 0.131673127
0.179432869 0.360207140 0.139046490
0.170320824 0.358445317 0.143858522
0.246386245 0.351981461 0.110665120
0.314951628 0.316923589 0.122928500
0.361114204 0.303227901 0.123089373
0.427855015 0.320381820 0.112174734
0.488570601 0.334923863 0.099289685
0.536554039 0.337071568 0.087571070
0.576912284 0.334875524 0.081578374
0.612915874 0.331363827 0.079596378
0.647787750 0.330186486 0.077232435
0.683515251 0.329638183 0.075436875
0.718984485 0.330174685 0.074685499
0.757547021 0.333242565 0.074273877
0.798096001 0.336963117 0.073832370
0.128416881 0.423481315 0.159852073
0.175055891 0.423939764 0.159778967
0.204145446 0.424886018 0.166479245
0.211770192 0.424449176 0.173383951
0.207489118 0.421356767 0.158296511
0.346330315 0.410625815 0.116152555
0.385874391 0.373545766 0.137189388
0.422862142 0.352776945 0.132913306
0.484270215 0.368826240 0.125989437
0.539026201 0.387562245 0.112781949
0.584240735 0.397631884 0.098373257
0.621333957 0.398886800 0.089050137
0.655939519 0.396365285 0.083838686
0.690362990 0.392183155 0.081900120
0.725375891 0.389703274 0.079269506
0.761524498 0.387548745 0.077879496
0.799131393 0.385926455 0.076588497
0.150531709 0.482274473 0.184441328
0.197630212 0.484295011 0.184332207
0.226486385 0.485146970 0.190097705
0.242722392 0.485129535 0.197264150
0.214287058 0.482762009 0.193148196
0.319723785 0.476156056 0.143487647
0.421898216 0.462451547 0.132315427
0.448943526 0.423159748 0.147974312
0.481887579 0.402186155 0.143107206
0.535818934 0.414455503 0.137883335
0.584675610 0.432582200 0.127663761
0.626999736 0.447620660 0.113168322
0.663940966 0.454599649 0.097885452
0.698029160 0.454967171 0.089361124
0.732140303 0.453414708 0.084439501
0.768241584 0.450497419 0.082169749
0.804319739 0.446563214 0.080197439
0.170238003 0.536200523 0.204917759
0.217202365 0.538088500 0.205896199
0.245648503 0.538342774 0.210164756
0.264074624 0.539062858 0.217199683
0.236890435 0.538121521 0.217111200
0.283994615 0.531661570 0.191191450
0.420219779 0.524927735 0.127970010
0.484838456 0.507166088 0.154345691
0.503405750 0.468359262 0.158288762
0.533184409 0.448168188 0.154197931
0.581670463 0.457174778 0.150664836
0.627196729 0.475164562 0.141242772
0.667542219 0.491360366 0.126743749
0.703762591 0.503972054 0.111626938
0.738699973 0.507507920 0.096583746
0.773509800 0.507841706 0.088756748
0.809464991 0.505637527 0.084836751
0.187240079 0.586325109 0.223295435
0.234016955 0.586967885 0.222998753
0.263750255 0.588356912 0.228218570
0.282173693 0.587901115 0.234575137
0.272153109 0.587225318 0.234995887
0.247022510 0.583217978 0.223344252
0.396432310 0.575615585 0.158355609
0.495645165 0.570812821 0.136731416
0.540557623 0.551040888 0.172181249
0.553697586 0.510926187 0.168689996
0.579573572 0.490915745 0.164923012
0.622997582 0.497853488 0.161542758
0.665308654 0.514506221 0.153185815
0.705636740 0.531816185 0.141825542
0.743098915 0.546052933 0.122953922
0.778319538 0.554450154 0.106432110
0.813842118 0.556822240 0.093971938
0.201768368 0.629730463 0.238031179
0.247528374 0.629739225 0.237355679
0.277326584 0.632425487 0.242584363
0.297654778 0.631656229 0.248765886
0.294597447 0.631814122 0.250721544
0.232589751 0.629136503 0.245936692
0.366324872 0.621406555 0.202570096
0.486587763 0.615407944 0.118362322
0.556287408 0.610126555 0.166761816
0.586385310 0.588438928 0.184024930
0.597640991 0.550754011 0.179389387
0.623068154 0.532986045 0.175627619
0.662131548 0.538148880 0.171718568
0.702903628 0.552125096 0.164711043
0.742284000 0.569689989 0.153303415
0.780734897 0.585318804 0.136231303
0.817083836 0.595714331 0.115992375
0.214857504 0.669708908 0.251077384
0.260376781 0.670201540 0.250347674
0.290145755 0.671099603 0.254890621
0.310413450 0.671133459 0.261391044
0.312003314 0.671661913 0.263419807
0.267730981 0.669275522 0.261746198
0.332145393 0.663027287 0.234271541
0.472166866 0.655635953 0.160324648
0.552808046 0.652162910 0.137557894
0.605058789 0.647056222 0.189621925
0.625703454 0.619357646 0.194731802
0.637840807 0.587115467 0.189887807
0.663324058 0.571338058 0.185822889
0.701253712 0.575962245 0.182286263
0.739503622 0.588512182 0.175623119
0.778790832 0.604650021 0.164496005
0.817075789 0.621281683 0.147081375
0.225981116 0.706103623 0.263426006
0.272083879 0.706668258 0.262218535
0.301611722 0.708022177 0.266469181
0.322375327 0.708209753 0.273162216
0.326598823 0.708178639 0.275062561
0.291845262 0.706508338 0.274712861
0.297985137 0.700919628 0.255041689
0.449608386 0.694194913 0.199616849
0.543498933 0.688801348 0.131194502
0.608154178 0.687625825 0.174736246
0.647169173 0.678368747 0.205533430
0.662783742 0.650173187 0.205973253
0.675600290 0.621141911 0.200228319
0.700268865 0.605829477 0.195987701
0.737256527 0.610768795 0.193477631
0.776439548 0.623149991 0.185805619
0.815402627 0.639323711 0.174348325
0.237218440 0.741825461 0.273989677
0.282687485 0.741563380 0.273260593
0.311400384 0.742195070 0.277103961
0.333674252 0.743841887 0.283609718
0.339169443 0.742039680 0.285415292
0.311912000 0.741549075 0.286393136
0.283699304 0.736752689 0.272960573
0.427855134 0.730041862 0.231776997
0.529462636 0.724200487 0.159361690
0.600396633 0.721910179 0.140034154
0.652469099 0.719276369 0.199573174
0.684429824 0.705163717 0.219238445
0.699241996 0.678930759 0.217123955
0.710624039 0.650013506 0.210115328
0.737192273 0.638344646 0.206528515
0.775198400 0.644359946 0.203791156
0.812339902 0.656113327 0.194718838
0.247527510 0.775157988 0.284739435
0.293183088 0.775593698 0.283695519
0.321572185 0.774889827 0.287594497
0.344100118 0.777269602 0.294539988
0.350896060 0.775473654 0.295656770
0.332386285 0.775185585 0.297391355
0.285360664 0.771624267 0.288735628
0.402403295 0.765502095 0.255750120
0.516419888 0.758626878 0.195527881
0.593086720 0.756078243 0.127487823
0.650129080 0.752802253 0.177989095
0.695518792 0.750188708 0.220835567
0.719348013 0.730751574 0.231014878
0.731964171 0.703868449 0.226829946
0.747474790 0.679388225 0.220901191
0.774496138 0.669380724 0.217502341
0.810649753 0.675523818 0.212543264
0.257705241 0.807633281 0.295864433
0.303172320 0.808537006 0.294434637
0.332576275 0.808589876 0.298229575
0.355178505 0.810730636 0.304461837
0.362295836 0.809397817 0.305767953
0.349819481 0.808597505 0.308220059
0.281811565 0.805894732 0.302771181
0.369238853 0.800033212 0.277755529
0.499498636 0.794237554 0.230554521
0.582917809 0.789122522 0.155432671
0.645183623 0.786064684 0.131153300
0.696132600 0.786131620 0.208558291
0.734409213 0.778952837 0.238275856
0.754007638 0.757246375 0.242436588
0.765798092 0.728264928 0.236831576
0.780744612 0.706050694 0.230116129
0.810806513 0.699400365 0.226831332
0.268706679 0.840965629 0.306012690
0.314136714 0.842176378 0.304200232
0.342767745 0.843155921 0.309582382
0.366101742 0.842912614 0.314952642
0.375153869 0.843968630 0.317066908
0.363632113 0.842857897 0.318793297
0.304837972 0.839974284 0.316473514
0.343676001 0.835816145 0.296497941
0.478769153 0.829670787 0.259263992
0.569844604 0.824956357 0.203245565
0.635053754 0.821174860 0.137315750
0.690010011 0.818856657 0.169099882
0.738069534 0.818339467 0.231152445
0.774087608 0.810867965 0.254105270
0.789102018 0.784824729 0.254583299
0.801436305 0.757034004 0.249702752
0.813956439 0.732402444 0.241376311
0.017742751 0.034796000 0.135127634
0.065510556 0.034253437 0.144072995
0.090322003 0.010941000 0.145034745
0.165912002 0.000049313 0.149638444
0.233195752 0.003055500 0.143070251
0.302376628 0.008970188 0.126223058
0.370235771 0.013208752 0.106527127
0.435680211 0.017102439 0.095265992
0.492071390 0.020502999 0.087606125
0.544651031 0.022326687 0.089741684
0.590093136 0.022178750 0.091786630
0.632037461 0.021143876 0.093828499
0.669546723 0.024051376 0.095529623
0.706162274 0.027994819 0.097156875
0.742474794 0.035974134 0.098060749
0.779331088 0.046374194 0.098760374
0.815714478 0.055625249 0.099604875
0.018630251 0.109538503 0.146998301
0.062246498 0.110588565 0.141842991
0.103654072 0.107182316 0.142641246
0.169407457 0.095188066 0.139425933
0.240555435 0.094740249 0.129751071
0.309602439 0.099768117 0.117459618
0.376129150 0.107243195 0.109954938
0.435605973 0.117081314 0.108454935
0.488716692 0.126943320 0.109146126
0.536706746 0.134268567 0.108844563
0.578146458 0.141195491 0.108687185
0.619113326 0.148194253 0.108457871
0.656464696 0.153976619 0.108142443
0.694413662 0.159921944 0.108699374
0.732846975 0.165532440 0.109208316
0.770465851 0.171773553 0.109476745
0.808880210 0.177454561 0.109617688
0.006801250 0.154203489 0.149764001
0.056746125 0.157407999 0.153495491
0.093677372 0.160276130 0.157688364
0.184493840 0.156498894 0.132510498
0.266536117 0.161226869 0.120152503
0.326244503 0.167510375 0.118761554
0.381783903 0.174670875 0.118951753
0.432937622 0.181155950 0.118943617
0.480714887 0.187470749 0.119021751
0.524221659 0.192675620 0.119277880
0.565757871 0.198104873 0.119199492
0.605205715 0.203422502 0.119368494
0.643078029 0.208655983 0.119989246
0.679962754 0.213986129 0.119960494
0.717860699 0.219851747 0.121225871
0.757481992 0.225665748 0.120847628
0.796628773 0.231651992 0.121132001
0.026860755 0.218381077 0.149186119
0.074560568 0.218618572 0.145990372
0.107762262 0.219091192 0.157167628
0.154196203 0.215596512 0.158823311
0.235323563 0.210117191 0.143166736
0.321868002 0.213652074 0.124677762
0.384434491 0.214805827 0.117339566
0.436159343 0.219208941 0.116001561
0.481397957 0.223532319 0.114912875
0.524255097 0.229151830 0.115126625
0.564315319 0.233238071 0.115250126
0.602009416 0.237828761 0.114998750
0.639783978 0.242866322 0.115049064
0.678097010 0.247448951 0.114977308
0.715599656 0.252582192 0.114630193
0.754626453 0.257547110 0.114951752
0.793957114 0.263404995 0.115228817
0.059678249 0.286437750 0.133080125
0.107542068 0.286990345 0.129456371
0.134041756 0.287707537 0.125348866
0.144168213 0.289921254 0.126194566
0.231395394 0.275271773 0.143062264
0.294307053 0.263760865 0.157385513
0.372882873 0.273926497 0.139477253
0.436029911 0.273610204 0.127042815
0.483253539 0.271344364 0.119899750
0.525937855 0.271825433 0.117030688
0.565596342 0.274878621 0.116192251
0.603376627 0.278669387 0.116938062
0.641138554 0.283092260 0.116879746
0.679107249 0.287112683 0.116005935
0.715996146 0.292066514 0.116243131
0.756394982 0.296927840 0.116352938
