public/lut/46.cube
TITLE "17x17x17 Adobe/IRIDAS cube 3D LUT exported with GrossGrade v0.2.2 (beta) 64 bit"
DOMAIN_MIN 0 0 0
DOMAIN_MAX 1 1 1
LUT_3D_SIZE 5
0.000000000 0.000000000 0.000000000
0.265277505 0.018531751 0.010054000
0.483676523 0.050344504 0.019714000
0.647009492 0.082298249 0.026812002
0.799636006 0.112213999 0.033119999
0.089119755 0.291148752 0.089234255
0.241253763 0.238551751 0.050838001
0.490469992 0.273529530 0.012025999
0.648501039 0.272277266 0.009068251
0.798472762 0.285108507 0.019517500
0.179137498 0.539775014 0.179246008
0.227595508 0.535043955 0.170756251
0.501767516 0.448394984 0.097725004
0.668004990 0.469617784 0.078583002
0.814638495 0.508567512 0.014589004
0.233266756 0.707759023 0.233761251
0.317562759 0.707410514 0.234704256
0.565123796 0.687528551 0.089406759
0.673970997 0.603730321 0.140663743
0.813494503 0.620009780 0.122446254
0.274583995 0.842342973 0.275404006
0.374947488 0.843871713 0.278416991
0.517381072 0.826135516 0.192810982
0.748939514 0.815340221 0.195647001
0.813634992 0.719579995 0.182650000
0.037260503 0.076756001 0.234427005
0.232400745 0.000197250 0.261519521
0.493139267 0.015574000 0.226082504
0.673462749 0.027797250 0.171870247
0.823151529 0.035682753 0.134485006
0.008673999 0.283233255 0.260693997
0.217971504 0.294481248 0.291209012
0.477006257 0.282520741 0.208000243
0.638129532 0.303344488 0.212218016
0.792213261 0.326336503 0.214994013
0.128484488 0.530097246 0.221406758
0.241338506 0.536490738 0.175702751
0.505667329 0.503478527 0.293756723
0.660019279 0.510293245 0.247387499
0.798788190 0.496856004 0.215343505
0.191026241 0.700165033 0.205677509
0.312864989 0.706711769 0.266079485
0.481200516 0.695615470 0.217654735
0.677503049 0.646691322 0.328144521
0.815990508 0.664715469 0.291242540
0.237548247 0.835907519 0.279238254
0.361946225 0.842224717 0.323415488
0.389667273 0.837155223 0.338160008
0.712689221 0.819620013 0.307722002
0.814998507 0.753213763 0.359767765
0.076657504 0.166645497 0.432385504
0.193176508 0.028586000 0.469636738
0.493766010 0.001183001 0.480213523
0.673745275 0.010448500 0.471973777
0.823264003 0.023657497 0.431758523
0.054451000 0.351957500 0.472049266
0.247875988 0.355714262 0.443573534
0.469903529 0.289827764 0.468998790
0.670763493 0.289576292 0.441359013
0.820692062 0.289610505 0.393338501
0.011828499 0.523208976 0.478509516
0.221132755 0.525470257 0.474307001
0.465676486 0.533873081 0.517256498
0.630475044 0.500981033 0.421371996
0.784052014 0.515464425 0.424687982
0.100372747 0.690414548 0.476038992
0.195593506 0.694002986 0.467509806
0.434398502 0.700108528 0.433749557
0.677750707 0.680830240 0.504270017
0.806158245 0.681238472 0.459601045
0.157556504 0.825842500 0.463450015
0.280307770 0.830170989 0.445751280
0.368980527 0.839035988 0.365927011
0.658866048 0.828074694 0.420221537
0.816622019 0.780529022 0.522826552
0.106132753 0.246908754 0.602828264
0.180956259 0.095853753 0.617164254
0.491605520 0.003154001 0.653852284
0.673734725 0.002366001 0.655910015
0.822656512 0.006308999 0.654567242
0.076779500 0.429039508 0.636674762
0.281048000 0.435578257 0.616824269
0.466871738 0.290761799 0.648772299
0.670118034 0.290762752 0.652493775
0.820988297 0.291375011 0.644323468
0.041554999 0.551038742 0.652951002
0.251859993 0.558968246 0.645676434
0.486012280 0.559064329 0.613731980
0.624772787 0.541019559 0.635596752
0.818153739 0.530590534 0.615253806
0.003153999 0.687582076 0.654531956
0.227147758 0.688337743 0.652928710
0.492694259 0.688772798 0.649424732
0.638941467 0.697640300 0.672931492
0.775506258 0.681422710 0.619195759
0.070904247 0.820639968 0.655059278
0.163255259 0.821301520 0.652294815
0.445058286 0.826610565 0.642377973
0.619194031 0.835371733 0.605617285
0.817462742 0.815946221 0.667760253
0.133607998 0.326135993 0.756699979
0.228760242 0.215130508 0.761664748
0.485020518 0.009068497 0.816218495
0.670978487 0.005520000 0.815832734
0.822760999 0.004731000 0.818441987
0.110877499 0.501559734 0.787930489
0.311418980 0.503045261 0.769806027
0.384993225 0.369569242 0.771911740
0.669733286 0.291146249 0.815411508
0.820160747 0.292041779 0.814497769
0.074402995 0.609843493 0.804856002
0.300763249 0.621214509 0.795441508
0.516152978 0.628523529 0.775768518
0.626019955 0.535204291 0.800235987
0.815358996 0.531319976 0.810297966
0.040602747 0.706771731 0.815174520
0.258299768 0.712970734 0.811173797
0.503595233 0.721617758 0.801030278
0.663036764 0.726548553 0.780341506
0.805042744 0.695602536 0.805748999
0.000000000 0.818301976 0.816832006
0.226636499 0.819489777 0.815894008
0.485750496 0.820901036 0.811889529
0.662749290 0.825375497 0.801919758
0.780714989 0.833429992 0.799275994
