public/lut/47.cube
TITLE "17x17x17 Adobe/IRIDAS cube 3D LUT exported with GrossGrade v0.2.2 (beta) 64 bit"
DOMAIN_MIN 0 0 0
DOMAIN_MAX 1 1 1
LUT_3D_SIZE 17
0.000000000 0.000000000 0.000000000
0.082907185 0.000000000 0.001577000
0.138970256 0.000690375 0.003154000
0.194600388 0.000000000 0.004731001
0.254086256 0.000000000 0.006900000
0.315041304 0.000000000 0.009216438
0.375690013 0.000000000 0.010744127
0.435792774 0.000000000 0.013060814
0.494365036 0.000000000 0.014983000
0.550276041 0.000000000 0.016116187
0.604916394 0.000000000 0.017348999
0.657819629 0.000000000 0.017890749
0.709210515 0.000000000 0.017940002
0.758960545 0.000000000 0.017348999
0.807241321 0.000000000 0.016461371
0.853364944 0.000000000 0.014933685
0.896941006 0.000000000 0.013406000
0.000000000 0.089008063 0.009364437
0.087311685 0.089814313 0.010152437
0.145359322 0.089002997 0.011631812
0.204161152 0.086497433 0.012419938
0.264783621 0.081678748 0.013356688
0.325462222 0.073542565 0.014884437
0.385680646 0.060914055 0.015721750
0.444814593 0.043143742 0.015771002
0.501829445 0.024396371 0.016559999
0.556899428 0.014095374 0.016559999
0.610440612 0.010054125 0.015820311
0.662446439 0.005421563 0.015032250
0.713147402 0.000542438 0.013307313
0.762271285 0.000000000 0.011730311
0.809969485 0.000000000 0.010300312
0.855433166 0.000000000 0.009561563
0.898717642 0.000000000 0.009512250
0.000000000 0.154283881 0.014884375
0.080802940 0.155075625 0.014933688
0.146689370 0.156048134 0.015672499
0.208667204 0.155808002 0.015771000
0.270808756 0.154311374 0.016461374
0.332180917 0.152149945 0.015771000
0.392338157 0.148257256 0.015770998
0.450810164 0.143934622 0.015081499
0.507261038 0.138742998 0.013898624
0.561809421 0.132782996 0.012814125
0.614746332 0.126419753 0.010941249
0.666182041 0.119907252 0.008969750
0.716422617 0.113514759 0.007294124
0.765076756 0.109107807 0.006506125
0.812057555 0.106418125 0.006407499
0.857390225 0.106023997 0.005717125
0.900047600 0.107459381 0.004829625
0.000000000 0.223493814 0.014341936
0.057408746 0.224761516 0.014341936
0.140194014 0.225882754 0.013701687
0.209525198 0.226486459 0.012912686
0.273720622 0.226565942 0.012321685
0.336564064 0.226015076 0.011582249
0.397263020 0.224971831 0.010054372
0.455448389 0.223618999 0.008329434
0.511612475 0.221871763 0.006357936
0.565742791 0.220079824 0.004682124
0.618277729 0.218397945 0.003449687
0.669434249 0.216671765 0.003301937
0.719108403 0.215545699 0.002858687
0.767296314 0.214576334 0.002661686
0.814052641 0.214434877 0.002513749
0.858839929 0.215233445 0.001084686
0.901160538 0.217128813 0.000147938
0.000000000 0.294436276 0.006308500
0.014440686 0.295284510 0.005519749
0.126126617 0.296271503 0.005322499
0.205121025 0.297154576 0.003942749
0.274509251 0.297412515 0.003154499
0.338406742 0.297778308 0.002168499
0.399778903 0.297753245 0.001971250
0.458267033 0.297277331 0.000986000
0.514451742 0.296845019 0.000986000
0.568565607 0.296194196 0.000789000
0.621009350 0.295700371 0.000789000
0.671915412 0.295264751 0.000986000
0.721297503 0.294892251 0.000788999
0.769150555 0.294915497 0.000197250
0.815487921 0.295562387 0.000000000
0.859894991 0.296664536 0.000000000
0.901795745 0.298477501 0.000000000
0.000000000 0.363054633 0.000789000
0.000000000 0.363883346 0.000246563
0.103892438 0.364652008 0.000000000
0.197563142 0.365281761 0.000000000
0.272147834 0.365657985 0.000000000
0.339197874 0.365949988 0.000000000
0.400974512 0.366209745 0.000000000
0.459551960 0.366253197 0.000000000
0.516067624 0.366112173 0.000000000
0.570386052 0.365918428 0.000000000
0.622789145 0.365787745 0.000000000
0.673565686 0.365692437 0.000000000
0.722697675 0.365792185 0.000000000
0.770327270 0.366117239 0.000000000
0.816380799 0.366883069 0.000000000
0.860318720 0.368114054 0.000000000
0.901752830 0.369912565 0.000000000
0.000000000 0.428281128 0.000000000
0.000000000 0.428934187 0.000000000
0.076664746 0.429361522 0.000000000
0.189541578 0.429894626 0.000000000
0.268706769 0.430384994 0.000000000
0.338229537 0.430516154 0.000000000
0.401539654 0.430546880 0.000000000
0.460823238 0.430873126 0.000000000
0.516870618 0.431082010 0.000000000
0.571250677 0.431023508 0.000000000
0.623759627 0.430921882 0.000000000
0.674429774 0.431017131 0.000000000
0.723402441 0.431219995 0.000000000
0.770760417 0.431646019 0.000000000
0.816580057 0.432457387 0.000000000
0.860089839 0.433537841 0.000000000
0.901229739 0.435244650 0.000000000
0.000000000 0.490092844 0.000000000
0.000000000 0.490444601 0.000000000
0.055958495 0.490798414 0.000000000
0.181382284 0.491092980 0.000000000
0.265573591 0.491418839 0.000000000
0.336577117 0.491637588 0.000000000
0.401175261 0.491731346 0.000000000
0.461393267 0.491735637 0.000000000
0.517917514 0.491933465 0.000000000
0.571591794 0.492218018 0.000000000
0.624065399 0.492164403 0.000000000
0.674739242 0.492260605 0.000000000
0.723591983 0.492479146 0.000000000
0.770781934 0.492911011 0.000000000
0.816135705 0.493575037 0.000000000
0.859323978 0.494482458 0.000000000
0.900035977 0.496023387 0.000000000
0.000000000 0.548243999 0.000000000
0.000000000 0.548471987 0.000000000
0.039998122 0.548721671 0.000000000
0.174114406 0.548867226 0.000000000
0.262892485 0.549050450 0.000000000
0.335381687 0.549146295 0.000000000
0.400677264 0.549292445 0.000000000
0.461433232 0.549272001 0.000000000
0.518754482 0.549270988 0.000000000
0.572804868 0.549326897 0.000000000
0.624351740 0.549623013 0.000000000
0.674748242 0.549651980 0.000000000
0.723408818 0.549826980 0.000000000
0.770356894 0.550130188 0.000000000
0.815322161 0.550608158 0.000000000
0.858160973 0.551450849 0.000000000
0.898349047 0.552626491 0.000000000
0.000000000 0.602728426 0.000000000
0.000000000 0.602913558 0.000000000
0.027846377 0.602996767 0.000000000
0.168863401 0.603074789 0.000000000
0.261301309 0.603190243 0.000000000
0.335174680 0.603180945 0.000000000
0.400768042 0.603285193 0.000000000
0.461836964 0.603234351 0.000000000
0.519272506 0.603088439 0.000000000
0.573752761 0.602980673 0.000000000
0.625477374 0.602961540 0.000000000
0.674992800 0.603218794 0.000000000
0.723036289 0.603363931 0.000000000
0.769616663 0.603526890 0.000000000
0.814267755 0.603860497 0.000000000
0.856653273 0.604483008 0.000000000
0.896369457 0.605460405 0.000000000
0.000000000 0.653685212 0.000000000
0.000000000 0.653766394 0.000000000
0.025136126 0.653721333 0.000000000
0.167701215 0.653761864 0.000000000
0.262221247 0.653726637 0.000000000
0.336628318 0.653699994 0.000000000
0.402460396 0.653609991 0.000000000
0.463052481 0.653513610 0.000000000
0.520432711 0.653235257 0.000000000
0.574816406 0.653056979 0.000000000
0.626680195 0.652831137 0.000000000
0.676114857 0.652747035 0.000000000
0.723347127 0.652843893 0.000000000
0.769034505 0.653010607 0.000000000
0.813215613 0.653207183 0.000000000
0.855100453 0.653690875 0.000000000
0.894220233 0.654325485 0.000000000
0.000000000 0.700572848 0.000000000
0.000000000 0.700601816 0.000000000
0.035474751 0.700532258 0.000000000
0.173014268 0.700457931 0.000000000
0.266401082 0.700316131 0.000000000
0.340339929 0.700141966 0.000000000
0.405864090 0.699922860 0.000000000
0.465933651 0.699724853 0.000000000
0.522706568 0.699406087 0.000000000
0.576756299 0.699062467 0.000000000
0.628201306 0.698689401 0.000000000
0.677465618 0.698394895 0.000000000
0.724487901 0.698203087 0.000000000
0.769344509 0.698289871 0.000000000
0.812402248 0.698450744 0.000000000
0.853733659 0.698660672 0.000000000
0.892244101 0.699141383 0.000000000
0.000000000 0.743372500 0.000000000
0.000000000 0.743372500 0.000000000
0.056549508 0.743174195 0.000000000
0.185594648 0.742973864 0.000000000
0.274615526 0.742728293 0.000000000
0.346929938 0.742482781 0.000000000
0.411400139 0.742157757 0.000000000
0.470832288 0.741805553 0.000000000
0.526408494 0.741397738 0.000000000
0.579828858 0.740916014 0.000000000
0.630712330 0.740423262 0.000000000
0.679401875 0.739967465 0.000000000
0.726009488 0.739546299 0.000000000
0.770454645 0.739342153 0.000000000
0.812735558 0.739377022 0.000000000
0.852774620 0.739534020 0.000000000
0.890614271 0.739755750 0.000000000
0.000000000 0.782131970 0.000000000
0.000000001 0.782048106 0.000000000
0.085998662 0.781881332 0.000000000
0.204738095 0.781561315 0.000000000
0.287135810 0.781218112 0.000000000
0.356700420 0.780825436 0.000000000
0.419433385 0.780358613 0.000000000
0.477662116 0.779882073 0.000000000
0.532279491 0.779330254 0.000000000
0.584318936 0.778782904 0.000000000
0.634441257 0.778068781 0.000000000
0.682426214 0.777548254 0.000000000
0.728284180 0.776889265 0.000000000
0.772177994 0.776471376 0.000000000
0.813816965 0.776121974 0.000000000
0.852987170 0.776101172 0.000000000
0.889490783 0.776290894 0.000000000
0.000000000 0.817172050 0.000000000
0.010103722 0.816937566 0.000000000
0.129434675 0.816668808 0.000000000
0.228284985 0.816306829 0.000000000
0.303790033 0.815888405 0.000000000
0.369891584 0.815341949 0.000000000
0.430282414 0.814751327 0.000000000
0.486767411 0.814148962 0.000000000
0.540088594 0.813510716 0.000000000
0.590711236 0.812792778 0.000000000
0.639633000 0.812033772 0.000000000
0.686575055 0.811201453 0.000000000
0.731628656 0.810482800 0.000000000
0.774673760 0.809728205 0.000000000
0.815586030 0.809229970 0.000000000
0.854013145 0.808878899 0.000000000
0.889585376 0.808874488 0.000000001
0.001084706 0.848983467 0.000000000
0.069344014 0.848717570 0.000000000
0.177579850 0.848390222 0.000000000
0.256732792 0.847931802 0.000000000
0.324725986 0.847345769 0.000000000
0.386564851 0.846771359 0.000000000
0.444155455 0.846087933 0.000000000
0.498450786 0.845347464 0.000000000
0.550068259 0.844488204 0.000000000
0.599189579 0.843678832 0.000049316
0.646383584 0.842849016 0.000098569
0.692263186 0.841942728 0.000936819
0.736129045 0.840972006 0.001724885
0.778134704 0.840153337 0.002563138
0.818111539 0.839372277 0.003499081
0.855768800 0.838773310 0.005026769
0.890453577 0.838506699 0.005865022
0.033119999 0.878664017 0.003943000
0.151820824 0.878291965 0.003154000
0.224009752 0.877910972 0.003154000
0.289215654 0.877386987 0.003154000
0.349871755 0.876783013 0.003943000
0.406930953 0.876076043 0.003943000
0.461070389 0.875244975 0.004731000
0.512839854 0.874368012 0.005520000
0.562344491 0.873502493 0.006309000
0.609824419 0.872585535 0.007097000
0.655426264 0.871578634 0.009758500
0.699481487 0.870586395 0.013898812
0.742032766 0.869560480 0.018334251
0.782787681 0.868613601 0.023164693
0.821524262 0.867697716 0.028586131
0.858090997 0.867058814 0.034844883
0.892027974 0.866519988 0.042516001
0.000000000 0.000000000 0.104232252
0.075367942 0.000000000 0.108381003
0.136144251 0.000000000 0.109350368
0.194990322 0.000000000 0.110092625
0.256274611 0.000000000 0.111102745
0.318135947 0.000000000 0.111462995
0.379901677 0.000000000 0.112126000
0.440507978 0.000000000 0.112457871
0.498953223 0.000000000 0.112788811
0.555323958 0.000000000 0.112941496
0.610129058 0.000000000 0.112810619
0.663115621 0.000000000 0.112235688
0.714642644 0.000000000 0.111437559
0.764680088 0.000000000 0.110359624
0.813019633 0.000000000 0.108979374
0.859248996 0.000000000 0.107465185
0.903042257 0.000000000 0.105254754
0.000000000 0.088571057 0.112916313
0.072787687 0.091136813 0.109421380
0.137254119 0.090708934 0.112191752
0.198160008 0.088997744 0.113924250
0.260000944 0.084763184 0.115266748
0.321010739 0.077024944 0.116067506
0.382047445 0.065789618 0.116962314
0.441273928 0.049348928 0.117769748
0.498617560 0.031937312 0.118274696
0.554120302 0.020749750 0.118780501
0.607753694 0.014933625 0.119277932
0.659940124 0.008132188 0.119425744
0.710576177 0.001084188 0.119198181
0.759962499 0.000000000 0.119339995
0.807665884 0.000000000 0.119068056
0.853435040 0.000000000 0.118756816
0.896611631 0.000000000 0.118396945
0.000000000 0.153819621 0.116367184
0.070899189 0.155809939 0.113646373
0.141154677 0.156285509 0.115703069
0.205445647 0.156538442 0.116003692
0.268131196 0.155562744 0.117004439
0.329692990 0.153474689 0.117455691
0.390067875 0.150094748 0.117979124
0.448401213 0.146101758 0.118316442
0.504812956 0.141398624 0.118444629
0.559399784 0.136062011 0.118319318
0.612438738 0.130476803 0.118298441
0.664108813 0.124573246 0.118000001
0.714042783 0.119031183 0.117787562
0.762800872 0.114980310 0.117386378
0.810018420 0.112691753 0.117043249
0.855136633 0.112072319 0.116427556
0.898062825 0.114297070 0.116354190
0.000000000 0.223540500 0.117157876
0.046083245 0.225403190 0.114712566
0.136147931 0.226361379 0.114780001
0.207602948 0.226827636 0.116134189
0.272519112 0.227214381 0.115836628
0.335327119 0.226722196 0.116775557
0.395776898 0.225822002 0.116817936
0.453963995 0.224720329 0.116835937
0.509919941 0.223330379 0.116518371
0.564040542 0.221823066 0.116279371
0.616586506 0.220368445 0.115851626
0.667620242 0.219097152 0.115333632
0.717268884 0.217936382 0.114705563
0.765483022 0.217289448 0.114312127
0.812080562 0.217271328 0.113636069
0.856938243 0.218093574 0.112973936
0.899169981 0.220175698 0.112359121
0.000000000 0.294276744 0.115468621
0.009364560 0.295827955 0.111864813
0.122591928 0.296771646 0.112175688
0.203329757 0.297412455 0.112175748
0.273769319 0.297661006 0.113186754
0.337886631 0.298175395 0.112547562
0.399015248 0.298179060 0.112874940
0.457368970 0.297952652 0.112874940
0.513305247 0.297585011 0.112522379
0.567233384 0.297185749 0.112253062
0.619543970 0.296848536 0.111565307
0.670328438 0.296502322 0.110847004
0.719669759 0.296499133 0.110510685
0.767535150 0.296614259 0.109584436
0.813759804 0.297228545 0.108858310
0.858097255 0.298508644 0.108715430
0.899970114 0.300472528 0.108005755
0.000000000 0.363001376 0.111189254
0.000000000 0.364306152 0.107247308
0.099596187 0.364997625 0.106876940
0.196339384 0.365620136 0.106850252
0.271371305 0.366015315 0.106619939
0.338813663 0.366105855 0.107536122
0.400620848 0.366475821 0.106800437
0.459116548 0.366645068 0.106589504
0.515381157 0.366544127 0.106700502
0.569328904 0.366486937 0.106236428
0.621638179 0.366486549 0.105858937
0.672220528 0.366587490 0.105340622
0.721300244 0.366749674 0.104559809
0.768842518 0.367173165 0.103988007
0.814760983 0.368042827 0.103508815
0.858715177 0.369347334 0.102884188
0.900081992 0.371233314 0.102761313
0.000000000 0.428201020 0.105341189
0.000000000 0.429232568 0.100435376
0.072032370 0.429732203 0.100459382
0.188221067 0.430053651 0.100042552
0.267927766 0.430456519 0.099295564
0.337613881 0.430644393 0.099397629
0.401257575 0.430775136 0.100104123
0.460289299 0.430944026 0.099122435
0.516407609 0.431225836 0.099314436
0.570596159 0.431294292 0.099163443
0.622839510 0.431384772 0.098887309
0.673317850 0.431531966 0.098551497
0.722238302 0.431825191 0.098027252
0.769523323 0.432363659 0.097396374
0.815178633 0.433168232 0.096986055
0.858620524 0.434385955 0.096856065
0.899667382 0.436165035 0.096443310
0.000000000 0.489856541 0.098434560
0.000000000 0.490789801 0.092091866
0.051696558 0.490983635 0.092354432
0.179498151 0.491266400 0.092213862
0.264727056 0.491574824 0.091240056
0.335682452 0.491906255 0.090640187
0.400611937 0.491787404 0.091601059
0.461004645 0.491940767 0.091993682
0.517459631 0.492131203 0.090737812
0.571153522 0.492399365 0.090711184
0.623427808 0.492432475 0.091140687
0.673831522 0.492610335 0.091056556
0.722540140 0.492861331 0.091015369
0.769592166 0.493314713 0.090689249
0.814880371 0.494043440 0.090330310
0.857955694 0.495200962 0.090191066
0.898522735 0.496618181 0.090588562
0.000000000 0.547953725 0.091416247
0.000000000 0.548644364 0.083761998
0.036889937 0.548805177 0.083761998
0.171632096 0.549020648 0.084027000
0.261405498 0.549179256 0.083336994
0.334349066 0.549340725 0.082170561
0.399845332 0.549471319 0.081956618
0.460875541 0.549333215 0.083519183
0.518199563 0.549355745 0.083687186
0.572206914 0.549413800 0.082590438
0.623760760 0.549706757 0.082721055
0.674008787 0.549845874 0.083753809
0.722459853 0.549983501 0.084103875
0.769251645 0.550388992 0.084486499
0.814123929 0.550958812 0.084542751
0.856848836 0.551847875 0.084711500
0.896970034 0.553105712 0.085545629
0.000000000 0.602523446 0.084608503
0.000000000 0.603029013 0.075995877
0.025874939 0.603181005 0.075753376
0.165697157 0.603236377 0.075995877
0.259656638 0.603321195 0.075710937
0.334063083 0.603412271 0.075250372
0.399674594 0.603444219 0.073365003
0.461020768 0.603347540 0.074762441
0.518660247 0.603178561 0.076655440
0.573102474 0.602964938 0.077121377
0.624848127 0.603062272 0.076655939
0.674248219 0.603263378 0.076796189
0.722231805 0.603438795 0.078141876
0.768633366 0.603620708 0.079487130
0.813166916 0.604104042 0.080769189
0.855442584 0.604748368 0.081503436
0.895066023 0.605760694 0.082802378
0.000000000 0.653438330 0.080623500
0.000000000 0.653863549 0.070106499
0.022523629 0.653928697 0.070622995
0.164144218 0.653852165 0.070592873
0.260324746 0.653846323 0.070591003
0.335274249 0.653776586 0.070059747
0.401194066 0.653707147 0.069194816
0.461890042 0.653610408 0.068040878
0.519668341 0.653352618 0.071397565
0.574139416 0.653106689 0.073108435
0.625960052 0.652813911 0.074248001
0.675399780 0.652793705 0.074248001
0.722525179 0.652937114 0.074880183
0.768228233 0.653145730 0.076635689
0.812146902 0.653315663 0.079168685
0.853956997 0.653798997 0.081133321
0.893002093 0.654588640 0.082945250
0.000000000 0.700385392 0.079240814
0.000000000 0.700690567 0.068092130
0.031345751 0.700664282 0.068439499
0.169136092 0.700537920 0.068802938
0.264214545 0.700396419 0.069180876
0.338725388 0.700235724 0.069132313
0.404510319 0.699995100 0.068802938
0.464805454 0.699829400 0.068257749
0.521632731 0.699537337 0.068768129
0.575871408 0.699107826 0.072193995
0.627402067 0.698692083 0.074556753
0.676728010 0.698392153 0.076134443
0.723680854 0.698279321 0.077100500
0.768486500 0.698321998 0.078204244
0.811491013 0.698523998 0.080464691
0.852635622 0.698757529 0.084218688
0.891061783 0.699294567 0.087117940
0.000000000 0.743189216 0.082219690
0.000000000 0.743481278 0.070465691
0.049300134 0.743332744 0.070641004
0.181553453 0.743129790 0.071651690
0.272153527 0.742807508 0.072479621
0.345167309 0.742544770 0.072775692
0.409982324 0.742214978 0.072933815
0.469491512 0.741847754 0.072965443
0.525305271 0.741502285 0.072001688
0.578759491 0.740988016 0.075091131
0.629850984 0.740445793 0.078868315
0.678570986 0.739950240 0.081585817
0.725163817 0.739576280 0.083950505
0.769614816 0.739339650 0.085445255
0.811776042 0.739374638 0.087443568
0.851744771 0.739573836 0.090549439
0.889430463 0.739823222 0.094625816
0.000000000 0.781886041 0.089974575
0.000000000 0.782150567 0.078025758
0.076966286 0.781890512 0.078286260
0.200517848 0.781591237 0.079175569
0.284613281 0.781288028 0.079700947
0.354833543 0.780862927 0.081053071
0.417869210 0.780391455 0.081729636
0.476340711 0.779947102 0.082123198
0.531079173 0.779451430 0.081998944
0.583035111 0.778859437 0.082312450
0.633433521 0.778176606 0.087041005
0.681478083 0.777445197 0.090349764
0.727424085 0.776913047 0.093607262
0.771250963 0.776414275 0.096067630
0.812817335 0.776112795 0.098431706
0.851915061 0.776105762 0.101130329
0.888405502 0.776290894 0.104562454
0.000000000 0.816900373 0.100626826
0.006160717 0.817071557 0.088645637
0.121587746 0.816736519 0.089536957
0.224499732 0.816381752 0.090733886
0.301164865 0.815906107 0.091615200
0.367834955 0.815344214 0.092881888
0.428661704 0.814812839 0.093928009
0.485314280 0.814155996 0.094452888
0.538759112 0.813484371 0.095280580
0.589519620 0.812852144 0.095684201
0.638423920 0.812058508 0.098136768
0.685610116 0.811197162 0.102537207
0.730611145 0.810452223 0.105932459
0.773637950 0.809721589 0.109470136
0.814611077 0.809191823 0.112364829
0.852997661 0.808910370 0.115375385
0.888468146 0.808776617 0.118158199
0.001084706 0.848689854 0.114829078
0.058104321 0.848758936 0.103612393
0.171636105 0.848454952 0.104670897
0.253003150 0.847975373 0.105477080
0.322087526 0.847395599 0.106901512
0.384394169 0.846792042 0.108184338
0.442376226 0.846071124 0.109347828
0.496900648 0.845332623 0.110414833
0.548649192 0.844525874 0.111506142
0.597946942 0.843741655 0.112397581
0.645129263 0.842876315 0.112928584
0.691098332 0.841888130 0.117519766
0.735074639 0.840933859 0.121179700
0.777109146 0.840067089 0.124750644
0.817068398 0.839302361 0.128687143
0.854628265 0.838771224 0.131740898
0.889377236 0.838441849 0.134430453
0.033909000 0.878351033 0.132336870
0.143513814 0.878382981 0.121968120
0.219157875 0.877946973 0.122343622
0.285739273 0.877418995 0.123641185
0.347162426 0.876792908 0.125139758
0.404830128 0.876098037 0.126097366
0.459299654 0.875321031 0.127629817
0.511227489 0.874426007 0.128568932
0.560911536 0.873502493 0.129916310
0.608452320 0.872525513 0.131103441
0.654044569 0.871622622 0.132190004
0.698133886 0.870602429 0.134135619
0.740846574 0.869538546 0.138748005
0.781672955 0.868544698 0.142600060
0.820483923 0.867663741 0.145942509
0.856958508 0.866936922 0.149192199
0.890826643 0.866455019 0.152756363
0.000000000 0.000690375 0.163251996
0.063217990 0.000000000 0.169281244
0.130658373 0.000000000 0.170667499
0.192894697 0.000000000 0.171780735
0.256106377 0.000000000 0.172914624
0.318827301 0.000000000 0.173548073
0.380759895 0.000000000 0.174338996
0.441391706 0.000000000 0.174897000
0.499870390 0.000000000 0.175553262
0.556120157 0.000000000 0.175937444
0.610678136 0.000000000 0.176229253
0.663555264 0.000000000 0.176259875
0.714973986 0.000000000 0.176367372
0.764818311 0.000000000 0.176045865
0.813090324 0.000000000 0.175716639
0.859261453 0.000000000 0.175477579
0.902790248 0.000000000 0.174616128
0.000000000 0.087781750 0.173830315
0.066505440 0.090309568 0.167645633
0.135453612 0.089061812 0.172408372
0.199868143 0.086043127 0.172898948
0.263562471 0.080641188 0.173783675
0.326211005 0.071100250 0.174552068
0.387558997 0.056931749 0.174709246
0.447171718 0.037971739 0.175077006
0.504619658 0.019024247 0.175146699
0.560228229 0.010004812 0.175146699
0.614046216 0.006062062 0.175004259
0.666271210 0.002759937 0.174889684
0.717120290 0.000000000 0.174435630
0.766464055 0.000000000 0.174076736
0.814203680 0.000000000 0.173404440
0.859870374 0.000000000 0.172559619
0.903202951 0.000000000 0.171636686
0.000000000 0.154060751 0.177988246
0.062819503 0.155553073 0.175358057
0.128725126 0.159196496 0.171994492
0.198580518 0.158945501 0.174414620
0.262997508 0.157748371 0.176819116
0.325498939 0.155791014 0.178158179
0.386341661 0.153145492 0.179208636
0.445111036 0.149421498 0.179940313
0.501833916 0.144871995 0.180447623
0.556538999 0.139997572 0.181074128
0.609734416 0.134873375 0.181510612
0.661410749 0.129598737 0.181945130
0.711639285 0.124646507 0.182403505
0.760485709 0.120918751 0.182606891
0.807574928 0.118976377 0.182969883
0.852883101 0.118921377 0.183198929
0.895684600 0.120490000 0.183773249
0.000000000 0.223528877 0.179964572
0.039303247 0.225082397 0.177797183
0.129661262 0.227157071 0.175798073
0.203146577 0.227677837 0.178434998
0.269441247 0.227937132 0.177162066
0.332684606 0.227868631 0.179074943
0.393200636 0.227332324 0.179818258
0.451509416 0.226314127 0.180569127
0.507494807 0.225206882 0.180758134
0.561758399 0.223789141 0.181087628
0.614357054 0.222486764 0.181306183
0.665406048 0.221333072 0.181601807
0.714977443 0.220503137 0.181712121
0.763258457 0.219964951 0.181939751
0.810023010 0.220328376 0.182114258
0.854713440 0.221251518 0.182521135
0.897033870 0.223254755 0.182708308
0.000000000 0.294074148 0.180387869
0.004879124 0.295669556 0.178225368
0.116348632 0.297254413 0.175898388
0.200160444 0.298001885 0.176691934
0.271393508 0.298250496 0.178626627
0.336196363 0.298739046 0.177559018
0.397308379 0.298778266 0.178905889
0.455571651 0.298720390 0.179412887
0.511612356 0.298541367 0.179863885
0.565479100 0.298244745 0.180002496
0.617734373 0.298086405 0.180165261
0.668446779 0.297929257 0.180384874
0.717684269 0.297971398 0.180573881
0.765543163 0.298226655 0.180641383
0.811824858 0.299036503 0.180816889
0.856181681 0.300455064 0.181157261
