public/lut/47.cube
TITLE "17x17x17 Adobe/IRIDAS cube 3D LUT exported with GrossGrade v0.2.2 (beta) 64 bit"
DOMAIN_MIN 0 0 0
DOMAIN_MAX 1 1 1
LUT_3D_SIZE 5
0.000000000 0.000000000 0.000000000
0.254086256 0.000000000 0.006900000
0.494365036 0.000000000 0.014983000
0.709210515 0.000000000 0.017940002
0.896941006 0.000000000 0.013406000
0.000000000 0.294436276 0.006308500
0.274509251 0.297412515 0.003154499
0.514451742 0.296845019 0.000986000
0.721297503 0.294892251 0.000788999
0.901795745 0.298477501 0.000000000
0.000000000 0.548243999 0.000000000
0.262892485 0.549050450 0.000000000
0.518754482 0.549270988 0.000000000
0.723408818 0.549826980 0.000000000
0.898349047 0.552626491 0.000000000
0.000000000 0.743372500 0.000000000
0.274615526 0.742728293 0.000000000
0.526408494 0.741397738 0.000000000
0.726009488 0.739546299 0.000000000
0.890614271 0.739755750 0.000000000
0.033119999 0.878664017 0.003943000
0.349871755 0.876783013 0.003943000
0.562344491 0.873502493 0.006309000
0.742032766 0.869560480 0.018334251
0.892027974 0.866519988 0.042516001
0.000000000 0.000789000 0.284880996
0.250878781 0.000000000 0.295190513
0.500171006 0.000000000 0.299514532
0.715057015 0.000000000 0.302094996
0.901864767 0.000000000 0.303254008
0.000000000 0.294090778 0.305373013
0.251516730 0.303254515 0.295065254
0.502987742 0.302856505 0.303469002
0.710685492 0.303302735 0.307150483
0.891699731 0.308507502 0.309684992
0.000000000 0.547217011 0.308104753
0.251998514 0.549797475 0.301299751
0.513355017 0.550016522 0.305853993
0.717411458 0.551213503 0.307716757
0.890934825 0.555102468 0.310779005
0.000000000 0.742281258 0.312862992
0.263154000 0.742827535 0.305432260
0.521061003 0.741417766 0.307204008
0.721032560 0.739596009 0.312745750
0.884487987 0.740145206 0.316333503
0.032529000 0.877269745 0.330982000
0.340018988 0.876383722 0.323507011
0.556283474 0.873053193 0.326143235
0.736182570 0.869237781 0.329994500
0.885780513 0.866219759 0.338422000
0.000000000 0.000000000 0.505663037
0.229131252 0.000000000 0.518795013
0.496962041 0.000000000 0.523266494
0.712656021 0.000000000 0.526432991
0.897776961 0.000000000 0.528558016
0.000000000 0.294438481 0.526632071
0.251406252 0.300901532 0.511733055
0.505808830 0.298800737 0.524218202
0.715653539 0.296266496 0.525597036
0.895311952 0.299554765 0.526571035
0.000000000 0.546245456 0.532443047
0.248896003 0.548231721 0.527865231
0.482353508 0.557647943 0.515637577
0.698792815 0.557361007 0.524531960
0.873582006 0.561935484 0.530032992
0.000000000 0.740710974 0.536653519
0.260588527 0.741119504 0.533005476
0.508095264 0.742153525 0.526726723
0.708109200 0.740772247 0.534962237
0.871228218 0.742005467 0.534678519
0.020897498 0.875329018 0.547020495
0.336869508 0.874368012 0.543861508
0.544375539 0.872539520 0.538614035
0.724503279 0.869027495 0.542155266
0.873069048 0.866195023 0.550655961
0.000000000 0.000000000 0.707976997
0.206369013 0.000000000 0.723879039
0.492180020 0.000000000 0.726425767
0.708875060 0.000000000 0.730333030
0.890739501 0.000000000 0.732278287
0.000000000 0.295222521 0.725822747
0.237502247 0.300901502 0.714318037
0.500981748 0.297024041 0.730565250
0.710381746 0.296358258 0.730261981
0.886897743 0.301737756 0.731549025
0.000000000 0.545508027 0.734968543
0.240828514 0.547496259 0.729298472
0.493086010 0.554939270 0.710779011
0.701044500 0.554203272 0.726793528
0.874824226 0.557463229 0.726753831
0.000000000 0.738986015 0.737717032
0.258933246 0.739166796 0.735270262
0.509223044 0.739875019 0.728088737
0.668923020 0.750219703 0.712645769
0.844148517 0.748660207 0.723955750
0.018334251 0.872828007 0.743663311
0.334874988 0.871735692 0.741639555
0.540865481 0.869996190 0.737740517
0.705473304 0.869875014 0.730935991
0.850568235 0.867782712 0.743744254
0.000000000 0.000000000 0.890339971
0.222681761 0.000000000 0.905469775
0.501884043 0.000000000 0.907745004
0.711230278 0.000000000 0.909724534
0.887456000 0.000000000 0.912108004
0.000000000 0.295628250 0.904029489
0.250167996 0.301576257 0.895452023
0.509831727 0.294766515 0.911592245
0.711716294 0.296950519 0.910180748
0.881815791 0.305352986 0.910461783
0.000000000 0.545391023 0.909512043
0.262956262 0.547806263 0.903884292
0.504935026 0.553957462 0.892245948
0.701409459 0.553754985 0.908758521
0.865676045 0.560198545 0.905699015
0.000000000 0.737366796 0.910264254
0.286510736 0.737556517 0.907562017
0.515543461 0.739077270 0.900902748
0.685834229 0.746023536 0.883547485
0.844501257 0.745254755 0.900363505
0.117404997 0.870043993 0.910196006
0.356200516 0.869003236 0.908933759
0.549468040 0.867249012 0.905193985
0.709851027 0.866876245 0.896514773
0.826188028 0.872941017 0.887015998
