public/lut/48.cube
TITLE "17x17x17 Adobe/IRIDAS cube 3D LUT exported with GrossGrade v0.2.2 (beta) 64 bit"
DOMAIN_MIN 0 0 0
DOMAIN_MAX 1 1 1
LUT_3D_SIZE 5
0.000000000 0.000000000 0.000000000
0.287897497 0.000000000 0.000789000
0.521766007 0.000000000 0.000789000
0.723123014 0.000000000 0.000000000
0.877484977 0.000000000 0.000000000
0.000000000 0.282362491 0.000000000
0.298426747 0.286558747 0.000000000
0.534335256 0.284005523 0.000000000
0.730684757 0.278399765 0.000000000
0.878862500 0.278963000 0.000000000
0.000000000 0.511488497 0.000000000
0.288893759 0.515108228 0.000000000
0.537101507 0.516551495 0.000000000
0.729195714 0.517027020 0.000000000
0.871381044 0.519893527 0.000000000
0.000000000 0.702862024 0.000000000
0.298936248 0.704108000 0.000000000
0.544473767 0.704565525 0.000000000
0.727955759 0.703332305 0.000000000
0.862397254 0.703726053 0.000000000
0.088290997 0.849205017 0.000000000
0.364623755 0.849779248 0.000000000
0.571986496 0.849071503 0.000000000
0.736186981 0.847571492 0.000000000
0.862094998 0.846301973 0.000000000
0.000000000 0.000789000 0.260472268
0.293738008 0.000000000 0.266182005
0.531628489 0.000000000 0.265184492
0.732303083 0.000000000 0.262602270
0.884819269 0.000000000 0.259405762
0.000000000 0.284735739 0.267560512
0.280535758 0.294117272 0.253201246
0.528121412 0.289878517 0.261598021
0.724674761 0.285756022 0.261049271
0.872779787 0.287338495 0.259444267
0.000000000 0.513995945 0.262955993
0.287866771 0.515791297 0.257022500
0.535850286 0.518130958 0.253523260
0.726446748 0.519311488 0.254225016
0.867564261 0.522583485 0.252606511
0.000000000 0.704479277 0.259899259
0.298599780 0.703885555 0.253953755
0.542265236 0.704778254 0.250131011
0.725189745 0.703971028 0.249747500
0.858822763 0.704683304 0.251947761
0.097629249 0.849828720 0.274278998
0.362250745 0.848888755 0.266899019
0.568570018 0.848588765 0.264016509
0.732037723 0.847730219 0.263366252
0.858075738 0.846560717 0.268161267
0.000000000 0.001182999 0.477637529
0.283001244 0.000000000 0.487353504
0.531826019 0.000000000 0.487251997
0.732808828 0.000000000 0.486774504
0.882995009 0.000000000 0.485887021
0.000000000 0.285257488 0.487237006
0.285863757 0.287853241 0.489817023
0.536030769 0.282681495 0.483472019
0.732982516 0.275275499 0.482680023
0.878687739 0.275231004 0.481314242
0.000000000 0.515378475 0.488241017
0.288598984 0.517294288 0.481696546
0.503862500 0.529016495 0.465137005
0.710979700 0.526058972 0.477288246
0.853204489 0.529477954 0.479515493
0.000000000 0.705933750 0.488646775
0.299403489 0.705149770 0.484811246
0.533859730 0.705436528 0.479897022
0.715164542 0.706221044 0.475746006
0.848321497 0.707163215 0.482337505
0.087630004 0.851166487 0.496313512
0.362251997 0.849163532 0.493980020
0.560504496 0.848038495 0.489568532
0.722125530 0.848097026 0.489939749
0.848338485 0.847338021 0.495114505
0.000000000 0.000000000 0.676956475
0.269726515 0.000000000 0.688950777
0.531151474 0.000000000 0.688207030
0.731334567 0.000000000 0.687550545
0.878042459 0.000000000 0.686276495
0.000000000 0.284991741 0.682912230
0.279174507 0.284628242 0.689553261
0.535393000 0.279413968 0.685429275
0.729906023 0.273215771 0.683498800
0.872539043 0.275158256 0.682470262
0.000000000 0.515236020 0.684338808
0.288488746 0.517453313 0.677106321
0.521229267 0.521892786 0.681262255
0.718261003 0.520423532 0.674908698
0.858625531 0.522660494 0.673773289
0.000000000 0.705542088 0.681828976
0.304323763 0.705372810 0.678648233
0.537680984 0.705966830 0.668830514
0.668932498 0.719189525 0.652926266
0.825029492 0.714555740 0.665070295
0.103488505 0.851067007 0.682915509
0.363061488 0.849920750 0.680508971
0.559574544 0.848338783 0.676235795
0.707952976 0.849445999 0.671226501
0.831344247 0.849903524 0.680170774
0.000000000 0.000000000 0.845532000
0.291146010 0.000000000 0.858223796
0.544800520 0.000000000 0.857279003
0.736814499 0.000000000 0.856250763
0.877898991 0.000000000 0.855270028
0.000000000 0.283906519 0.849013209
0.304091990 0.280922771 0.857229531
0.549656510 0.274804264 0.854733706
0.734254539 0.271379262 0.852418244
0.871026993 0.276007235 0.850734711
0.000000000 0.515442967 0.847554982
0.316694498 0.517563224 0.840784192
0.539457500 0.518727958 0.851099968
0.719959259 0.520266294 0.845447779
0.854196489 0.523983955 0.842477500
0.002168504 0.704342246 0.844644010
0.335343480 0.704310536 0.841003776
0.545614958 0.706009328 0.831934988
0.696932495 0.710904300 0.830813289
0.833865225 0.709159017 0.833105266
0.179155007 0.849803984 0.841736972
0.382672250 0.849088490 0.839830756
0.567214489 0.848204970 0.834759474
0.714008510 0.849304974 0.825410485
0.813107014 0.855895996 0.815921009
