public/lut/48.cube
TITLE "17x17x17 Adobe/IRIDAS cube 3D LUT exported with GrossGrade v0.2.2 (beta) 64 bit"
DOMAIN_MIN 0 0 0
DOMAIN_MAX 1 1 1
LUT_3D_SIZE 17
0.000000000 0.000000000 0.000000000
0.103498816 0.000739688 0.000000000
0.166835248 0.000789000 0.000000000
0.227679759 0.000789000 0.000789000
0.287897497 0.000000000 0.000789000
0.348071992 0.000000000 0.000789000
0.407312393 0.000000000 0.000789000
0.465424776 0.000000000 0.000789000
0.521766007 0.000000000 0.000789000
0.576395452 0.000000000 0.000000000
0.628379405 0.000000000 0.000000000
0.677534342 0.000000000 0.000000000
0.723123014 0.000000000 0.000000000
0.765418410 0.000000000 0.000000000
0.804504573 0.000000000 0.000000000
0.841330588 0.000000000 0.000000000
0.877484977 0.000000000 0.000000000
0.000000000 0.097709440 0.000000000
0.105364069 0.098937564 0.000000000
0.170121744 0.098510817 0.000000000
0.232421815 0.096626133 0.000000000
0.293652505 0.093424752 0.000049312
0.353753150 0.087992124 0.000591750
0.412805140 0.079939499 0.000788999
0.470335662 0.068260923 0.000000000
0.526454568 0.054047249 0.000000000
0.580581725 0.036717936 0.000000000
0.632102370 0.019024562 0.000000000
0.680742562 0.011089687 0.000000000
0.726005495 0.008871563 0.000000000
0.767857790 0.006505684 0.000000000
0.806534052 0.002858372 0.000000000
0.842894197 0.000000000 0.000000000
0.878962159 0.000000000 0.000000000
0.000000000 0.160254136 0.000000000
0.102056749 0.161688313 0.000000000
0.170370877 0.162408501 0.000000000
0.234292954 0.162553012 0.000000000
0.296188891 0.161174253 0.000000000
0.356809884 0.159041643 0.000000000
0.416049778 0.155858010 0.000000000
0.473578751 0.151696935 0.000000000
0.529443383 0.146266252 0.000000000
0.583422959 0.140249193 0.000000000
0.634714007 0.133357137 0.000000000
0.683049619 0.126436934 0.000000000
0.728043377 0.119569868 0.000000000
0.769525409 0.112701684 0.000000000
0.807838440 0.107319750 0.000000000
0.843755007 0.103738502 0.000000000
0.879419148 0.103094503 0.000000000
0.000000000 0.221475646 0.000000000
0.094717562 0.223300010 0.000000000
0.168284684 0.224614128 0.000000000
0.234752759 0.225049883 0.000000000
0.297729582 0.224923134 0.000000000
0.359009087 0.224222690 0.000000000
0.418448538 0.222689137 0.000000000
0.476421863 0.220868140 0.000000000
0.532402635 0.218357891 0.000000000
0.586033165 0.215328440 0.000000000
0.637090445 0.212317884 0.000000000
0.685038269 0.209327206 0.000000000
0.729607344 0.206601143 0.000000000
0.770656645 0.204463571 0.000000000
0.808624268 0.203098327 0.000000000
0.844252050 0.202719018 0.000000000
0.879343987 0.203218818 0.000000000
0.000000000 0.282362491 0.000000000
0.080869064 0.283446372 0.000000000
0.162973762 0.285094738 0.000000000
0.233476877 0.286054283 0.000000000
0.298426747 0.286558747 0.000000000
0.360029876 0.286566764 0.000000000
0.420172662 0.285989404 0.000000000
0.478395760 0.285146177 0.000000000
0.534335256 0.284005523 0.000000000
0.588031411 0.282581508 0.000000000
0.638777018 0.281055987 0.000000000
0.686519623 0.279589325 0.000000000
0.730684757 0.278399765 0.000000000
0.771386743 0.277711570 0.000000000
0.808930278 0.277463496 0.000000000
0.844019592 0.277802587 0.000000000
0.878862500 0.278963000 0.000000000
0.000000000 0.342014104 0.000000000
0.055000752 0.342984855 0.000000000
0.155081570 0.344408751 0.000000000
0.229582399 0.345774412 0.000000000
0.297611952 0.346516132 0.000000000
0.360742420 0.346619666 0.000000000
0.420848787 0.346827120 0.000000000
0.479579151 0.346599013 0.000000000
0.535569191 0.346020162 0.000000000
0.589220345 0.345366359 0.000000000
0.639931083 0.344676048 0.000000000
0.687321067 0.344051123 0.000000000
0.731222451 0.343656510 0.000000000
0.771462262 0.343549758 0.000000000
0.808586478 0.343804449 0.000000000
0.843392253 0.344601244 0.000000000
0.877817690 0.345903695 0.000000000
0.000000000 0.400190651 0.000000000
0.021636367 0.400961965 0.000000000
0.144019753 0.402349263 0.000000000
0.224438071 0.403830588 0.000000000
0.294876367 0.404696018 0.000000000
0.360393494 0.405221879 0.000000000
0.421602637 0.405393541 0.000000000
0.479909092 0.405670136 0.000000000
0.536142707 0.405456513 0.000000000
0.589734912 0.405188888 0.000000000
0.640278161 0.404919654 0.000000000
0.687448621 0.404719949 0.000000000
0.731071174 0.404734135 0.000000000
0.770898581 0.404990137 0.000000000
0.807687581 0.405526161 0.000000000
0.842055857 0.406408876 0.000000000
0.876152039 0.407743633 0.000000000
0.000000000 0.456908643 0.000000000
0.005766372 0.457477331 0.000000000
0.129842743 0.458548963 0.000000000
0.218528256 0.459949613 0.000000000
0.291649133 0.461134166 0.000000000
0.358909756 0.461762786 0.000000000
0.421703279 0.462050974 0.000000000
0.480660588 0.462196589 0.000000000
0.536207974 0.462446600 0.000000000
0.589796960 0.462414205 0.000000000
0.640189230 0.462309390 0.000000000
0.687103987 0.462349892 0.000000000
0.730281651 0.462458968 0.000000000
0.769854188 0.462872773 0.000000000
0.806065440 0.463506997 0.000000000
0.840173721 0.464431345 0.000000000
0.873867452 0.465586215 0.000000000
0.000000000 0.511488497 0.000000000
0.001823624 0.511929870 0.000000000
0.113641120 0.512768507 0.000000000
0.212407768 0.514048457 0.000000000
0.288893759 0.515108228 0.000000000
0.357140362 0.515910208 0.000000000
0.421128511 0.516338587 0.000000000
0.481017411 0.516452968 0.000000000
0.537101507 0.516551495 0.000000000
0.589636683 0.516729772 0.000000000
0.639780760 0.516766250 0.000000000
0.686357617 0.516825318 0.000000000
0.729195714 0.517027020 0.000000000
0.768297136 0.517421186 0.000000000
0.804220200 0.518044770 0.000000000
0.837873459 0.518836617 0.000000000
0.871381044 0.519893527 0.000000000
0.000000000 0.563717902 0.000000000
0.000000000 0.563998282 0.000000000
0.098648436 0.564651489 0.000000000
0.207494646 0.565653086 0.000000000
0.287020683 0.566722691 0.000000000
0.356554300 0.567489445 0.000000000
0.420880437 0.567956209 0.000000000
0.481357992 0.568177938 0.000000000
0.537902355 0.568145871 0.000000000
0.590634525 0.568009675 0.000000000
0.639693260 0.568297625 0.000000000
0.685601771 0.568384707 0.000000000
0.727901936 0.568513989 0.000000000
0.766644001 0.568801105 0.000000000
0.802117527 0.569287658 0.000000000
0.835575163 0.569942236 0.000000000
0.868678391 0.570781469 0.000000000
0.000000000 0.613192141 0.000000000
0.000000000 0.613436043 0.000000000
0.092744753 0.613840222 0.000000000
0.206027329 0.614851475 0.000000000
0.287323147 0.615583003 0.000000000
0.357588023 0.616284609 0.000000000
0.421756148 0.616719961 0.000000000
0.482318789 0.616885006 0.000000000
0.538894653 0.616834760 0.000000000
0.591803610 0.616572082 0.000000000
0.640652120 0.616513014 0.000000000
0.685477674 0.616610765 0.000000000
0.726962149 0.616815984 0.000000000
0.765117228 0.616999388 0.000000000
0.800219953 0.617220104 0.000000000
0.833314002 0.617645264 0.000000000
0.866243660 0.618304133 0.000000000
0.000000000 0.659599721 0.000000000
0.000000000 0.659724712 0.000000000
0.097627006 0.659979343 0.000000000
0.209836885 0.660767734 0.000000000
0.290949196 0.661434054 0.000000000
0.361210883 0.661961913 0.000000000
0.425118953 0.662281513 0.000000000
0.484759778 0.662426054 0.000000000
0.540992379 0.662245274 0.000000000
0.593453050 0.661979675 0.000000000
0.641990125 0.661684155 0.000000000
0.686489940 0.661505163 0.000000000
0.727008283 0.661544859 0.000000000
0.764049947 0.661726713 0.000000000
0.798774004 0.661807775 0.000000000
0.831510842 0.662018120 0.000000000
0.864116192 0.662444472 0.000000000
0.000000000 0.702862024 0.000000000
0.001675689 0.702800989 0.000000000
0.113639265 0.703075528 0.000000000
0.220235005 0.703722417 0.000000000
0.298936248 0.704108000 0.000000000
0.367914438 0.704493701 0.000000000
0.430851161 0.704676926 0.000000000
0.489341229 0.704789042 0.000000000
0.544473767 0.704565525 0.000000000
0.596127033 0.704204261 0.000000000
0.644047379 0.703842759 0.000000000
0.687938750 0.703526735 0.000000000
0.727955759 0.703332305 0.000000000
0.764405251 0.703350663 0.000000000
0.797911286 0.703508496 0.000000000
0.830146670 0.703558385 0.000000000
0.862397254 0.703726053 0.000000000
0.000000000 0.743030369 0.000000000
0.014096093 0.742914200 0.000000000
0.142306909 0.743181229 0.000000000
0.236549959 0.743649364 0.000000000
0.311157644 0.743993878 0.000000000
0.377579272 0.744181454 0.000000000
0.438865513 0.744243801 0.000000000
0.496028006 0.744186938 0.000000000
0.549401343 0.744060874 0.000000000
0.599992514 0.743694723 0.000000000
0.646774292 0.743273735 0.000000000
0.689900577 0.742842495 0.000000000
0.729329467 0.742507279 0.000000000
0.765278757 0.742318869 0.000000000
0.798397124 0.742269158 0.000000000
0.829655766 0.742383838 0.000000000
0.861203074 0.742502511 0.000000000
0.000000000 0.780591667 0.000000000
0.062637001 0.780452073 0.000000000
0.176532283 0.780814171 0.000000000
0.257039607 0.781160951 0.000000000
0.326846927 0.781358004 0.000000000
0.390002638 0.781471491 0.000000000
0.449041635 0.781432271 0.000000000
0.504329026 0.781283617 0.000000000
0.555980265 0.781061053 0.000000000
0.604671657 0.780756593 0.000000000
0.650277615 0.780321956 0.000000000
0.692404628 0.779934108 0.000000000
0.731124818 0.779540420 0.000000000
0.766546905 0.779188812 0.000000000
0.799323440 0.779032409 0.000000000
0.830170393 0.778892815 0.000000000
0.860988140 0.778958440 0.000000000
0.008526728 0.815796018 0.000000000
0.128983065 0.815928102 0.000000000
0.210896969 0.816180348 0.000000000
0.280766875 0.816381574 0.000000000
0.344809741 0.816511452 0.000000000
0.404521465 0.816526771 0.000000000
0.460802823 0.816432297 0.000000000
0.513842463 0.816257060 0.000000000
0.563634515 0.815980673 0.000000000
0.610349298 0.815660536 0.000000000
0.654511333 0.815302968 0.000000000
0.695558906 0.814881444 0.000000000
0.733376622 0.814472020 0.000000000
0.768187344 0.814085305 0.000000000
0.800429344 0.813740253 0.000000000
0.830984235 0.813497841 0.000000000
0.861419261 0.813389838 0.000000000
0.088290997 0.849205017 0.000000000
0.181643307 0.849498749 0.000000000
0.244856864 0.849599898 0.000000000
0.306094795 0.849724591 0.000000000
0.364623755 0.849779248 0.000000000
0.420390248 0.849704027 0.000000000
0.473679274 0.849562764 0.000000000
0.524185717 0.849371016 0.000000000
0.571986496 0.849071503 0.000000000
0.617004991 0.848776162 0.000000000
0.659369767 0.848467529 0.000000000
0.699256361 0.848017395 0.000000000
0.736186981 0.847571492 0.000000000
0.770319939 0.847224593 0.000000000
0.801936984 0.846861601 0.000000000
0.831994474 0.846594572 0.000000000
0.862094998 0.846301973 0.000000000
0.000000000 0.000000000 0.087470807
0.105015315 0.000000000 0.091655999
0.169233128 0.000000000 0.090828747
0.231024891 0.000000000 0.090047188
0.292452931 0.000000000 0.089071497
0.352807701 0.000000000 0.087754503
0.412464648 0.000000000 0.086109690
0.470915973 0.000000000 0.084324747
0.527496636 0.000000000 0.082005940
0.582273781 0.000000000 0.079010502
0.634577215 0.000000000 0.075776249
0.683731318 0.000000000 0.072118431
0.729438365 0.000000000 0.068055689
0.771739900 0.000000000 0.063975997
0.810880423 0.000000000 0.058976240
0.847596765 0.000000000 0.054036185
0.883793116 0.000000000 0.048191126
0.000000000 0.098481938 0.091198877
0.096901938 0.102319814 0.085586503
0.166373998 0.100823432 0.089044496
0.229314327 0.099326253 0.089071490
0.290981561 0.096210122 0.088634871
0.351435244 0.091688193 0.087453373
0.410515368 0.083662003 0.086419933
0.468509734 0.073280111 0.085235693
0.524533510 0.059630245 0.083468810
0.578631639 0.042690814 0.081635132
0.630321622 0.026565000 0.079249375
0.678900659 0.018235624 0.076839879
0.724368870 0.014391061 0.073856249
0.766193748 0.009314620 0.071257688
0.804906547 0.003499432 0.068079501
0.841254771 0.000000000 0.065264687
0.877296984 0.000000000 0.061934188
0.000000000 0.161211565 0.090393938
0.100479759 0.162620261 0.088195249
0.169184878 0.163596556 0.086512439
0.233315632 0.163367435 0.087339066
0.295209378 0.162435234 0.086507566
0.355926156 0.160457879 0.084814116
0.415025890 0.157507509 0.083753370
0.472606838 0.153528631 0.081669256
0.528464079 0.148398623 0.079314247
0.582471728 0.142874807 0.076906621
0.633629322 0.136283755 0.074245624
0.681945145 0.129683375 0.071167372
0.726986527 0.123352684 0.068020061
0.768312216 0.117163122 0.064847432
0.806605458 0.112025440 0.061429001
0.842597902 0.108937502 0.058466747
0.878158033 0.108254127 0.054771252
0.000000000 0.222476959 0.087863371
0.094191119 0.223923370 0.085212432
0.167796806 0.224854708 0.083933443
0.234883577 0.225782320 0.082603186
0.297705024 0.225667000 0.082131565
0.358909518 0.224977687 0.080366060
0.418257147 0.223629445 0.078470878
0.476061910 0.221756309 0.076040626
0.531864762 0.219521001 0.073290996
0.585390687 0.216833711 0.070410565
0.636414886 0.213793188 0.067135625
0.684269905 0.211036325 0.063576311
0.728776157 0.208582193 0.060127933
0.769757450 0.206506759 0.056155935
0.807737708 0.205241382 0.052358367
0.843200862 0.204845384 0.048384558
0.878377020 0.205643326 0.044256873
0.000000000 0.283067495 0.083028182
0.080355182 0.283998817 0.079764687
0.163394004 0.285470009 0.078382000
0.233632147 0.286671817 0.076476872
0.298782498 0.286983252 0.074562937
0.360285938 0.287016749 0.073062122
0.420381010 0.286730468 0.070577756
0.478382409 0.285937995 0.067824811
0.534155846 0.284849644 0.064190373
0.587612331 0.283522457 0.060537435
0.638301373 0.282066703 0.056352690
0.685925364 0.280785173 0.052308064
0.730053902 0.279662073 0.048031747
0.770618796 0.279036075 0.044297870
0.808151245 0.278980672 0.040599182
0.843182325 0.279309928 0.036913183
0.878021002 0.280624926 0.033169627
0.000000000 0.342554510 0.075184248
0.054658871 0.343675822 0.070746437
0.155338928 0.344702512 0.069081567
0.229795203 0.346080005 0.065473504
0.298019052 0.346813828 0.063151687
0.361210406 0.347104698 0.060261376
0.421328515 0.347235262 0.057872005
0.479705006 0.347161382 0.055011187
0.535588562 0.346711904 0.051530622
0.589003980 0.346147835 0.046988811
0.639575481 0.345470309 0.043008126
0.686858118 0.344973922 0.038798563
0.730533719 0.344572306 0.034795936
0.770747125 0.344558686 0.031050060
0.807809651 0.344998747 0.027353683
0.842484593 0.345734626 0.023607807
0.876948714 0.347109020 0.019714188
0.000000000 0.400740445 0.063878372
0.020157931 0.401818514 0.057528559
0.144106686 0.402673006 0.055110119
0.224782705 0.404030383 0.051134244
0.295160890 0.405039638 0.046383999
0.360786051 0.405575514 0.044141680
0.422118187 0.405758172 0.041186370
0.480204672 0.406039625 0.038606435
0.536245644 0.405868649 0.036270432
0.589621842 0.405706882 0.032528870
0.640049338 0.405514002 0.028782997
0.687025905 0.405421466 0.025086373
0.730491579 0.405442476 0.021390181
0.770277500 0.405719370 0.017250117
0.806906879 0.406402647 0.013208555
0.841240764 0.407330930 0.009511932
0.875243008 0.408642918 0.006012934
0.000000000 0.457260519 0.048957683
0.002069812 0.458281487 0.040532365
0.129773319 0.458979219 0.038757242
0.218651012 0.460280031 0.034155432
0.291865945 0.461340427 0.029620618
0.359219879 0.462096244 0.027206056
0.422116399 0.462323397 0.025727056
0.481055707 0.462503344 0.023164742
0.536559582 0.462777406 0.020946616
0.589897275 0.462772846 0.018383745
0.640029490 0.462751776 0.014687118
0.686755598 0.462832958 0.011039807
0.729768872 0.462963104 0.007540494
0.769219458 0.463439733 0.004189307
0.805389881 0.464108855 0.001626559
0.839432478 0.465107918 0.000295874
0.873056889 0.466401935 0.000000000
0.000000000 0.511804938 0.033366498
0.000345187 0.512568891 0.024889622
0.113318749 0.513252079 0.024495123
0.212395206 0.514446199 0.021192998
0.289051771 0.515461743 0.017102122
0.357259780 0.516306400 0.013454873
0.421446294 0.516634166 0.011680497
0.481351912 0.516729534 0.009512246
0.537367702 0.516745567 0.006998621
0.589820564 0.516951263 0.004780560
0.639761508 0.516990662 0.002562873
0.686104596 0.517187774 0.000689936
0.728715658 0.517425776 0.000000000
0.767749190 0.517852426 0.000000000
0.803504109 0.518493295 0.000000000
0.837127149 0.519311905 0.000000000
0.870542169 0.520474613 0.000000000
0.000000000 0.563916206 0.021044999
0.000000000 0.564559340 0.014194438
0.097289003 0.565021753 0.013110000
0.207225576 0.566051424 0.010301000
0.287029296 0.567092419 0.006703000
0.356509507 0.567788184 0.003597875
0.420977145 0.568274915 0.001035063
0.481535703 0.568369806 0.000295874
0.538078606 0.568313718 0.000000000
0.590768814 0.568289638 0.000000000
0.639624119 0.568465352 0.000000000
0.685458779 0.568563104 0.000000000
0.727558196 0.568772495 0.000000000
0.766132593 0.569151640 0.000000000
0.801484823 0.569626927 0.000000000
0.834843338 0.570297718 0.000000000
0.867855668 0.571123540 0.000000000
0.000000000 0.613378942 0.008526125
0.000000000 0.613849998 0.005027438
0.091022000 0.614265263 0.003893250
0.205756068 0.615224838 0.000985688
0.287124634 0.616015553 0.000000000
0.357488126 0.616577744 0.000000000
0.421711147 0.617070079 0.000000000
0.482374221 0.617140174 0.000000000
0.538985133 0.617011011 0.000000000
0.591830671 0.616846681 0.000000000
0.640588939 0.616664469 0.000000000
0.685329676 0.616806507 0.000000000
0.726666331 0.616976857 0.000000000
0.764675498 0.617198169 0.000000000
0.799663603 0.617509902 0.000000000
0.832643986 0.617947280 0.000000000
0.865522087 0.618596017 0.000000000
0.000000000 0.659735918 0.000493125
0.000000000 0.660181463 0.000000000
0.095381133 0.660421252 0.000000000
0.209185883 0.661142766 0.000000000
0.290573567 0.661805570 0.000000000
0.360916764 0.662238061 0.000000000
0.424931318 0.662557602 0.000000000
0.484527946 0.662664413 0.000000000
0.540873349 0.662420392 0.000000000
0.593371451 0.662120700 0.000000000
0.641921580 0.661839008 0.000000000
0.686345160 0.661681235 0.000000000
0.726684093 0.661712229 0.000000000
0.763714790 0.661838889 0.000000000
0.798227549 0.662002981 0.000000000
0.830879509 0.662283063 0.000000000
0.863387346 0.662637174 0.000000000
0.000000000 0.702969253 0.000000000
0.000197251 0.703240693 0.000000000
0.110711008 0.703429163 0.000000000
0.219131023 0.704054952 0.000000000
0.298376769 0.704443157 0.000000000
0.367491484 0.704761684 0.000000000
0.430529773 0.704942465 0.000000000
0.489036590 0.704995751 0.000000000
0.544159234 0.704725027 0.000000000
0.595900595 0.704348147 0.000000000
0.643794000 0.703967810 0.000000000
0.687708974 0.703616858 0.000000000
0.727609277 0.703396022 0.000000000
0.763956189 0.703433454 0.000000000
0.797453165 0.703603745 0.000000000
0.829634070 0.703718126 0.000000000
0.861752391 0.703896284 0.000000000
0.000000000 0.743077457 0.000000000
0.011138280 0.743295372 0.000000000
0.140267715 0.743465841 0.000000000
0.235080957 0.743928969 0.000000000
0.310297698 0.744243503 0.000000000
0.377048105 0.744443655 0.000000000
0.438370347 0.744453907 0.000000000
0.495524377 0.744433939 0.000000000
0.548930228 0.744271040 0.000000000
0.599541545 0.743855298 0.000000000
0.646412492 0.743352830 0.000000000
0.689487636 0.742934108 0.000000000
0.728900015 0.742621958 0.000000000
0.764811814 0.742391169 0.000000000
0.797924876 0.742413819 0.000000000
0.829082131 0.742472529 0.000000000
0.860591352 0.742619634 0.000000000
0.000000000 0.780593991 0.000000000
0.058450311 0.780818820 0.000000000
0.173812285 0.781111479 0.000000000
0.255657047 0.781420529 0.000000000
0.325730413 0.781613231 0.000000000
0.389266431 0.781652391 0.000000000
0.448352516 0.781641066 0.000000000
0.503675878 0.781525493 0.000000000
0.555338264 0.781244278 0.000000000
0.603994727 0.780959010 0.000000000
0.649764419 0.780454397 0.000000000
0.691893458 0.780024350 0.000000000
0.730608165 0.779593647 0.000000000
0.766018271 0.779284418 0.000000000
0.798750877 0.779006898 0.000000000
0.829554200 0.779000044 0.000000000
0.860311389 0.779065430 0.000000000
0.008576045 0.815791607 0.001626321
0.123962678 0.816206634 0.000000000
0.208117157 0.816423118 0.000000000
0.279036134 0.816601157 0.000000000
0.343526036 0.816695094 0.000000000
0.403461009 0.816710353 0.000000000
0.459884584 0.816612065 0.000000000
0.513049424 0.816410482 0.000000000
0.562871933 0.816158593 0.000000000
0.609665275 0.815868795 0.000000000
0.653742135 0.815436602 0.000000000
0.694896460 0.814966679 0.000000000
0.732761264 0.814529717 0.000000000
0.767615557 0.814120471 0.000000000
0.799855649 0.813810289 0.000000000
0.830309391 0.813630044 0.000000000
0.860681534 0.813469410 0.000000000
0.092537187 0.849267840 0.011976313
0.177680239 0.849730790 0.004435313
0.242331564 0.849841237 0.002267375
0.304185331 0.849995553 0.000838188
0.363156497 0.849972248 0.000000000
0.419267505 0.849914312 0.000000000
0.472596526 0.849757910 0.000000000
0.523198128 0.849521518 0.000000000
0.571071565 0.849234343 0.000000000
0.616152644 0.848907530 0.000000000
0.658437312 0.848569632 0.000000000
0.698421240 0.848097086 0.000000000
0.735483885 0.847696304 0.000000000
0.769581795 0.847291410 0.000000000
0.801294684 0.846913993 0.000000000
0.831352592 0.846602917 0.000000000
0.861454248 0.846363902 0.000000000
0.000000000 0.000690375 0.149230123
0.102442563 0.000000000 0.150699809
0.169338748 0.000000000 0.151137754
0.232057378 0.000000000 0.150452614
0.293847650 0.000000000 0.149921373
0.354749382 0.000000000 0.149083614
0.414264500 0.000000000 0.148214251
0.472639710 0.000000000 0.147195876
0.529271483 0.000000000 0.145971507
0.583723187 0.000000000 0.144456059
0.635702014 0.000000000 0.142962500
0.684755981 0.000000000 0.141165882
0.730384648 0.000000000 0.139275491
0.772611976 0.000000000 0.137465373
0.811524332 0.000000000 0.135450259
0.848057330 0.000000000 0.133403748
0.884322286 0.000000000 0.131020740
0.000000000 0.098855570 0.150946498
0.099648125 0.099749744 0.150945932
0.169419184 0.098875880 0.148099944
0.234456643 0.096159875 0.148295745
0.296438932 0.091731124 0.147522494
0.357452184 0.084965497 0.146758303
0.416833639 0.075052932 0.145427004
0.474916697 0.062080931 0.144167498
0.531205177 0.044806931 0.142706186
0.585669816 0.025628436 0.141135186
0.637416840 0.009462750 0.139334500
0.686224043 0.004189063 0.137203619
0.731574893 0.002759875 0.135163933
0.773343980 0.001478438 0.132868811
0.812069595 0.000739687 0.130705312
0.848335147 0.000000000 0.128250882
0.884233236 0.000000000 0.125771686
0.000000000 0.161850244 0.151174128
0.100895561 0.162914813 0.147522315
0.159006134 0.167515755 0.142176747
0.229078323 0.165878758 0.146441758
0.292275757 0.164708748 0.147273988
0.353167564 0.162854061 0.147270381
0.412642628 0.160044879 0.146898121
0.470450640 0.156290561 0.146302998
0.526573241 0.151580766 0.145460770
0.580514550 0.146038875 0.144493759
0.631926179 0.140073627 0.143280253
0.680171728 0.133827880 0.142022103
0.725052536 0.127747878 0.140782237
0.766607940 0.122131564 0.139566749
0.804852724 0.117468238 0.138197869
0.840850353 0.114430755 0.137036175
0.876502991 0.114079878 0.135564253
0.000000000 0.223392695 0.150167003
0.094272316 0.224475935 0.148063064
0.165417120 0.225816578 0.145979553
0.232808679 0.226659447 0.143853128
0.296139538 0.226704061 0.145908117
0.357568115 0.226365268 0.145925060
0.417028636 0.225081518 0.145117626
0.474916697 0.223300517 0.144203693
0.530735373 0.220930755 0.143056706
0.584296107 0.218185887 0.141791925
0.635389268 0.215635329 0.140375063
0.683245778 0.212959528 0.138943627
0.727591395 0.210535645 0.137426004
0.768653512 0.208625391 0.135899499
0.806452334 0.207490131 0.134438381
0.842143655 0.207348138 0.132961184
0.877153873 0.208062395 0.131486624
0.000000000 0.284027487 0.148343638
0.080859378 0.284912050 0.146484494
0.162360489 0.285924107 0.144637764
0.232209444 0.287096143 0.144357815
0.297978371 0.287840754 0.141921505
0.359739125 0.288032383 0.142703876
0.419761777 0.287597388 0.142160371
0.477886319 0.286921859 0.140886635
0.533659875 0.285771996 0.139495879
0.586997509 0.284461260 0.138090506
0.637738764 0.283156872 0.136454880
0.685326338 0.282052577 0.134813011
0.729321301 0.280913144 0.133187875
0.769902349 0.280367345 0.131448686
0.807250917 0.280205369 0.129956126
0.842415214 0.280728728 0.128091380
