public/lut/49.cube
TITLE "17x17x17 Adobe/IRIDAS cube 3D LUT exported with GrossGrade v0.2.2 (beta) 64 bit"
DOMAIN_MIN 0 0 0
DOMAIN_MAX 1 1 1
LUT_3D_SIZE 17
0.000000000 0.000000000 0.000000000
0.028782751 0.002316688 0.002366000
0.057089876 0.004632500 0.004632500
0.088165626 0.006161063 0.007738063
0.120943002 0.007688750 0.010842750
0.154264063 0.010251000 0.015524750
0.190689385 0.011040000 0.020700252
0.231319338 0.011039999 0.026121629
0.276552022 0.009857001 0.032331504
0.327191681 0.009561063 0.040448375
0.385693133 0.008772875 0.049748126
0.451816499 0.006850750 0.061375875
0.525022268 0.014785748 0.075152002
0.603338242 0.018531771 0.092179455
0.683288217 0.027994264 0.111802645
0.759176433 0.055167012 0.131815523
0.824840009 0.071584001 0.150997996
0.003203312 0.078155190 0.004731000
0.040403314 0.079088815 0.003203312
0.077340879 0.080426812 0.002366000
0.114444941 0.079535067 0.003893626
0.150389001 0.079213314 0.008526251
0.186498255 0.079124063 0.012469313
0.225105509 0.079124063 0.017644187
0.266032785 0.079088807 0.023065628
0.310422629 0.078844190 0.029670063
0.359915316 0.077908188 0.037407748
0.416053206 0.077665441 0.046569500
0.479256451 0.078455180 0.058645751
0.548992693 0.083129622 0.073152125
0.624360919 0.090751886 0.090956509
0.701270401 0.105455704 0.111469708
0.774904132 0.123973891 0.132137015
0.838580608 0.141987428 0.151525006
0.000098625 0.141340256 0.005618625
0.033021435 0.142650068 0.004041500
0.075992130 0.144502372 0.002563125
0.117736004 0.145405874 0.001035375
0.159923121 0.145604745 0.000788875
0.201670244 0.145105258 0.004435312
0.243647397 0.144777998 0.007294251
0.286995351 0.144693315 0.012321316
0.332907170 0.144816622 0.020010252
0.382958174 0.145368055 0.026417250
0.438858509 0.146688372 0.038541500
0.500872552 0.149568558 0.050455876
0.569117188 0.154137745 0.068578377
0.642546296 0.162321508 0.087302834
0.717604041 0.173142269 0.109382145
0.789393961 0.186879456 0.131283641
0.851758778 0.201849371 0.151030868
0.000000000 0.210968703 0.003301936
0.015426496 0.211940259 0.002661687
0.063289315 0.213369444 0.001183187
0.114515632 0.214957073 0.000295688
0.161296695 0.216305077 0.000000000
0.207691625 0.217023447 0.000000000
0.254495829 0.216507316 0.000493125
0.301174015 0.216003761 0.002661686
0.349741787 0.215735704 0.004140062
0.401777416 0.216003761 0.012715561
0.458309501 0.216993824 0.022129370
0.520452619 0.219172001 0.036619559
0.588354468 0.223210081 0.057449251
0.660898447 0.229441091 0.080682278
0.734624982 0.238115579 0.104475893
0.804852903 0.248853534 0.129215017
0.865855515 0.260391444 0.149770752
0.000000000 0.282751501 0.001774250
0.006456812 0.283570260 0.001183250
0.037832499 0.284614146 0.000394250
0.105771825 0.286141396 0.000345000
0.159875512 0.287659258 0.000197250
0.209404051 0.288618058 0.000000000
0.258825898 0.289383531 0.000000000
0.309073031 0.289270759 0.000000000
0.360799253 0.288404286 0.000000000
0.415073633 0.288048029 0.000838062
0.473377734 0.288259119 0.005224125
0.536702871 0.289340794 0.022228124
0.605144560 0.291777760 0.038807508
0.677495122 0.296146095 0.069337271
0.750520170 0.302644402 0.097445406
0.819778800 0.311009109 0.124777272
0.879513264 0.320301741 0.147725493
0.000000000 0.353280306 0.001084188
0.003893375 0.353820115 0.001084188
0.028733999 0.354723066 0.000542437
0.090349019 0.355931371 0.000542437
0.156968385 0.357209027 0.000000000
0.210574314 0.358441949 0.000000000
0.261793822 0.359347939 0.000000000
0.313279986 0.359943330 0.000000000
0.367075145 0.359983772 0.000000000
0.423878372 0.359045506 0.000000000
0.484320372 0.358438045 0.001330750
0.549195230 0.358403504 0.003844438
0.618762612 0.359596610 0.025628880
0.691573679 0.362212390 0.050897907
0.764430225 0.366748631 0.087516591
0.833075225 0.373191446 0.117071591
0.891868174 0.380640179 0.143840820
0.000000000 0.421267033 0.000000001
0.002168375 0.421701789 0.000000001
0.023065628 0.422267407 0.000000001
0.083935440 0.423238546 0.000000001
0.154038131 0.424380004 0.000000001
0.212447003 0.425548077 0.000000001
0.265169889 0.426556885 0.000000000
0.317397714 0.427355945 0.000000000
0.371419519 0.427801520 0.000000000
0.429121047 0.427811384 0.000000000
0.491815507 0.426767260 0.000000000
0.558567464 0.425919324 0.000492812
0.629430234 0.425985008 0.010744123
0.703027010 0.427265227 0.033070851
0.776051879 0.430244774 0.071599148
0.844375253 0.434967697 0.108898342
0.902593613 0.440749884 0.137033507
0.000000000 0.486290485 0.000689936
0.006209939 0.486570776 0.000689936
0.024840120 0.486961722 0.000345187
0.079734392 0.487824291 0.000000000
0.154398814 0.488821596 0.000000000
0.215608761 0.489711821 0.000000000
0.269499183 0.490737647 0.000000000
0.321951181 0.491566956 0.000000000
0.376077145 0.492258042 0.000000000
0.433700442 0.492569834 0.000000000
0.496710509 0.492569864 0.000000000
0.565329492 0.491314918 0.000000000
0.637609899 0.490400136 0.000000004
0.712115526 0.490576386 0.022227773
0.785460353 0.492279768 0.052743036
0.853625417 0.495497137 0.096565209
0.911274791 0.499707431 0.127821058
0.000000000 0.548118949 0.002366003
0.002661437 0.548251510 0.002366003
0.027896006 0.548434019 0.002366003
0.089212641 0.549158871 0.002366002
0.158605993 0.549962997 0.001971502
0.221130252 0.550795615 0.001577502
0.275108755 0.551713586 0.001183001
0.327654898 0.552535415 0.000788999
0.381494999 0.553281486 0.000394499
0.438860118 0.553887427 0.000000000
0.501308262 0.554086804 0.000000000
0.570050001 0.553867042 0.000000000
0.643845439 0.552353263 0.000000003
0.719058275 0.551521659 0.009906447
0.792832255 0.551991880 0.036239918
0.860906363 0.553938150 0.081857659
0.918231964 0.556987047 0.119750500
0.000000000 0.606289983 0.003597812
0.012124187 0.606463194 0.003253062
0.041341498 0.606779277 0.002119313
0.096201137 0.607262135 0.001232250
0.168573678 0.607934415 0.000443813
0.228879377 0.608723521 0.000000000
0.282826453 0.609471440 0.000000000
0.334971040 0.610200822 0.000000000
0.388392508 0.610935271 0.000000000
0.444975942 0.611641288 0.000000000
0.506663442 0.611944854 0.000000000
0.574552536 0.612018406 0.000000000
0.648502111 0.611354887 0.000000000
0.724564314 0.609715044 0.000000005
0.798550963 0.609161615 0.027501667
0.866541922 0.610088825 0.067396350
0.923534572 0.612041175 0.110243566
0.001281500 0.660967350 0.013898999
0.015032062 0.661076486 0.013159312
0.050198875 0.661318839 0.013110000
0.115474448 0.661725938 0.012814124
0.181080505 0.662281752 0.011729624
0.241607875 0.662856996 0.010645750
0.293295652 0.663563609 0.009068375
0.344432473 0.664228916 0.007245124
0.396851361 0.664865136 0.005125499
0.452649593 0.665517807 0.002858500
0.513282776 0.665930390 0.000493125
0.579998016 0.666064084 0.000000000
0.652667463 0.665781975 0.000000000
0.729092240 0.664505720 0.000000003
0.803223670 0.663058460 0.018827403
0.870932698 0.662973523 0.051840734
0.927511871 0.664094746 0.097919255
0.003105063 0.711606205 0.024692250
0.034735750 0.711700082 0.023657000
0.085277125 0.711907804 0.022326563
0.142971322 0.712182164 0.020108499
0.203763574 0.712603927 0.017003812
0.257125199 0.713132918 0.013898500
0.307208151 0.713652551 0.010793436
0.356593341 0.714266717 0.007934998
0.407589704 0.714806020 0.004287874
0.462020248 0.715332747 0.001429437
0.521326959 0.715816617 0.000739375
0.586460710 0.716023028 0.000492812
0.657689095 0.715833247 0.000492812
0.733003378 0.715101838 0.000492813
0.807124913 0.713295221 0.009117888
0.874485016 0.712387800 0.040580928
0.930564165 0.712692976 0.089190938
0.029374762 0.757869244 0.037054259
0.075121634 0.757997692 0.035680257
0.120880134 0.758173645 0.034894258
0.174797952 0.758417845 0.033465199
0.227635264 0.758747995 0.031740256
0.276188314 0.759162784 0.029818069
0.323471159 0.759630144 0.028093131
0.370997965 0.760106981 0.026023004
0.420314044 0.760569036 0.023657255
0.473085374 0.761047482 0.020749254
0.530743122 0.761443853 0.017249877
0.594339192 0.761580706 0.012765002
0.663685024 0.761424780 0.007688749
0.737188995 0.760771751 0.003597997
0.810753882 0.759496748 0.002366014
0.877591491 0.757853329 0.036920741
0.933070242 0.757397294 0.083456248
0.074889861 0.800208092 0.065087393
0.116907984 0.800271690 0.063955024
0.160418421 0.800419867 0.062777646
0.207907856 0.800649285 0.061063148
0.253261656 0.800878525 0.059204455
0.297987193 0.801199675 0.056682270
0.342135429 0.801554561 0.053142145
0.387410432 0.801935971 0.049094513
0.434786975 0.802344084 0.043947704
0.485812932 0.802702963 0.037408259
0.541736841 0.802994370 0.028733572
0.603438854 0.803072512 0.019566325
0.670876503 0.802878678 0.012962075
0.742290795 0.802232921 0.008477389
0.814217210 0.801144898 0.005519641
0.880606055 0.799477398 0.033792984
0.935414910 0.798424959 0.079492003
0.123005800 0.838888705 0.086886771
0.162624732 0.838928938 0.085966900
0.200905293 0.839083672 0.084581643
0.240578622 0.839254558 0.082452588
0.280546784 0.839459598 0.080037020
0.321306020 0.839751363 0.077198654
0.362720817 0.840017200 0.073245153
0.405639678 0.840316832 0.068270281
0.450993061 0.840637982 0.061840024
0.500002563 0.840903342 0.054382902
0.553978384 0.841076314 0.047035404
0.613644123 0.841048777 0.040755719
0.679050505 0.840786219 0.036167659
0.748425126 0.840102196 0.031493399
0.818273187 0.838991463 0.027600523
0.883602858 0.837664008 0.033107422
0.937709033 0.836189568 0.078134000
0.174111605 0.875042856 0.113016278
0.207817480 0.875170827 0.112312093
0.239161909 0.875292718 0.110912718
0.272786736 0.875457525 0.109180085
0.309017271 0.875609398 0.106680468
0.346355021 0.875791192 0.103841096
0.385149032 0.876025021 0.100195028
0.425782323 0.876287937 0.095688589
0.468973428 0.876481652 0.090311594
0.515845120 0.876609683 0.084157966
0.567738116 0.876707613 0.078627348
0.625306427 0.876633763 0.073852345
0.688416421 0.876270294 0.068478778
0.755475163 0.875495672 0.061775021
0.823090613 0.874412715 0.055944584
0.886602342 0.873218596 0.052741710
0.940100610 0.871890604 0.078649193
0.222948000 0.910529971 0.140028000
0.249987006 0.910587192 0.138612941
0.276800990 0.910651982 0.137509495
0.307210565 0.910737157 0.135793060
0.339667261 0.910871267 0.133980513
0.374199748 0.911048591 0.131175995
0.410242766 0.911198020 0.127843991
0.448488086 0.911379993 0.124104314
0.489446998 0.911531508 0.119587496
0.534080684 0.911623001 0.115590505
0.583640516 0.911600113 0.111680374
0.638728142 0.911421955 0.106691316
0.699339986 0.910962999 0.100306496
0.763872981 0.910241485 0.093452051
0.828856230 0.909123838 0.088125244
0.890114188 0.908047915 0.084203623
0.942875981 0.907242000 0.081481002
0.003893687 0.003893687 0.046937689
0.024002437 0.005421437 0.066287190
0.055797439 0.004681750 0.076134004
0.092190944 0.002513750 0.082748562
0.125115126 0.004583250 0.084137127
0.160382241 0.005569313 0.086677685
0.197028309 0.006358251 0.089403689
0.237447336 0.005963748 0.093061998
0.282679021 0.005963814 0.098075189
0.333554536 0.004090375 0.104156062
0.391041517 0.006604500 0.111629933
0.456348568 0.002908063 0.121236995
0.528980434 0.009906061 0.133357376
0.606424391 0.016806204 0.148073524
0.685390174 0.023509646 0.164500266
0.761257529 0.049920823 0.182449460
0.826377749 0.066824503 0.198703125
0.002316688 0.074718684 0.097188123
0.038097873 0.075185567 0.098335385
0.075957946 0.075253502 0.098419070
0.114838697 0.074718684 0.098812938
0.152813450 0.074248999 0.098290756
0.190974250 0.074248999 0.098793134
0.229848772 0.073776498 0.100252688
0.270831615 0.073264867 0.102775313
0.315395117 0.072935000 0.105999321
0.365010709 0.070998311 0.110790752
0.420339018 0.071901619 0.117238373
0.482961744 0.071063310 0.125824630
0.552310288 0.077436313 0.137005568
0.626840293 0.084009707 0.150738955
0.703316212 0.100143142 0.167249903
0.776607513 0.119476020 0.184571505
0.840056241 0.136930317 0.200809360
0.000000000 0.140184119 0.101824500
0.029226312 0.141017258 0.101824507
0.076949872 0.141281128 0.101771876
0.119992502 0.142034367 0.101018123
0.162885696 0.142069072 0.099869311
0.205415368 0.141524315 0.100709245
0.247812942 0.141171813 0.102167934
0.291328609 0.140536994 0.104625501
0.337474346 0.140574187 0.107935250
0.387340188 0.141139314 0.112543568
0.442757636 0.142536744 0.118753999
0.504352093 0.145242736 0.127139494
0.572193086 0.150018439 0.138488382
0.644845665 0.158243209 0.152266696
0.719571888 0.169542074 0.168666631
0.790942252 0.183368206 0.186191708
0.852856636 0.198941499 0.202131942
0.000000000 0.210290268 0.104018442
0.015475810 0.210883513 0.103637569
0.066963688 0.211412817 0.103255562
0.119014390 0.212099642 0.102254249
0.165070072 0.213164508 0.099961631
0.211467057 0.214026764 0.097266749
0.258153409 0.213536128 0.098007813
0.305076540 0.213036329 0.100973628
0.353757918 0.212752506 0.105108999
0.405527323 0.212924197 0.110127628
0.461691886 0.213802129 0.116910502
0.523632288 0.216074631 0.125911310
0.591010571 0.220099881 0.137761250
0.662976921 0.226434946 0.152262017
0.736212194 0.235236838 0.169135392
0.806349397 0.246386409 0.187036097
0.866779268 0.257823676 0.203253061
0.000000000 0.282035768 0.104387812
0.007935249 0.282566011 0.103726879
0.043154687 0.282847762 0.103245817
0.112390451 0.283456147 0.102524944
0.164621383 0.284614086 0.100225568
0.213499501 0.285952181 0.096675627
0.262316704 0.286688209 0.092625618
0.312510252 0.286570132 0.090211876
0.364051074 0.285912186 0.095373504
0.418113321 0.285636395 0.101761565
0.476059020 0.285762101 0.110395819
0.539119244 0.286829799 0.121365875
0.607289612 0.289290935 0.134264767
0.679277182 0.293661326 0.150495142
0.751965344 0.300155282 0.168070763
0.820911169 0.308704883 0.186717644
0.880378723 0.318240523 0.203456119
0.000000000 0.352668941 0.103958569
0.003844063 0.353008509 0.103224248
0.034598626 0.353114426 0.102769062
0.098765701 0.353500217 0.101447068
0.162966266 0.354345560 0.099209130
0.215043247 0.355684668 0.094990313
0.265294701 0.356693387 0.089593187
0.316195965 0.357467502 0.083213687
0.369705886 0.357576251 0.077435248
0.426399142 0.356814891 0.086398438
0.486391455 0.356138706 0.098436378
0.551177919 0.356283218 0.111084193
0.620513141 0.357387871 0.127665937
0.693019927 0.360057682 0.145809472
0.765604377 0.364628822 0.165324032
0.834012032 0.371223867 0.184966326
0.892541230 0.378807157 0.202756181
0.000000000 0.420573175 0.103510253
0.002414938 0.420712769 0.102773063
0.026121754 0.420794338 0.102498189
0.092910193 0.421156585 0.101478256
0.160620272 0.421809703 0.099180751
0.216872811 0.422810972 0.095589504
0.268669128 0.423869848 0.090486944
0.320070773 0.424853653 0.084627248
0.373670578 0.425522327 0.077710502
0.431196898 0.425581336 0.070024192
0.493585378 0.424681276 0.076588735
0.560103118 0.423973292 0.095466562
0.630767703 0.424036145 0.116913185
0.704128742 0.425373077 0.137602210
0.776984096 0.428465247 0.160915896
0.844986022 0.433276594 0.181651145
0.902952909 0.439075708 0.200913623
0.000000000 0.485509545 0.104268067
0.006949625 0.485523790 0.103747562
0.028240807 0.485518277 0.103247508
0.086651139 0.485740721 0.101949006
0.161669567 0.486307979 0.099604875
0.220363125 0.487160355 0.095452189
0.272783488 0.488102019 0.090216503
0.324543476 0.489088923 0.084057309
0.377984643 0.489994407 0.076213881
0.435311913 0.490456283 0.068154380
0.498069376 0.490477949 0.060463190
0.566444099 0.489398718 0.076024994
0.638508797 0.488604337 0.099129066
0.712786674 0.488870770 0.127363965
0.785951138 0.490585595 0.153481275
0.853956163 0.493882447 0.177346215
0.911507905 0.498248428 0.197951630
0.000000000 0.547192514 0.108862698
0.002661437 0.547079742 0.108655758
0.030458506 0.547174752 0.107974313
0.094583392 0.547263682 0.107182629
0.164357632 0.547714412 0.105037682
0.225630194 0.548404813 0.101872690
0.278320789 0.549220741 0.097298265
0.330005795 0.550128281 0.091681123
0.383360028 0.551046431 0.084740564
0.440160096 0.551757336 0.077054814
0.502409756 0.552117944 0.067766502
0.570904016 0.551876962 0.058519438
0.644352674 0.550544500 0.079052567
0.719503999 0.549881458 0.113653347
0.793073297 0.550470233 0.142727658
0.860950828 0.552481472 0.171838045
0.918215156 0.555711985 0.193675742
0.000000000 0.605491698 0.114944816
0.013602626 0.605450809 0.114773318
0.045564748 0.605405211 0.114425883
0.102192014 0.605497837 0.112961061
0.174363524 0.605805099 0.110861197
0.232941806 0.606377363 0.107704684
0.285889834 0.607126415 0.103364944
0.337253779 0.607940078 0.097990677
0.389959335 0.608743429 0.091201693
0.446116120 0.609493315 0.083012119
0.507483840 0.610105693 0.074004754
0.575133145 0.610233426 0.064096317
0.648875117 0.609584033 0.059101447
0.724790394 0.608096302 0.095317088
0.798605740 0.607745409 0.132428408
0.866347432 0.608688653 0.164679900
0.923187673 0.610711336 0.189057305
0.001577000 0.660057545 0.125901252
0.016560188 0.660011351 0.125607625
0.053100377 0.659954131 0.125105619
0.120291322 0.660072625 0.124138243
0.185647070 0.660260260 0.122178249
0.245122492 0.660751402 0.119695939
0.296083629 0.661320031 0.115675569
0.346485764 0.661974132 0.110974438
0.398408979 0.662796736 0.105327807
0.453643829 0.663549364 0.097868502
0.513902903 0.664042592 0.088629372
0.580347121 0.664393961 0.079407565
0.652827680 0.664121568 0.071080185
0.728990674 0.662849009 0.079188228
0.802979767 0.661626160 0.121172726
0.870597064 0.661696494 0.155549467
0.926952302 0.662811220 0.184588879
0.003351625 0.710580349 0.138435751
0.037014313 0.710540354 0.138234317
0.087996751 0.710489571 0.137605563
0.146493763 0.710563779 0.136456192
0.207172006 0.710750818 0.134428874
0.260025769 0.711147070 0.131521627
0.309475422 0.711653292 0.127609193
0.358327955 0.712188125 0.122848436
0.408917457 0.712808251 0.117055692
0.462884188 0.713414788 0.110597566
0.521821201 0.714005530 0.103564188
0.586714864 0.714337230 0.094573006
0.657649279 0.714223087 0.083855122
0.732718825 0.713526070 0.073475808
0.806747437 0.711847782 0.107713729
0.873930097 0.711132586 0.146816045
0.929839075 0.711450577 0.180747434
0.030360010 0.756857097 0.150912762
0.077193066 0.756798625 0.150446758
0.123856008 0.756762326 0.149911955
0.178032085 0.756854177 0.148793757
0.230624154 0.757032871 0.147326201
0.278529018 0.757328510 0.145241886
0.325428128 0.757731736 0.142707497
0.372524232 0.758174002 0.139488444
0.421424329 0.758702576 0.135049388
0.473778993 0.759180069 0.129808381
0.531144619 0.759639978 0.122834943
0.594342589 0.759915054 0.114115633
0.663500190 0.759845376 0.103236809
0.736846924 0.759279668 0.093349248
0.810178638 0.758049190 0.097229920
0.876819313 0.756515861 0.141877413
0.932200134 0.756216168 0.177365869
0.076475918 0.799057782 0.167907640
0.119224988 0.799026549 0.167610452
0.163331047 0.799062252 0.166973010
0.210713610 0.799118400 0.165989086
0.255568475 0.799267352 0.164621890
0.299944729 0.799472213 0.162706196
0.343751729 0.799776018 0.160288334
0.388633370 0.800100327 0.157355130
0.435680747 0.800547838 0.153250188
0.486373127 0.800930202 0.148089021
0.541924179 0.801323533 0.141327649
0.603338242 0.801462829 0.132053331
0.670522571 0.801359951 0.122325838
0.741871893 0.800800741 0.114704385
0.813492596 0.799763680 0.108847834
0.879632711 0.798158348 0.138234735
0.934326291 0.797231853 0.174806058
0.124616921 0.837667584 0.183102071
0.164780095 0.837652922 0.182670146
0.203169718 0.837657034 0.182209954
0.242395729 0.837741971 0.181149125
0.282399327 0.837894619 0.179711059
0.322757453 0.838031590 0.177967876
0.364039004 0.838285983 0.175546765
0.406639874 0.838569701 0.172784448
0.451617301 0.838857353 0.169143200
0.500453532 0.839170635 0.164508626
0.554080009 0.839437187 0.158353508
0.613485813 0.839536071 0.151607960
0.678643763 0.839308143 0.145339087
0.747788966 0.838646412 0.138767898
0.817466438 0.837655842 0.133051917
0.882569432 0.836365759 0.136041299
0.936475039 0.834952116 0.173708811
0.175683230 0.873843849 0.198967770
0.209651485 0.873869896 0.198559389
0.240770906 0.873817801 0.197965562
0.274273098 0.873953879 0.197021320
0.310316175 0.874043763 0.195809439
0.347506404 0.874164581 0.194412261
0.386143982 0.874402583 0.192455515
0.426487416 0.874600887 0.190112695
0.469429225 0.874805152 0.187331572
0.516130626 0.875023007 0.183857933
0.567710698 0.875150979 0.179794461
0.625036120 0.875146985 0.175037012
0.687893510 0.874835253 0.169411406
0.754774213 0.874126732 0.163184077
0.822181582 0.873144627 0.158070713
0.885447085 0.872011662 0.154132485
0.938828766 0.870683789 0.173994005
0.223986998 0.909179091 0.217075944
0.251183748 0.909177184 0.216718063
0.278000385 0.909264445 0.216178298
0.308191121 0.909293413 0.215323359
0.340694249 0.909394026 0.214406684
0.374884695 0.909496963 0.213189632
0.410939068 0.909635127 0.211745307
0.448978126 0.909783542 0.209907442
0.489680707 0.909925997 0.207619935
0.534172237 0.910049498 0.204907939
0.583463490 0.910124004 0.201356828
0.638336301 0.910001993 0.196914569
0.698715150 0.909589946 0.191950619
0.762983561 0.908899009 0.186646119
0.827802598 0.907920122 0.181823179
0.888843715 0.906843066 0.178448260
0.941418588 0.906039119 0.176422626
0.004041500 0.007688875 0.087663755
0.021833625 0.008526187 0.105192505
0.048269879 0.008575500 0.119140998
0.082772940 0.007688874 0.132008180
0.121511750 0.004829625 0.143319890
0.162653744 0.001577000 0.150433198
0.201195121 0.003252625 0.151544616
0.242052525 0.001774125 0.153641626
0.287639022 0.003252625 0.157323256
0.338509321 0.000542312 0.162094563
0.395844638 0.003745625 0.168256998
0.460490316 0.001528063 0.176429063
0.532435238 0.005322875 0.186975867
0.609266162 0.014095886 0.199778765
0.687960744 0.018236024 0.214508027
0.763015747 0.045008566 0.230083272
0.827799916 0.061788376 0.244666502
0.001675562 0.071743622 0.157263428
0.030606188 0.072706066 0.160137266
0.068957001 0.073227309 0.162751570
0.107873634 0.072781935 0.165986300
0.148611188 0.071245871 0.169119626
0.190189883 0.068259440 0.170369059
0.230812266 0.067307755 0.169322386
0.273284346 0.067017376 0.169677883
0.318448633 0.065673254 0.171106935
0.367950439 0.062985629 0.173744202
0.423771322 0.065142252 0.178135812
0.486057937 0.063243248 0.184609935
0.554937124 0.070980504 0.193631694
0.629076421 0.077640206 0.205217451
0.705145299 0.094351456 0.218980461
0.777969837 0.114503771 0.233783886
0.841058075 0.131991923 0.247843683
0.000000000 0.137072131 0.175668493
0.023361312 0.137694255 0.176134989
0.070028253 0.138730377 0.177147239
0.116398379 0.138540700 0.177464992
0.160537899 0.138442382 0.178266376
0.205151066 0.137125760 0.178152949
0.249008134 0.136640742 0.177488476
0.293065518 0.136487380 0.177364990
0.339405268 0.136234507 0.178304747
0.389835477 0.136905372 0.180434123
0.445235610 0.138076872 0.184177995
0.506700337 0.140592992 0.190093324
0.574110568 0.145750746 0.198205009
0.646903396 0.153699696 0.209166139
0.721017361 0.165801257 0.222377628
0.792112589 0.179726392 0.236771330
0.853927612 0.195866868 0.250477493
0.000000000 0.208700955 0.181928441
0.005568938 0.209422693 0.181930244
0.057214499 0.209659442 0.181550324
0.115367003 0.210192516 0.181710809
0.164329126 0.210513398 0.181287825
0.211627558 0.210573718 0.180480137
0.259397268 0.210163891 0.179797694
0.307128727 0.209604397 0.180200383
0.355989158 0.209293306 0.181503639
0.407633990 0.209422573 0.183791563
0.464003384 0.210514456 0.187660500
0.525747299 0.212688014 0.193229929
0.593060553 0.216729879 0.201413006
0.664650261 0.223106265 0.212191641
0.737746239 0.232191905 0.225088894
0.807436109 0.243415713 0.239387587
0.867626071 0.255345821 0.252730191
0.000000000 0.280900031 0.184659511
0.005273312 0.281406760 0.184418634
0.036076874 0.281814367 0.184045747
0.109989569 0.282274604 0.184002638
0.165248513 0.282459766 0.183586255
0.215004623 0.282873899 0.182921320
0.263537675 0.283764124 0.180812880
0.313811839 0.283793926 0.179172248
0.365696251 0.283153653 0.180965871
0.419938982 0.282879502 0.183784887
0.478037119 0.282940149 0.188003123
0.541080713 0.284045368 0.193990320
0.609098434 0.286484271 0.202568501
0.680817962 0.290912390 0.213628575
0.753181815 0.297550231 0.226700515
0.821824968 0.306380183 0.241143197
