public/lut/49.cube
TITLE "17x17x17 Adobe/IRIDAS cube 3D LUT exported with GrossGrade v0.2.2 (beta) 64 bit"
DOMAIN_MIN 0 0 0
DOMAIN_MAX 1 1 1
LUT_3D_SIZE 5
0.000000000 0.000000000 0.000000000
0.120943002 0.007688750 0.010842750
0.276552022 0.009857001 0.032331504
0.525022268 0.014785748 0.075152002
0.824840009 0.071584001 0.150997996
0.000000000 0.282751501 0.001774250
0.159875512 0.287659258 0.000197250
0.360799253 0.288404286 0.000000000
0.605144560 0.291777760 0.038807508
0.879513264 0.320301741 0.147725493
0.000000000 0.548118949 0.002366003
0.158605993 0.549962997 0.001971502
0.381494999 0.553281486 0.000394499
0.643845439 0.552353263 0.000000003
0.918231964 0.556987047 0.119750500
0.029374762 0.757869244 0.037054259
0.227635264 0.758747995 0.031740256
0.420314044 0.760569036 0.023657255
0.663685024 0.761424780 0.007688749
0.933070242 0.757397294 0.083456248
0.222948000 0.910529971 0.140028000
0.339667261 0.910871267 0.133980513
0.489446998 0.911531508 0.119587496
0.699339986 0.910962999 0.100306496
0.942875981 0.907242000 0.081481002
0.002366000 0.018334500 0.180316254
0.100069255 0.016362751 0.241042748
0.291003257 0.000000000 0.294921517
0.539418459 0.000000002 0.310881019
0.831241965 0.051851250 0.350725234
0.000000000 0.274393499 0.339662731
0.156974524 0.276567280 0.341170013
0.363158047 0.275342762 0.342965007
0.610162258 0.279209256 0.343027771
0.881711245 0.310520500 0.369302511
0.000000000 0.543487966 0.355156004
0.156718746 0.543517947 0.354173034
0.385122508 0.543266952 0.352678984
0.644110024 0.543859065 0.348665744
0.917074502 0.550294042 0.379035503
0.024840260 0.753651261 0.374586493
0.228821769 0.753077030 0.373881012
0.423213005 0.752414525 0.372430027
0.661514759 0.753982782 0.362911761
0.927830994 0.751722574 0.382083029
0.221378744 0.905660748 0.404667258
0.340304732 0.904979706 0.404046506
0.489736497 0.904328704 0.402320743
0.695423007 0.904259741 0.395213246
0.935162485 0.901610732 0.388081014
0.000000000 0.044363502 0.378521502
0.052360252 0.042882003 0.426239252
0.259153008 0.023657003 0.488569498
0.541183472 0.000394499 0.557910025
0.837461472 0.027994499 0.575075984
0.000591499 0.266283989 0.562305450
0.144820496 0.269241989 0.570760727
0.345512509 0.272475004 0.583188057
0.602339745 0.267295510 0.602245510
0.879728436 0.298275769 0.601141989
0.000000000 0.531911552 0.620129943
0.154393762 0.532658458 0.620330036
0.382459462 0.533403993 0.620730996
0.637358308 0.532124519 0.621981502
0.910165489 0.540878534 0.619633019
0.012814505 0.747123241 0.629491210
0.204974011 0.746837735 0.628630161
0.414865047 0.746069551 0.627225041
0.656315923 0.743846536 0.625690758
0.918127477 0.743708253 0.626177490
0.210121512 0.899847031 0.638681054
0.332263231 0.899306774 0.638017178
0.484540522 0.898071051 0.636988997
0.690126181 0.894962251 0.636382699
0.922379971 0.894114971 0.631460488
0.000000000 0.070267253 0.526988268
0.049863756 0.071057498 0.565038741
0.255607009 0.061931003 0.621559739
0.520132065 0.028388996 0.696977258
0.842947960 0.005519999 0.747842252
0.013997000 0.271417022 0.697590053
0.158520013 0.274823755 0.708510697
0.344093800 0.279928505 0.725975037
0.586218774 0.281524748 0.754151762
0.879108548 0.288652271 0.773053765
0.047717258 0.523377538 0.776741266
0.220712766 0.524635673 0.778739750
0.400418013 0.526585937 0.782421470
0.633986473 0.528975010 0.788342953
0.904404998 0.535014033 0.790889978
0.074753262 0.738513529 0.798636198
0.254562497 0.738543272 0.798482716
0.432747483 0.738383293 0.798148453
0.658619523 0.737674236 0.797751725
0.912849963 0.736310959 0.797037005
0.220808744 0.894550800 0.802522004
0.338573515 0.894115746 0.802001536
0.486916274 0.893228292 0.801229715
0.688377976 0.890707493 0.799916506
0.914309263 0.888609767 0.798726976
0.000789000 0.081009999 0.588401020
0.062547252 0.081481002 0.625271738
0.259804010 0.078132503 0.681159019
0.517553270 0.048252996 0.757807791
0.846368015 0.002366000 0.824320972
0.018137250 0.275380015 0.755127549
0.170227259 0.279027998 0.767508209
0.348482281 0.284505486 0.787490010
0.584316015 0.288183987 0.818971038
0.880466998 0.285301745 0.849944711
0.092154503 0.521630526 0.842037499
0.245845497 0.523113728 0.845446527
0.411650002 0.525490522 0.851314545
0.636213779 0.529145241 0.859789014
0.904060483 0.533254504 0.869253993
0.146218762 0.735103786 0.871172249
0.288937032 0.735355258 0.872049034
0.449392259 0.735597074 0.873494446
0.663966060 0.735537291 0.875368714
0.911031246 0.734693527 0.879005790
0.233763993 0.892745018 0.881965995
0.347476751 0.892409742 0.882211983
0.492386013 0.891574979 0.882520497
0.690139532 0.889275491 0.882488966
0.913258016 0.887079000 0.882125020
