public/lut/50.cube
TITLE "17x17x17 Adobe/IRIDAS cube 3D LUT exported with GrossGrade v0.2.2 (beta) 64 bit"
DOMAIN_MIN 0 0 0
DOMAIN_MAX 1 1 1
LUT_3D_SIZE 17
0.000000000 0.000000000 0.000000000
0.069179066 0.007787438 0.007738125
0.115343876 0.017841250 0.019319750
0.159741074 0.029522378 0.031888377
0.204167008 0.041744251 0.046513002
0.248864874 0.054561436 0.061511002
0.293805122 0.066048004 0.075840257
0.338358760 0.077328384 0.089801759
0.383243024 0.088936001 0.104148000
0.427439928 0.100884810 0.118004620
0.471199989 0.112558879 0.131831005
0.514295816 0.124997184 0.145625129
0.556920290 0.137938246 0.159834504
0.598786354 0.150842771 0.173764512
0.639941692 0.164316878 0.187994018
0.680113673 0.178058833 0.201919138
0.719538987 0.192319006 0.216236994
0.012419876 0.087407686 0.012419876
0.091229692 0.090802312 0.011631813
0.140633687 0.092842124 0.024002438
0.186580688 0.097220935 0.037900690
0.230465442 0.102664374 0.052612752
0.274481982 0.109536186 0.067148186
0.317989588 0.117115825 0.081112757
0.361177176 0.125412121 0.094816811
0.404338300 0.134342760 0.108220249
0.447145432 0.143641502 0.122251309
0.489561260 0.153527126 0.135782301
0.531588376 0.163951501 0.149628371
0.572903633 0.174917743 0.163479567
0.613825500 0.186350644 0.177372888
0.653945923 0.198064834 0.191302270
0.693292201 0.210355461 0.205507383
0.731691897 0.223060876 0.219565690
0.021094749 0.144369751 0.025628751
0.096512191 0.147541136 0.024002437
0.148888499 0.149654746 0.021784252
0.199055329 0.151230127 0.037900690
0.246085510 0.154475883 0.053955499
0.291367322 0.158693686 0.068815187
0.335379660 0.163742125 0.083444633
0.379091859 0.170149997 0.097487822
0.421882391 0.177017257 0.111445755
0.464171499 0.184563309 0.125132069
0.505958021 0.192835242 0.138943881
0.547255635 0.201747626 0.153004810
0.587851763 0.211104125 0.166832015
0.627998829 0.221063584 0.180577829
0.667252541 0.231607020 0.194523767
0.705845714 0.242632136 0.208512381
0.743616998 0.254127383 0.222665131
0.025875065 0.201068833 0.040256940
0.102321126 0.203956515 0.038048629
0.153782576 0.206358314 0.034993131
0.206749633 0.208405629 0.032676373
0.257492036 0.210124061 0.050923936
0.305337071 0.212590382 0.067765877
0.351086974 0.216132253 0.083786257
0.395387948 0.220434770 0.098340571
0.438842386 0.225689203 0.113190256
0.481139064 0.231588900 0.127498865
0.522759259 0.238299817 0.141752928
0.563708663 0.245682314 0.155795634
0.603955984 0.253672689 0.169883117
0.643482208 0.262198061 0.183855638
0.682084143 0.271385789 0.198010638
0.720019281 0.280917436 0.212102652
0.757003665 0.291292578 0.226059496
0.027206250 0.257837504 0.053955499
0.107055187 0.260288686 0.052211188
0.159238249 0.262732238 0.049571998
0.211915016 0.265217125 0.045590691
0.264684230 0.267271012 0.042135499
0.315476626 0.268616557 0.062357500
0.363393247 0.270931244 0.080700003
0.409323961 0.273901939 0.097161569
0.453658283 0.277763993 0.112989753
0.496718407 0.282336295 0.128316313
0.538544893 0.287587255 0.143186748
0.579493046 0.293463200 0.157746628
0.619595826 0.300069511 0.172273248
0.658796310 0.307279199 0.186623201
0.697124481 0.315093368 0.200969383
0.734471917 0.323483676 0.215209827
0.770882785 0.332410753 0.229522750
0.031543002 0.314132065 0.066811062
0.111717187 0.316157818 0.065935060
0.164670363 0.318443418 0.063010059
0.217230320 0.321167737 0.059556436
0.269992501 0.323472261 0.055319190
0.322306007 0.325273693 0.052172624
0.372629195 0.326616734 0.073189624
0.420409590 0.328642428 0.092992447
0.466021687 0.331333756 0.110640317
0.509947538 0.334744483 0.127264380
0.552483380 0.338780493 0.143186748
0.593905091 0.343467563 0.158628941
0.634158075 0.348827928 0.173747689
0.673297763 0.354858547 0.188749075
0.711309195 0.361374110 0.203520760
0.748332381 0.368628383 0.218033701
0.784255803 0.376494437 0.232680261
0.033218380 0.369811147 0.080700882
0.116326995 0.371530205 0.079298817
0.170384869 0.373477489 0.076895759
0.223311320 0.375934839 0.073094502
0.275658607 0.378502399 0.068853378
0.327785134 0.380603552 0.063976757
0.379175544 0.382435769 0.059929878
0.428829044 0.383557200 0.084984250
0.475881249 0.385346621 0.105462618
0.521087050 0.387923896 0.124269500
0.564463913 0.391008377 0.141539007
0.606298447 0.394666076 0.158203185
0.646975875 0.398973137 0.174188629
0.686219335 0.403830588 0.189879760
0.724260688 0.409414768 0.205183133
0.761067271 0.415455878 0.220257461
0.796631396 0.422185391 0.235219255
0.037063003 0.424407721 0.094685316
0.122414060 0.425787151 0.094271757
0.177110448 0.427541465 0.092231259
0.229955822 0.429822832 0.089340076
0.282015562 0.432336867 0.085071258
0.333567619 0.434629053 0.080733001
0.384582818 0.436577469 0.076001763
0.435167581 0.438266456 0.071708061
0.483804494 0.439365417 0.096726000
0.530158281 0.441100657 0.118989870
0.574517429 0.443384588 0.138221368
0.617071629 0.446156204 0.156336695
0.658111870 0.449513286 0.173447758
0.697630823 0.453525782 0.190125272
0.735697865 0.458008647 0.206061274
0.772458673 0.463125408 0.221901074
0.807766199 0.468766987 0.237302810
0.051982004 0.477667034 0.109336004
0.130383700 0.478909254 0.108788505
0.184727371 0.480535626 0.107369259
0.237438127 0.482593119 0.104663506
0.289159715 0.484896004 0.100973502
0.340197504 0.487192512 0.096952125
0.390670031 0.489298165 0.092882499
0.440772295 0.491181850 0.088649884
0.490065515 0.492730528 0.085376002
0.537544608 0.493720591 0.110597186
0.582768679 0.495226264 0.132766992
0.626069009 0.497282088 0.153115511
0.667575240 0.499922514 0.171463996
0.707468629 0.503052473 0.189307705
0.745686531 0.506726623 0.206250772
0.782409847 0.510865092 0.222934395
0.817618966 0.515645504 0.238965496
0.062571935 0.529559553 0.125804439
0.141412944 0.530592799 0.125188366
0.194622308 0.531969666 0.124106750
0.246303201 0.533839524 0.121800564
0.297282189 0.535974860 0.118799746
0.347722024 0.538128972 0.115100689
0.397559643 0.540292561 0.110910878
0.446945876 0.542230964 0.106397621
0.495637476 0.543856382 0.102336437
0.543486655 0.545339465 0.099030443
0.589629948 0.546218514 0.125658751
0.633632064 0.547620952 0.148487121
0.675667465 0.549542308 0.168706492
0.715759814 0.551876903 0.188015953
0.754209280 0.554832339 0.205871761
0.790993810 0.558309555 0.223389208
0.826061904 0.562183022 0.240225568
0.085237503 0.579788744 0.142273635
0.155613884 0.580655456 0.141992375
0.206522375 0.581833243 0.140899256
0.257034242 0.583519459 0.139238745
0.307013750 0.585441649 0.136799753
0.356448531 0.587545335 0.133477494
0.405477136 0.589532018 0.130219117
0.453970790 0.591443002 0.126571551
0.501934528 0.593154132 0.122897252
0.549081981 0.594697714 0.119775377
0.595467925 0.595912337 0.117219999
0.640072703 0.596742153 0.142063886
0.682534873 0.598070860 0.165121004
0.722955704 0.599742413 0.185720772
0.761587083 0.602047026 0.205038503
0.798321128 0.604780257 0.223464772
0.833296835 0.607916236 0.241101623
0.111298874 0.628229976 0.160356447
0.174136758 0.628970981 0.160107628
0.221667871 0.629926622 0.159325927
0.270227104 0.631386101 0.157949194
0.318642199 0.633118629 0.155773193
0.366862506 0.634945571 0.153047264
0.414757133 0.636856258 0.149937749
0.462315708 0.638686657 0.146572143
0.509242833 0.640397072 0.143234327
0.555570960 0.641896784 0.139939636
0.601146877 0.643250525 0.136979565
0.645795941 0.644381702 0.134960175
0.688674212 0.645079076 0.160909876
0.729279876 0.646192253 0.183166638
0.767912686 0.647815108 0.203939080
0.804674387 0.649873257 0.223421022
0.839524090 0.652366161 0.241884679
0.142317265 0.674493253 0.179031253
0.195865497 0.675114274 0.178878635
0.239773124 0.675957859 0.178421259
0.285850108 0.677147686 0.177224934
0.332469493 0.678681016 0.175457001
0.379219890 0.680340409 0.173284441
0.425779521 0.682077646 0.170967758
0.472098887 0.683737040 0.168157250
0.517916024 0.685364485 0.165448755
0.563120365 0.686802149 0.162691623
0.607717633 0.688143253 0.160198003
0.651399612 0.689223766 0.158228755
0.694229245 0.690253019 0.156550765
0.735005140 0.690831780 0.180351406
0.773612797 0.691817522 0.202879876
0.810290694 0.693303883 0.223605275
0.844861269 0.695154309 0.242861748
0.175250590 0.718326747 0.199102402
0.221912161 0.718917429 0.198953882
0.261483341 0.719695866 0.198536143
0.304595232 0.720720470 0.197631836
0.348849237 0.722013831 0.196262196
0.393808335 0.723463356 0.194478512
0.438802838 0.724985600 0.192434892
0.483603656 0.726486087 0.189951569
0.528030992 0.727898180 0.187485889
0.572059751 0.729274392 0.185198203
0.615465641 0.730456531 0.182743788
0.658111095 0.731550515 0.180815160
0.699854493 0.732480764 0.179153159
0.740422130 0.733301044 0.178449154
0.779010832 0.733805358 0.202360019
0.815422297 0.734706461 0.224004015
0.849756241 0.735995829 0.244471177
0.211964533 0.759756327 0.220141143
0.250706792 0.760242939 0.219976634
0.286503285 0.760877252 0.219634145
0.326309413 0.761775315 0.218937755
0.368120551 0.762859344 0.217793763
0.410783529 0.764055252 0.216362268
0.453959405 0.765363693 0.214648902
0.497136056 0.766657233 0.212840766
0.539998233 0.767928839 0.210875764
0.582627952 0.769129157 0.208761916
0.624639869 0.770156801 0.206907645
0.666011691 0.771128476 0.205248341
0.706540108 0.771956801 0.203958541
0.746008575 0.772727132 0.203225851
0.784249723 0.773421586 0.202682793
0.820334673 0.773758411 0.225273028
0.854320347 0.774493814 0.246785507
0.249453962 0.798491180 0.242177010
0.283000290 0.798951685 0.242038772
0.314932406 0.799442708 0.241722077
0.351345211 0.800084412 0.241146758
0.390286475 0.800990343 0.240170777
0.430514514 0.802005470 0.239110976
0.471495599 0.803040981 0.237743035
0.512752414 0.804117203 0.236234412
0.553932667 0.805225313 0.234549835
0.594899774 0.806188166 0.232954532
0.635459125 0.807165682 0.231326595
0.675381005 0.807990074 0.230063215
0.714503646 0.808672190 0.228791401
0.752676249 0.809277833 0.228126273
0.789641261 0.809895337 0.227809027
0.825330615 0.810420096 0.227988943
0.858863711 0.810761690 0.250125080
0.288531005 0.834487021 0.265092999
0.317478299 0.834855556 0.264950007
0.345906496 0.835193515 0.264665008
0.379078507 0.835782111 0.264289618
0.414963245 0.836493969 0.263555765
0.452836514 0.837325275 0.262648016
0.491423875 0.838169158 0.261610746
0.530528545 0.839067757 0.260386765
0.569795966 0.839915037 0.259100497
0.609027326 0.840798914 0.257724941
0.647780597 0.841534257 0.256563008
0.686069608 0.842226803 0.255394191
0.723684549 0.842830479 0.254555762
0.760325491 0.843416512 0.254088938
0.795905828 0.843938887 0.253827244
0.830300748 0.844400406 0.253864676
0.863465011 0.844995975 0.254294008
0.004632438 0.004632438 0.040972624
0.072787687 0.009315125 0.072270125
0.118699498 0.018580938 0.077296250
0.162999392 0.030064126 0.084221564
0.207346380 0.041596312 0.093158059
0.252285182 0.054125562 0.103204750
0.296800941 0.065144502 0.113831505
0.341296881 0.077055566 0.124840133
0.385768712 0.088254690 0.136557013
0.429785937 0.100126684 0.148414001
0.473192602 0.112005062 0.160554126
0.516355336 0.124697812 0.173042253
0.558838248 0.137357756 0.185716689
0.600533307 0.150594711 0.198585644
0.641512215 0.164074644 0.211592019
0.681679606 0.177850962 0.224585325
0.720795810 0.192113996 0.237865627
0.011681125 0.088195249 0.088163249
0.091625310 0.089971691 0.089507058
0.142290622 0.092450932 0.092028499
0.188655078 0.096816435 0.097198814
0.233168378 0.102279313 0.103811368
0.277150601 0.109148122 0.112283505
0.320726216 0.116644695 0.121780507
0.363808781 0.124952003 0.132149443
0.406900942 0.133763120 0.142875940
0.449439198 0.143261373 0.154222935
0.491861552 0.153250307 0.165939569
0.533514023 0.163556382 0.177905247
0.574823260 0.174422562 0.190338179
0.615565121 0.185940653 0.202851832
0.655528307 0.197717249 0.215563640
0.694692373 0.209984630 0.228442341
0.733123481 0.223038509 0.241494119
0.021784250 0.145178050 0.095670000
0.098097131 0.147288889 0.096512191
0.150205255 0.149175316 0.096130498
0.201119825 0.151195750 0.102272563
0.248505548 0.154025987 0.109461747
0.294003993 0.158237562 0.117618009
0.337996423 0.163466617 0.126911238
0.381334543 0.169625446 0.137097552
0.424178898 0.176500067 0.147715673
0.466327548 0.184227630 0.158818692
0.507840991 0.192426860 0.170423508
0.548985183 0.201324373 0.182199314
0.589519322 0.210734248 0.194386765
0.629580021 0.220712572 0.206763268
0.668891132 0.231450021 0.219400957
0.707303882 0.242474958 0.232073084
0.744937122 0.253967941 0.245178819
0.026664063 0.201678693 0.104819372
0.103873625 0.203713387 0.105243064
0.155741438 0.206143945 0.104866996
0.208380699 0.208193004 0.103805065
0.259323567 0.209801003 0.111943498
0.307397544 0.212342203 0.120891377
0.353165805 0.215939701 0.130493820
0.397561461 0.220258877 0.140918002
0.440798491 0.225311950 0.151645318
0.483101755 0.231389448 0.162853003
0.524535954 0.238009259 0.174389377
0.565347791 0.245449260 0.186401054
0.605537295 0.253354818 0.198431879
0.644916773 0.261890143 0.210964203
0.683581054 0.271089852 0.223500565
0.721363485 0.280883372 0.236353144
0.758252621 0.291139871 0.249222934
0.028586000 0.258384913 0.114055246
0.109227747 0.260191053 0.114726067
0.161376387 0.262415290 0.114074819
0.213538527 0.264960498 0.112717256
0.266308427 0.266997725 0.111276872
0.317068279 0.268476129 0.121303380
0.365079105 0.270809114 0.131955191
0.411034763 0.273672253 0.142714068
0.455482274 0.277602375 0.154298112
0.498417675 0.282136470 0.165919498
0.540109336 0.287376106 0.177706257
0.581124127 0.293336749 0.189841434
0.621086478 0.299884021 0.202196196
0.660199523 0.307002306 0.214758515
0.698316336 0.314803928 0.227401629
0.735587895 0.323334545 0.240207523
0.771850049 0.332227558 0.253118753
0.033662438 0.314699948 0.124639928
0.113781750 0.316303968 0.124720678
0.166797429 0.318268985 0.124361932
0.219225764 0.320734262 0.122547932
0.271504551 0.323261112 0.120663241
0.323788941 0.325086176 0.119019561
0.374069542 0.326442987 0.131040320
0.421743870 0.328499556 0.142920882
0.467513829 0.331285000 0.155102447
0.511370659 0.334574640 0.167409375
0.553958058 0.338640809 0.179779619
0.595250309 0.343407840 0.192413509
0.635412335 0.348681033 0.205100194
0.674549878 0.354714006 0.217911899
0.712425649 0.361219198 0.230852202
0.749272048 0.368441880 0.243915454
0.785151601 0.376219004 0.256917983
0.035584379 0.370157778 0.135110199
0.118651189 0.371603757 0.135385811
0.172751874 0.373242140 0.134905875
0.225292519 0.375689119 0.133379191
0.277269840 0.378189027 0.131400689
0.329056382 0.380499214 0.129216865
0.380544066 0.382257313 0.127467752
0.430141449 0.383545667 0.140826613
0.477269262 0.385380387 0.154119879
0.522383988 0.387794465 0.167436451
0.565694809 0.390890151 0.180465132
0.607602298 0.394556999 0.193863750
0.648102105 0.398824900 0.207113430
0.687329531 0.403712392 0.220378071
0.725300014 0.409255922 0.233713016
0.761957467 0.415300131 0.247029081
0.797536135 0.422053635 0.260354251
0.040167756 0.424731404 0.146656618
0.124948815 0.425971836 0.146656618
0.179317132 0.427440643 0.146401435
0.231845632 0.429637730 0.145082936
0.283585191 0.432016969 0.143106565
0.334836245 0.434398681 0.140523314
0.385983795 0.436567456 0.138267130
0.436435908 0.438150764 0.136558875
0.484958500 0.439291894 0.151193023
0.531217635 0.441039085 0.165900886
0.575484574 0.443290710 0.179983571
0.618029058 0.446056604 0.194116265
0.659062266 0.449456334 0.208075434
0.698523164 0.453450322 0.221911132
0.736586690 0.457958579 0.235739529
0.773219049 0.463048488 0.249507770
0.808532417 0.468766987 0.263335317
0.054500569 0.478041619 0.158841744
0.132791191 0.479177892 0.158731058
0.187005818 0.480370760 0.158619747
0.239546135 0.482324392 0.157535180
0.290811986 0.484593779 0.155530363
0.341467440 0.486961812 0.153189808
0.391772449 0.489111900 0.150646433
0.441804558 0.491022468 0.148258328
0.491100669 0.492536068 0.146515563
0.538490176 0.493648946 0.162615135
0.583677530 0.495180875 0.178105250
0.626901031 0.497261763 0.193391696
0.668392718 0.499823272 0.208145514
0.708199739 0.502942920 0.222780704
0.746401846 0.506654143 0.237170577
0.782937944 0.510837674 0.251502872
0.818161011 0.515586972 0.265737474
0.065623119 0.529743373 0.171935245
0.143577248 0.530825675 0.171935245
0.196689770 0.531901240 0.171904445
0.248356760 0.533526421 0.170835689
0.298849434 0.535698593 0.169097498
0.348964691 0.537846088 0.166897312
0.398585379 0.540076077 0.164379239
0.447866589 0.542075038 0.161864996
0.496498615 0.543746114 0.159573942
0.544321954 0.545170069 0.157848880
0.590394914 0.546033323 0.174835190
0.634356856 0.547543764 0.191499889
0.676292479 0.549428284 0.207346439
0.716358185 0.551822305 0.222932577
0.754748583 0.554756343 0.238059387
0.791432023 0.558134198 0.253068149
0.826510429 0.562154830 0.267805606
0.087730125 0.579960108 0.185888484
0.157522067 0.580866337 0.185952500
0.208542302 0.581853509 0.185887814
0.258991241 0.583319426 0.185091317
0.308590561 0.585132420 0.183619067
0.357724130 0.587155938 0.181577131
0.406518549 0.589301169 0.179235741
0.454867214 0.591216385 0.176747248
0.502660990 0.593048275 0.174222559
0.549863935 0.594545841 0.172391012
0.596180260 0.595757544 0.170801446
0.640692532 0.596624374 0.188637748
0.683027387 0.597969055 0.205855578
0.723440826 0.599736333 0.222474635
0.761975467 0.601971984 0.238400146
0.798672438 0.604631305 0.254155159
0.833668411 0.607897162 0.269654751
0.113479815 0.628296793 0.201241195
0.175776064 0.629067183 0.201363072
0.223512992 0.629911959 0.201194301
0.271833748 0.631150424 0.200498432
0.320086479 0.632800937 0.199174553
0.368125051 0.634623408 0.197468996
0.415796697 0.636550188 0.195321441
0.463134229 0.638412833 0.192930132
0.509936094 0.640163124 0.190828443
0.556194961 0.641780913 0.188557252
0.601665199 0.643062055 0.186825365
0.646283746 0.644226968 0.185713992
0.689076126 0.644957304 0.203873381
0.729652822 0.646127045 0.221666202
0.768245339 0.647727013 0.238579631
0.804915905 0.649814725 0.255217582
0.839722514 0.652351797 0.271247506
0.144527689 0.674558163 0.217347071
0.197448820 0.675147533 0.217390805
0.241384819 0.675902367 0.217346564
0.287363261 0.676983237 0.216876745
0.333782643 0.678410470 0.215709448
0.380339950 0.680026531 0.214239374
0.426704824 0.681736946 0.212356821
0.472842485 0.683497310 0.210376620
0.518534541 0.685122252 0.208244056
0.563620210 0.686609983 0.206208378
0.608154655 0.687941015 0.204303071
0.651859581 0.689068258 0.202945620
0.694505870 0.690087140 0.202003315
0.735276937 0.690734208 0.220822141
0.773878098 0.691787958 0.238800019
0.810432732 0.693274558 0.256285042
0.844985187 0.695098042 0.273018003
0.176995337 0.718451142 0.234833270
0.223292232 0.719018161 0.234833270
0.262961984 0.719591916 0.234803081
0.305938393 0.720563471 0.234485462
0.350138247 0.721759081 0.233561188
0.394865841 0.723128915 0.232248709
0.439568818 0.724634886 0.230698824
0.484294921 0.726154268 0.228914887
0.528576910 0.727674365 0.227041766
0.572500944 0.729053378 0.225162014
0.615816593 0.730278790 0.223447576
0.658401966 0.731383741 0.222045586
0.700056016 0.732339323 0.221050516
0.740579009 0.733186901 0.220523208
0.779078543 0.733717263 0.239409506
0.815435290 0.734583437 0.257641166
0.849666595 0.735903740 0.275108755
0.213212594 0.759886265 0.253147274
0.252032965 0.760264277 0.253409415
0.287791967 0.760756910 0.253391027
0.327595174 0.761560023 0.252996951
0.369190782 0.762569427 0.252252907
0.411804199 0.763744473 0.251250714
0.454722047 0.765017748 0.249958277
0.497733593 0.766376257 0.248447075
0.540551782 0.767653465 0.246790141
0.582956672 0.768868446 0.245196879
0.624949634 0.769951165 0.243691191
0.666220188 0.770960450 0.242401585
0.706723392 0.771803677 0.241352066
0.746119857 0.772578597 0.240865767
0.784249663 0.773181319 0.240754947
0.820266962 0.773610115 0.259683281
0.854219317 0.774385810 0.277931571
0.250503331 0.798493445 0.272996664
0.283930153 0.798782110 0.273126274
0.315868706 0.799239516 0.273117900
0.352350712 0.799866199 0.272755146
0.391159058 0.800691366 0.272307456
0.431412339 0.801677465 0.271373212
0.472195625 0.802724957 0.270321786
0.513290286 0.803853452 0.269143105
0.554334998 0.804894447 0.267747521
0.595260978 0.805974364 0.266432434
0.635654151 0.806876242 0.265126407
0.675507069 0.807725906 0.263992965
0.714537799 0.808465958 0.263113707
0.752654195 0.809135854 0.262645692
0.789566159 0.809720576 0.262420177
0.825218260 0.810336113 0.262582064
0.858664751 0.810557663 0.281512260
0.289416879 0.834452987 0.293643713
0.318490863 0.834652781 0.293880880
0.346828222 0.835053265 0.293872923
0.379988790 0.835586607 0.293627501
0.415928602 0.836190164 0.293169141
0.453471512 0.836986005 0.292439938
0.492017031 0.837867975 0.291763455
0.530975759 0.838767529 0.290678382
0.570180416 0.839631736 0.289604336
0.609155893 0.840495408 0.288397014
0.647928894 0.841269016 0.287378013
0.686127782 0.842037261 0.286524922
0.723596931 0.842679501 0.285750717
0.760258198 0.843286216 0.285261303
0.795720637 0.843775928 0.285121679
0.830006957 0.844239652 0.285399467
0.863143027 0.844765186 0.285906076
0.010053875 0.009265875 0.071538374
0.068745814 0.017693438 0.106270060
0.121505380 0.019319750 0.121788874
0.166077390 0.030211940 0.125940114
0.210834995 0.041744251 0.132382870
0.255057633 0.054125562 0.139832631
0.299498260 0.065000512 0.148185626
0.344031960 0.076836385 0.157621562
0.388127387 0.088060006 0.167515501
0.432038635 0.099707685 0.177957445
0.475647360 0.111672372 0.188934252
0.518361151 0.124397561 0.200045869
0.560650289 0.137066513 0.211646765
0.602286577 0.150529146 0.223481268
0.643072426 0.163649261 0.235429272
0.683071971 0.177600756 0.247631758
0.722132623 0.191909000 0.259985387
0.022425376 0.087786503 0.132018134
0.092050686 0.091541685 0.136928692
0.142755628 0.092872314 0.141124114
0.189668506 0.096867189 0.142479435
0.235091448 0.102255061 0.146198317
0.279212356 0.108809374 0.151693940
0.322696209 0.116303384 0.158693999
0.366028607 0.124632128 0.166495323
0.408836931 0.133335069 0.175484881
0.451436996 0.142841250 0.185094252
0.493689746 0.152859747 0.195250452
0.535355628 0.163253367 0.205883816
0.576642334 0.174250811 0.216985628
0.617171824 0.185582086 0.228396505
0.656938553 0.197668508 0.240027890
0.696100116 0.209972575 0.251970202
0.734245300 0.222701937 0.263993800
0.018038500 0.145472512 0.145196885
0.098097131 0.147830322 0.147017241
0.150982752 0.149156988 0.148351252
0.202324569 0.150721639 0.150226936
0.250251114 0.153958619 0.153958619
0.295859426 0.157938331 0.159147978
0.339953512 0.163011745 0.165554762
0.383443207 0.169041991 0.173043624
0.426196247 0.176119372 0.181516007
0.468192041 0.183612123 0.190889180
0.509835601 0.192044631 0.200715870
0.550928831 0.200935066 0.211128190
0.591294289 0.210342631 0.221830249
0.631214559 0.220384061 0.232935652
0.670224607 0.231128648 0.244450271
0.708638668 0.242168829 0.256175309
0.746063113 0.253827870 0.267982244
0.025135441 0.202363327 0.152711630
0.104229629 0.204148442 0.153750241
0.156778380 0.205966771 0.154784262
0.209613219 0.207980826 0.154713988
0.260907978 0.209739938 0.158959374
0.309184283 0.212099075 0.164597750
0.355083287 0.215411022 0.171050757
0.399403065 0.219796777 0.178725198
0.442650437 0.224949136 0.187067941
0.484998763 0.231004953 0.196242869
0.526458561 0.237686262 0.205980882
0.567011595 0.245079637 0.216204256
0.607133925 0.253044188 0.226883382
0.646439314 0.261665255 0.237823457
0.684943378 0.270848602 0.249188274
0.722608805 0.280608445 0.260769248
0.759332895 0.290781617 0.272587687
0.027994249 0.258777022 0.160856247
0.109929070 0.260529578 0.161628246
0.162816510 0.262299389 0.162513629
0.214798197 0.264932394 0.162283570
0.267504990 0.266779989 0.161625624
0.318458140 0.268277198 0.167913631
0.366812527 0.270635128 0.174816877
0.412859142 0.273616731 0.182757303
0.457161784 0.277394235 0.191474766
0.500001431 0.281857550 0.200662747
0.541757643 0.287067980 0.210546255
0.582632661 0.292988747 0.220906571
0.622521877 0.299621135 0.231479645
0.661506534 0.306783497 0.242541090
0.699692369 0.314600706 0.253880501
0.736786962 0.323109120 0.265413761
