public/lut/50.cube
TITLE "17x17x17 Adobe/IRIDAS cube 3D LUT exported with GrossGrade v0.2.2 (beta) 64 bit"
DOMAIN_MIN 0 0 0
DOMAIN_MAX 1 1 1
LUT_3D_SIZE 5
0.000000000 0.000000000 0.000000000
0.204167008 0.041744251 0.046513002
0.383243024 0.088936001 0.104148000
0.556920290 0.137938246 0.159834504
0.719538987 0.192319006 0.216236994
0.027206250 0.257837504 0.053955499
0.264684230 0.267271012 0.042135499
0.453658283 0.277763993 0.112989753
0.619595826 0.300069511 0.172273248
0.770882785 0.332410753 0.229522750
0.051982004 0.477667034 0.109336004
0.289159715 0.484896004 0.100973502
0.490065515 0.492730528 0.085376002
0.667575240 0.499922514 0.171463996
0.817618966 0.515645504 0.238965496
0.142317265 0.674493253 0.179031253
0.332469493 0.678681016 0.175457001
0.517916024 0.685364485 0.165448755
0.694229245 0.690253019 0.156550765
0.844861269 0.695154309 0.242861748
0.288531005 0.834487021 0.265092999
0.414963245 0.836493969 0.263555765
0.569795966 0.839915037 0.259100497
0.723684549 0.842830479 0.254555762
0.863465011 0.844995975 0.254294008
0.024642751 0.027797500 0.137391001
0.217464253 0.042305253 0.220033258
0.394334018 0.087618500 0.242052257
0.565421462 0.136775255 0.276553243
0.725717545 0.191909000 0.316918999
0.016954249 0.260326982 0.259928018
0.269129485 0.266526282 0.265142500
0.460465789 0.276578993 0.277329266
0.625976563 0.298864275 0.303259760
0.775532246 0.331674218 0.338220000
0.056940757 0.479076743 0.292365491
0.295168012 0.484021038 0.294638723
0.493869781 0.491973281 0.292902261
0.671152532 0.499558985 0.322431982
0.820142269 0.515313029 0.358725011
0.149162769 0.675122499 0.334870517
0.337655008 0.677967310 0.336164236
0.520431221 0.684251308 0.334109992
0.695333481 0.689478755 0.331684232
0.844953775 0.694819748 0.374066502
0.291800261 0.834478498 0.391488254
0.418378502 0.835448503 0.392781764
0.571218729 0.838477969 0.391933978
0.723141015 0.841879725 0.389827490
0.861687005 0.844182253 0.390747011
0.050002500 0.069989003 0.265052497
0.203874499 0.090346001 0.346545249
0.408165991 0.085161507 0.412764013
0.576686978 0.137429252 0.429763734
0.733726501 0.193236500 0.455953002
0.079693258 0.261274755 0.423982531
0.270772994 0.271714985 0.439124018
0.462836742 0.278303266 0.460468233
0.630118728 0.300099999 0.467140973
0.779438734 0.332819998 0.484813273
0.037457503 0.481384516 0.480242014
0.295133531 0.485632002 0.483849525
0.495742500 0.491082519 0.488985002
0.674267054 0.498402506 0.496861994
0.822013497 0.514819980 0.513167024
0.148626760 0.676289558 0.508962274
0.339574277 0.678838015 0.511035442
0.523306251 0.682681739 0.514626265
0.695194006 0.688461006 0.515069962
0.843687713 0.694375992 0.534436226
0.294461012 0.834537983 0.547246456
0.420309752 0.835363507 0.548875749
0.573137045 0.836612999 0.551984012
0.721331239 0.840100765 0.552389503
0.857574463 0.842981517 0.553723991
0.073132500 0.111410752 0.390758514
0.209461510 0.130579248 0.460169762
0.391592264 0.141933262 0.536139250
0.589833975 0.135819018 0.592021465
0.743419230 0.196411759 0.605036497
0.123023003 0.272422761 0.549865961
0.277558506 0.284658253 0.571936250
0.452292979 0.296532482 0.603459239
0.635077953 0.303100288 0.631519079
0.782727480 0.336928248 0.636721492
0.142900258 0.479877740 0.636511266
0.320263028 0.485838532 0.643035769
0.499423742 0.494425237 0.652512491
0.673186243 0.500203252 0.665351331
0.820299745 0.516628504 0.669036984
0.145685762 0.677811265 0.674898505
0.341239721 0.680096507 0.677229762
0.525463223 0.683456063 0.680929780
0.694383264 0.687519312 0.685199499
0.843509734 0.692849994 0.690139294
0.300283760 0.834758997 0.698587000
0.424077004 0.835456967 0.700196266
0.574755967 0.836528003 0.703037262
0.723646760 0.837079525 0.710310042
0.851647258 0.841188788 0.717757225
0.105668999 0.151787996 0.511129022
0.226649761 0.169963002 0.568980992
0.390683025 0.187551498 0.641414523
0.574034035 0.195760995 0.703795254
0.756040990 0.198151007 0.749137998
0.168310493 0.291466236 0.656264961
0.294704497 0.303991735 0.680238783
0.452839255 0.319225490 0.715244472
0.622807264 0.330606759 0.750379264
0.789700031 0.341268003 0.777975500
0.223028988 0.484113008 0.755591035
0.353390276 0.491072237 0.763759494
0.510594487 0.501901031 0.776103020
0.669260025 0.511180997 0.792703986
0.821475029 0.520847499 0.806888521
0.259974003 0.675201297 0.804846764
0.391303241 0.678369761 0.807955980
0.547798991 0.683413029 0.812735975
0.699451685 0.689699531 0.820506275
0.840302706 0.694498539 0.827807486
0.320838988 0.835134029 0.829389989
0.437586486 0.835737467 0.830771267
0.582522988 0.836681008 0.833105445
0.727910757 0.837274790 0.835040450
0.850269973 0.840995014 0.839205027
