public/lut/51.cube
TITLE "17x17x17 Adobe/IRIDAS cube 3D LUT exported with GrossGrade v0.2.2 (beta) 64 bit"
DOMAIN_MIN 0 0 0
DOMAIN_MAX 1 1 1
LUT_3D_SIZE 17
0.000000000 0.000000000 0.000000000
0.044839438 0.004632438 0.004632438
0.088166751 0.010053875 0.011533250
0.131807148 0.015475314 0.019270563
0.180593252 0.020108750 0.029965501
0.231572509 0.024199437 0.041304752
0.284579754 0.028585628 0.053716004
0.337709397 0.032332003 0.066946320
0.390659988 0.041740507 0.080991507
0.442090005 0.050840627 0.095222749
0.491860867 0.065058246 0.110329501
0.539872766 0.082309999 0.125828192
0.585942030 0.101260759 0.141927004
0.630762517 0.122044958 0.158457771
0.673779190 0.142104015 0.175212637
0.715329945 0.164011821 0.192187324
0.755576015 0.185224995 0.209471002
0.002415250 0.068058997 0.004731000
0.067512810 0.069597691 0.004681750
0.116681501 0.070628501 0.011631813
0.164887562 0.073713243 0.020897627
0.214054376 0.077952944 0.032380752
0.264546007 0.082593746 0.043807060
0.315573394 0.088151433 0.056883380
0.366205275 0.094831690 0.070154503
0.416556627 0.103887320 0.084214881
0.465613663 0.114070870 0.098834939
0.512889564 0.125828758 0.114082374
0.558641016 0.140141636 0.129727244
0.603172421 0.155192897 0.145844504
0.646334171 0.171398893 0.162470579
0.688016415 0.188733876 0.179203629
0.728465378 0.205825195 0.196371391
0.767593324 0.223653570 0.213647947
0.000098625 0.128241122 0.006309000
0.066479124 0.130646184 0.005520000
0.125856996 0.131843388 0.004731000
0.182208315 0.132689819 0.013208815
0.235796258 0.135241628 0.025530126
0.288033843 0.138597369 0.039280564
0.339146405 0.143557742 0.054276753
0.389594197 0.149776682 0.069017574
0.438536644 0.157522872 0.084526137
0.485701472 0.166652054 0.100046307
0.531589270 0.176996633 0.116154000
0.575986505 0.189087808 0.132337570
0.619195640 0.201912373 0.148756370
0.661158860 0.215602145 0.165741771
0.701742828 0.230153024 0.182669893
0.741219282 0.245132148 0.199908197
0.779285610 0.260516375 0.217378259
0.000000000 0.194836587 0.004730999
0.051335808 0.197216064 0.003893686
0.126440883 0.198222503 0.003252625
0.190962821 0.199733943 0.001872687
0.251619995 0.200949192 0.008772561
0.307505488 0.202676401 0.025431622
0.360571206 0.206196323 0.042397004
0.411062300 0.210837513 0.061613634
0.459547013 0.217069328 0.080161005
0.506032586 0.224456951 0.098079503
0.550932646 0.233225435 0.115919940
0.594386578 0.242934883 0.133349940
0.636580944 0.253622293 0.150886059
0.677584052 0.265037894 0.168473706
0.717209101 0.277249277 0.186066955
0.755656004 0.289773613 0.203714088
0.792865753 0.303048313 0.221356750
0.000000000 0.264072508 0.002759750
0.028733501 0.266259700 0.002168750
0.122372121 0.267269373 0.002168750
0.193977833 0.268631637 0.002168750
0.259411246 0.269864768 0.001380000
0.320815444 0.270843655 0.005421186
0.376576781 0.272416145 0.022572756
0.428730398 0.275472462 0.046467509
0.477776736 0.279813021 0.067543507
0.524419844 0.285348326 0.091734685
0.569043756 0.291892767 0.112411126
0.612194657 0.299462199 0.131953061
0.653714776 0.307905972 0.151379004
0.694025218 0.317272246 0.169996381
0.733037055 0.327185601 0.188617513
0.770607829 0.337785184 0.206819147
0.806994498 0.349025249 0.224977002
0.000000000 0.333026201 0.000000000
0.018186562 0.334815621 0.000000000
0.113335997 0.335526824 0.000000000
0.195186883 0.336433381 0.000000000
0.263821065 0.337393135 0.000000000
0.328045189 0.338493943 0.000000000
0.387672514 0.339190066 0.007984378
0.442017257 0.340590835 0.021735199
0.492352277 0.343072295 0.050197192
0.539863646 0.346793503 0.079639748
0.584933758 0.351295859 0.103965685
0.628159821 0.356941253 0.128249630
0.669684589 0.363418549 0.149904743
0.709576726 0.370775491 0.170213580
0.747982383 0.378817499 0.190214708
0.785028279 0.387626797 0.209222332
0.820720494 0.397179753 0.228163630
0.000000000 0.399148405 0.002168373
0.005175003 0.400551140 0.000887250
0.105458371 0.401000410 0.000591375
0.197442010 0.401428193 0.000295875
0.268563122 0.402124643 0.000295875
0.333370745 0.402843952 0.000000000
0.394110024 0.403904140 0.000000000
0.451107681 0.404337704 0.007639383
0.503552675 0.405463755 0.033416126
0.552374959 0.407541901 0.060451739
0.598366737 0.410695642 0.092214994
0.641955912 0.414443403 0.121442370
0.683721662 0.419366509 0.145803630
0.723479450 0.424925148 0.168762654
0.761666298 0.431422383 0.190382645
0.798337519 0.438507259 0.210464761
0.833431959 0.446414769 0.230152383
0.000000000 0.461836517 0.004140131
0.014686938 0.462770283 0.003794943
0.103402562 0.463150561 0.003351129
0.201295823 0.463302016 0.004140128
0.274127334 0.463789761 0.004140128
0.338833004 0.464293987 0.004238627
0.399324447 0.465043396 0.004041064
0.457208097 0.466007590 0.003253062
0.511582911 0.466318935 0.012715745
0.561959267 0.467257351 0.037747618
0.609136879 0.468975097 0.077003434
0.653506637 0.471480548 0.109561250
0.695668697 0.474887848 0.139232770
0.735634625 0.479069442 0.165868148
0.773766279 0.484015733 0.188967824
0.810165107 0.489691883 0.210823268
0.844975531 0.496071249 0.231540367
0.000000000 0.521198511 0.006308499
0.009807437 0.522091568 0.003942498
0.110226125 0.522322476 0.003548499
0.207668126 0.522477508 0.003154000
0.280395508 0.522573948 0.002760000
0.345048696 0.522946000 0.002612250
0.405131251 0.523413658 0.002366000
0.462301135 0.524055779 0.001527750
0.517298520 0.524935484 0.000788502
0.569133043 0.525083423 0.025480874
0.617430508 0.525851250 0.061153874
0.662739158 0.527245164 0.095929056
0.705417991 0.529426754 0.131388009
0.745821118 0.532366395 0.160630345
0.784146428 0.536088109 0.186010659
0.820446730 0.540396631 0.210012332
0.855054498 0.545580029 0.231861994
0.000000000 0.577691853 0.019320186
0.027748186 0.578400910 0.017743187
0.120898880 0.578593731 0.017743187
0.215839639 0.578647852 0.017890938
0.287948430 0.578638673 0.018777750
0.352117062 0.578755498 0.019517437
0.411567539 0.578995109 0.019764001
0.468016595 0.579395115 0.019763999
0.522113085 0.579951525 0.019418813
0.574401677 0.580732584 0.017939875
0.623935223 0.580846190 0.042307749
0.670081913 0.581461966 0.079772122
0.713476360 0.582639039 0.120978564
0.754218221 0.584489882 0.153318271
0.792728424 0.587046206 0.182352602
0.829165757 0.590370178 0.208485901
0.863630891 0.594300747 0.231373936
0.000000000 0.631464720 0.032923374
0.042515565 0.631953895 0.030557375
0.138970375 0.632057905 0.029768376
0.226926327 0.632064402 0.029768376
0.297356486 0.631972611 0.030064251
0.360363513 0.631933510 0.030853249
0.419016421 0.631899893 0.030853249
0.474619508 0.632096171 0.030705312
0.527803719 0.632340908 0.029473124
0.579075813 0.632869005 0.027452312
0.628849149 0.633427143 0.024643125
0.675900578 0.633522034 0.064764500
0.719860256 0.633938611 0.108071633
0.761128843 0.634989560 0.144689903
0.799954176 0.636650205 0.178391039
0.836393237 0.638924181 0.206084847
0.870725155 0.641824365 0.230319753
0.004731000 0.682348669 0.053323001
0.060998749 0.682744086 0.052009065
0.157899871 0.682793796 0.052009065
0.242623642 0.682628214 0.052856188
0.309328556 0.682412624 0.054156251
0.370489568 0.682219267 0.055861063
0.427892208 0.682044625 0.057071626
0.482394755 0.681966901 0.058281500
0.534561694 0.682050645 0.059008874
0.584824264 0.682241440 0.059574001
0.633526146 0.682610571 0.059456751
0.680685878 0.683107793 0.058281500
0.725271404 0.683066785 0.099134386
0.766863763 0.683365583 0.138700157
0.805820942 0.684246898 0.174167171
0.842394531 0.685677826 0.203230783
0.876627088 0.687706232 0.229333997
0.016559761 0.730327249 0.087911256
0.104177073 0.730527699 0.087025009
0.187331140 0.730478764 0.086968385
0.260799289 0.730207920 0.087573752
0.324155748 0.729972541 0.088781506
0.382980496 0.729605138 0.090159506
0.438600779 0.729241788 0.091744259
0.491794705 0.729043901 0.093182944
0.542666793 0.728855789 0.094406515
0.591775060 0.728794813 0.095303379
0.639299989 0.728896976 0.095538512
0.685175538 0.729087889 0.094688632
0.729828477 0.729527056 0.093049511
0.771718442 0.729379773 0.133428931
0.810845673 0.729670048 0.170205772
0.847416461 0.730324030 0.201027036
0.881506979 0.731576502 0.228976250
0.066883497 0.775108874 0.120391779
0.149268299 0.775230765 0.119534343
0.220811650 0.775118113 0.119744971
0.283635348 0.774846017 0.120508976
0.342282772 0.774414003 0.121986277
0.398252457 0.773987412 0.123569161
0.451697320 0.773476660 0.125572532
0.503027976 0.773055553 0.127242461
0.552437544 0.772669792 0.129146650
0.600141048 0.772365928 0.130664527
0.646294534 0.772120416 0.131559223
0.691011965 0.772168338 0.132107779
0.734265387 0.772269607 0.131804720
0.776115060 0.772582948 0.130838901
0.815307379 0.772356749 0.167530403
0.851752758 0.772465587 0.200060785
0.885739207 0.773092449 0.229701504
0.127617821 0.816880405 0.154077917
0.199010849 0.816834748 0.153591156
0.254890144 0.816656888 0.153850406
0.310059786 0.816286981 0.154834896
0.363995016 0.815758348 0.155939534
0.416363388 0.815209568 0.157638535
0.467230916 0.814598978 0.159316763
0.516522348 0.813936830 0.161518902
0.564084768 0.813345194 0.163446546
0.610271513 0.812825501 0.165063888
0.654885411 0.812410951 0.166515410
0.698165774 0.812110603 0.167508975
0.740034521 0.811939299 0.168381527
0.780523181 0.811907887 0.168202281
0.819562435 0.812168479 0.167729646
0.855785012 0.811788857 0.201520666
0.889451623 0.811842322 0.232048616
0.191926926 0.855381668 0.187039286
0.247367859 0.855192006 0.186867222
0.291858017 0.854894459 0.187432349
0.340016216 0.854389548 0.188115090
0.389020026 0.853819072 0.189470351
0.437662184 0.853095889 0.190906093
0.485491246 0.852352679 0.192905471
0.532333493 0.851538420 0.195019290
0.577941716 0.850768864 0.196997151
0.622235179 0.850043476 0.198963970
0.665239990 0.849422455 0.200692534
0.706947923 0.848829329 0.202537596
0.747316241 0.848416567 0.203847721
0.786340654 0.848105788 0.204960018
0.823930919 0.848007917 0.205363601
0.859994113 0.848039746 0.205933779
0.893208325 0.847605169 0.236309186
0.253396004 0.890528023 0.221728995
0.293371201 0.890128851 0.221902996
0.331146151 0.889792621 0.222382501
0.373157263 0.889261663 0.222948000
0.417274743 0.888554752 0.224073499
0.462178797 0.887744725 0.225481570
0.506845117 0.886795521 0.227220744
0.550896823 0.885912776 0.229050055
0.594150007 0.884922028 0.231030002
0.636438370 0.884006321 0.232826009
0.677513659 0.883034706 0.234933123
0.717473447 0.882298946 0.236533180
0.756210029 0.881554246 0.238402501
0.793634653 0.881009221 0.239986002
0.829683423 0.880650163 0.241220877
0.864193916 0.880440056 0.242013738
0.897220016 0.880316973 0.242782995
0.002316688 0.002316688 0.024938313
0.049714815 0.004681750 0.051637441
0.093172565 0.009315126 0.055992313
0.137543008 0.014687314 0.062979810
0.185896933 0.018581001 0.071544126
0.237549931 0.022080000 0.081469685
0.289851785 0.026712751 0.092208505
0.342709333 0.029670129 0.103844941
0.394672781 0.039854754 0.116077632
0.445821732 0.048546560 0.129445687
0.494841188 0.063596874 0.143190563
0.542355418 0.080930941 0.157468006
0.588420868 0.100207068 0.172492817
0.632655144 0.121470079 0.187680960
0.675543189 0.141574651 0.203345761
0.716950059 0.163784578 0.219149187
0.756983340 0.184799001 0.235378817
0.000147875 0.066923872 0.067472562
0.068019062 0.068058997 0.068019062
0.118619189 0.070137069 0.070595562
0.167850688 0.073137246 0.075546250
0.217680246 0.077099621 0.082160130
0.268426120 0.081776567 0.090787187
0.319392920 0.087267064 0.100216568
0.370118797 0.094233066 0.111420132
0.419903517 0.102795191 0.123101130
0.468446434 0.113371566 0.135925308
0.515435278 0.125170991 0.149358556
0.560826361 0.139696941 0.163140744
0.605257213 0.154758751 0.177970767
0.648073792 0.171182707 0.192963704
0.689611197 0.188575774 0.208219945
0.729887784 0.205636635 0.223977000
0.768787146 0.223803565 0.239989936
0.000098625 0.127054691 0.072135255
0.067539811 0.129768506 0.071193315
0.128884256 0.130952314 0.071679063
0.185119078 0.131806016 0.078013256
0.238798440 0.134434879 0.085679255
0.290924400 0.138362691 0.094802998
0.342139691 0.143480748 0.104707383
0.392035246 0.149592683 0.115553319
0.440668941 0.157398880 0.127747804
0.487871438 0.166723549 0.140579879
0.533314407 0.176996633 0.153974816
0.577667832 0.189024061 0.168042630
0.620683014 0.201933756 0.182519063
0.662540793 0.215680078 0.197649196
0.703053057 0.230309829 0.212914437
0.742342234 0.245277762 0.228502080
0.780281901 0.260544688 0.244474366
0.000000000 0.193583816 0.074693061
0.053938057 0.196644634 0.072750121
0.130011246 0.198168874 0.072232313
0.194514811 0.199116960 0.072194256
0.254449457 0.199761644 0.082083501
0.310080379 0.202302903 0.093188003
0.362615198 0.205778390 0.104704700
0.412937135 0.210791767 0.117083699
0.461032361 0.216945827 0.129894748
0.507493079 0.224617749 0.143250242
0.552079558 0.233258456 0.157219380
0.595495701 0.243062750 0.171952188
0.637630582 0.253772497 0.186711445
0.678430319 0.265073508 0.202119946
0.718112111 0.277282387 0.217697397
0.756361485 0.290013611 0.233392701
0.793532431 0.303259879 0.249430880
0.000000000 0.263009250 0.075110748
0.031986184 0.265747786 0.073074371
0.125458062 0.267382920 0.071548685
0.197032377 0.268012524 0.071580879
0.262529671 0.269174248 0.069634378
0.323181629 0.269866139 0.083099879
0.378603667 0.271855205 0.098242506
0.430133015 0.274946511 0.113392629
0.478992343 0.279619664 0.128557995
0.525341213 0.285207510 0.143420309
0.569920719 0.291917890 0.158778489
0.612847745 0.299508095 0.174168378
0.654321313 0.307964981 0.189900056
0.694633961 0.317281783 0.205927894
0.733304381 0.327206433 0.221744776
0.770886242 0.337970555 0.237786651
0.807203293 0.349135131 0.253922820
0.000000000 0.331839681 0.073365562
0.020453937 0.334056616 0.070673376
0.116182059 0.335529298 0.068391815
0.198233709 0.336131960 0.067881376
0.266747326 0.336863518 0.067189813
0.330510229 0.337815225 0.064950690
0.389435261 0.338422924 0.085471883
0.443274558 0.339961439 0.104400076
0.493417233 0.342677981 0.122429937
0.540588915 0.346378177 0.140353814
0.585612237 0.351130873 0.157671750
0.628553927 0.356821507 0.174507320
0.670017421 0.363400936 0.191549823
0.709768772 0.370753258 0.208307594
0.748118043 0.378817499 0.224929020
0.785118222 0.387745887 0.241685584
0.820701540 0.397202253 0.258021772
0.000000000 0.397804141 0.075919002
0.006210253 0.399618387 0.073151991
0.108040251 0.400873661 0.070786253
0.199742705 0.401358187 0.070256755
0.270928830 0.401716650 0.070744246
0.335212678 0.402241945 0.069360748
0.395973653 0.403200448 0.066413492
0.452605784 0.403740942 0.087773815
0.504617751 0.404891789 0.112163946
0.553105116 0.407053232 0.134086624
0.598769784 0.410129577 0.153668419
0.642330408 0.414173901 0.173032448
0.683846354 0.419058889 0.191560745
0.723538578 0.424744815 0.209437326
0.761750340 0.431352526 0.227204576
0.798312426 0.438492358 0.244410872
0.833376706 0.446490884 0.261386752
0.000000000 0.460440964 0.078743756
0.015870063 0.461909294 0.075365499
0.105626941 0.462995768 0.073101819
0.202535510 0.463391721 0.072713695
0.275583506 0.463515341 0.073206253
0.340382069 0.463931710 0.073021010
0.400860786 0.464554071 0.072193757
0.458502740 0.465287715 0.069339506
0.512623370 0.465711504 0.098193496
0.562667310 0.466670454 0.123206183
0.609438419 0.468376786 0.146867424
0.653698027 0.471058428 0.169350505
0.695677459 0.474505901 0.189635321
0.735622227 0.478777200 0.209004462
0.773712456 0.483853251 0.227999270
0.810054839 0.489553183 0.246009022
0.844713807 0.496045768 0.263889074
0.000000000 0.519900918 0.090135254
0.010596438 0.521286964 0.086732566
0.111381128 0.522084534 0.084364876
0.208699077 0.522383511 0.084507562
0.281385690 0.522466958 0.084878504
0.346018136 0.522572994 0.085304700
0.406074494 0.522915721 0.085396446
0.463201761 0.523502707 0.084350631
0.518048048 0.524233341 0.081872821
0.569768608 0.524533451 0.109525815
0.617836952 0.525367320 0.138415322
0.662989914 0.526849031 0.163573384
0.705498636 0.529047668 0.185935080
0.745705485 0.531994164 0.207408577
0.783883393 0.535733759 0.227595195
0.820172369 0.540217876 0.246590272
0.854614675 0.545348763 0.265361905
0.000000000 0.576503396 0.101820499
0.028092936 0.577698767 0.098335057
0.121371500 0.578346670 0.097066619
0.215955451 0.578443170 0.096844688
0.288186193 0.578546464 0.097640939
0.352636129 0.578529716 0.098712310
0.412172407 0.578663468 0.099377692
0.468603730 0.578947842 0.099577188
0.522611976 0.579368532 0.098894998
0.574827850 0.580116570 0.096332684
0.624199986 0.580217242 0.128245428
0.670190156 0.580870509 0.155616924
0.713424385 0.582132876 0.181126326
0.754086792 0.584083438 0.204787701
0.792512596 0.586666286 0.226275817
0.828819513 0.590003788 0.246588707
0.863154411 0.594013095 0.266116440
0.000000000 0.630362093 0.120493375
0.043624997 0.631338716 0.117718056
0.139014497 0.631831825 0.116278566
0.226852447 0.631951630 0.116132997
0.297424018 0.631839275 0.116945319
0.360560060 0.631667554 0.117899001
0.419320345 0.631679356 0.119240940
0.474991918 0.631679535 0.119704187
0.528087854 0.631921530 0.119808003
0.579352677 0.632319808 0.119139813
0.629101574 0.632865906 0.116500750
0.675942421 0.632948220 0.146183312
0.719862700 0.633537650 0.175749987
0.760958850 0.634543836 0.201452151
0.799652696 0.636229157 0.224106401
0.835961878 0.638490438 0.245880574
0.870300174 0.641547740 0.266461879
0.004731000 0.681344926 0.138106123
0.061215565 0.682043731 0.135901123
0.157628149 0.682393253 0.135016307
0.242063746 0.682423592 0.135046750
0.308963835 0.682284713 0.135892689
0.370453924 0.682030499 0.137243509
0.427966237 0.681820452 0.138565689
0.482542902 0.681668520 0.139782801
0.534717798 0.681615710 0.141074374
0.584943235 0.681763053 0.141461879
0.633523107 0.682067335 0.141141176
0.680672109 0.682568371 0.140000567
0.725076735 0.682568669 0.170884877
0.766600072 0.682937741 0.197779909
0.805515647 0.683852851 0.221910894
0.841932237 0.685256958 0.245090380
0.876145363 0.687347472 0.266461879
0.016559761 0.729408562 0.162142321
0.104177073 0.729860187 0.160850316
0.186792195 0.730035782 0.160386816
0.260156929 0.730011225 0.160588279
0.323461115 0.729782343 0.161361754
0.382632762 0.729402184 0.162512064
0.438472927 0.729069531 0.164018124
0.491710722 0.728696287 0.165602386
0.542648494 0.728502810 0.166856512
0.591748774 0.728413880 0.167971075
0.639166951 0.728388309 0.168502003
0.685085893 0.728571534 0.168205440
0.729582489 0.729008973 0.167272702
0.771361768 0.728889644 0.194723964
0.810445547 0.729154289 0.220330387
0.846971631 0.729937136 0.244640961
0.880951464 0.731146574 0.266867548
0.066883497 0.774408698 0.185551286
0.149268299 0.774714708 0.184537902
0.220044419 0.774686277 0.184256792
0.282787353 0.774555326 0.184496671
0.341684729 0.774205208 0.185335577
0.397758633 0.773732662 0.186491325
0.451289266 0.773286045 0.187977284
0.502836049 0.772733390 0.189488232
0.552214861 0.772292972 0.191066533
0.599957466 0.771939158 0.192309454
0.646098793 0.771741569 0.193392724
0.690744817 0.771689653 0.194037914
0.733980477 0.771793783 0.194036409
0.775745094 0.772104442 0.193477347
0.814815581 0.771880448 0.220325962
0.851189256 0.772013187 0.245175958
0.885069191 0.772574544 0.268075019
0.127859935 0.816218376 0.209795162
0.198606417 0.816306651 0.209248826
0.254265219 0.816236019 0.209260523
0.309287220 0.815964401 0.209748656
0.363259733 0.815497279 0.210468218
0.415746897 0.814912856 0.211724833
0.466760159 0.814313054 0.213190332
0.516138732 0.813637972 0.214804277
0.563802242 0.812997282 0.216584161
0.609938502 0.812470317 0.218090340
0.654607952 0.812007070 0.219641283
0.697843492 0.811678529 0.220939040
0.739683986 0.811479211 0.221803412
0.780114472 0.811515033 0.222282529
0.819013357 0.811621070 0.222335458
0.855197787 0.811338484 0.247211665
0.888776302 0.811364830 0.270462215
0.191505551 0.854772806 0.236045346
0.246498927 0.854642868 0.236024797
0.290877342 0.854473948 0.236035481
0.339113504 0.854112446 0.236370653
0.388157785 0.853517234 0.237252101
0.437114775 0.852868140 0.238342404
0.484986126 0.852093697 0.239666656
0.531856358 0.851293385 0.241379529
0.577478409 0.850454867 0.242950737
0.621844769 0.849690259 0.244667396
0.664802432 0.848995209 0.246350393
0.706468880 0.848410428 0.247924149
0.746846557 0.847970665 0.249142170
0.785794377 0.847651601 0.250277847
0.823344231 0.847543418 0.250886232
0.859338880 0.847609460 0.251197964
0.892412066 0.847179890 0.274592847
0.252803445 0.889878809 0.261999309
0.292626917 0.889721930 0.261990011
0.330090582 0.889418662 0.262260675
0.372320622 0.888931274 0.262827873
0.416524202 0.888291895 0.263644874
0.461414129 0.887451887 0.264647156
0.506200492 0.886558056 0.266265005
0.550288022 0.885589600 0.267792672
0.593676388 0.884580493 0.269519746
0.635865808 0.883662760 0.271235287
0.677024245 0.882751822 0.273006171
0.716993868 0.881908655 0.274798065
0.755660474 0.881193459 0.276491374
0.793002069 0.880583107 0.277962625
0.828880429 0.880190074 0.279231995
0.863399982 0.879939914 0.280051827
0.896365583 0.879879951 0.280952185
0.004731000 0.005421375 0.053067751
0.044928748 0.008575500 0.084799439
0.095688000 0.007787375 0.100279249
0.142561704 0.012469251 0.104598753
0.191705376 0.015672499 0.111340001
0.242433131 0.019024501 0.119085193
0.294839501 0.023953127 0.128674239
0.347104162 0.026565442 0.139343753
0.398913264 0.037950128 0.150842994
0.449268937 0.046078999 0.162890002
0.498339117 0.062407248 0.175740376
0.545289814 0.079532750 0.189098001
0.590721130 0.099298254 0.202832133
0.634921789 0.121001638 0.217127949
0.677453041 0.141009390 0.231591016
0.718671262 0.163740024 0.246448889
0.758343995 0.184585005 0.261453003
0.003154000 0.065370694 0.113641188
0.065923944 0.068019062 0.117677197
0.119887687 0.069603816 0.121471621
0.170976639 0.072205558 0.122717939
0.221442252 0.076046690 0.126525491
0.272594064 0.080745004 0.132985190
0.323319972 0.086403437 0.140877321
0.373712182 0.092773683 0.149919763
0.423239827 0.101803996 0.160183996
0.471283376 0.112337314 0.171447501
0.518173695 0.124370679 0.183572441
0.563311934 0.139215618 0.196132705
0.607259810 0.154465765 0.209505066
0.649917245 0.170832694 0.223329142
0.691206932 0.188524768 0.237378955
0.731256247 0.205624193 0.251860559
0.769973516 0.223468870 0.266524881
0.000000000 0.126446247 0.127346128
0.065916501 0.128574058 0.128530622
0.129172757 0.129524007 0.129172757
0.186577454 0.131259054 0.131282628
0.241038263 0.134393498 0.135799870
0.293343574 0.138059497 0.141669363
0.344615400 0.143030748 0.148886248
0.394805789 0.149242803 0.157722995
0.443239629 0.157110244 0.167451635
0.490041733 0.166278496 0.178439930
0.535445869 0.176802993 0.189999506
0.579523742 0.188787743 0.202463627
0.622448742 0.201886505 0.215519011
0.663977325 0.215455189 0.228992522
0.704256952 0.230173528 0.242812753
0.743452907 0.245152518 0.257093459
0.781257629 0.260680139 0.271555126
0.000000000 0.192713127 0.132957697
0.053824376 0.195322141 0.133235440
0.130337298 0.197283566 0.132953063
0.196444616 0.198182315 0.133553311
0.256414980 0.199316323 0.139442116
0.311644167 0.201722875 0.146221995
0.364277780 0.205552578 0.154059693
0.414482653 0.210593835 0.163191810
0.462584883 0.216977701 0.173256755
0.508790076 0.224617749 0.184236884
0.553520441 0.233434066 0.195916936
0.596614182 0.243123651 0.208418801
0.638769150 0.253799379 0.221335173
0.679419219 0.265286684 0.234815150
0.718904614 0.277476728 0.248843327
0.757131040 0.290100515 0.262786686
0.794125557 0.303267747 0.277175784
0.000000000 0.261883885 0.137801245
0.032181185 0.264387518 0.137198940
0.126327366 0.266722769 0.136378989
0.198907882 0.267702013 0.136415124
0.264663756 0.268378109 0.137214750
0.324884772 0.269193441 0.145375505
0.380118787 0.271395862 0.154815644
0.431487083 0.274839938 0.165095270
0.479997993 0.279464513 0.176270500
0.526233137 0.285193980 0.187827930
0.570573330 0.291878998 0.200184360
0.613514781 0.299585640 0.213208750
0.654937267 0.308114231 0.226411626
0.695029318 0.317359626 0.240089446
0.733899236 0.327422380 0.254188746
0.771342158 0.338123202 0.268330574
