public/lut/51.cube
TITLE "17x17x17 Adobe/IRIDAS cube 3D LUT exported with GrossGrade v0.2.2 (beta) 64 bit"
DOMAIN_MIN 0 0 0
DOMAIN_MAX 1 1 1
LUT_3D_SIZE 5
0.000000000 0.000000000 0.000000000
0.180593252 0.020108750 0.029965501
0.390659988 0.041740507 0.080991507
0.585942030 0.101260759 0.141927004
0.755576015 0.185224995 0.209471002
0.000000000 0.264072508 0.002759750
0.259411246 0.269864768 0.001380000
0.477776736 0.279813021 0.067543507
0.653714776 0.307905972 0.151379004
0.806994498 0.349025249 0.224977002
0.000000000 0.521198511 0.006308499
0.280395508 0.522573948 0.002760000
0.517298520 0.524935484 0.000788502
0.705417991 0.529426754 0.131388009
0.855054498 0.545580029 0.231861994
0.016559761 0.730327249 0.087911256
0.324155748 0.729972541 0.088781506
0.542666793 0.728855789 0.094406515
0.729828477 0.729527056 0.093049511
0.881506979 0.731576502 0.228976250
0.253396004 0.890528023 0.221728995
0.417274743 0.888554752 0.224073499
0.594150007 0.884922028 0.231030002
0.756210029 0.881554246 0.238402501
0.897220016 0.880316973 0.242782995
0.005520000 0.014588751 0.118702754
0.199817508 0.009463000 0.211580753
0.408578515 0.031346004 0.237431005
0.597058475 0.096285008 0.279067516
0.762307525 0.183995754 0.327304006
0.000000000 0.260577768 0.261883765
0.265244752 0.266278505 0.265282512
0.481480271 0.279208511 0.280488998
0.656913757 0.308202505 0.311768025
0.808905005 0.349692017 0.353039503
0.000000000 0.515702963 0.290098011
0.280297995 0.520869493 0.288062990
0.519019008 0.521746755 0.291149765
0.704792738 0.527552724 0.330467254
0.853046477 0.545033991 0.375076026
0.018728511 0.725694776 0.329881996
0.320881218 0.728194237 0.327115983
0.541670203 0.727094829 0.330211252
0.728223503 0.726993024 0.333679259
0.878409028 0.729712009 0.386020482
0.251888990 0.887070477 0.387809515
0.413159966 0.886693478 0.387108743
0.591002464 0.883334994 0.390670508
0.753111720 0.879554272 0.396908522
0.892799735 0.878161967 0.401470751
0.000789000 0.041366503 0.269276500
0.176412746 0.047235750 0.364476532
0.425247490 0.009462502 0.437155008
0.610800266 0.085481256 0.454149783
0.771894455 0.181021005 0.481824011
0.000591751 0.256296992 0.455712497
0.260743767 0.267804742 0.469507247
0.485967755 0.276986480 0.488455027
0.662939310 0.307095259 0.493704975
0.813405037 0.349846542 0.512497783
0.000000000 0.511673927 0.511546016
0.276796997 0.514467001 0.513655543
0.516415477 0.517714977 0.516384006
0.701513529 0.526504993 0.525502205
0.849470496 0.545580029 0.543451488
0.019714510 0.719815731 0.534843802
0.319770277 0.721714258 0.535190523
0.536441445 0.724242210 0.535204291
0.723780036 0.723360300 0.539330006
0.871839762 0.727455020 0.562763512
0.253695995 0.880618453 0.568782508
0.410281748 0.880967736 0.568460703
0.584494472 0.880380988 0.568754494
0.746971250 0.876495242 0.573239982
0.884464025 0.874848485 0.578146994
0.000000000 0.076285250 0.418770015
0.175505757 0.089157000 0.495137274
0.405844986 0.087503761 0.573704481
0.624143243 0.073489502 0.630122781
0.782302260 0.177713752 0.641088724
0.025825754 0.265883744 0.593789279
0.265239030 0.279524505 0.614648461
0.472184539 0.294246227 0.643582821
0.668395042 0.305560738 0.669260979
0.818318725 0.349793762 0.672242284
0.034500256 0.504483044 0.680672526
0.306360543 0.509636223 0.685429573
0.516845226 0.517445982 0.691984594
0.702239752 0.525205493 0.701118469
0.849179685 0.545699954 0.703169763
0.020897014 0.715793014 0.713874519
0.320762277 0.716780543 0.715053320
0.536018491 0.718057990 0.716832459
0.718824863 0.719765782 0.718824744
0.865666747 0.725885749 0.724258721
0.262908489 0.874712706 0.731965780
0.414600492 0.874384046 0.732611537
0.582814515 0.873838723 0.733631015
0.742802978 0.872088790 0.738240540
0.873542726 0.870624781 0.748302996
0.007886000 0.116384998 0.553116977
0.196608752 0.133307755 0.613687992
0.404054016 0.151129007 0.686394513
0.605772257 0.164743513 0.746264040
0.794206977 0.176485002 0.789718986
0.092748255 0.285800248 0.705304027
0.285336256 0.299778491 0.728213549
0.470875770 0.317600012 0.760755241
0.654042006 0.334570527 0.791809559
0.824735463 0.350970238 0.816805720
0.169488996 0.505125523 0.803207040
0.347362518 0.511967301 0.809621751
0.527045488 0.522550046 0.819313049
0.696714997 0.533784509 0.831591964
0.851083040 0.546319485 0.842729509
0.209046006 0.708445787 0.847403765
0.381154746 0.710551977 0.849246264
0.559042573 0.714041293 0.851729989
0.721645474 0.719084740 0.856429219
0.864058733 0.725159764 0.860149503
0.291226000 0.870591998 0.865221024
0.430694014 0.870068789 0.865659714
0.591260552 0.868979514 0.866341472
0.745702505 0.867103219 0.866333485
0.868526995 0.868591011 0.868526995
