public/lut/52.cube
TITLE "17x17x17 Adobe/IRIDAS cube 3D LUT exported with GrossGrade v0.2.2 (beta) 64 bit"
DOMAIN_MIN 0 0 0
DOMAIN_MAX 1 1 1
LUT_3D_SIZE 17
0.000000000 0.000000000 0.000000000
0.046228372 0.003104750 0.003104750
0.089478254 0.005520000 0.006899875
0.134210140 0.006949250 0.011681064
0.183531508 0.006506000 0.017742751
0.236516684 0.005766563 0.024494939
0.291220009 0.003154001 0.031444751
0.346740901 0.001922185 0.039964128
0.402784526 0.001577502 0.049321003
0.458119303 0.000887063 0.058501687
0.512291133 0.001380375 0.068857372
0.565633357 0.004484750 0.079513378
0.617995262 0.000986002 0.090776749
0.669022560 0.011483633 0.102823392
0.718881428 0.012518497 0.114703014
0.767410457 0.015278705 0.127705380
0.814514995 0.035486002 0.140880004
0.000049312 0.065336064 0.002366000
0.061984941 0.065336064 0.001577000
0.111881249 0.064282626 0.004632438
0.161013007 0.064814813 0.009364377
0.211699560 0.064394064 0.015426062
0.264559299 0.063818187 0.021636499
0.318138838 0.062573813 0.029128063
0.371977746 0.059458058 0.037654191
0.425969213 0.056620374 0.045905191
0.479505628 0.057557750 0.055479247
0.532160878 0.055644691 0.066157684
0.583991289 0.058635436 0.077115126
0.634892702 0.065349624 0.089075372
0.684862375 0.068138696 0.101302646
0.733317852 0.076820761 0.113723889
0.780558825 0.090093896 0.126784578
0.826383948 0.102072880 0.140045747
0.000000000 0.123292252 0.000789000
0.055617251 0.123960622 0.000690375
0.117222376 0.124214619 0.000690375
0.174256951 0.123680569 0.001724875
0.229715630 0.123938128 0.006210250
0.284295499 0.124155372 0.012518438
0.338483125 0.124733001 0.019320002
0.392223358 0.125175998 0.028536567
0.445605248 0.126152247 0.037063256
0.497854143 0.128154740 0.049059123
0.549529910 0.130458117 0.059859000
0.600535572 0.133331448 0.071926937
0.650350869 0.138798252 0.085613623
0.699159265 0.144440442 0.097873330
0.746698737 0.150069758 0.111676395
0.793046355 0.160555959 0.125300765
0.838015318 0.171236888 0.138953745
0.000000000 0.188469648 0.000000000
0.028733870 0.189914882 0.000000000
0.112215005 0.189942941 0.000000000
0.178967193 0.190093890 0.000000000
0.241244748 0.189886749 0.000147938
0.299859375 0.189746499 0.001478499
0.356268197 0.190304950 0.006456748
0.411190450 0.191354454 0.010892127
0.464473814 0.193068445 0.022424813
0.516700625 0.195420325 0.034253743
0.567898750 0.198522389 0.045436747
0.618024766 0.202257067 0.062170934
0.667124689 0.206911519 0.076182127
0.715115190 0.212345392 0.090720139
0.761679471 0.218765453 0.106779322
0.807014227 0.226043582 0.121217825
0.850886941 0.234981835 0.135902748
0.000000000 0.257501245 0.000000000
0.003844061 0.258932501 0.000000000
0.093724370 0.259294748 0.000000000
0.176056325 0.259343266 0.000000000
0.244933262 0.259518504 0.000000000
0.309406817 0.259088457 0.000000000
0.369300038 0.259010255 0.000000000
0.426229715 0.259530425 0.001873065
0.480895758 0.260723501 0.006111250
0.533526599 0.262558579 0.011237311
0.584750533 0.265058130 0.028782874
0.634797692 0.268218368 0.045433063
0.683542252 0.272169471 0.058772754
0.730872095 0.276875436 0.078590393
0.776884556 0.282348633 0.097065017
0.821351767 0.288859010 0.112843141
0.864342034 0.296346754 0.130660757
0.000000000 0.327453703 0.000000000
0.000197250 0.328798413 0.000000000
0.060441382 0.329019755 0.000000000
0.167375565 0.328983665 0.000000000
0.243801445 0.328812867 0.000000000
0.312751502 0.328930318 0.000000000
0.376880229 0.328488261 0.000000000
0.436851978 0.328377068 0.000000000
0.493438810 0.328709632 0.000000000
0.547542691 0.329795390 0.003646938
0.599456191 0.331441253 0.011236938
0.649817705 0.333767563 0.019221313
0.698488653 0.336805105 0.039066695
0.745553374 0.340633750 0.062370762
0.791065156 0.345246255 0.079456709
0.834999979 0.350741178 0.100585274
0.877154171 0.357258320 0.121892065
0.000000000 0.396650255 0.000000000
0.000000000 0.397724628 0.000000000
0.026220242 0.397738785 0.000000000
0.152810395 0.397424310 0.000000000
0.239753991 0.397231638 0.000000000
0.312569320 0.397070020 0.000000000
0.379691780 0.397158146 0.000000000
0.443043709 0.396552980 0.000000000
0.502174377 0.396356910 0.000000000
0.558061719 0.396597743 0.000295875
0.611364901 0.397478878 0.000000000
0.662323892 0.399032712 0.005766561
0.711423993 0.401233137 0.023262870
0.758500636 0.404162139 0.037592068
0.803808212 0.407843888 0.057230018
0.847150207 0.412363410 0.084060080
0.888670862 0.417807400 0.106344998
0.000000000 0.463986397 0.000000000
0.000000000 0.464754075 0.000000000
0.010596624 0.465001196 0.000000000
0.127815649 0.464333713 0.000000000
0.233034566 0.463971287 0.000000000
0.310756236 0.463632405 0.000000000
0.380170703 0.463571846 0.000000000
0.445564091 0.463464230 0.000000000
0.507469416 0.462956905 0.000000000
0.565416574 0.462602317 0.000000000
0.620236456 0.462835133 0.000000000
0.672254562 0.463490516 0.002168748
0.721868753 0.464921206 0.004534308
0.769195616 0.466999650 0.012863324
0.814436853 0.469823897 0.036960084
0.857602596 0.473367095 0.064474009
0.898647428 0.477798223 0.086596802
0.000000000 0.529390574 0.000000000
0.000000000 0.530019403 0.000000000
0.001281373 0.530143619 0.000000000
0.103415832 0.529488266 0.000000000
0.224287257 0.528793454 0.000000000
0.307570249 0.528332949 0.000000000
0.379930496 0.528011680 0.000000000
0.446628273 0.527795553 0.000000000
0.509894550 0.527734518 0.000000000
0.569894195 0.527160287 0.000000000
0.626272798 0.526779056 0.000000000
0.679525733 0.526860297 0.000000000
0.729912758 0.527458549 0.000000000
0.777724981 0.528729677 0.005076328
0.823106945 0.530700445 0.022178385
0.866140008 0.533323765 0.038918201
0.906844497 0.536792517 0.062175997
0.000000000 0.592266560 0.000000000
0.000000000 0.592791080 0.000000000
0.000000000 0.592957079 0.000000000
0.074824028 0.592193544 0.000000000
0.213776812 0.591292560 0.000000000
0.303872496 0.590686917 0.000000000
0.379125565 0.590116620 0.000000000
0.447417289 0.589732587 0.000000000
0.511249423 0.589478135 0.000000000
0.572201312 0.589362621 0.000000000
0.630237162 0.588572502 0.000000000
0.684573889 0.588230073 0.000000000
0.735836327 0.588217497 0.000000000
0.784118891 0.588744104 0.002168754
0.829716027 0.589960277 0.005470567
0.872714162 0.591831565 0.015623772
0.913197279 0.594357789 0.042347752
0.000000000 0.652859390 0.000000000
0.000000000 0.653148651 0.000000000
0.000788500 0.653083503 0.000000000
0.058681905 0.652241647 0.000000000
0.201698259 0.651298344 0.000000000
0.301102310 0.650478661 0.000000000
0.379032016 0.649686396 0.000000000
0.448563516 0.649019182 0.000000000
0.513056576 0.648588002 0.000000000
0.574033797 0.648188770 0.000000000
0.632455766 0.647978961 0.000000000
0.687907875 0.647208869 0.000000000
0.739975572 0.646716416 0.000000000
0.788751721 0.646672010 0.000000000
0.834695935 0.647138834 0.000000000
0.877638459 0.648224413 0.005569146
0.917834282 0.649962485 0.030360252
0.000000000 0.710270882 0.000000000
0.000000000 0.710419595 0.000000000
0.000000000 0.710320234 0.000000000
0.058633335 0.709375799 0.000000000
0.198024750 0.708288193 0.000000000
0.300613254 0.707261443 0.000000000
0.380403101 0.706288457 0.000000000
0.450856090 0.705422103 0.000000000
0.515776336 0.704668403 0.000000000
0.576681793 0.704038978 0.000000000
0.634744704 0.703548014 0.000000000
0.690357089 0.703289866 0.000000000
0.743010640 0.702365160 0.000000000
0.792177022 0.701866090 0.000000000
0.838199258 0.701727509 0.000000000
0.881111264 0.702134728 0.004090888
0.921115994 0.703142524 0.017693812
0.000000000 0.764299750 0.000000000
0.000000000 0.764538765 0.000000000
0.000000002 0.764161646 0.000000000
0.055146154 0.763123751 0.000000000
0.198000759 0.761888027 0.000000000
0.304512858 0.760648847 0.000000000
0.384696156 0.759474754 0.000000000
0.455472648 0.758399189 0.000000000
0.520161092 0.757360995 0.000000000
0.580751300 0.756504893 0.000000000
0.638231516 0.755783319 0.000000000
0.692960501 0.755152524 0.000000000
0.745545268 0.754794002 0.000000000
0.794888794 0.753772914 0.000000000
0.840899408 0.753115237 0.000000000
0.883687198 0.752925277 0.002168752
0.923327804 0.753335238 0.005125748
0.000000000 0.814611614 0.000000000
0.000000000 0.814613819 0.000000000
0.002759751 0.814198315 0.000000000
0.062089369 0.813010097 0.000000000
0.205941647 0.811683953 0.000000000
0.314127952 0.810353518 0.000000000
0.393107206 0.809020400 0.000000000
0.463052273 0.807628274 0.000000000
0.527066529 0.806350708 0.000000000
0.586847961 0.805183113 0.000000000
0.643414915 0.804144681 0.000000000
0.697227061 0.803210139 0.000000000
0.748565435 0.802468598 0.000000000
0.797542930 0.801872194 0.000000000
0.843415380 0.800863564 0.000000000
0.885870397 0.800209880 0.000000000
0.924971521 0.799894094 0.000000000
0.000000000 0.860847414 0.000000000
0.000000000 0.860881627 0.000000000
0.007097014 0.860274553 0.000000000
0.097939380 0.859044373 0.000000000
0.233054921 0.857614219 0.000000000
0.330118090 0.856090486 0.000000000
0.406606555 0.854525805 0.000000000
0.474686652 0.852916121 0.000000000
0.537194133 0.851323187 0.000000000
0.595676541 0.849828184 0.000000000
0.650888860 0.848441720 0.000000000
0.703423858 0.847222626 0.000000000
0.753404915 0.846092403 0.000000000
0.801008642 0.845150590 0.000000000
0.846235335 0.844387531 0.000000000
0.888102531 0.843315601 0.000000000
0.926522255 0.842594564 0.000000000
0.000000000 0.903091431 0.000000000
0.001675574 0.902717233 0.000000000
0.034542058 0.901843369 0.000000000
0.149489462 0.900478721 0.000000000
0.269944787 0.898963273 0.000000000
0.354274929 0.897331953 0.000000000
0.425999433 0.895500064 0.000000000
0.491075367 0.893628955 0.000000000
0.551343858 0.891872048 0.000000000
0.607867479 0.889992297 0.000000000
0.661405563 0.888298035 0.000000000
0.712246358 0.886670232 0.000000000
0.760623991 0.885249496 0.000000000
0.806571066 0.883932114 0.000000000
0.850049257 0.882817745 0.000000000
0.891109049 0.881971419 0.000000000
0.928626120 0.880752087 0.000000000
0.000000000 0.940434992 0.000000000
0.030754440 0.939605534 0.000000000
0.109785505 0.938581109 0.000000000
0.219311714 0.937204778 0.000000000
0.312983990 0.935543776 0.000000000
0.385929883 0.933738887 0.000000000
0.451964021 0.931730747 0.000000000
0.512886584 0.929642975 0.000000000
0.570075512 0.927527010 0.000000000
0.624067545 0.925407946 0.000000000
0.675317287 0.923368871 0.000000000
0.724089622 0.921409309 0.000000000
0.770447254 0.919507980 0.000000000
0.814546645 0.917907417 0.000000000
0.856122315 0.916382790 0.000000000
0.895300329 0.915201247 0.000000000
0.931944013 0.914134979 0.000000000
0.001527750 0.001527750 0.024051687
0.048979688 0.003104750 0.050295562
0.092358999 0.004731000 0.052258376
0.138373643 0.006161063 0.057201315
0.188205183 0.004780313 0.062904000
0.241016492 0.003646812 0.069294125
0.295391262 0.002858500 0.076006062
0.351128280 0.000394437 0.083796635
0.406422019 0.001577502 0.092212439
0.461274326 0.000443813 0.100792252
0.515044510 0.000887250 0.110470563
0.568070710 0.003450187 0.120061815
0.620334685 0.000197253 0.130448565
0.671136677 0.010546880 0.141179323
0.720847905 0.010990685 0.152411461
0.769141018 0.015180141 0.163611382
0.815927446 0.034697000 0.175785929
0.000049312 0.061356187 0.060765062
0.061399374 0.061984938 0.060808688
0.113195814 0.063024558 0.062446188
0.163757399 0.063031308 0.064744689
0.215373114 0.063037626 0.068877384
0.268452197 0.061544124 0.074015617
0.321856081 0.060264878 0.079809003
0.375659823 0.056481436 0.086869128
0.429443151 0.053537499 0.094481438
0.482544065 0.054873310 0.102868810
0.534832835 0.052153688 0.112049878
0.586197019 0.056259375 0.121338069
0.637294173 0.063116312 0.131322950
0.686566949 0.065042950 0.142057523
0.735044479 0.074920081 0.153209209
0.782287955 0.088388324 0.164789006
0.827939093 0.100151375 0.176879928
0.000000000 0.120128438 0.062482186
0.056125689 0.122665882 0.060251437
0.119508870 0.122385874 0.059689432
0.177054450 0.122320250 0.063186124
0.232132256 0.122385874 0.068002626
0.287033111 0.122885182 0.073500440
0.341119319 0.123314880 0.079655245
0.394983351 0.124093376 0.086450502
0.448057890 0.124996379 0.094275311
0.500343084 0.127058998 0.102648132
0.551758528 0.128894433 0.111515127
0.602351844 0.131779432 0.121314190
0.652041197 0.137370110 0.131585389
0.700792074 0.142809391 0.142530575
0.748294711 0.148495778 0.153466076
0.794376373 0.159309819 0.165255263
0.839236259 0.169855565 0.177521497
0.000000000 0.185673326 0.057522185
0.030409494 0.188650385 0.054393619
0.115516007 0.189234197 0.052611500
0.182555199 0.188873634 0.051813684
0.244317248 0.188483834 0.057817061
0.302586436 0.188483834 0.064769246
0.358576596 0.189125016 0.072501376
0.413076013 0.190378338 0.080544509
0.466347963 0.192164764 0.089334562
0.518480957 0.194627523 0.098910183
0.569304287 0.197643191 0.108589247
0.619334400 0.201398194 0.118616812
0.668300211 0.206070334 0.129693747
0.716163814 0.211622119 0.140909582
0.762808323 0.217911690 0.152488902
0.808081627 0.225369662 0.164983138
0.851673186 0.234325886 0.177173883
0.000000000 0.255208075 0.047708876
0.005667436 0.257462263 0.043520998
0.098274432 0.258854747 0.039848939
0.179634437 0.258237511 0.039113063
0.248610631 0.258217990 0.036222622
0.312222362 0.257875830 0.042719875
0.371572375 0.257647574 0.052092817
0.427956104 0.258295983 0.064528570
0.482298255 0.259784430 0.077073753
0.534807265 0.261648864 0.088019878
0.585982978 0.264329016 0.099446379
0.635920823 0.267692506 0.112057254
0.684393644 0.271529555 0.124552123
0.731672108 0.276253939 0.136572629
0.777460098 0.281827271 0.149364084
0.821874917 0.288462430 0.162477642
0.864697456 0.295853972 0.175220698
0.000000000 0.325481683 0.028388562
0.000197250 0.326998949 0.024100624
0.064435445 0.328430265 0.019468125
0.171287075 0.328066885 0.018580627
0.247374699 0.327747881 0.017545998
0.315647334 0.327726156 0.014194062
0.379290104 0.327131033 0.026762130
0.438691735 0.327185988 0.040733509
0.494972944 0.327635974 0.051949568
0.548543572 0.328671545 0.066303186
0.600436628 0.330532610 0.083610564
0.650630414 0.332980245 0.099188626
0.699101388 0.336237192 0.112937324
0.746098399 0.340118319 0.127999142
0.791501582 0.344816267 0.143169075
0.835168183 0.350401253 0.157310396
0.877256215 0.356736004 0.171141490
0.000000000 0.394575894 0.018531622
0.000000000 0.395844847 0.016264247
0.029472992 0.397197753 0.012814184
0.156777963 0.396877199 0.011532744
0.242929012 0.396354407 0.010941121
0.315391630 0.395979226 0.009561185
0.382344097 0.396024704 0.006555058
0.445170194 0.395528972 0.011335561
0.503838837 0.395186067 0.022769874
0.559261918 0.395595402 0.041776620
0.612175226 0.396490633 0.060480118
0.662991285 0.398175657 0.076135486
0.711826980 0.400414437 0.094840378
0.758792877 0.403496414 0.115139067
0.803989530 0.407289892 0.132067204
0.847271323 0.411921591 0.147866204
0.888726056 0.417423666 0.164541066
0.000000000 0.462071300 0.005470435
0.000000000 0.462908655 0.003499436
0.011532686 0.464268804 0.001084500
0.131728634 0.463943660 0.001035188
0.235777199 0.463353783 0.001035189
0.313323110 0.462880075 0.000739689
0.382549375 0.462552160 0.000443815
0.447663397 0.462521017 0.000443815
0.509189904 0.461851150 0.008723686
0.566692650 0.461615682 0.018826989
0.621084988 0.461836219 0.029078674
0.672829926 0.462617576 0.047238801
0.722249210 0.464084476 0.071706310
0.769418895 0.466235161 0.094370686
0.814586520 0.469209403 0.113512710
0.857540905 0.472811788 0.134710521
0.898506463 0.477345407 0.155164197
0.000000000 0.527453959 0.005914688
0.000000000 0.528209686 0.005175000
0.001675747 0.529126763 0.003745812
0.106186517 0.529035389 0.002562874
0.226710677 0.528313518 0.002562874
0.309723794 0.527619064 0.002562874
0.381831229 0.527059436 0.002168374
0.448432118 0.526908398 0.001429624
0.511449695 0.526769578 0.000689936
0.571238816 0.526087046 0.000345187
0.627295315 0.525785983 0.008082811
0.680204988 0.525841475 0.026515746
0.730298579 0.526499331 0.048223563
0.777928472 0.527895987 0.067901894
0.823077142 0.529843450 0.091227703
0.865976155 0.532697737 0.117998391
0.906473994 0.536171019 0.140673369
0.000000000 0.590461254 0.000000000
0.000000000 0.590961397 0.000000000
0.000000000 0.592003465 0.000000000
0.076514907 0.591795743 0.000000000
0.215865314 0.590999603 0.000000000
0.305653095 0.590125203 0.000000000
0.380808473 0.589425504 0.000000000
0.448935837 0.588907242 0.000000000
0.512683034 0.588520288 0.000000000
0.573440731 0.588335395 0.000000000
0.631122530 0.587620318 0.002809500
0.685233235 0.587285221 0.011286376
0.736227810 0.587274969 0.021636566
0.784336090 0.587886751 0.038484085
0.829759061 0.589097440 0.066305965
0.872531354 0.591056287 0.095918402
0.912862957 0.593687594 0.120354690
0.000000000 0.650832832 0.001626563
0.000000000 0.651295185 0.001626563
0.000788500 0.652230263 0.001331063
0.059347030 0.652028561 0.001035188
0.202948257 0.651075006 0.001035188
0.302439064 0.650075197 0.001281437
0.380323708 0.649228632 0.001478438
0.449820101 0.648389757 0.001478438
0.514210820 0.647804379 0.001478438
0.575073659 0.647341788 0.001182938
0.633346438 0.647024870 0.000443813
0.688614964 0.646297872 0.000493125
0.740407288 0.645864487 0.003597816
0.788986623 0.645856559 0.020749647
0.834591448 0.646337748 0.046732776
0.877315640 0.647439539 0.074087024
0.917447031 0.649292946 0.101050377
0.000000000 0.708237052 0.001034938
0.000000000 0.708635867 0.000049312
0.000000000 0.709312916 0.000000000
0.058455832 0.709131718 0.000000000
0.198623002 0.708140612 0.000000000
0.301309943 0.706973076 0.000000000
0.381286830 0.705904901 0.000000000
0.451858640 0.704912782 0.000000000
0.516675353 0.704009831 0.000000000
0.577521801 0.703279138 0.000000000
0.635413051 0.702697992 0.000000000
0.690897167 0.702290535 0.000000000
0.743340135 0.701518834 0.000394253
0.792343378 0.701003253 0.013011578
0.838156998 0.700882852 0.030705456
0.880907118 0.701289952 0.049948834
0.920691311 0.702445626 0.078394815
0.000000000 0.762207985 0.000000002
0.000000000 0.762483537 0.000000002
0.000000002 0.763350487 0.000000002
0.053421777 0.762929440 0.000000002
0.197853327 0.761872947 0.000000002
0.304590523 0.760518670 0.000000002
0.385073036 0.759243011 0.000197252
0.456038088 0.758023202 0.000197252
0.520851493 0.756850898 0.000197252
0.581371784 0.755817175 0.000394252
0.638714015 0.754950762 0.000394252
0.693362772 0.754283190 0.000394252
0.745769799 0.753797233 0.000394251
0.794950247 0.752866983 0.005963941
0.840791702 0.752352893 0.013356259
0.883387446 0.752167523 0.029423520
0.922858179 0.752573669 0.058992997
0.000000000 0.812491238 0.007639439
0.000000000 0.812989354 0.005865310
0.002759751 0.813622117 0.003597935
0.060458116 0.812917352 0.002858435
0.205059275 0.811701715 0.002858435
0.313717395 0.810302973 0.002858435
0.393139482 0.808816135 0.003055437
0.463340312 0.807352841 0.003647185
0.527420819 0.805905759 0.003647185
0.587252021 0.804621220 0.003647185
0.643733978 0.803496420 0.002907687
0.697448730 0.802457333 0.002316687
0.748641789 0.801627696 0.002070185
0.797590375 0.801021457 0.000641060
0.843153298 0.800033927 0.003844444
0.885429084 0.799369693 0.020010084
0.924405694 0.799194276 0.050995059
0.000000000 0.858852684 0.003696498
0.000000000 0.859607279 0.001379936
0.006998387 0.859691143 0.000000001
0.096810132 0.858810186 0.000098627
0.232082099 0.857498944 0.000591751
0.329490125 0.855946362 0.000739688
0.406384170 0.854312956 0.000838191
0.474730253 0.852630675 0.001577066
0.537374854 0.850907803 0.002316629
0.595876634 0.849331260 0.002415256
0.651101232 0.847839594 0.002415257
0.703530848 0.846463859 0.002415257
0.753390551 0.845309734 0.002415257
0.800845146 0.844354391 0.001675569
0.845909417 0.843624413 0.000197131
0.887600183 0.842525005 0.016215023
0.925833344 0.841778338 0.046543375
0.000000000 0.901513994 0.009167267
0.001626322 0.901753187 0.008427642
0.033717182 0.901270270 0.007738146
0.148114026 0.900210857 0.007738146
0.268936366 0.898766041 0.008476895
0.353551894 0.897105455 0.009216583
0.425747842 0.895269752 0.010004647
0.490910828 0.893337190 0.011533273
0.551223099 0.891415179 0.013061021
0.607890248 0.889495552 0.014243523
0.661356509 0.887695551 0.015426084
0.712175250 0.886019349 0.016215023
0.760428786 0.884470522 0.017003961
0.806187570 0.883159459 0.017003965
0.849591553 0.882085562 0.016165713
0.890575767 0.881218016 0.015426090
0.927919865 0.880023718 0.045878127
0.000000000 0.939284563 0.033760563
0.030754440 0.938883901 0.032282125
0.108747251 0.938083291 0.033021815
0.217413709 0.936857462 0.033021815
0.312137067 0.935208142 0.033809874
0.385303497 0.933373570 0.035337627
0.451449007 0.931403279 0.037408061
0.512517631 0.929220080 0.038886502
0.569855571 0.927058041 0.041154001
0.623914182 0.924882233 0.043300375
0.675132513 0.922769904 0.045384876
0.723810196 0.920749366 0.047463000
0.770121276 0.918840528 0.049271248
0.814039230 0.917106748 0.050574936
0.855520606 0.915642023 0.050624188
0.894514322 0.914345026 0.050624188
0.931043863 0.913421333 0.051243875
0.003154000 0.003943000 0.056802500
0.043370500 0.006161063 0.085518315
0.093259379 0.003943000 0.097605877
0.141041696 0.004731000 0.100592874
0.191855878 0.003943000 0.105358370
0.244991243 0.002069813 0.110786319
0.299246907 0.002070125 0.117036626
0.354479849 0.000000000 0.124339320
0.409470648 0.001183001 0.131971374
0.464120150 0.000000000 0.140132621
0.517841518 0.000887250 0.148982748
0.570633888 0.002217937 0.158152819
0.622417390 0.000197253 0.167598516
0.672972023 0.009758692 0.177577391
0.722374082 0.009462873 0.187937766
0.770482659 0.014489767 0.198689267
0.817130387 0.033909000 0.209633619
0.000739688 0.059652746 0.108010001
0.059689436 0.062482186 0.110760562
0.113196313 0.062488940 0.114172757
0.165000841 0.061942190 0.114223875
0.218135685 0.061435562 0.116527744
0.271210194 0.059243001 0.120128252
0.324974954 0.057774998 0.125024691
0.378730476 0.053380683 0.130817756
0.432132334 0.050987687 0.137278557
0.484977454 0.052370563 0.144730255
0.537222922 0.049510375 0.152808011
0.588565409 0.054396749 0.161474988
0.639147222 0.060346249 0.170527503
0.688439846 0.062899195 0.180294216
0.736686409 0.072989017 0.190508872
0.783612430 0.086315647 0.200807899
0.829035163 0.098937564 0.211768314
0.000000000 0.118527628 0.118480623
0.055532936 0.120413691 0.118816376
0.119819127 0.120813504 0.118816376
0.178094462 0.120747186 0.119511627
0.234258249 0.121137500 0.121673994
0.289112300 0.121426500 0.124871813
0.343704760 0.121910371 0.129038885
0.397720903 0.122317493 0.134383380
0.450563014 0.123314753 0.140699118
0.502640724 0.125042796 0.147606626
0.554148018 0.127087250 0.155420110
0.604642451 0.130082667 0.163823873
0.654195726 0.135674745 0.172660142
0.702573538 0.140823245 0.182170272
0.749753535 0.147278652 0.192098528
0.795835137 0.158022910 0.202648893
0.840260506 0.168495238 0.213515744
0.000000000 0.183346704 0.120416500
0.031789437 0.185673326 0.119795881
0.115244001 0.187897936 0.117874123
0.184378088 0.187266767 0.117847428
0.246106893 0.186858818 0.121036060
0.304113507 0.187212259 0.125107437
0.360121220 0.188040316 0.129690379
0.414865166 0.189396828 0.135322139
0.468043804 0.191188768 0.141527936
0.519997120 0.193580836 0.148664519
0.571008921 0.196760759 0.156647176
0.620803893 0.200435504 0.164774865
0.669812322 0.205085203 0.173860505
0.717485726 0.210736081 0.183409572
0.763909340 0.217161134 0.193499088
0.808976114 0.224603444 0.203982130
0.852561831 0.233667761 0.215102822
0.000000000 0.252457887 0.119433120
0.007294624 0.254660487 0.117793806
0.099629879 0.257462144 0.114801124
0.181634083 0.257274806 0.114105009
0.250892520 0.256929874 0.113540247
0.314146250 0.256357372 0.118473873
0.373305410 0.256526649 0.124461375
0.429568827 0.257439494 0.131080315
0.483621657 0.258792132 0.138359994
0.536051154 0.260835946 0.146185949
0.586889148 0.263487905 0.154546261
0.636770368 0.266905248 0.163467139
0.685253143 0.270800352 0.173025757
0.732438028 0.275670111 0.182976276
0.778249323 0.281304121 0.193470761
0.822559595 0.287937135 0.204339087
