public/lut/52.cube
TITLE "17x17x17 Adobe/IRIDAS cube 3D LUT exported with GrossGrade v0.2.2 (beta) 64 bit"
DOMAIN_MIN 0 0 0
DOMAIN_MAX 1 1 1
LUT_3D_SIZE 5
0.000000000 0.000000000 0.000000000
0.183531508 0.006506000 0.017742751
0.402784526 0.001577502 0.049321003
0.617995262 0.000986002 0.090776749
0.814514995 0.035486002 0.140880004
0.000000000 0.257501245 0.000000000
0.244933262 0.259518504 0.000000000
0.480895758 0.260723501 0.006111250
0.683542252 0.272169471 0.058772754
0.864342034 0.296346754 0.130660757
0.000000000 0.529390574 0.000000000
0.224287257 0.528793454 0.000000000
0.509894550 0.527734518 0.000000000
0.729912758 0.527458549 0.000000000
0.906844497 0.536792517 0.062175997
0.000000000 0.764299750 0.000000000
0.198000759 0.761888027 0.000000000
0.520161092 0.757360995 0.000000000
0.745545268 0.754794002 0.000000000
0.923327804 0.753335238 0.005125748
0.000000000 0.940434992 0.000000000
0.312983990 0.935543776 0.000000000
0.570075512 0.927527010 0.000000000
0.770447254 0.919507980 0.000000000
0.931944013 0.914134979 0.000000000
0.001577000 0.011434500 0.126808509
0.197300255 0.001577000 0.209729508
0.416884512 0.000789000 0.227784008
0.627405047 0.000197253 0.257266998
0.820108473 0.031543002 0.292357504
0.000000000 0.248907000 0.248528004
0.250852257 0.253080487 0.249367252
0.485594481 0.256548256 0.257075757
0.687868953 0.268722773 0.277180970
0.866890788 0.293771267 0.306937754
0.000000000 0.518611252 0.255499512
0.227003008 0.525464058 0.246852502
0.514691293 0.522622764 0.246035501
0.730735540 0.523217261 0.274753273
0.904933512 0.534209967 0.310267746
0.000000000 0.753896773 0.261185765
0.196716249 0.759078801 0.247852758
0.521508813 0.754492044 0.248235762
0.745517492 0.750425935 0.247919500
0.920159519 0.749682307 0.296961248
0.000000000 0.932915509 0.292335510
0.308405757 0.932607293 0.285052508
0.567655325 0.924861491 0.289020270
0.767842054 0.915908217 0.296448261
0.926763296 0.910355270 0.299555004
0.000000000 0.031543002 0.290588498
0.168827504 0.023460001 0.379877269
0.428534031 0.000000000 0.445051521
0.637642026 0.001183251 0.458005011
0.826153040 0.024839999 0.479593039
0.000000000 0.244112015 0.461634517
0.241883993 0.254357517 0.469728500
0.485271513 0.253788769 0.488002479
0.689948320 0.265540749 0.491424561
0.867854714 0.291258276 0.504428267
0.000000000 0.510699987 0.507900000
0.227334008 0.513180733 0.508610487
0.511535525 0.514982998 0.508800030
0.726843238 0.518680513 0.513329506
0.899723530 0.531823039 0.525343537
0.000000000 0.743036032 0.520145297
0.212419495 0.745854974 0.518367171
0.514973760 0.749082804 0.513039231
0.740900993 0.743820786 0.515091777
0.911455989 0.744624257 0.533381283
0.002760001 0.920077503 0.542128980
0.311536759 0.921297014 0.538482726
0.559086025 0.919432998 0.534441471
0.760175765 0.910317421 0.538678706
0.915342450 0.904474020 0.542667508
0.000000000 0.058655754 0.455638021
0.146754250 0.058959253 0.530736804
0.406194746 0.018333998 0.607732296
0.647717237 0.000591750 0.659141243
0.832260013 0.013996999 0.667486548
0.000000000 0.250648499 0.626139760
0.231034011 0.263233244 0.641215563
0.470269501 0.268383265 0.669277251
0.691431284 0.263319254 0.692859292
0.866753995 0.292023748 0.694466472
0.000000000 0.502871275 0.704980493
0.248235255 0.507397056 0.706666231
0.512188733 0.515154243 0.708231449
0.722171783 0.517782211 0.717969537
0.892901003 0.531443000 0.718882799
0.000000000 0.736535490 0.729300320
0.218529761 0.736936450 0.729472756
0.518201947 0.736907244 0.729614794
0.733147502 0.736837268 0.729454041
0.900833249 0.740130007 0.731635511
0.019714503 0.909481287 0.740429759
0.330460012 0.908400297 0.740179777
0.559817195 0.906623006 0.739362001
0.751373053 0.903247476 0.740100980
0.899044514 0.897513509 0.748513520
0.000000000 0.090892002 0.609623015
0.141465515 0.098030001 0.669508755
0.399702013 0.081005000 0.741947532
0.630646765 0.036865748 0.798381209
0.841904998 0.005520000 0.835575998
0.000591750 0.266077757 0.760617018
0.240228742 0.279839009 0.776948512
0.468395770 0.288871765 0.807391465
0.679047823 0.290307492 0.836467028
0.870600224 0.292811245 0.856859028
0.000000000 0.502435505 0.847669482
0.294311523 0.509484231 0.849119544
0.524213433 0.520035982 0.853368998
0.718723297 0.526111722 0.865529478
0.890934467 0.534105003 0.874592543
0.000789000 0.728442311 0.880261242
0.305093259 0.729723990 0.880221725
0.546586275 0.731883764 0.879403472
0.738801241 0.736579299 0.879862249
0.893897533 0.740279734 0.883509278
0.090462998 0.902894020 0.887706995
0.366320521 0.901164234 0.887274981
0.578001499 0.897947013 0.886575460
0.757101774 0.893773019 0.885197759
0.889807999 0.892993987 0.885442019
