public/lut/53.cube
TITLE "17x17x17 Adobe/IRIDAS cube 3D LUT exported with GrossGrade v0.2.2 (beta) 64 bit"
DOMAIN_MIN 0 0 0
DOMAIN_MAX 1 1 1
LUT_3D_SIZE 5
0.000000000 0.000000000 0.000000000
0.181031004 0.000789000 0.010842750
0.412519515 0.000000000 0.025628502
0.641863227 0.000000000 0.052177250
0.850934029 0.000000000 0.090892002
0.000000000 0.256566256 0.000000000
0.238793015 0.258228242 0.000000000
0.491744757 0.252307743 0.000000000
0.708536029 0.252830505 0.008871499
0.901240230 0.265834749 0.050985251
0.000000000 0.541356027 0.000000000
0.183051497 0.541387796 0.000000000
0.512454033 0.538398504 0.000000000
0.750143051 0.532471538 0.000000000
0.940041542 0.535996020 0.001182998
0.000000000 0.787424028 0.000000000
0.092949510 0.785140753 0.000000000
0.508613706 0.780204296 0.000000000
0.757190228 0.774785995 0.000000000
0.948725224 0.768793762 0.000000000
0.000000000 0.969188988 0.000000000
0.219451755 0.964580476 0.000000000
0.552608013 0.956109047 0.000000000
0.775547028 0.946210742 0.000000000
0.950577974 0.937869012 0.000000000
0.000000000 0.006900000 0.122510999
0.191226751 0.000000000 0.206388012
0.425292492 0.000000000 0.218363762
0.649900794 0.000000000 0.241313502
0.855005980 0.000000000 0.270000517
0.000000000 0.244140998 0.242134005
0.242608249 0.246087253 0.239553243
0.495614529 0.241771489 0.240798995
0.711808801 0.242587507 0.254114747
0.902324975 0.256674260 0.277500242
0.000000000 0.528326750 0.233465508
0.190421999 0.533142567 0.221366748
0.516493976 0.529005289 0.209664240
0.750037491 0.524219513 0.233237252
0.936977744 0.529548049 0.265066743
0.000000000 0.775139213 0.213819265
0.095084764 0.778265715 0.194636762
0.509729028 0.773281276 0.179708511
0.755981803 0.767085493 0.156718001
0.944259524 0.762099266 0.223907501
0.000000000 0.959681273 0.228120014
0.216201246 0.958263516 0.213548511
0.549886584 0.949838996 0.206752002
0.771503031 0.939576268 0.199557006
0.943571746 0.931244731 0.192844510
0.000000000 0.016165501 0.294194996
0.145273745 0.000197250 0.386568010
0.430444002 0.000000000 0.451323986
0.656266212 0.000000000 0.458475769
0.857689500 0.000000000 0.474265993
0.000000000 0.231888503 0.468793780
0.220096499 0.238865003 0.475932032
0.489148259 0.227666751 0.491280019
0.709750772 0.227700010 0.488424063
0.899822950 0.242926747 0.495652527
0.000000000 0.514813542 0.508250952
0.173575997 0.515752316 0.506698489
0.508800030 0.514531493 0.502983451
0.743162036 0.512776256 0.502053738
0.928578496 0.520594001 0.509036541
0.000000000 0.760070026 0.509443760
0.099531509 0.761358857 0.505851030
0.500918746 0.761945248 0.497512013
0.748039544 0.755103767 0.492751241
0.932282984 0.752125800 0.507319808
0.000000000 0.943644047 0.522564054
0.215286255 0.943426490 0.517512798
0.539463520 0.939182520 0.511214554
0.760701776 0.929044485 0.509912848
0.928563476 0.920960009 0.508931041
0.000000000 0.026417252 0.468202531
0.081952006 0.009265502 0.546310246
0.396619529 0.000000000 0.625252008
0.659655511 0.000000000 0.674643517
0.858912706 0.000000000 0.677123785
0.000000000 0.231029004 0.643725812
0.183006510 0.239759251 0.658808708
0.463518262 0.235056490 0.685387969
0.704644799 0.209129751 0.705806017
0.893539190 0.228931502 0.701529264
0.000000000 0.500218749 0.718506217
0.178553253 0.503142476 0.719055057
0.501599789 0.507374525 0.718207002
0.732345760 0.503730059 0.724615455
0.916525722 0.512811482 0.720317006
0.000000000 0.748217463 0.734879017
0.083018012 0.747391522 0.733438790
0.497264743 0.745105267 0.730871797
0.735160530 0.742103815 0.727132738
0.917345285 0.741641521 0.725265741
0.000000000 0.928925991 0.737740755
0.231236503 0.926674008 0.736257255
0.534888029 0.922693312 0.733340025
0.748422027 0.916329980 0.732131004
0.907020211 0.908895493 0.737134218
0.000000000 0.046181001 0.630967975
0.046742253 0.031937249 0.693275213
0.378742516 0.001182999 0.767535508
0.633999765 0.000000000 0.823158741
0.863040984 0.000000000 0.857114017
0.000000000 0.239666760 0.785822988
0.163557261 0.249803737 0.802645802
0.452039540 0.250074238 0.831888020
0.684474707 0.234949753 0.859018505
0.892019749 0.211814255 0.875768244
0.000000000 0.493643999 0.870059013
0.222200006 0.499035507 0.870509982
0.507270992 0.506339550 0.872650981
0.722506523 0.506777763 0.882282972
0.909344554 0.508602500 0.887691498
0.000000000 0.734661281 0.894752741
0.208426252 0.734863758 0.893477201
0.522314250 0.734845757 0.890621722
0.736467242 0.736346483 0.888592482
0.905423284 0.736316800 0.889244020
0.000000000 0.918232024 0.894240022
0.281353503 0.915282249 0.892589211
0.550060987 0.910089493 0.889933467
0.750511765 0.903385460 0.886134744
0.893616974 0.900587022 0.884054005
