public/lut/53.cube
TITLE "17x17x17 Adobe/IRIDAS cube 3D LUT exported with GrossGrade v0.2.2 (beta) 64 bit"
DOMAIN_MIN 0 0 0
DOMAIN_MAX 1 1 1
LUT_3D_SIZE 17
0.000000000 0.000000000 0.000000000
0.042679314 0.002316688 0.002366000
0.084646001 0.003154000 0.004632500
0.129668325 0.003006249 0.007097001
0.181031004 0.000789000 0.010842750
0.236460805 0.000000000 0.013947750
0.294127643 0.000000000 0.017545626
0.352994829 0.000000000 0.021390066
0.412519515 0.000000000 0.025628502
0.471524119 0.000000000 0.030655939
0.529296398 0.000000000 0.037358873
0.586147487 0.000000000 0.042460874
0.641863227 0.000000000 0.052177250
0.696230292 0.000000000 0.059602443
0.749444425 0.000000000 0.069395013
0.801089883 0.000739685 0.081155822
0.850934029 0.000000000 0.090892002
0.000000000 0.059615750 0.000838250
0.054752249 0.059012562 0.000049312
0.106161058 0.057829563 0.000788937
0.157204270 0.055465750 0.003203313
0.210271627 0.051833376 0.005421375
0.265677035 0.045619875 0.008526313
0.322287709 0.037995998 0.010842752
0.379467845 0.025529811 0.014736377
0.437007755 0.023509061 0.016757188
0.493880957 0.013504313 0.023657499
0.550110221 0.012814250 0.026811501
0.605306804 0.013800062 0.034993190
0.659501493 0.006752001 0.043769941
0.712594151 0.013996946 0.050461322
0.764205694 0.014342243 0.063874952
0.814698339 0.010744322 0.072908759
0.863342047 0.022917751 0.085254379
0.000000000 0.118001498 0.000000000
0.043586686 0.118769377 0.000000000
0.109293878 0.118722253 0.000000000
0.169373333 0.117121316 0.000000000
0.227643877 0.115153752 0.000295750
0.285392582 0.112701818 0.000641062
0.342803538 0.109526247 0.003351125
0.400297910 0.104874507 0.003203502
0.457024008 0.099969625 0.008871626
0.512956858 0.094325006 0.011532875
0.568000078 0.087149873 0.016165998
0.622317314 0.084501624 0.026121499
0.675321937 0.082897000 0.030754501
0.727436364 0.080078878 0.041308139
0.778108835 0.081211388 0.054848257
0.827248633 0.088091761 0.063338511
0.874972105 0.093315497 0.078374751
0.000000000 0.184874639 0.000000000
0.014341871 0.186504006 0.000000000
0.098908804 0.186744139 0.000000000
0.171593636 0.186363831 0.000000000
0.237966135 0.184900761 0.000000000
0.300284743 0.183019638 0.000000000
0.360309780 0.181108505 0.000000000
0.418892443 0.179341212 0.000443813
0.476081312 0.178092524 0.000443625
0.531774104 0.176847383 0.000837875
0.586409509 0.175736636 0.008477187
0.640016675 0.175313637 0.009413309
0.692375302 0.175718576 0.016215127
0.743466735 0.176038697 0.031001009
0.793165863 0.177146316 0.037499692
0.841325581 0.182124078 0.049224265
0.888047695 0.187649697 0.067910247
0.000000000 0.256566256 0.000000000
0.000000000 0.258022428 0.000000000
0.063209623 0.258679122 0.000000000
0.163327456 0.258737743 0.000000000
0.238793015 0.258228242 0.000000000
0.308019191 0.256593376 0.000000000
0.372272283 0.254805267 0.000000000
0.433242410 0.253334701 0.000000000
0.491744757 0.252307743 0.000000000
0.548170745 0.251767486 0.000000000
0.602958679 0.251566499 0.000000000
0.656478822 0.251865745 0.000246563
0.708536029 0.252830505 0.008871499
0.759052336 0.254630983 0.011778938
0.808129430 0.257078767 0.018630387
0.855584025 0.260894448 0.036570206
0.901240230 0.265834749 0.050985251
0.000000000 0.329599231 0.000000000
0.000000000 0.330943644 0.000000000
0.026565501 0.331520110 0.000000000
0.145557076 0.331577450 0.000000000
0.232841879 0.331315637 0.000000000
0.308292001 0.330626428 0.000000000
0.377801090 0.328919113 0.000000000
0.442276537 0.327215016 0.000000000
0.503015161 0.325753450 0.000000000
0.561096191 0.324905336 0.000000000
0.616843522 0.324476808 0.000000000
0.670784593 0.324584603 0.000246563
0.722915411 0.325417370 0.000246563
0.773194730 0.326908171 0.000000004
0.821810067 0.329153627 0.011138513
0.868562460 0.332401097 0.021537632
0.913417578 0.336746693 0.027748000
0.000000000 0.402232885 0.000000000
0.000000000 0.403163522 0.000000000
0.000690375 0.403464556 0.000000000
0.109051079 0.403442025 0.000000000
0.222074270 0.403149873 0.000000000
0.303954810 0.402668327 0.000000000
0.377589762 0.401987255 0.000000000
0.446248889 0.400006592 0.000000000
0.510016739 0.398343414 0.000000000
0.570107758 0.396937400 0.000000000
0.627410531 0.396135271 0.000000000
0.682122946 0.395847350 0.000000000
0.734758914 0.396113753 0.000000000
0.785189986 0.397072017 0.000147940
0.833567441 0.398850888 0.003154247
0.879836738 0.401408851 0.002365815
0.924198389 0.405065656 0.012420373
0.000000000 0.472853094 0.000000000
0.000000000 0.473461300 0.000000000
0.000246562 0.473820150 0.000000000
0.070804127 0.473609895 0.000000000
0.206011549 0.473327011 0.000000000
0.296748519 0.472820520 0.000000000
0.374130338 0.472187042 0.000000000
0.445899904 0.471270949 0.000000000
0.512950420 0.469409585 0.000000000
0.575492799 0.467643708 0.000000000
0.634568453 0.466340840 0.000000000
0.690549433 0.465454966 0.000000000
0.743875504 0.465188444 0.000000000
0.794602931 0.465586156 0.000000000
0.843019068 0.466726989 0.000000000
0.889145195 0.468605906 0.000000000
0.933203280 0.471486658 0.007442185
0.000000000 0.541356027 0.000000000
0.000000000 0.541795969 0.000000000
0.000000000 0.542132020 0.000000000
0.033924326 0.541858256 0.000000000
0.183051497 0.541387796 0.000000000
0.286970973 0.540815055 0.000000000
0.369107902 0.540158391 0.000000000
0.443206966 0.539376616 0.000000000
0.512454033 0.538398504 0.000000000
0.577685118 0.536537170 0.000000000
0.638517141 0.534673572 0.000000000
0.695950031 0.533411384 0.000000000
0.750143051 0.532471538 0.000000000
0.801487923 0.532260537 0.000000000
0.850184798 0.532732964 0.000000000
0.896159053 0.533953547 0.000049315
0.940041542 0.535996020 0.001182998
0.000000000 0.607455254 0.000000000
0.000000000 0.607679427 0.000000000
0.000000000 0.607859731 0.000000000
0.014194335 0.607489705 0.000000000
0.150399446 0.606859863 0.000000000
0.275515378 0.606252491 0.000000000
0.363171756 0.605526745 0.000000000
0.439873695 0.604692578 0.000000000
0.510466456 0.603794575 0.000000000
0.577175617 0.602739334 0.000000000
0.640125394 0.600667477 0.000000000
0.698868513 0.598949313 0.000000000
0.754108310 0.597591937 0.000000000
0.806040287 0.596693635 0.000000000
0.855086923 0.596646369 0.000000000
0.901117623 0.597146749 0.000000000
0.944543421 0.598380148 0.000000000
0.000000000 0.670833766 0.000000000
0.000000000 0.670905352 0.000000000
0.000000000 0.670925140 0.000000000
0.007294322 0.670438409 0.000000000
0.124008261 0.669707119 0.000000000
0.263603181 0.668930173 0.000000000
0.357389539 0.668043613 0.000000000
0.436708689 0.667104363 0.000000000
0.508585751 0.666087747 0.000000000
0.575915277 0.665021837 0.000000000
0.639745474 0.663798094 0.000000000
0.699924707 0.661829352 0.000000000
0.756154537 0.660013199 0.000000000
0.808729112 0.658734322 0.000000000
0.858025908 0.657940507 0.000000000
0.904108167 0.657799006 0.000000000
0.947065592 0.658365607 0.000000000
0.000000000 0.730850875 0.000000000
0.000000000 0.730850279 0.000000000
0.000000000 0.730718255 0.000000000
0.000000006 0.730105579 0.000000000
0.101872757 0.729287207 0.000000000
0.254481256 0.728265166 0.000000000
0.353115946 0.727261722 0.000000000
0.434596837 0.726204038 0.000000000
0.507714510 0.725028217 0.000000000
0.575381696 0.723849297 0.000000000
0.639191151 0.722641230 0.000000000
0.699836552 0.721378684 0.000000000
0.756922185 0.719289958 0.000000000
0.809977591 0.717473507 0.000000000
0.859488070 0.716191471 0.000000000
0.905599952 0.715418577 0.000000000
0.948322177 0.715333641 0.000000000
0.000000000 0.787424028 0.000000000
0.000000000 0.787359476 0.000000000
0.000000000 0.786936462 0.000000000
0.001872826 0.786149859 0.000000000
0.092949510 0.785140753 0.000000000
0.248003185 0.784014404 0.000000000
0.352213681 0.782816589 0.000000000
0.435111403 0.781551421 0.000000000
0.508613706 0.780204296 0.000000000
0.576378167 0.778905213 0.000000000
0.639875352 0.777488112 0.000000000
0.699897170 0.776105285 0.000000000
0.757190228 0.774785995 0.000000000
0.810575485 0.772646189 0.000000000
0.860195458 0.770852625 0.000000000
0.906178832 0.769511104 0.000000000
0.948725224 0.768793762 0.000000000
0.000000000 0.839716971 0.000000000
0.000000000 0.839511812 0.000000000
0.000000000 0.839118719 0.000000000
0.006062008 0.838164628 0.000000000
0.092669897 0.836963296 0.000000000
0.248352066 0.835704803 0.000000000
0.356511205 0.834360480 0.000000000
0.439391345 0.832861304 0.000000000
0.512702227 0.831335366 0.000000000
0.579787374 0.829759240 0.000000000
0.642593622 0.828122497 0.000000000
0.701806188 0.826526284 0.000000000
0.757902741 0.824946463 0.000000000
0.811132312 0.823555291 0.000000000
0.860641122 0.821352184 0.000000000
0.906284332 0.819546938 0.000000000
0.948598027 0.818238974 0.000000000
0.000000000 0.887731552 0.000000000
0.000000000 0.887517810 0.000000000
0.000000000 0.886891425 0.000000000
0.009364022 0.885750473 0.000000000
0.118151285 0.884454310 0.000000000
0.266857892 0.882988811 0.000000000
0.367783189 0.881406069 0.000000000
0.448855966 0.879687309 0.000000000
0.520661712 0.877869666 0.000000000
0.586592555 0.876078725 0.000000000
0.648058057 0.874190450 0.000000000
0.706017017 0.872361243 0.000000000
0.760840237 0.870519042 0.000000000
0.812693536 0.868802726 0.000000000
0.861694694 0.867260039 0.000000000
0.906719625 0.865043461 0.000000000
0.948131502 0.863231063 0.000000000
0.000000000 0.931057572 0.000000000
0.000000000 0.930648685 0.000000000
0.000049316 0.929723918 0.000000000
0.028484812 0.928502440 0.000000000
0.159442112 0.927041471 0.000000000
0.295866519 0.925372601 0.000000000
0.387201935 0.923541486 0.000000000
0.464472443 0.921586633 0.000000000
0.533734322 0.919552803 0.000000000
0.597514987 0.917411625 0.000000000
0.657251239 0.915318251 0.000000000
0.713427424 0.913182855 0.000000000
0.766544402 0.911105812 0.000000000
0.816674054 0.909050047 0.000000000
0.863916397 0.907160103 0.000000000
0.908156812 0.905441403 0.000000000
0.948648393 0.903174520 0.000000000
0.000000000 0.969188988 0.000000000
0.000000000 0.968413770 0.000000000
0.012223125 0.967379510 0.000000000
0.088114522 0.966130674 0.000000000
0.219451755 0.964580476 0.000000000
0.333744049 0.962819278 0.000000000
0.415235013 0.960728645 0.000000000
0.487029523 0.958443999 0.000000000
0.552608013 0.956109047 0.000000000
0.613548398 0.953722477 0.000000000
0.670624018 0.951173365 0.000000000
0.724537253 0.948694944 0.000000000
0.775547028 0.946210742 0.000000000
0.823628485 0.943920970 0.000000000
0.868807793 0.941703975 0.000000000
0.911168814 0.939676046 0.000000000
0.950577974 0.937869012 0.000000000
0.001527750 0.001527750 0.025530126
0.041879501 0.001577000 0.043324687
0.086096190 0.001577000 0.045516938
0.134365082 0.001576999 0.048807815
0.185331374 0.000641063 0.052223813
0.241243809 0.000000000 0.057047188
0.298670202 0.000000000 0.061564125
0.357150972 0.000000000 0.066751502
0.416089326 0.000000000 0.072259180
0.474471629 0.000000000 0.078367874
0.531727195 0.000000000 0.085670061
0.588390291 0.000000000 0.092505686
0.644034266 0.000000000 0.100544438
0.698093653 0.000000000 0.109139636
0.750969589 0.000000000 0.117740631
0.802320361 0.000000000 0.127059758
0.852045417 0.000000000 0.137727439
0.000000000 0.055293687 0.054062750
0.054110561 0.055387750 0.052859940
0.107514821 0.054150186 0.052811377
0.159852073 0.051670752 0.053558812
0.213837802 0.047672313 0.055362128
0.269205332 0.041250311 0.058386311
0.325951755 0.032134496 0.062290065
0.383039564 0.021735186 0.066197060
0.440136641 0.019763684 0.071215749
0.496689260 0.008920625 0.077110946
0.552546024 0.010990688 0.083649002
0.607328594 0.010004938 0.090076253
0.661611915 0.004829815 0.098169811
0.714223742 0.012370568 0.106316693
0.765775383 0.010645744 0.115071632
0.816015601 0.009167322 0.124881513
0.864401937 0.022129688 0.135427192
0.000000000 0.114124194 0.052243501
0.044228062 0.116102502 0.049056500
0.112039059 0.116078377 0.046352688
0.172254577 0.114375375 0.047811747
0.230442628 0.112361938 0.050335437
0.288342744 0.109895319 0.053517625
0.345769346 0.106184810 0.057233378
0.403064042 0.101117939 0.060641319
0.459553629 0.096353687 0.065733507
0.515236914 0.089840122 0.072148994
0.570056140 0.082259439 0.077700883
0.623996854 0.080027319 0.084840432
0.676944256 0.078992002 0.093651563
0.728901565 0.074587941 0.101716258
0.779416680 0.076676883 0.110914245
0.828447163 0.084638372 0.121730320
0.875997663 0.088786438 0.131916612
0.000000000 0.181727201 0.041623935
0.015968248 0.184003204 0.036913686
0.102660246 0.184631824 0.033120058
0.175326943 0.183988586 0.028438246
0.241043806 0.182174012 0.032775056
0.303145587 0.180454761 0.036861368
0.362856567 0.178732440 0.039894998
0.421147525 0.177124456 0.045754373
0.477865189 0.175593331 0.053072743
0.533477485 0.174538001 0.057502434
0.587831199 0.173149824 0.064599305
0.641313314 0.172642827 0.075001374
0.693406701 0.173088461 0.082810305
0.744350970 0.173176587 0.091594391
0.794043720 0.174239248 0.103761896
0.842175961 0.179557770 0.114875257
0.888639867 0.184752256 0.124982499
0.000000000 0.254072636 0.024643123
0.000000000 0.255615711 0.020157561
0.070061311 0.256950706 0.015081248
0.167559505 0.256477207 0.010695186
0.242534697 0.256002128 0.006653624
0.311040312 0.254240423 0.009758748
0.374636143 0.252402812 0.016855875
0.435126811 0.251111001 0.023164624
0.493232727 0.250213414 0.026072187
0.549422979 0.249546871 0.032972436
0.604209423 0.249449000 0.046443250
0.657479227 0.249991059 0.054817624
0.709347486 0.250940561 0.062945686
0.759787619 0.252652317 0.076881073
0.808620930 0.255178332 0.090438999
0.855796456 0.258936614 0.100636452
0.901351869 0.264159858 0.114844687
0.000000000 0.327421039 0.006358250
0.000000000 0.328677505 0.005372250
0.032614626 0.329724103 0.003745812
0.150782660 0.329546660 0.002956875
0.236810505 0.329304427 0.002218125
0.311504900 0.328530669 0.000936688
0.380302101 0.326577306 0.000837812
0.444241762 0.325039238 0.000591501
0.504686177 0.323738784 0.006752253
0.562120974 0.322860897 0.015574126
0.617812216 0.322577357 0.020453751
0.671524882 0.322810829 0.026121501
0.723447859 0.323726982 0.041294940
0.773653328 0.325215757 0.056990013
0.822051883 0.327610761 0.067843825
0.868673623 0.330925554 0.082160339
0.913368523 0.335194051 0.101100557
0.000000000 0.399817139 0.000739375
0.000000000 0.400786489 0.000246563
0.001577125 0.401782930 0.000000000
0.116113201 0.401752084 0.000000000
0.226118878 0.401251823 0.000000000
0.306957692 0.400620908 0.000000000
0.380377024 0.399904966 0.000000000
0.448419273 0.398047566 0.000000000
0.511737883 0.396257490 0.000985937
0.571383953 0.395063788 0.000542125
0.628217816 0.394246697 0.001330750
0.682770550 0.394018531 0.011483497
0.735087693 0.394312561 0.022967618
0.785363436 0.395466149 0.029128313
0.833680272 0.397324145 0.040532198
0.879836798 0.400006086 0.060978137
0.924066305 0.403712541 0.079439931
0.000000000 0.470592648 0.000000000
0.000000000 0.471292734 0.000000000
0.000492811 0.472128093 0.000000000
0.076847136 0.472036719 0.000000000
0.210082546 0.471645206 0.000000000
0.299669743 0.471075833 0.000000000
0.376743317 0.470318705 0.000000000
0.448001772 0.469401926 0.000000000
0.514707983 0.467424750 0.000000000
0.576832950 0.465796173 0.000000000
0.635389805 0.464466423 0.000295875
0.691031694 0.463654399 0.002414997
0.744095683 0.463478744 0.002020997
0.794685006 0.463956654 0.007491509
0.843027651 0.465272784 0.023903884
0.888939738 0.467201024 0.039912123
0.932922602 0.470180601 0.052228734
0.000000000 0.539242744 0.000000000
0.000000000 0.539830267 0.000000000
0.000000000 0.540241599 0.000000000
0.038768146 0.540204525 0.000000000
0.187797010 0.539655626 0.000000000
0.289813548 0.539088070 0.000000000
0.371345311 0.538371801 0.000000000
0.445110530 0.537611842 0.000000000
0.514151573 0.536619484 0.000000000
0.578928947 0.534625888 0.000000000
0.639506221 0.532918572 0.000000000
0.696535707 0.531608403 0.000000000
0.750449836 0.530757427 0.000000000
0.801582813 0.530682266 0.003006320
0.849991500 0.531174898 0.010005126
0.895854294 0.532523215 0.014687251
0.939473569 0.534598112 0.026811434
0.000000000 0.605348408 0.000000000
0.000000000 0.605616093 0.000000000
0.000000000 0.606144547 0.000000000
0.015278650 0.605961025 0.000000000
0.154992893 0.605431795 0.000000000
0.278263628 0.604658544 0.000000000
0.365161687 0.603873432 0.000000000
0.441569746 0.603010476 0.000000000
0.511954486 0.602034032 0.000000000
0.578381658 0.600961447 0.000000000
0.640963197 0.598998964 0.000000000
0.699446797 0.597254157 0.000000000
0.754364252 0.595910132 0.000000000
0.806149960 0.595191300 0.000394500
0.854837418 0.594992995 0.000000000
0.900682509 0.595625639 0.000049319
0.943982959 0.597041011 0.013652313
0.000000000 0.668704510 0.000000000
0.000000000 0.668889105 0.000000000
0.000000000 0.669094145 0.000000000
0.008674573 0.669012427 0.000000000
0.128093019 0.668262005 0.000000000
0.266148448 0.667397201 0.000000000
0.359140038 0.666572809 0.000000000
0.438139081 0.665570498 0.000000000
0.509861231 0.664538026 0.000000000
0.576892614 0.663393378 0.000000000
0.640584588 0.662186861 0.000000000
0.700458705 0.660196841 0.000000000
0.756389678 0.658499837 0.000000000
0.808743179 0.657214463 0.000000000
0.857818782 0.656431794 0.000000000
0.903654277 0.656318963 0.000098566
0.946468651 0.657015681 0.007737625
0.000000000 0.728761852 0.000000000
0.000000000 0.728792548 0.000000000
0.000000000 0.728963614 0.000000000
0.000000007 0.728727818 0.000000000
0.104584888 0.727910876 0.000000000
0.256548107 0.726902485 0.000000000
0.354590565 0.725851238 0.000000000
0.435852051 0.724741638 0.000000000
0.508656085 0.723529577 0.000000000
0.576127231 0.722281337 0.000000000
0.639762878 0.721022785 0.000000000
0.700217724 0.719735742 0.000000000
0.757077873 0.717640460 0.000000000
0.809974015 0.715917408 0.000000000
0.859293878 0.714675307 0.000000000
0.905142486 0.713911474 0.000049315
0.947698236 0.713962495 0.000542438
0.000000000 0.785165071 0.000000000
0.000000000 0.785054505 0.000000000
0.000000000 0.785430491 0.000000000
0.001872826 0.784930348 0.000000000
0.094473511 0.783984065 0.000000000
0.249779806 0.782756031 0.000000000
0.353211582 0.781542122 0.000000000
0.435979962 0.780243933 0.000000000
0.509425402 0.778870404 0.000000000
0.576970398 0.777412534 0.000000000
0.640275776 0.775990129 0.000000000
0.700160682 0.774523258 0.000000000
0.757151484 0.773190141 0.000000000
0.810436249 0.771098316 0.000000000
0.859849155 0.769388735 0.000000000
0.905614972 0.768110812 0.000000000
0.948059797 0.767412603 0.000000000
0.000000000 0.837561071 0.000000000
0.000000000 0.837473989 0.000000000
0.000000000 0.837720096 0.000000000
0.006062008 0.837039769 0.000000000
0.093957469 0.835885227 0.000000000
0.249366313 0.834545135 0.000000000
0.357193321 0.833123803 0.000000000
0.439946502 0.831607640 0.000000000
0.513083875 0.829964697 0.000000000
0.580123246 0.828373969 0.000000000
0.642847598 0.826755106 0.000000000
0.701890230 0.825088918 0.000000000
0.757865012 0.823557377 0.000000000
0.811007023 0.822051525 0.000000000
0.860187292 0.819889188 0.000000000
0.905598104 0.818116248 0.000000000
0.947679758 0.816913545 0.000000000
0.000000000 0.885346115 0.000000000
0.000000000 0.885675550 0.000000000
0.000000000 0.885516226 0.000000000
0.009364022 0.884621441 0.000000000
0.118299164 0.883356571 0.000000000
0.267191410 0.881872892 0.000000000
0.368099183 0.880257547 0.000000000
0.449178278 0.878504694 0.000000000
0.520889521 0.876623750 0.000000000
0.586747289 0.874756634 0.000000000
0.648159862 0.872842968 0.000000000
0.705999255 0.870948017 0.000000000
0.760629475 0.869111776 0.000000000
0.812354028 0.867393553 0.000000000
0.861162007 0.865823269 0.000000000
0.905988395 0.863609850 0.000000000
0.947195709 0.861887395 0.000000000
0.000000000 0.928960204 0.000000000
0.000000000 0.929069817 0.000000000
0.000049316 0.928468883 0.000000000
0.028436996 0.927382231 0.000000000
0.159338862 0.925965071 0.000000000
0.295797586 0.924297690 0.000000000
0.387311399 0.922449112 0.000000000
0.464512616 0.920466602 0.000000000
0.533723354 0.918376803 0.000000000
0.597482502 0.916222692 0.000000000
0.657051325 0.913997293 0.000000000
0.713150322 0.911821842 0.000000000
0.766128063 0.909664154 0.000000000
0.816115618 0.907694280 0.000000000
0.863210261 0.905823827 0.000000000
0.907390952 0.904137909 0.000000000
0.947584212 0.901893377 0.000000000
0.000000000 0.967481017 0.000000000
0.000000000 0.967063606 0.000000000
0.012223125 0.966235638 0.000000000
0.087669149 0.965050459 0.000000000
0.219478011 0.963496625 0.000000000
0.333642453 0.961690426 0.000000000
0.414958507 0.959636688 0.000000000
0.486798912 0.957274020 0.000000000
0.552382946 0.954917610 0.000000000
0.613165855 0.952421367 0.000000000
0.670258999 0.949930727 0.000000000
0.724078417 0.947416961 0.000000000
0.774961054 0.944912255 0.000000000
0.822896063 0.942558646 0.000000000
0.867912829 0.940309763 0.000000000
0.910094798 0.938298762 0.000000000
0.949358284 0.936597586 0.000000000
0.001577000 0.003055500 0.051486500
0.035091750 0.003154000 0.079283878
0.087343633 0.000000000 0.092664376
0.135669261 0.000147938 0.093143500
0.188778758 0.000591750 0.096584871
0.244515121 0.000000000 0.100398935
0.302063257 0.000000000 0.104889251
0.360626400 0.000000000 0.110133313
0.419121385 0.000000000 0.115631253
0.477185130 0.000000000 0.121832184
0.534434855 0.000000000 0.128480628
0.590718806 0.000000000 0.135493129
0.645868599 0.000000000 0.143038750
0.699817419 0.000000000 0.151008949
0.752329230 0.000000000 0.159107640
0.803462267 0.000000000 0.168114454
0.852889955 0.000000000 0.177146003
0.000000000 0.052202940 0.102368250
0.050279941 0.053415123 0.103847250
0.105709374 0.051580563 0.106378004
0.160497949 0.048452251 0.105634183
0.215927005 0.043037936 0.106110066
0.271984130 0.035929248 0.107893065
0.328646779 0.026121184 0.110905066
0.385814071 0.018285250 0.114667945
0.442722470 0.015623810 0.119153120
0.499072820 0.006505875 0.124270692
0.554745495 0.009955499 0.130320504
0.609433413 0.006998688 0.136752263
0.663131237 0.003351127 0.143589124
0.715793610 0.011336125 0.151448324
0.767097592 0.007590244 0.159526959
0.817087173 0.007688824 0.167892814
0.865293980 0.020700499 0.177101493
0.000000000 0.111708753 0.110636875
0.039944191 0.112721756 0.109966755
0.110378377 0.112467624 0.108930618
0.172562778 0.111017190 0.108250380
0.231999889 0.109229371 0.108565375
0.290318578 0.106383443 0.110261433
0.348136872 0.102500498 0.112342626
0.405418396 0.096948624 0.115585499
0.461843014 0.091891125 0.119588003
0.517321050 0.084307559 0.124481507
0.572248757 0.076873131 0.130010754
0.625959456 0.075335011 0.136166438
0.678779781 0.073933497 0.143060744
0.730381668 0.069384500 0.150637820
0.780637860 0.072313882 0.158538640
0.829516351 0.080760881 0.167149276
0.876873195 0.084118120 0.176609874
0.000000000 0.178565398 0.109287441
0.015918994 0.180475757 0.108144134
0.102301814 0.182147264 0.105298504
0.176827326 0.181117386 0.103066444
0.242703184 0.179403827 0.104520321
0.304611206 0.177712187 0.106374629
0.364293754 0.176056415 0.108862564
0.422708362 0.174344957 0.112031817
0.479459763 0.172804758 0.116245501
0.535009742 0.171551004 0.121359996
0.589434624 0.170336440 0.127002314
0.642512798 0.169557080 0.132950515
0.694742739 0.170117140 0.140221059
0.745471418 0.169955075 0.147980809
0.794936419 0.171054378 0.155877888
0.842945814 0.176711902 0.164975524
0.889237463 0.181804761 0.174833432
0.000000000 0.250538021 0.103837870
0.000000000 0.252267390 0.101528943
0.071084253 0.254431993 0.097033627
0.169713274 0.254331678 0.093853004
0.244631737 0.253312021 0.089439377
0.312878013 0.251568198 0.091966316
0.376337379 0.249963880 0.096058875
0.436590195 0.248823628 0.101119123
0.494505376 0.247930616 0.106287874
0.550626397 0.247409254 0.111572124
0.605129838 0.247326642 0.117759615
0.658301532 0.247796193 0.125569254
0.710011601 0.248768255 0.133443132
0.760323524 0.250548452 0.141356200
0.809146166 0.253241897 0.150362641
0.856321812 0.257032931 0.160430580
