public/lut/54.cube
TITLE "17x17x17 Adobe/IRIDAS cube 3D LUT exported with GrossGrade v0.2.2 (beta) 64 bit"
DOMAIN_MIN 0 0 0
DOMAIN_MAX 1 1 1
LUT_3D_SIZE 5
0.000000000 0.000000000 0.000000000
0.187108755 0.017151749 0.026220500
0.390393019 0.013799999 0.068654001
0.593901515 0.028388999 0.113264002
0.769568980 0.097126000 0.164864004
0.005914249 0.213243008 0.039428502
0.235907510 0.231589749 0.022671752
0.450805306 0.243819505 0.064512759
0.638782024 0.264567763 0.113523751
0.800409734 0.301238745 0.169261754
0.000000000 0.438243032 0.083551504
0.260009766 0.453913510 0.057103507
0.477275491 0.467435002 0.035091504
0.661824763 0.479532748 0.115680002
0.820413470 0.497949004 0.181890994
0.153305516 0.636594772 0.169935763
0.327458739 0.646561265 0.158185750
0.507017493 0.660682023 0.129625499
0.680172026 0.668691278 0.126270756
0.832379460 0.677666783 0.208301753
0.327693999 0.807654023 0.281857997
0.428012490 0.814347982 0.275812000
0.562989473 0.825150967 0.261646986
0.707810998 0.834273756 0.247808248
0.846970022 0.839475989 0.246534005
0.001774250 0.018531751 0.170936748
0.192687258 0.012617000 0.253209263
0.409461260 0.003942502 0.274962723
0.605788291 0.013603002 0.300272495
0.775955737 0.090570249 0.333163738
0.000000000 0.227689251 0.289765477
0.245401025 0.233985752 0.301020503
0.466548264 0.240055755 0.306253999
0.649236500 0.260645270 0.322706521
0.806594491 0.298400253 0.349191248
0.000000000 0.456342518 0.319113255
0.279246271 0.457397252 0.327093273
0.485612035 0.470685244 0.327367485
0.671549797 0.481177747 0.342066735
0.828504741 0.497201264 0.367180258
0.131338015 0.651371002 0.363422513
0.344417006 0.647806048 0.374785006
0.513113022 0.659676790 0.372839987
0.682293236 0.670801222 0.368296504
0.834844768 0.679896712 0.394024998
0.328164488 0.815577984 0.431406766
0.439783275 0.814427495 0.438682497
0.569173217 0.822873533 0.436673999
0.707906485 0.834419012 0.427227497
0.845732510 0.840851784 0.424871504
0.000000000 0.050002500 0.350889027
0.164164752 0.047591254 0.429103017
0.411984026 0.001971499 0.490946501
0.617963314 0.003942755 0.511063814
0.782979012 0.080058999 0.525423527
0.000000000 0.233254492 0.491168499
0.236907750 0.237934738 0.513643980
0.464637995 0.241087765 0.532257438
0.653308749 0.257898510 0.537617981
0.809030294 0.297717512 0.545373797
0.000000000 0.463138521 0.539894998
0.279473513 0.468132257 0.545673966
0.489625007 0.472388029 0.555521488
0.676670074 0.478973508 0.557881474
0.831053495 0.495321512 0.564975023
0.101912513 0.662721276 0.564523458
0.332836747 0.663927734 0.567228258
0.522030473 0.664707780 0.573617220
0.683975220 0.673995495 0.575895488
0.838392735 0.681528509 0.582818508
0.312398016 0.829286993 0.599052012
0.434417993 0.827722013 0.603212237
0.578405499 0.825634956 0.611896038
0.709763229 0.833745241 0.613497496
0.843049049 0.842948020 0.609490514
0.000000000 0.079939000 0.496387750
0.160701513 0.079219006 0.559177995
0.402550012 0.050671503 0.622633517
0.618452966 0.023263250 0.668657005
0.789791942 0.077277750 0.682693005
0.006900003 0.244858250 0.623190999
0.245047495 0.249597758 0.649111986
0.457685262 0.258208215 0.674422026
0.650488496 0.265461504 0.696747720
0.811482728 0.297653019 0.702154994
0.081254259 0.465708256 0.687460482
0.299608499 0.469669759 0.698200762
0.492208719 0.474103004 0.711139202
0.673716784 0.480156511 0.719960272
0.829836249 0.494870007 0.721364021
0.168422759 0.665554464 0.718315482
0.348158002 0.668099225 0.721312046
0.522903979 0.671944022 0.726052999
0.685629785 0.675096750 0.733190536
0.839112282 0.680095553 0.734943509
0.307027757 0.836765766 0.738845766
0.426883727 0.837096512 0.740541458
0.572834492 0.837503254 0.743728995
0.718118548 0.836510777 0.751372516
0.841365993 0.844911754 0.754112244
0.000000000 0.101866998 0.587756991
0.177148759 0.103403002 0.641512513
0.405165017 0.094052501 0.701245546
0.609719276 0.073392242 0.749234736
0.795696020 0.077155001 0.782756984
0.043560252 0.255904496 0.703289986
0.262376487 0.262042761 0.728035450
0.459492534 0.273453742 0.754951000
0.643378973 0.284920484 0.780398250
0.814717472 0.298335761 0.800139725
0.154749006 0.468442500 0.772289038
0.322136492 0.472109735 0.783800721
0.499295026 0.477877498 0.797143042
0.671074986 0.485964507 0.807929218
0.830813527 0.495154500 0.817340016
0.235717252 0.666252732 0.805337489
0.374742508 0.668941021 0.809429765
0.531986296 0.672541976 0.816472948
0.687740266 0.675221503 0.824908733
0.838443756 0.679438770 0.828917265
0.320497006 0.839205027 0.826014996
0.433452755 0.840033233 0.827498496
0.573943973 0.841349006 0.829870999
0.716645241 0.842628479 0.832217455
0.842410028 0.846502006 0.836731970
