public/lut/54.cube
TITLE "17x17x17 Adobe/IRIDAS cube 3D LUT exported with GrossGrade v0.2.2 (beta) 64 bit"
DOMAIN_MIN 0 0 0
DOMAIN_MAX 1 1 1
LUT_3D_SIZE 17
0.000000000 0.000000000 0.000000000
0.056019064 0.003893687 0.003893687
0.098861501 0.008575500 0.010053875
0.141796380 0.013110314 0.017693376
0.187108755 0.017151749 0.026220500
0.235035628 0.018926000 0.036866061
0.285736531 0.018432874 0.047232378
0.337838471 0.018136999 0.057583131
0.390393019 0.013799999 0.068654001
0.443121612 0.016116187 0.079392247
0.494735241 0.013110125 0.090291128
0.545283675 0.019911624 0.101931877
0.593901515 0.028388999 0.113264002
0.640633345 0.033071142 0.125556201
0.685716093 0.054428149 0.138122022
0.728846610 0.075473770 0.151472837
0.769568980 0.097126000 0.164864004
0.006998437 0.059101000 0.008526187
0.068098620 0.065336064 0.006998437
0.115202695 0.067558497 0.013159563
0.161098763 0.070285127 0.020799065
0.208315074 0.072765931 0.029325251
0.257343560 0.073958874 0.038640313
0.308154702 0.074901059 0.048627626
0.359316796 0.074865058 0.059140567
0.410509646 0.073886685 0.069429629
0.461482018 0.074686065 0.080142811
0.511400878 0.077465065 0.090748250
0.559948862 0.081647933 0.102050312
0.607040226 0.091076627 0.113699757
0.652340233 0.102460831 0.126190215
0.696047366 0.116883963 0.138968587
0.738108456 0.135459393 0.152244329
0.777955413 0.153445259 0.165810063
0.012518500 0.107453756 0.018531626
0.072210625 0.113366693 0.016215000
0.120711997 0.117023751 0.014785876
0.170018628 0.119099684 0.022474689
0.220731631 0.121658497 0.030261250
0.271904737 0.123486251 0.039477937
0.323590517 0.125043884 0.048803631
0.375007033 0.126470312 0.058805317
0.426232398 0.128538117 0.069192499
0.476458937 0.131315500 0.079452872
0.525345147 0.135695875 0.090345502
0.572712958 0.141286254 0.101931877
0.618665934 0.149211630 0.113699757
0.662857771 0.159659952 0.126505896
0.705431342 0.172010764 0.139308006
0.746415555 0.185342327 0.152996019
0.785574734 0.200513631 0.166304007
0.011976749 0.158639640 0.029374627
0.075376876 0.163502514 0.027896065
0.123888694 0.168829948 0.021833627
0.176205307 0.172198758 0.020207312
0.229558513 0.174854383 0.030310499
0.282957256 0.177617565 0.038295127
0.336143881 0.180126444 0.047501627
0.388670087 0.182615012 0.057700131
0.439919949 0.185428575 0.067401879
0.489838541 0.188965395 0.078333125
0.538056195 0.193629459 0.089700252
0.584645450 0.199455142 0.101349190
0.629427195 0.206881255 0.113785505
0.672748804 0.215930909 0.126761138
0.714585423 0.226331279 0.139915138
0.754907668 0.237890393 0.153790832
0.793306530 0.250259370 0.167641938
0.005914249 0.213243008 0.039428502
0.074147306 0.217137367 0.038886815
0.125445753 0.223017633 0.031937625
0.179798514 0.228299320 0.024298124
0.235907510 0.231589749 0.022671752
0.291296631 0.234263808 0.033761125
0.345646381 0.237313509 0.043997128
0.399155974 0.240557507 0.054768629
0.450805306 0.243819505 0.064512759
0.500562668 0.247599497 0.076094627
0.548529744 0.252201378 0.088226125
0.594549179 0.257744700 0.100495443
0.638782024 0.264567763 0.113523751
0.681544244 0.272263110 0.126878321
0.722871542 0.281146467 0.140803143
0.762565792 0.290836513 0.155000702
0.800409734 0.301238745 0.169261754
0.000000000 0.270321429 0.049021188
0.069376253 0.273140252 0.050168127
0.126878127 0.278618038 0.043347813
0.182841197 0.284664124 0.032824248
0.240355939 0.289491624 0.023016687
0.297624201 0.292587787 0.021242375
0.353201091 0.295349449 0.035830632
0.407099485 0.298577368 0.048507441
0.459035516 0.302010328 0.060121689
0.508915305 0.305810332 0.073255874
0.556591511 0.310248196 0.086033814
0.602316022 0.315262794 0.099559993
0.646258652 0.321090877 0.113435753
0.688741565 0.327770948 0.127407700
0.729727387 0.335249990 0.142003641
0.769158900 0.343325436 0.156773329
0.806605935 0.352048248 0.171256810
0.000000000 0.327606142 0.058581505
0.062347312 0.330101967 0.059559878
0.129149258 0.334507495 0.054042127
0.186810687 0.340785265 0.041937191
0.244830370 0.346140027 0.029571753
0.302796066 0.350357205 0.020946814
0.359481156 0.353152394 0.022869000
0.413655281 0.355695963 0.037605569
0.465640515 0.358963639 0.054037251
0.515330017 0.362578809 0.069558688
0.562692881 0.366620392 0.083384499
0.608422875 0.371149600 0.098763376
0.652241230 0.376141161 0.113521501
0.694615364 0.381679714 0.128438070
0.735491157 0.387951523 0.143817768
0.774787784 0.394705206 0.159026951
0.812008500 0.401861638 0.173969880
0.000000001 0.383956164 0.069893636
0.061822258 0.386031181 0.071243010
0.134033069 0.389822453 0.067223817
0.193123579 0.395786852 0.055397503
0.250992566 0.401225954 0.041511379
0.308379561 0.405855536 0.028339505
0.365020394 0.409368783 0.018432878
0.419746667 0.411645263 0.022967068
0.471588254 0.414104998 0.045660127
0.520815492 0.417203456 0.063829750
0.568067968 0.420789927 0.081074879
0.613512218 0.424644262 0.098364748
0.657253325 0.428906351 0.114150189
0.699555039 0.433688879 0.130325839
0.740306258 0.438797235 0.146276891
0.779486656 0.444528997 0.161878273
0.816527486 0.450605661 0.177657753
0.000000000 0.438243032 0.083551504
0.073805317 0.440072447 0.084923007
0.145210877 0.442947745 0.082396753
0.203131318 0.448522449 0.070936754
0.260009766 0.453913510 0.057103507
0.316281557 0.458546013 0.043792196
0.371705651 0.462475896 0.034007251
0.425593406 0.465382695 0.027550692
0.477275491 0.467435002 0.035091504
0.526262105 0.469617456 0.056761246
0.573148489 0.472506285 0.078520872
0.618228078 0.475816846 0.098086312
0.661824763 0.479532748 0.115680002
0.703968406 0.483575463 0.133087814
0.744467795 0.487940788 0.149695382
0.783462048 0.492754936 0.165850580
0.820413470 0.497949004 0.181890994
0.006358000 0.490248740 0.101329692
0.097101875 0.491712749 0.102490373
0.161944181 0.494503260 0.099795371
0.217601076 0.499429315 0.090678684
0.272321373 0.504419148 0.079430811
0.326690555 0.509002507 0.066865377
0.380066663 0.512888491 0.054910496
0.432419240 0.516119480 0.044676244
0.482980609 0.518595040 0.038048815
0.531727254 0.520452380 0.046596061
0.578279614 0.522517562 0.075276807
0.622997642 0.525180042 0.097928748
0.666219354 0.528256178 0.117786191
0.707979500 0.531696022 0.136638820
0.748312056 0.535498023 0.153863877
0.786935925 0.539595008 0.170642138
0.823660314 0.544034362 0.187024191
0.043780126 0.540519834 0.121500626
0.129300252 0.541359901 0.123294249
0.185403749 0.543964028 0.120968126
0.236765444 0.548422098 0.113192566
0.288142860 0.553037763 0.103415877
0.339574695 0.557433069 0.092516251
0.390384138 0.561315775 0.081720747
0.440529317 0.564729512 0.071621865
0.489558905 0.567534328 0.062879749
0.537236392 0.569722414 0.057628937
0.583452344 0.571419835 0.070406504
0.627855837 0.573295474 0.097367749
0.670621395 0.575873494 0.120469376
0.711956024 0.578766286 0.140878394
0.751926064 0.581966281 0.159081012
0.790242791 0.585461855 0.176449776
0.826623380 0.589359522 0.193336368
0.097833686 0.589199543 0.144539118
0.166305810 0.589784563 0.146186948
0.212819427 0.592216611 0.144040883
0.259253860 0.596144140 0.137929559
0.306630254 0.600350440 0.130302995
0.354564309 0.604469597 0.121916443
0.402577877 0.608351946 0.113054305
0.450380534 0.611816049 0.104191370
0.497453332 0.614828169 0.095960371
0.543743372 0.617264271 0.089439437
0.588947117 0.619182348 0.085989565
0.632928610 0.620754957 0.096517310
0.675159872 0.622476578 0.123505689
0.716097116 0.624838233 0.145630389
0.755601645 0.627528071 0.164986700
0.793467641 0.630567789 0.183316633
0.829501688 0.633784115 0.200337693
0.153305516 0.636594772 0.169935763
0.203638390 0.637215376 0.171274751
0.242680132 0.639438987 0.169003129
0.284108430 0.642794311 0.164157137
0.327458739 0.646561265 0.158185750
0.371896237 0.650422871 0.151325703
0.416886628 0.654162407 0.143894136
0.462077200 0.657603741 0.136616066
0.507017493 0.660682023 0.129625499
0.551485002 0.663343191 0.123393007
0.595340312 0.665515006 0.119035386
0.638319492 0.667299271 0.116757005
0.680172026 0.668691278 0.126270756
0.720536351 0.670317590 0.150823459
0.759466588 0.672464788 0.171632379
0.796820998 0.674914598 0.190692455
0.832379460 0.677666783 0.208301753
0.202937856 0.682419896 0.197721034
0.241065770 0.683268428 0.198291346
0.274297446 0.685401022 0.195990592
0.311125785 0.688313365 0.192308158
0.350480139 0.691648662 0.187581584
0.391482681 0.695246875 0.182041347
0.433439672 0.698756456 0.176175341
0.475886434 0.702142894 0.170181900
0.518460572 0.705191612 0.164246902
0.560900688 0.707906961 0.158967152
0.603024006 0.710285783 0.154324278
0.644708693 0.712242723 0.151078105
0.685523391 0.713864744 0.149569660
0.725345075 0.715181112 0.156318337
0.763659537 0.716620445 0.178888217
0.800495386 0.718569517 0.199252784
0.835429370 0.720789850 0.217209265
0.247567177 0.726915479 0.226098403
0.278331041 0.728003800 0.225917965
0.306891143 0.729790092 0.224232018
0.339866400 0.732337236 0.221385971
0.375459641 0.735340297 0.217519030
0.413151026 0.738564670 0.213244781
0.451986313 0.741815329 0.208169281
0.491760701 0.745047927 0.203014910
0.531878352 0.748070538 0.197810784
0.572129369 0.750823259 0.192924529
0.612338901 0.753299952 0.188682660
0.652382135 0.755387545 0.185203657
0.691851199 0.757172465 0.182764024
0.730679631 0.758638859 0.181990772
0.768426359 0.759846449 0.186611041
0.804594934 0.761164904 0.208002403
0.838858724 0.762820184 0.226857632
0.289163291 0.768998206 0.254595786
0.314724773 0.770262122 0.254007638
0.339938641 0.771840274 0.252711982
0.369430572 0.774027348 0.250518024
0.401749134 0.776639342 0.247493342
0.436263949 0.779537797 0.243768275
0.472265184 0.782522380 0.239718154
0.509310186 0.785526574 0.235261723
0.546939492 0.788458109 0.230791539
0.584995806 0.791168392 0.226391912
0.623238266 0.793613493 0.222428396
0.661378384 0.795799792 0.218981534
0.699318886 0.797716141 0.216260850
0.736856580 0.799272835 0.214716643
0.773557544 0.800571620 0.214580894
0.809090793 0.801634669 0.217068776
0.842715323 0.802796423 0.236847207
0.327693999 0.807654023 0.281857997
0.349769443 0.808702230 0.281201363
0.371980608 0.810120881 0.280043125
0.398511678 0.812048078 0.278214872
0.428012490 0.814347982 0.275812000
0.459768891 0.816907048 0.272687256
0.493095279 0.819624364 0.269275129
0.527669013 0.822442055 0.265447885
0.562989473 0.825150967 0.261646986
0.598903954 0.827769279 0.257678986
0.635078251 0.830205381 0.253957272
0.671469152 0.832381546 0.250695705
0.707810998 0.834273756 0.247808248
0.743817091 0.835986137 0.245981440
0.779364049 0.837381124 0.244978994
0.813889861 0.838511884 0.245290995
0.846970022 0.839475989 0.246534005
0.003104750 0.003104750 0.046987001
0.054936439 0.004681750 0.074359186
0.102130130 0.007047750 0.079223625
0.146016017 0.010941377 0.082916126
0.192467242 0.014194000 0.089275315
0.240222558 0.015820311 0.095476627
0.291240662 0.014539125 0.103000253
0.342817396 0.015032249 0.110617504
0.395222783 0.010694812 0.118948005
0.447455972 0.014194000 0.127834380
0.498741806 0.010793437 0.137389928
0.548447430 0.018876376 0.147159874
0.596740663 0.025283312 0.157638952
0.643201411 0.030902332 0.168859705
0.687736452 0.053177334 0.180086583
0.730458796 0.073991455 0.191972092
0.771165311 0.095933437 0.204055130
0.005470688 0.064288877 0.086834311
0.069140062 0.065896377 0.089877747
0.119405881 0.067010432 0.091110379
0.166140392 0.069045439 0.093180187
0.213603050 0.070224121 0.097138688
0.262687534 0.071769625 0.102487564
0.312806994 0.071575373 0.108619876
0.363671660 0.071862124 0.115417197
0.414829642 0.070814192 0.123279750
0.465365112 0.071677752 0.131708443
0.514751732 0.075015627 0.140493751
0.563099742 0.079157248 0.150024116
0.609632432 0.089382373 0.160266250
0.654671669 0.100866266 0.170958400
0.698078394 0.115816452 0.182225198
0.739518642 0.134331331 0.193982765
0.779317021 0.152419686 0.205911994
0.004928187 0.113463372 0.092785500
0.075238004 0.115749501 0.095170744
0.123861946 0.118064247 0.095607378
0.175979704 0.119652621 0.097613372
0.227234125 0.120404005 0.101103678
0.278711885 0.121699005 0.106147252
0.329608411 0.122856446 0.111853503
0.380538970 0.124361433 0.118517876
0.431078434 0.126232296 0.125919431
0.480760276 0.129210189 0.133903995
0.529055476 0.133679315 0.142677143
0.575923324 0.139617324 0.152068689
0.621432900 0.147615254 0.162192389
0.665046573 0.158469826 0.172932386
0.707450747 0.170869216 0.184083581
0.748302519 0.184447259 0.195907816
0.786919832 0.199717551 0.207739994
0.005076122 0.165165201 0.100271434
0.079237245 0.165869385 0.102603436
0.128444612 0.169065699 0.103975378
0.180686638 0.173697069 0.102211371
0.235165894 0.175711766 0.105116688
0.289688945 0.177570149 0.109066002
0.342639506 0.179286018 0.114266939
0.394746691 0.181379512 0.120517939
0.445634961 0.183946073 0.127781749
0.494998395 0.187316328 0.135790944
0.542570472 0.191894338 0.144411430
0.588501692 0.198039025 0.153938502
0.632847786 0.205579698 0.163869306
0.675832748 0.214533150 0.174739644
0.717275560 0.225122347 0.185974583
0.757119536 0.236699700 0.197650775
0.795248926 0.249343067 0.209585577
0.001823500 0.219356999 0.107723378
0.077589944 0.220416009 0.110911563
0.132587373 0.222633436 0.112923503
0.184301198 0.228704631 0.109244190
0.240446255 0.232730135 0.107756883
0.296489924 0.235367060 0.112243369
0.351391703 0.237903938 0.116905503
0.404756337 0.240446061 0.122903816
0.456228465 0.243285269 0.129792571
0.505750775 0.246843457 0.137702495
0.553219318 0.251273274 0.146330371
0.598665237 0.256691635 0.155753881
0.642468393 0.263334364 0.165914252
0.684896588 0.271213293 0.176808521
0.725758910 0.279955745 0.188198403
0.765154958 0.289914459 0.199979886
0.802746058 0.300421268 0.212079123
0.000000000 0.275908172 0.116544254
0.071377188 0.277347744 0.118949309
0.135625944 0.278697133 0.122106314
0.188836768 0.284372360 0.118943684
0.244831622 0.290228486 0.113641627
0.301964074 0.293544292 0.112918243
0.357684970 0.296275169 0.119237244
0.411725581 0.299335241 0.125108555
0.463789523 0.302322149 0.131771877
0.513484240 0.305860162 0.139571935
0.560907781 0.310021818 0.148307621
0.606254101 0.314853370 0.157958001
0.649934471 0.320585430 0.168303996
0.692125559 0.327124178 0.179265335
0.732700884 0.334520012 0.190806895
0.771874785 0.342575252 0.202893257
0.809090018 0.351347357 0.215073258
0.000000000 0.332748204 0.125770122
0.062883563 0.334528804 0.127594993
0.138039365 0.334982961 0.131520554
0.194272563 0.339912832 0.129223436
0.249666065 0.346156716 0.123377822
0.306631327 0.351023853 0.117612317
0.363113254 0.354021311 0.118113883
0.417489171 0.356693506 0.126351252
0.469497561 0.359826297 0.133702368
0.519157350 0.363257945 0.141941369
0.566515505 0.367037117 0.150786251
0.611924887 0.371296138 0.160531431
0.655579448 0.376104772 0.171019688
0.697753549 0.381597668 0.182348579
0.738350511 0.387577802 0.194174901
0.777340651 0.394268274 0.206271902
0.814488351 0.401520252 0.218753129
0.000443813 0.388755411 0.136368006
0.062092505 0.390372932 0.137946188
0.143092185 0.390459269 0.142093062
0.201494202 0.394584656 0.140752926
0.256545961 0.400547236 0.134958446
0.312311113 0.405888289 0.128355935
0.368315160 0.409963340 0.122795254
0.422793806 0.412517160 0.124790072
0.474482626 0.414978296 0.134879246
0.523811340 0.418076485 0.144028753
0.571071267 0.421493471 0.153662175
0.616451740 0.425185412 0.163870320
0.660163403 0.429225594 0.174587384
0.702293456 0.433832079 0.186081260
0.742932916 0.438893765 0.198038459
0.781791866 0.444381237 0.210331887
0.818728089 0.450392902 0.222943380
0.000000000 0.442852914 0.148752198
0.073291883 0.444182426 0.149915740
0.153381139 0.444095671 0.154402807
0.212026820 0.447439730 0.153658867
0.266113937 0.452762753 0.148424432
0.320389867 0.458187312 0.141732931
0.374698162 0.462616771 0.134871125
0.428210407 0.465950578 0.130220056
0.479720026 0.468141407 0.133584812
0.528478444 0.470352024 0.145807743
0.575430453 0.473297119 0.156925499
0.620668948 0.476560891 0.167566374
0.664213777 0.480148941 0.178770453
0.706232190 0.483991086 0.190615386
0.746674180 0.488251209 0.202680334
0.785517693 0.492950797 0.215269268
0.822311401 0.497949004 0.227988631
0.004830250 0.494545251 0.162891492
0.096834123 0.495394111 0.164749935
0.169867948 0.495140612 0.168827936
0.226683885 0.498024136 0.168285191
0.278909653 0.502913713 0.163431510
0.330933988 0.507914543 0.157080442
0.382997960 0.512573540 0.150319576
0.434632510 0.516342700 0.144496068
0.484955907 0.519095063 0.140710875
0.533539414 0.521012604 0.145847872
0.579873681 0.523097754 0.159310251
0.624744654 0.525887549 0.171568006
0.667901635 0.528917074 0.183442578
0.709761679 0.532244742 0.195788339
0.750045717 0.535957992 0.208123252
0.788650930 0.539987624 0.220918775
0.825341344 0.544352949 0.233705387
0.040076498 0.544666111 0.179113433
0.130704626 0.544655621 0.182046562
0.192819059 0.544441879 0.185707107
0.245188758 0.547040939 0.185098082
0.294557095 0.551406682 0.180752188
0.343909353 0.556171000 0.174967110
0.393281311 0.560677111 0.168672323
0.442552656 0.564595282 0.162810251
0.491157442 0.567798197 0.157859877
0.538716495 0.570182681 0.154991060
0.584797204 0.571959436 0.160935625
0.629041195 0.573928833 0.175262496
0.671838045 0.576427817 0.188500807
0.713231385 0.579309940 0.201351285
0.753247261 0.582512915 0.214244395
0.791617930 0.586013913 0.227346838
0.827933073 0.589746296 0.240288943
0.094113246 0.593139887 0.197431117
0.168030441 0.592460036 0.201100811
0.219823003 0.592410266 0.204441071
0.266756475 0.594871104 0.203531757
0.312642068 0.598764181 0.199893072
0.358910352 0.603121340 0.194820449
0.405492336 0.607393563 0.189109012
0.452348888 0.611311913 0.183418319
0.498840123 0.614688516 0.178237498
0.544898391 0.617509186 0.174080938
0.589999676 0.619700372 0.171931237
0.633892655 0.621262312 0.177764937
0.676103175 0.623056352 0.193367064
0.716954291 0.625424266 0.207410648
0.756493330 0.628061712 0.221043319
0.794445932 0.631098270 0.234378397
0.830451727 0.634286702 0.247473568
0.150808513 0.639930367 0.218855947
0.206370190 0.638951242 0.223059177
0.248882949 0.639358461 0.225144506
0.290848881 0.641725361 0.224036872
0.332971185 0.645139217 0.220913693
0.376072645 0.649060190 0.216711253
0.419772148 0.653072894 0.211579248
0.464012474 0.656868279 0.206362933
0.508324444 0.660358310 0.201241314
0.552448273 0.663307846 0.196697399
0.596112072 0.665806293 0.193537757
0.639010429 0.667689502 0.191981822
0.680795312 0.669105649 0.197629869
0.721070349 0.670804560 0.213506892
0.759974241 0.672929823 0.228113219
0.797445118 0.675436914 0.242060333
0.832930505 0.678166509 0.255546063
0.202099100 0.685139775 0.242960021
0.244658768 0.684445024 0.246435583
0.279751301 0.685219467 0.247479975
0.316882908 0.687392831 0.246407643
0.355413944 0.690474987 0.243824154
0.395306528 0.693942785 0.240222767
0.436239392 0.697676539 0.235940069
0.477825791 0.701290667 0.231140345
0.519718885 0.704668283 0.226364031
0.561794460 0.707761824 0.221972331
0.603666604 0.710364342 0.218373090
0.645179272 0.712528586 0.215733469
0.685999691 0.714221597 0.214716598
0.725782514 0.715629637 0.219227821
0.763989449 0.717062294 0.235383958
0.800760627 0.719001710 0.250322580
0.835752368 0.721313119 0.264060259
0.248555422 0.728746712 0.268754840
0.281919986 0.728715897 0.270779699
0.311674803 0.729640245 0.271161854
0.344540060 0.731614292 0.270126402
0.379783392 0.734309316 0.267955631
0.416560590 0.737489223 0.264845967
0.454629421 0.740813613 0.261106610
0.493592024 0.744247139 0.256924659
0.533104718 0.747473121 0.252588332
0.572907329 0.750509977 0.248529598
0.612832069 0.753216565 0.244822517
0.652631164 0.755516052 0.241765410
0.692062855 0.757409811 0.239794716
0.730871856 0.758974075 0.239073902
0.768568695 0.760164142 0.242517203
0.804690838 0.761510074 0.258586377
0.838995993 0.763268113 0.273284733
0.291085899 0.770248115 0.294266284
0.318259627 0.770631313 0.295381844
0.343760550 0.771632433 0.295374215
0.373287648 0.773430228 0.294415027
0.405335665 0.775744617 0.292596638
0.439282358 0.778587461 0.289987177
0.474626541 0.781645954 0.286806941
0.511021674 0.784795344 0.283181101
0.548097372 0.787838399 0.279315352
0.585768223 0.790766120 0.275522023
0.623661160 0.793440342 0.271987140
0.661672711 0.795781374 0.268889010
0.699425995 0.797820449 0.266440451
0.736856639 0.799525499 0.264948040
0.773550510 0.800863743 0.264715850
0.809086382 0.801988959 0.266821325
0.842588723 0.803152800 0.282335043
0.329883307 0.808347225 0.318761855
0.352893114 0.808880210 0.319312900
0.375422567 0.809881747 0.319197685
0.401904792 0.811496258 0.318208694
0.431161314 0.813580334 0.316645384
0.462456137 0.816097856 0.314410001
0.495278209 0.818846107 0.311648190
0.529302120 0.821761847 0.308469623
0.564161658 0.824587047 0.305108368
0.599608481 0.827321768 0.301694572
0.635564268 0.829909146 0.298358381
0.671677947 0.832246780 0.295252919
0.707790256 0.834322572 0.292680234
0.743763208 0.836107254 0.290825248
0.779251456 0.837613940 0.289735556
0.813746870 0.838811636 0.289887875
0.846807182 0.839714170 0.291152686
0.004731000 0.006998500 0.088166751
0.049113438 0.010053875 0.115498506
0.100441501 0.008575501 0.131185129
0.149333581 0.008624752 0.137336507
0.196231246 0.011138625 0.140623748
0.244953811 0.012715626 0.145141885
0.296115875 0.010645501 0.151088998
0.347672194 0.012173748 0.157485247
0.399915785 0.008378501 0.164978623
0.451674759 0.011237125 0.172894120
0.502247095 0.008280001 0.181318998
0.551777005 0.017644249 0.190390572
0.599562407 0.022178626 0.199900627
0.645566404 0.029374581 0.209847137
0.689712405 0.052405149 0.220355749
0.732224345 0.072388887 0.231101394
0.772436619 0.094676003 0.241945758
0.003943000 0.064288877 0.137079686
0.064884193 0.065977186 0.144254178
0.116435066 0.066970497 0.149165303
0.166698381 0.067084245 0.150533572
0.216008887 0.068651065 0.152085945
0.266024381 0.069327317 0.155091941
0.316837847 0.069289252 0.159741938
0.367823541 0.068784505 0.165191382
0.418479949 0.067191124 0.171487927
0.468814075 0.068745188 0.178781316
0.518122911 0.071791187 0.186500877
0.565869331 0.076438375 0.194888011
0.612029493 0.087243572 0.203990638
0.656668007 0.098921202 0.213477373
0.699629784 0.114715829 0.223578960
0.741177559 0.133699074 0.234016627
0.780631661 0.151666880 0.244851008
0.003154000 0.115060627 0.150462627
0.071231373 0.117094129 0.153783605
0.123237871 0.118041001 0.156558126
0.177844882 0.118403621 0.157943264
0.230004996 0.119342498 0.159204245
0.281797618 0.120319940 0.161857754
0.333243787 0.121289499 0.165641740
0.384183288 0.122814126 0.170702636
0.434528261 0.124684498 0.176460370
0.483783931 0.127385184 0.183208257
0.531769037 0.132005498 0.190348625
0.578472733 0.138178378 0.198718190
0.623462558 0.146341130 0.207402378
0.666938007 0.157431841 0.216690451
0.709099948 0.170157626 0.226410896
0.749504447 0.183685392 0.236818567
0.788205624 0.199337125 0.247388378
0.000197125 0.168170393 0.157783315
0.072471872 0.170624018 0.159440443
0.129067004 0.172320887 0.160949931
0.183707640 0.174214453 0.162326768
0.239741802 0.175288320 0.163795248
0.294435441 0.176730826 0.166500807
0.347332627 0.178016126 0.170220062
0.399244606 0.179836273 0.175001442
0.449666381 0.182344258 0.180567384
0.498493314 0.185984015 0.186937124
0.545659065 0.190624937 0.194130436
0.591143191 0.196774080 0.201943189
0.635198474 0.204460576 0.210560754
0.677721798 0.213635892 0.219646335
0.719036996 0.224327639 0.229320884
0.758759499 0.236039326 0.239507705
0.796727896 0.248750269 0.249938518
0.000197250 0.223779753 0.164674491
0.069609568 0.225583628 0.165877819
0.134008259 0.226564750 0.168370515
0.188355953 0.229323626 0.170326754
0.244106889 0.233820751 0.169009000
0.301212132 0.235997498 0.171115384
0.356477022 0.237751737 0.174244493
0.409982383 0.239788115 0.178679377
0.461203039 0.242317885 0.183937997
0.510077715 0.245632440 0.190144867
0.557035208 0.250056624 0.197260618
0.602175057 0.255543619 0.205087185
0.645592034 0.262200743 0.213373125
0.687590599 0.270051777 0.222548008
0.728174090 0.279092133 0.232250646
0.767248154 0.288839310 0.242396757
