public/lut/55.cube
TITLE "17x17x17 Adobe/IRIDAS cube 3D LUT exported with GrossGrade v0.2.2 (beta) 64 bit"
DOMAIN_MIN 0 0 0
DOMAIN_MAX 1 1 1
LUT_3D_SIZE 17
0.000000000 0.000000000 0.000000000
0.063227624 0.004632438 0.004681750
0.114809871 0.008575500 0.010842876
0.169737890 0.009463001 0.019418316
0.229661018 0.008871250 0.029374501
0.290378988 0.008920562 0.040012125
0.351580143 0.006013128 0.051752131
0.410439342 0.011385186 0.064150192
0.465993524 0.009857003 0.077385500
0.518404782 0.026515812 0.090847626
0.567895472 0.038443375 0.105561376
0.614947796 0.053865999 0.120652631
0.659657001 0.082720257 0.136112258
0.702241182 0.108001769 0.151992828
0.743092716 0.133850664 0.168020517
0.782056689 0.158349022 0.184206963
0.819280028 0.181130007 0.200314999
0.004681750 0.079499565 0.006998437
0.081838571 0.084087633 0.005470688
0.140752435 0.085426375 0.011631750
0.199616760 0.086419933 0.019270563
0.259853870 0.087689936 0.028635001
0.319785923 0.088538870 0.039477937
0.377847850 0.090976998 0.050715882
0.433256835 0.095451750 0.063615628
0.485911757 0.102432877 0.077385500
0.535663664 0.113995127 0.091275185
0.582888365 0.127250746 0.106444500
0.627908707 0.141975313 0.121739246
0.671286225 0.159141019 0.137553185
0.712620616 0.176681131 0.153654382
0.752380729 0.193802461 0.169870198
0.790521502 0.211462647 0.186508954
0.826892555 0.229173437 0.202610746
0.000789000 0.144816622 0.011730375
0.080994874 0.149800554 0.007935250
0.147708014 0.153360754 0.004041500
0.213040143 0.154898748 0.013258127
0.276320368 0.157082006 0.021685751
0.337064475 0.159703195 0.033218812
0.394725025 0.163101003 0.045084380
0.448906720 0.168235868 0.060224134
0.499878049 0.174755380 0.074522875
0.548429787 0.183596760 0.089849435
0.594647646 0.193946630 0.106208876
0.638858318 0.205077380 0.122292683
0.681081116 0.217279747 0.138798267
0.721684575 0.230330005 0.155571699
0.760699391 0.243932515 0.171901017
0.797971606 0.258006305 0.188569829
0.833970845 0.272319853 0.204878375
0.000000000 0.216003761 0.013405999
0.073487684 0.220067143 0.010349624
0.149247885 0.224908397 0.004288000
0.219995886 0.228015453 0.001724938
0.286861271 0.229672760 0.010744186
0.349025041 0.232081145 0.019714247
0.406979203 0.235283628 0.035091251
0.460803270 0.239615634 0.052580755
0.511652768 0.245070323 0.068778500
0.559653938 0.251623064 0.087635748
0.605217934 0.259043276 0.105019815
0.648943067 0.267531663 0.122326754
0.690625489 0.276721627 0.140175506
0.730658710 0.286789417 0.157147646
0.769078910 0.297405005 0.174177006
0.805842340 0.308388889 0.191033021
0.841051817 0.320196688 0.207682252
0.000000000 0.287571013 0.013799750
0.063218623 0.290724397 0.013061001
0.150253743 0.295267761 0.007984500
0.223763585 0.299152583 0.002858687
0.292977780 0.301453263 0.000394250
0.356736004 0.302851319 0.006259062
0.415297151 0.305285126 0.024347005
0.469605386 0.308385789 0.040062696
0.520503461 0.312292755 0.061456755
0.568611145 0.317126244 0.083576128
0.614214182 0.322516263 0.102855124
0.657711565 0.328741431 0.122363940
0.699138045 0.335705519 0.141292244
0.738846362 0.343345195 0.159130201
0.776798844 0.351565480 0.176842511
0.813084900 0.360606134 0.193867207
0.847913265 0.370147496 0.210722744
0.000000000 0.355155885 0.016067186
0.063389748 0.357418984 0.014342188
0.154892996 0.361275941 0.008674500
0.229326010 0.364914209 0.005372499
0.297935992 0.367762387 0.003745375
0.362035424 0.369585633 0.002661187
0.421439856 0.370841384 0.012715690
0.476081043 0.372860074 0.026417200
0.527393818 0.375626683 0.053794008
0.575695574 0.379090309 0.078315996
0.621387362 0.382987022 0.100624003
0.664802969 0.387656182 0.122689560
0.706284881 0.393014133 0.142325506
0.745753050 0.398979455 0.161132887
0.783495247 0.405508429 0.179519147
0.819465816 0.412624568 0.197043836
0.853758335 0.420375288 0.213965625
0.000000000 0.417591780 0.032627005
0.076260000 0.419242889 0.032183819
0.165854752 0.422497392 0.025826003
0.238099515 0.425889939 0.017841311
0.304392248 0.428956777 0.009068251
0.366776764 0.431117773 0.003400563
0.426007777 0.432651669 0.000789002
0.481224895 0.433693767 0.018482514
0.532684028 0.435467541 0.048483878
0.581182480 0.437827736 0.073608562
0.627099872 0.440849543 0.098981999
0.670678020 0.444333017 0.122886747
0.712055027 0.448379993 0.143598258
0.751443684 0.453072757 0.163442522
0.789037168 0.458285779 0.182534397
0.824697316 0.464063585 0.200103641
0.858797491 0.470334262 0.217445001
0.005717132 0.475778282 0.050636888
0.101094015 0.477219075 0.048300136
0.181471765 0.479854256 0.039753702
0.249234959 0.482879519 0.029818201
0.312551707 0.485833168 0.022967141
0.372700363 0.488202602 0.018975077
0.430326581 0.490048945 0.016904948
0.485520363 0.491392881 0.015377260
0.537171245 0.492224902 0.043130688
0.585759163 0.493791759 0.068886876
0.631814420 0.495943695 0.097697623
0.675354600 0.498521835 0.123066872
0.716696799 0.501663506 0.145269126
0.756007493 0.505232811 0.166287318
0.793402851 0.509337604 0.185548320
0.828928888 0.513980925 0.203377321
0.862670004 0.519093990 0.220819876
0.025628507 0.530243993 0.077799506
0.130659252 0.531048179 0.077607319
0.200067252 0.533340752 0.072187126
0.262589812 0.536066294 0.065297574
0.322412521 0.538879275 0.058549259
0.380059242 0.541311741 0.052016072
0.435694873 0.543384194 0.045310378
0.489415020 0.544889808 0.039361693
0.541059971 0.546133041 0.035091501
0.589748621 0.546800613 0.063344307
0.635707498 0.548200846 0.096447751
0.679234982 0.550087392 0.123790309
0.720541239 0.552430272 0.147428259
0.759650826 0.555168629 0.169274688
0.796950936 0.558436036 0.189034268
0.832245350 0.562147498 0.207230955
0.865756989 0.566335499 0.224761993
0.067560188 0.581150830 0.108264998
0.161044627 0.581807792 0.108180813
0.220653564 0.583721101 0.103981435
0.278185815 0.586138666 0.098066688
0.334271044 0.588613868 0.091318563
0.389031798 0.591064692 0.083673134
0.442477018 0.593182743 0.075583242
0.494544774 0.594930410 0.068097562
0.544804275 0.596276462 0.061541125
0.593355477 0.597287476 0.058018565
0.639320493 0.597927809 0.095777497
0.682686031 0.599128902 0.125244319
0.723782420 0.600855172 0.150406495
0.762776196 0.602878034 0.172895581
0.799799263 0.605429232 0.192845777
0.834849358 0.608283520 0.211249322
0.868037641 0.611670971 0.229038879
0.122117996 0.628754914 0.138684124
0.191726059 0.629520059 0.138186872
0.243252501 0.631093264 0.135597125
0.295642316 0.633215189 0.131517187
0.348128885 0.635490477 0.126094878
0.399891317 0.637759089 0.120371379
0.450958759 0.639914870 0.113640875
0.500987589 0.641743839 0.107194185
0.549694777 0.643153012 0.102075629
0.597094715 0.644401848 0.098039627
0.642798245 0.645157397 0.095923372
0.685960472 0.645791471 0.127111197
0.726822257 0.646751761 0.153776392
0.765557826 0.648323774 0.177222505
0.802266419 0.650137365 0.197174892
0.836978436 0.652388215 0.215984017
0.869911134 0.655079007 0.233763129
0.168450624 0.673484325 0.167950615
0.222555250 0.674350858 0.167239696
0.267331928 0.675679266 0.165285006
0.315257877 0.677493095 0.162185252
0.363894135 0.679484308 0.157719761
0.412684202 0.681560576 0.153119877
0.461198181 0.683536172 0.147799134
0.509133756 0.685354412 0.142476127
0.555981815 0.686921537 0.137442499
0.601844549 0.688160777 0.133573383
0.646438360 0.689101756 0.130931944
0.689370334 0.689847589 0.130052373
0.729824007 0.690262914 0.157926872
0.768188536 0.691184521 0.181641325
0.804546475 0.692466259 0.201946393
0.838943601 0.694181144 0.221055835
0.871389627 0.696246982 0.239094630
0.209560260 0.715577483 0.194630250
0.253727734 0.716384590 0.194176763
0.293114871 0.717459261 0.192625999
0.336562067 0.718951821 0.190199390
0.381580502 0.720749497 0.186842501
0.427355826 0.722646952 0.183121502
0.473342389 0.724471748 0.178959757
0.518939435 0.726223648 0.174762696
0.563889205 0.727730811 0.170803517
0.608003914 0.729005694 0.167132571
0.651141524 0.730008125 0.164373383
0.692822158 0.730799675 0.162760764
0.733082294 0.731406748 0.162516013
0.770973325 0.731688023 0.186859086
0.806845844 0.732570648 0.207635269
0.840795398 0.733728170 0.226927891
0.872820258 0.735221505 0.245056242
0.248226106 0.754891336 0.220826283
0.285552591 0.755590081 0.220033020
0.320408583 0.756547391 0.218962833
0.359654158 0.757809937 0.217172474
0.401236087 0.759324849 0.214651287
0.443968862 0.760990560 0.211559027
0.487268388 0.762674451 0.208074778
0.530548394 0.764262855 0.204524845
0.573445141 0.765690565 0.201162159
0.615793109 0.766930997 0.197895467
0.657226443 0.767943263 0.195375651
0.697526217 0.768728793 0.193405405
0.736555994 0.769361436 0.192462280
0.774115145 0.769835114 0.192894384
0.809502006 0.770091116 0.213941440
0.842766345 0.770755589 0.233571962
0.874328017 0.771820426 0.251651704
0.286339283 0.791600049 0.245941520
0.318144202 0.792177022 0.245319471
0.349018276 0.792958200 0.244402528
0.384457827 0.794022799 0.242901027
0.422704518 0.795385063 0.240693286
0.462487280 0.796791852 0.238321841
0.503115058 0.798285723 0.235269159
0.543942571 0.799755394 0.232285395
0.584651709 0.801028192 0.229238018
0.625028312 0.802155375 0.226463526
0.664793611 0.803136706 0.223974779
0.703464329 0.803873301 0.222260714
0.741204619 0.804492712 0.220971152
0.777529776 0.804981768 0.220652893
0.812504292 0.805305302 0.221057773
0.845175087 0.805514634 0.240955710
0.876079917 0.806099415 0.259136140
0.323695213 0.825552762 0.270822883
0.351256907 0.826003373 0.270151854
0.378609419 0.826648176 0.269340456
0.410703629 0.827615917 0.268086910
0.445687711 0.828673899 0.266340107
0.482587278 0.829990029 0.264239818
0.520488679 0.831238687 0.261777669
0.558971643 0.832496464 0.259259850
0.597509921 0.833648860 0.256640762
0.635828495 0.834707677 0.254083216
0.673709571 0.835609615 0.251940101
0.710774183 0.836346388 0.250090957
0.746907055 0.836949408 0.248781458
0.781878889 0.837375283 0.248177215
0.815612972 0.837736249 0.248359844
0.847970724 0.838041008 0.248991907
0.878193796 0.838201463 0.267492682
0.360540986 0.856949985 0.295152992
0.384619862 0.857312024 0.294531882
0.408944637 0.857878387 0.293798506
0.437861621 0.858654022 0.292595059
0.469875753 0.859609485 0.291289985
0.503955007 0.860716403 0.289464623
0.539321363 0.861809373 0.287349999
0.575321198 0.862879813 0.285249829
0.611594975 0.863968968 0.283048987
0.647853673 0.864949346 0.280826807
0.683797240 0.865801752 0.278803617
0.719075501 0.866450608 0.277084291
0.753561974 0.867054522 0.275879979
0.787064791 0.867504001 0.275105298
0.819514692 0.867883980 0.274738133
0.850624442 0.868145108 0.275404006
0.880666018 0.868398011 0.276356012
0.002316688 0.002316688 0.044642314
0.068058997 0.003893687 0.074718691
0.120266877 0.005569313 0.076165311
0.175934896 0.007097000 0.081775442
0.234925508 0.005569313 0.088838995
0.296465427 0.005865125 0.097753756
0.356270373 0.004928627 0.106945068
0.414238662 0.007836248 0.117423572
0.469598949 0.007886003 0.128834933
0.521343052 0.024643313 0.140471995
0.570262790 0.034549624 0.153208435
0.616564333 0.051281191 0.166053295
0.661107481 0.080874503 0.179682136
0.703318119 0.106549144 0.193395272
0.743897140 0.132689774 0.207184896
0.782682300 0.157593459 0.221455321
0.819925547 0.180473998 0.235579252
0.000098562 0.080965750 0.085487686
0.082806058 0.083628744 0.087657444
0.144577801 0.083696812 0.088538870
0.204945326 0.084578998 0.092645817
0.265010327 0.085370377 0.097811252
0.324065506 0.085793622 0.104949750
0.381812602 0.088509254 0.113388568
0.436705053 0.093189374 0.123044945
0.488250822 0.100153625 0.133448005
0.537612498 0.111855753 0.144837946
0.584527373 0.125538319 0.156994194
0.629487574 0.140383184 0.169743314
0.672428906 0.157962248 0.183081329
0.713619232 0.175756454 0.196588993
0.753172994 0.192926198 0.210416883
0.791020513 0.210747391 0.224350899
0.827461362 0.228667870 0.238303438
0.000000000 0.148461074 0.091426305
0.085454375 0.150029808 0.093476877
0.151527300 0.153548256 0.091879122
0.218056396 0.154810876 0.095497057
0.281341106 0.155905873 0.100559562
0.341837764 0.158414871 0.107757188
0.398530513 0.161628947 0.115983561
0.452231526 0.166507512 0.125547931
0.502710521 0.173462868 0.136056945
0.550797701 0.182486922 0.147732630
0.596507192 0.192624375 0.159895569
0.640351772 0.204036862 0.172650561
0.682508469 0.216407508 0.185781062
0.722620845 0.229471385 0.199471831
0.761453867 0.243146747 0.213173881
0.798750281 0.257142186 0.227175266
0.834365129 0.271646500 0.241101936
0.000000000 0.219312578 0.097075813
0.078815065 0.220840573 0.099418439
0.153814316 0.224414945 0.098274693
0.223896518 0.227892011 0.094331816
0.290724874 0.229650125 0.100841373
0.352850378 0.231853455 0.108068496
0.410425097 0.234807566 0.116681129
0.463997185 0.238823578 0.126941562
0.514164746 0.244151995 0.137729630
0.561860442 0.250564963 0.149706692
0.607174933 0.258300155 0.162286565
0.650508761 0.266612321 0.175184682
0.692051470 0.275897563 0.188699752
0.731851220 0.285848171 0.202405438
0.770035326 0.296546996 0.216308400
0.806585968 0.307864815 0.230284840
0.841656148 0.319540441 0.244051248
0.000000000 0.290656924 0.103850007
0.068931691 0.291577071 0.106001504
0.156102762 0.294251561 0.105279751
0.227274954 0.298541158 0.100141257
0.295854121 0.301215827 0.095422000
0.359403938 0.302834630 0.105853930
0.417732567 0.305060357 0.115833811
0.471958220 0.308036864 0.126897186
0.522660136 0.311893672 0.138752893
0.570491135 0.316498458 0.151440814
0.615910590 0.321863264 0.164488688
0.659146905 0.328137308 0.177968368
0.700408876 0.334968865 0.191916570
0.739859104 0.342565686 0.205710888
0.777691245 0.350966126 0.219745204
0.813857436 0.359999031 0.233750060
0.848388314 0.369488865 0.247557566
0.000000000 0.357968390 0.112526372
0.068696186 0.358364969 0.114464752
0.161519185 0.360175699 0.115063623
0.233229578 0.363956869 0.110011198
0.300402373 0.367363811 0.104253374
0.363991380 0.369409055 0.100024499
0.423101485 0.370752037 0.113585755
0.477693290 0.372795582 0.126288384
0.528875589 0.375444442 0.139544129
0.576994359 0.378725111 0.153215930
0.622701824 0.382630050 0.166778311
0.666064620 0.387295425 0.180775627
0.707353055 0.392500430 0.194937259
0.746706963 0.398437738 0.209037825
0.784282923 0.405025125 0.223253384
0.820124149 0.412156940 0.237329394
0.854295850 0.419915199 0.251018643
0.000000000 0.420251936 0.124341629
0.080011003 0.420121819 0.127009496
0.172052681 0.421460658 0.127405748
0.241759822 0.424759537 0.123081505
0.306477338 0.428083897 0.117235199
0.368292302 0.430784762 0.111359760
0.427154690 0.432406336 0.107606575
0.482292444 0.433590144 0.124713555
0.533703208 0.435390532 0.139835060
0.582148850 0.437852740 0.154503748
0.628038347 0.440694898 0.168918818
0.671501815 0.444156647 0.183658510
0.712833107 0.448148370 0.198105380
0.752109945 0.452731729 0.212251633
0.789614022 0.457907975 0.226807386
0.825246513 0.463679582 0.240997463
0.859195411 0.469959527 0.254770190
0.004978005 0.478173047 0.138930380
0.104980767 0.477482021 0.142327636
0.187061816 0.478588283 0.142732024
0.252708822 0.481460541 0.139187455
0.314515501 0.484649777 0.134211138
0.373716891 0.487589777 0.128831461
0.431054085 0.489677906 0.123976141
0.486071914 0.491097122 0.121285513
0.537732720 0.492095411 0.139309004
0.586309016 0.493757695 0.155382946
0.632315516 0.495847076 0.171084508
0.675769806 0.498373270 0.186493829
0.717169344 0.501494706 0.201426953
0.756446123 0.505078554 0.215918198
0.793768644 0.509153247 0.230446458
0.829278588 0.513713539 0.244584009
0.862985730 0.518846512 0.258725256
0.019418567 0.532324910 0.156672269
0.133552760 0.531360984 0.160621449
0.204634324 0.532359779 0.160790890
0.265863687 0.534849107 0.158137068
0.324324429 0.537707090 0.153693631
0.381002992 0.540517628 0.148780376
0.436165035 0.542874157 0.143764570
0.489749461 0.544605553 0.139975637
0.541325748 0.545846522 0.137836143
0.589949787 0.546701789 0.156268746
0.635935664 0.548142910 0.173336878
0.679452658 0.549974024 0.189465120
0.720724881 0.552340031 0.204629809
0.759901643 0.555060625 0.219494313
0.797120810 0.558284700 0.234155327
0.832429051 0.561977863 0.248457000
0.865882933 0.566090167 0.262665361
0.060582124 0.582777441 0.176676497
0.163392186 0.581879139 0.180071563
0.224092141 0.582897186 0.179991320
0.281021476 0.584911048 0.177959442
0.336033672 0.587500393 0.174234822
0.389980197 0.590121746 0.169794708
0.442929149 0.592534781 0.165268123
0.494627923 0.594477654 0.161032572
0.544888616 0.595992684 0.157973930
0.593415737 0.597079039 0.156191692
0.639268875 0.597770929 0.175603002
0.682608306 0.599027276 0.192372441
0.723711073 0.600669265 0.208199188
0.762800276 0.602792978 0.223462135
0.799801111 0.605315328 0.238311768
0.834806979 0.608157992 0.252704293
0.868042111 0.611491680 0.267068893
0.119222939 0.629969120 0.198174864
0.193974823 0.629565716 0.200534612
0.246071875 0.630480766 0.200339004
0.298077881 0.632244110 0.198632672
0.349726200 0.634433270 0.195595235
0.400853813 0.636872590 0.191944256
0.451361656 0.639146984 0.187872052
0.501090765 0.641219258 0.183948800
0.549694777 0.642863095 0.180654943
0.596940815 0.644150734 0.178185880
0.642612159 0.645027280 0.177293375
0.685751379 0.645599008 0.195287630
0.726646185 0.646719396 0.211770311
0.765347898 0.648172557 0.227564141
0.802064180 0.650063396 0.242615819
0.836853206 0.652341604 0.257305205
0.869645119 0.654971421 0.271754324
0.167675808 0.674230576 0.219781935
0.224369824 0.674212754 0.221165374
0.269709587 0.675095737 0.220847994
0.317255288 0.676617622 0.219505504
0.365401953 0.678562403 0.217048243
0.413637251 0.680682719 0.213766128
0.461636841 0.682792783 0.210243002
0.509202898 0.684822381 0.206684813
0.555920482 0.686501026 0.203275636
0.601681828 0.687867820 0.200574949
0.646143734 0.688866854 0.198608860
0.689023256 0.689662099 0.198041186
0.729526937 0.690159380 0.215502441
0.767846644 0.691034853 0.231866270
0.804225206 0.692411840 0.247392640
0.838620424 0.694129705 0.262354255
0.871049643 0.696190178 0.276956439
0.209757760 0.716051579 0.241190866
0.255248994 0.716220975 0.241935000
0.295070529 0.716974378 0.241637930
0.338344008 0.718279183 0.240415812
0.383013666 0.719972789 0.238382369
0.428283513 0.721832037 0.235596254
0.473793268 0.723782420 0.232494757
0.519094110 0.725615501 0.229270443
0.563804448 0.727259994 0.225908384
0.607795835 0.728626788 0.223162308
0.650808811 0.729769766 0.220925495
0.692544878 0.730622351 0.219615430
0.732686102 0.731184781 0.219560698
0.770526767 0.731594026 0.236535832
0.806438267 0.732420921 0.252453238
0.840295911 0.733561933 0.267716497
0.872298241 0.735135853 0.282527626
0.249118656 0.755146503 0.262564033
0.287099242 0.755456924 0.262959659
0.322084635 0.756079972 0.262572646
0.361199707 0.757164836 0.261660933
0.402519405 0.758642972 0.259881467
0.444838524 0.760295570 0.257600337
0.487762451 0.762006044 0.254774988
0.530736387 0.763684928 0.251855016
0.573383570 0.765211284 0.248858586
0.615469456 0.766514361 0.246187523
0.656874418 0.767675042 0.244004518
0.697144270 0.768536687 0.242370948
0.736107588 0.769169629 0.241480276
0.773605824 0.769645691 0.241667882
0.808970094 0.770008266 0.258210212
0.842225790 0.770660818 0.273670822
0.873679161 0.771707654 0.288546324
0.287256509 0.791617990 0.284012824
0.319505483 0.791908026 0.284136236
0.350358635 0.792518854 0.283733040
0.385780811 0.793483794 0.282768965
0.423776448 0.794660985 0.281202406
0.463195831 0.796135426 0.279290646
0.503471017 0.797592223 0.276983470
0.544136167 0.799131334 0.274412960
0.584635198 0.800563216 0.271841019
0.624787271 0.801789522 0.269300848
0.664372802 0.802793920 0.266972572
0.703006566 0.803649664 0.265304804
0.740714610 0.804326653 0.264225453
0.776943088 0.804800749 0.263957471
0.811849058 0.805092931 0.264394522
0.844508171 0.805367410 0.280347019
0.875444829 0.805991769 0.295529395
0.324594110 0.825351298 0.305378675
0.352459788 0.825694859 0.305363536
0.379788905 0.826232314 0.304895401
0.411787033 0.827087760 0.303986639
0.446591109 0.828074098 0.302792966
0.483238041 0.829330862 0.301057339
0.520873547 0.830586135 0.299061954
0.559076309 0.831900179 0.296793282
0.597381890 0.833164454 0.294630915
0.635616302 0.834271014 0.292289585
0.673270047 0.835239530 0.290191114
0.710225165 0.836034298 0.288543165
0.746318161 0.836711645 0.287321627
0.781245589 0.837185144 0.286704540
0.814950466 0.837540925 0.286850840
0.847208798 0.837842286 0.287620991
0.877468824 0.838009179 0.302864552
0.361416698 0.856687009 0.326826990
0.385606498 0.856985092 0.326611757
0.409938723 0.857465684 0.326263011
0.438731998 0.858195007 0.325432897
0.470619500 0.859087288 0.324304134
0.504451990 0.860084295 0.322881550
0.539579928 0.861270487 0.321167678
0.575401127 0.862354219 0.319228739
0.611496270 0.863483071 0.317231745
0.647530735 0.864483833 0.315132737
0.683319569 0.865387559 0.313346386
0.718527138 0.866193295 0.311826915
0.752938628 0.866789520 0.310579956
0.786377072 0.867287219 0.309817046
0.818764269 0.867694080 0.309579611
0.849924028 0.868013144 0.310069263
0.879879951 0.868298888 0.310986012
0.002464500 0.005421375 0.084440127
0.058068253 0.006998500 0.119736560
0.121563382 0.002464500 0.134544879
0.180233076 0.004041499 0.137175754
0.239838749 0.002957000 0.141847998
0.300883949 0.002168437 0.148891822
0.361037016 0.003450127 0.157085121
0.418507397 0.004731560 0.166193441
0.472655892 0.007491504 0.175880373
0.523818374 0.022770375 0.186249375
0.572320282 0.029965501 0.197102875
0.618530750 0.048805501 0.208710626
0.662484527 0.079053879 0.220393494
0.704464436 0.104748465 0.232239693
0.744933963 0.131176651 0.244557649
0.783513784 0.156372458 0.256971449
0.820343614 0.179596007 0.269168496
0.000000000 0.080456257 0.145090818
0.076203316 0.081431687 0.150615811
0.144319996 0.080989189 0.152947560
0.207474142 0.081460565 0.153418884
0.268448979 0.081930816 0.156172693
0.327616811 0.082673810 0.160945445
0.384730458 0.085444070 0.167103946
0.439052284 0.090090185 0.174625188
0.490652978 0.097611070 0.183261126
0.539491653 0.110106066 0.192707628
0.586308062 0.123773746 0.202981442
0.630601287 0.139042184 0.213615879
0.673377573 0.156743810 0.224855810
0.714416027 0.174708441 0.236401469
0.753688216 0.192020327 0.248362005
0.791410089 0.210054085 0.260422409
0.827863753 0.228023931 0.272553355
0.000000000 0.149016872 0.156380877
0.078159511 0.151582614 0.157633379
0.151863515 0.152838886 0.158875749
0.220476329 0.153604999 0.160258949
0.284419119 0.154779136 0.163139999
0.344233871 0.156725302 0.167337015
0.401170284 0.160238877 0.173381373
0.454321593 0.165234014 0.180254877
0.504435420 0.172218248 0.188384131
0.552155495 0.181177512 0.197407365
0.597685516 0.191572875 0.207320750
0.641342819 0.203020245 0.217810512
0.683175087 0.215350866 0.228692889
0.723334789 0.228693068 0.240002632
0.762053430 0.242378876 0.251720011
0.799113333 0.256541461 0.263498724
0.834750712 0.271091998 0.275481731
0.000000000 0.221728697 0.162224755
0.071043193 0.223734871 0.163186878
0.155838564 0.224426642 0.165028051
0.225892320 0.227710575 0.164317876
0.293306440 0.229200646 0.166919619
0.355485708 0.230959445 0.171422750
0.412966967 0.233663946 0.177150548
0.466112703 0.237789199 0.184302866
0.516176641 0.243065193 0.192322865
0.563579917 0.249649450 0.201565370
0.608618975 0.257180274 0.211301252
0.651720643 0.265595257 0.221733987
0.693021595 0.274997264 0.232547134
0.732742727 0.285135686 0.244015574
0.770730555 0.295913935 0.255292743
0.807158113 0.307080358 0.267120063
0.842136085 0.319052547 0.278805166
0.000000000 0.293281645 0.168973237
0.063358694 0.294301689 0.170239821
0.159258515 0.294671416 0.172968760
0.229643643 0.297852993 0.171828628
0.297753364 0.300994515 0.169342130
0.361256689 0.302564770 0.174633831
0.419679880 0.304757535 0.180418640
0.473788977 0.307592660 0.187647313
0.524371266 0.311185747 0.195970505
0.571960330 0.315646589 0.205190867
0.617325306 0.321083367 0.215133876
0.660355687 0.327299207 0.225581378
0.701408744 0.334220022 0.236470252
0.740825057 0.341912955 0.247734562
0.778424442 0.350263894 0.259265244
0.814502180 0.359337628 0.270718992
