public/lut/55.cube
TITLE "17x17x17 Adobe/IRIDAS cube 3D LUT exported with GrossGrade v0.2.2 (beta) 64 bit"
DOMAIN_MIN 0 0 0
DOMAIN_MAX 1 1 1
LUT_3D_SIZE 5
0.000000000 0.000000000 0.000000000
0.229661018 0.008871250 0.029374501
0.465993524 0.009857003 0.077385500
0.659657001 0.082720257 0.136112258
0.819280028 0.181130007 0.200314999
0.000000000 0.287571013 0.013799750
0.292977780 0.301453263 0.000394250
0.520503461 0.312292755 0.061456755
0.699138045 0.335705519 0.141292244
0.847913265 0.370147496 0.210722744
0.025628507 0.530243993 0.077799506
0.322412521 0.538879275 0.058549259
0.541059971 0.546133041 0.035091501
0.720541239 0.552430272 0.147428259
0.865756989 0.566335499 0.224761993
0.209560260 0.715577483 0.194630250
0.381580502 0.720749497 0.186842501
0.563889205 0.727730811 0.170803517
0.733082294 0.731406748 0.162516013
0.872820258 0.735221505 0.245056242
0.360540986 0.856949985 0.295152992
0.469875753 0.859609485 0.291289985
0.611594975 0.863968968 0.283048987
0.753561974 0.867054522 0.275879979
0.880666018 0.868398011 0.276356012
0.000000000 0.013011751 0.173830748
0.245681003 0.000789000 0.267040789
0.478972018 0.005520003 0.283784270
0.665912747 0.074250013 0.313540488
0.822161734 0.176820755 0.348264247
0.000000000 0.295720488 0.301401734
0.298805475 0.300288498 0.304661006
0.526601017 0.309246480 0.313005716
0.703009248 0.332479537 0.334203482
0.849545538 0.367767751 0.363694489
0.001183002 0.537872493 0.326720238
0.329891503 0.536020279 0.333593011
0.541330516 0.545204520 0.328271270
0.721387804 0.551790237 0.350726485
0.866195321 0.565265536 0.379910231
0.201425254 0.720037758 0.370813251
0.387250006 0.718610048 0.376212239
0.563721001 0.725557029 0.371168256
0.730940282 0.730545998 0.366282254
0.870366991 0.734839499 0.398837000
0.361009985 0.857845485 0.428544521
0.473228991 0.857550263 0.430934250
0.611277223 0.861581028 0.427580774
0.750488281 0.865765214 0.422163248
0.876623034 0.867702246 0.421918988
0.000000000 0.034697503 0.359198034
0.221381247 0.017546000 0.442156792
0.489594042 0.000394499 0.494247526
0.673910499 0.055383004 0.500427246
0.826877475 0.169027001 0.515401959
0.000000000 0.293013752 0.501177251
0.294742763 0.297068477 0.516004026
0.528572261 0.302863240 0.525013030
0.705147564 0.328109235 0.524224520
0.849853754 0.365320265 0.533902287
0.000000000 0.539986014 0.533084035
0.321188748 0.541718960 0.534663498
0.541392565 0.544152498 0.537171006
0.722181022 0.549572468 0.540814757
0.865059018 0.563285530 0.551333010
0.178909764 0.725505233 0.550559223
0.380931258 0.724318027 0.552771270
0.566320479 0.722932816 0.558381557
0.727364540 0.729531288 0.555605292
0.866178989 0.734235525 0.567886233
0.350584507 0.862959504 0.582139969
0.470533997 0.860517979 0.585376263
0.612794518 0.858756959 0.590460479
0.745940089 0.863513768 0.588158488
0.869753957 0.866648972 0.586869478
0.000000000 0.063948005 0.513940811
0.228666008 0.059109502 0.577885270
0.471607774 0.048595503 0.635752499
0.681875288 0.029177258 0.673632264
0.831669748 0.160401002 0.675936818
0.045034755 0.296957016 0.646255255
0.302796781 0.302996010 0.665432692
0.516896009 0.313506514 0.682606757
0.707298517 0.322904021 0.696968436
0.850709558 0.361672252 0.694475055
0.109336264 0.535854220 0.696225464
0.340960979 0.538652420 0.701775312
0.540168524 0.540719271 0.709832072
0.721038282 0.545251191 0.712550521
0.861972690 0.560712218 0.710894525
0.178565264 0.726364493 0.714964032
0.375658005 0.726731777 0.715932965
0.561521292 0.727334023 0.717367530
0.724779248 0.728577077 0.719366312
0.864294529 0.731966734 0.720856965
0.342966497 0.866065502 0.727950275
0.462910503 0.864928782 0.728886008
0.609127760 0.862723291 0.731229961
0.746886730 0.860337794 0.738072991
0.862363994 0.865285993 0.740788281
0.014983000 0.103021003 0.646266997
0.256508768 0.111681253 0.695960045
0.469407499 0.124004498 0.749763012
0.665006280 0.135682493 0.790349782
0.838190019 0.156187996 0.817498028
0.137693748 0.309483737 0.761506259
0.326408505 0.317469239 0.780049741
0.517106533 0.330795258 0.800713480
0.695140779 0.344712973 0.818633199
0.853460789 0.360015750 0.832430959
0.217837006 0.534660459 0.818843007
0.374920249 0.537453055 0.826178551
0.550015450 0.541363001 0.834877968
0.716492295 0.548799515 0.839932024
0.861752510 0.558382511 0.844593525
0.282148272 0.722253561 0.839771271
0.418451011 0.723383784 0.841795266
0.575922489 0.724994004 0.845305562
0.725313544 0.725537777 0.852177024
0.861899495 0.729006052 0.851647496
0.361429006 0.865709007 0.850336015
0.471619248 0.865189016 0.850768030
0.609807491 0.864408493 0.851565003
0.745606244 0.863432467 0.851954758
0.860395014 0.864993989 0.854113996
