public/lut/56.cube
TITLE "17x17x17 Adobe/IRIDAS cube 3D LUT exported with GrossGrade v0.2.2 (beta) 64 bit"
DOMAIN_MIN 0 0 0
DOMAIN_MAX 1 1 1
LUT_3D_SIZE 17
0.000000000 0.000000000 0.000000000
0.055525187 0.003104750 0.003893687
0.107249632 0.005520000 0.008476876
0.162018642 0.004731001 0.013258064
0.221658513 0.002760250 0.020897500
0.285850078 0.002612250 0.029473187
0.349734157 0.000000002 0.038541753
0.411494344 0.000689936 0.048454069
0.469787002 0.000000000 0.060747005
0.524695218 0.008674000 0.072931498
0.576274991 0.006900375 0.086668126
0.625754952 0.029276062 0.101394936
0.673140287 0.058171757 0.117136002
0.719130337 0.082457341 0.134434700
0.763236046 0.116396032 0.152076021
0.805830300 0.146901906 0.170368522
0.845632017 0.175359994 0.188180998
0.002415250 0.073189497 0.004681750
0.069597691 0.076645814 0.003154000
0.128573686 0.076609127 0.006259688
0.188553214 0.075210191 0.010842877
0.250280887 0.073074371 0.017792063
0.312322497 0.068706505 0.025382187
0.373275280 0.064384565 0.033957940
0.431701362 0.065996379 0.044266757
0.486661434 0.067299001 0.056572381
0.538647830 0.076918684 0.068819061
0.588233888 0.092706494 0.084012933
0.635536969 0.110136561 0.099210247
0.681554437 0.131837130 0.116134569
0.726385295 0.154187024 0.133857951
0.769726753 0.175995693 0.152091399
0.811380684 0.198976889 0.170629829
0.850504577 0.219774887 0.188807994
0.000000000 0.139964119 0.004928250
0.063277878 0.143293500 0.003203312
0.131843388 0.146234125 0.000789000
0.199326769 0.145796999 0.004090812
0.265281379 0.145720005 0.007787375
0.328640133 0.145334497 0.016215000
0.389253497 0.146179989 0.023164377
0.445975780 0.148462310 0.036767446
0.499072164 0.153161392 0.047664255
0.549700260 0.160589069 0.062706061
0.597802520 0.170945510 0.079442002
0.644104600 0.182950556 0.095812559
0.689203620 0.196663871 0.114475876
0.733058691 0.212504029 0.132733271
0.775823593 0.228750393 0.151876897
0.816739082 0.245081902 0.171267897
0.855479479 0.261777252 0.189614117
0.000000000 0.214120567 0.003449686
0.041813556 0.216899708 0.001823500
0.127472311 0.220697701 0.000000000
0.202306211 0.222864628 0.000000000
0.273120821 0.222712398 0.001675686
0.338950366 0.223155886 0.002710811
0.399632037 0.224191502 0.011729939
0.455977976 0.226348251 0.021932125
0.508688748 0.230443269 0.033070814
0.558452845 0.235783890 0.054027561
0.606000841 0.242852569 0.070672497
0.651818752 0.251057655 0.091049753
0.696400464 0.260715187 0.111710757
0.739839792 0.271678984 0.130990580
0.781927347 0.283458918 0.151908770
0.822528303 0.296022475 0.171485022
0.860818207 0.309028804 0.190430179
0.000000000 0.289365262 0.003154000
0.020404687 0.290991127 0.001823500
0.120122127 0.294421494 0.000295750
0.201405942 0.297589868 0.000000000
0.275879264 0.299104512 0.000000000
0.343877196 0.298773587 0.000000000
0.405469149 0.299246281 0.002168499
0.462013543 0.300395191 0.005076380
0.515012980 0.302826762 0.022868505
0.564865708 0.306271762 0.041551314
0.612433970 0.310684502 0.059225373
0.658259630 0.316225797 0.085053504
0.702473998 0.322815537 0.106764004
0.745743155 0.330516815 0.129161388
0.787703872 0.339182109 0.151414886
0.827927947 0.348784626 0.171729445
0.865862489 0.358728737 0.191652745
0.000000000 0.359564066 0.001626625
0.017890565 0.360510141 0.001626625
0.118739188 0.363197833 0.001084188
0.203694448 0.366281241 0.000542437
0.277846813 0.368378192 0.000000000
0.346189111 0.369110435 0.000000000
0.408832312 0.368698061 0.000000000
0.465957195 0.368892223 0.001774131
0.519271374 0.369937181 0.014539378
0.569330215 0.371784002 0.025283813
0.617102981 0.374525368 0.049200062
0.662997246 0.378009260 0.077949628
0.707419515 0.382532001 0.102000386
0.750585377 0.388013631 0.127589464
0.792494416 0.394312441 0.150673509
0.832558692 0.401472598 0.172046646
0.870368481 0.409180433 0.192803502
0.000000000 0.423268765 0.004238499
0.018433070 0.424088776 0.003006625
0.126968011 0.426319748 0.000098625
0.211064458 0.429093331 0.000000000
0.282646269 0.431194782 0.000000000
0.348662138 0.432368636 0.000000000
0.410851002 0.432906777 0.000000000
0.468520343 0.432279110 0.000936376
0.522089005 0.432354659 0.003252874
0.572430670 0.433160961 0.014046374
0.620464981 0.434724629 0.043537248
0.666439772 0.436835498 0.071481749
0.711082518 0.439876139 0.097837754
0.754318953 0.443595648 0.125562400
0.796179473 0.448129535 0.149558157
0.836329758 0.453470677 0.172750205
0.874067247 0.459385902 0.193870872
0.000000000 0.482129902 0.013011263
0.050609898 0.482637852 0.012272138
0.146288902 0.484430581 0.010744449
0.222720772 0.486904293 0.008329131
0.290017366 0.488859981 0.005027065
0.353009433 0.490346909 0.001823562
0.412910938 0.491227537 0.000345187
0.470094711 0.491467714 0.000000000
0.524102688 0.490970582 0.000000000
0.574613392 0.490861416 0.010990500
0.622788548 0.491398156 0.039240438
0.669026017 0.492669523 0.063626431
0.713646412 0.494492054 0.093090378
0.757027566 0.496986717 0.123093709
0.798985958 0.500153124 0.148736462
0.839164555 0.504034996 0.173464403
0.876850426 0.508372247 0.194780692
0.001577003 0.536292493 0.038240008
0.091494694 0.536797285 0.035929754
0.169503629 0.538518012 0.027501751
0.237009883 0.540554881 0.016609125
0.299673736 0.542506754 0.007294501
0.359330624 0.544061959 0.002217752
0.416764140 0.545086026 0.000394501
0.472042650 0.545640469 0.000000000
0.525533438 0.545781016 0.000000000
0.576364517 0.545235574 0.009906500
0.624555111 0.545022249 0.032429997
0.670883894 0.545464754 0.054912686
0.715531826 0.546357989 0.089097261
0.759024620 0.547973156 0.120323405
0.801083326 0.550168276 0.148446023
0.841280937 0.552834034 0.174475640
0.879124999 0.556083500 0.195961505
0.038258187 0.587013125 0.061029561
0.130036309 0.587541342 0.056019936
0.194050059 0.588983357 0.047602437
0.253637373 0.590816259 0.040164877
0.311457902 0.592467308 0.034401249
0.367554069 0.594024777 0.029965814
0.422178894 0.595192611 0.025382373
0.475422591 0.595991015 0.021488622
0.527225077 0.596399009 0.017052813
0.577548981 0.596421719 0.013652125
0.625967860 0.595828772 0.022474250
0.672342002 0.595608175 0.046219185
0.717002988 0.595918179 0.085913509
0.760488570 0.596693099 0.118941963
0.802548528 0.598081946 0.149334773
0.842844605 0.599940062 0.175593510
0.880727708 0.602218509 0.197531685
0.103168249 0.634305775 0.099031501
0.168504000 0.635044754 0.096095189
0.219899490 0.636176527 0.090414494
0.272500873 0.637638628 0.084523752
0.325378269 0.639240861 0.077615999
0.377649695 0.640760124 0.069717124
0.429388642 0.642028689 0.060029618
0.480199724 0.643010437 0.049663309
0.530162036 0.643679202 0.038241375
0.579053879 0.644010723 0.027846875
0.627161264 0.643977582 0.019911502
0.673574090 0.643363059 0.040798374
0.718222976 0.643040180 0.084292263
0.761632442 0.643294811 0.119064972
0.803714812 0.644009233 0.150279045
0.844026983 0.645160139 0.176589727
0.881922841 0.646749020 0.199039504
0.155856371 0.679172695 0.132788122
0.203518003 0.679774404 0.129968196
0.245959178 0.680633128 0.126307935
0.292680681 0.681945860 0.121273682
0.340904206 0.683382034 0.114487626
0.389507502 0.684770584 0.106309250
0.438177645 0.686083078 0.097059928
0.486564398 0.687181473 0.086548239
0.534466445 0.687998593 0.075045936
0.581712008 0.688516438 0.064615063
0.628499508 0.688795388 0.057761375
0.674574971 0.688667059 0.054241125
0.719363749 0.688075423 0.084292263
0.762675226 0.687752366 0.119627029
0.804676235 0.687944055 0.151567161
0.844901443 0.688498139 0.178192779
0.882880390 0.689565003 0.201083496
0.198446006 0.721625268 0.164887011
0.235717759 0.722142696 0.163035631
0.272251487 0.722890735 0.160362631
0.313713253 0.723909378 0.156511009
0.357726246 0.725178003 0.151352763
0.402822137 0.726526976 0.144867197
0.448618501 0.727765381 0.137501001
0.494393468 0.728918433 0.129384637
0.540143967 0.729905963 0.120199010
0.585624933 0.730587900 0.111225009
0.630884469 0.731016159 0.103903256
0.675805330 0.731193006 0.098788142
0.720270514 0.731071711 0.094301008
0.763692856 0.730441034 0.120039836
0.805547059 0.730129004 0.153073907
0.845706999 0.730177283 0.179877222
0.883595526 0.730718017 0.203562006
0.235589147 0.761879981 0.193357155
0.266635746 0.762372077 0.191749215
0.298410088 0.762975574 0.189593598
0.335533649 0.763922930 0.186370090
0.375619143 0.765004873 0.182369530
0.417443275 0.766199112 0.177075967
0.460278332 0.767407775 0.171259850
0.503653347 0.768527925 0.164652780
0.547145963 0.769497335 0.157407343
0.590814114 0.770363569 0.150015533
0.634385645 0.770966291 0.143383414
0.677940667 0.771292090 0.137632355
0.721398473 0.771367729 0.132385954
0.764615297 0.771209359 0.128208160
0.806456268 0.770541072 0.154400468
0.846456170 0.770235777 0.182236150
0.884298623 0.770356834 0.206231937
0.269818157 0.800320804 0.219012275
0.296310663 0.800716996 0.217634037
0.324278027 0.801274002 0.216067031
0.357578963 0.802039802 0.213726267
0.394161642 0.803001285 0.210410297
0.432985693 0.804121971 0.206324771
0.473084152 0.805263460 0.201785892
0.513971984 0.806362808 0.196444601
0.555323362 0.807374954 0.191019773
0.596976340 0.808259487 0.185234651
0.638954282 0.808934331 0.179549783
0.681055069 0.809381902 0.173695341
0.723207176 0.809696674 0.168449655
0.765514731 0.809762895 0.163756579
0.807306767 0.809519827 0.160629779
0.847311854 0.808924794 0.184415475
0.885028481 0.808632433 0.208864748
0.301834643 0.837126851 0.243476406
0.324777484 0.837429523 0.242394015
0.349577844 0.837919056 0.241166145
0.379616350 0.838600755 0.239110842
0.413157284 0.839427948 0.236375421
0.449082464 0.840458095 0.233037472
0.486654043 0.841505766 0.229044154
0.525185347 0.842568398 0.224670842
0.564458430 0.843574703 0.219857410
0.604226172 0.844481111 0.214957029
0.644392848 0.845292032 0.209789842
0.685011506 0.845865190 0.204548776
0.725862026 0.846278906 0.199499652
0.766994774 0.846450746 0.194849476
0.807931185 0.846500993 0.191222146
0.848100543 0.846272528 0.188199073
0.885768831 0.845676243 0.211921811
0.331768990 0.872426987 0.266795993
0.351928622 0.872744024 0.265812874
0.374232382 0.873153031 0.264575481
0.401390195 0.873745024 0.262908816
0.432269484 0.874504030 0.260595739
0.465546310 0.875424981 0.257743061
0.500726759 0.876367390 0.254238248
0.536964476 0.877433002 0.250295877
0.574218035 0.878392994 0.246145502
0.612102687 0.879316151 0.241755247
0.650662601 0.880134583 0.237089753
0.689699173 0.880896688 0.232359320
0.729216516 0.881411731 0.227919742
0.769169927 0.881736815 0.223478436
0.809167922 0.881965995 0.219686508
0.848492861 0.881873012 0.216562316
0.886480987 0.881775975 0.214613006
0.001577000 0.001577000 0.040600438
0.055926003 0.003104750 0.071030878
0.110117815 0.002415250 0.072642244
0.165944755 0.003055499 0.075536557
0.226647571 0.000838250 0.080803752
0.289412767 0.000492812 0.087297693
0.353184223 0.000000002 0.095187888
0.414095551 0.000049312 0.103805758
0.472222328 0.000394501 0.113747567
0.526345372 0.005618625 0.124541812
0.577549219 0.004386438 0.136105120
0.626343012 0.027452126 0.148767948
0.673585415 0.053701505 0.162328616
0.719324529 0.077777095 0.176992148
0.763346076 0.112909719 0.192057326
0.805465102 0.143917158 0.207538962
0.845324695 0.173328310 0.223155737
0.000049312 0.073151439 0.081803814
0.068019062 0.073189504 0.081803814
0.130296677 0.072155878 0.081739694
0.191467389 0.070648000 0.083178192
0.253187001 0.067997813 0.086783946
0.315665454 0.062864743 0.092157818
0.376039714 0.058639813 0.098716065
0.433916777 0.060619246 0.106613941
0.488200396 0.061756752 0.115778625
0.539717436 0.071434371 0.126089945
0.588854790 0.088535063 0.137902126
0.636186540 0.106238127 0.150232941
0.681933582 0.128601119 0.163592502
0.726338387 0.150990829 0.178173706
0.769636810 0.173717082 0.193241850
0.811138213 0.196673647 0.208977833
0.850248933 0.218025863 0.224505633
0.000000000 0.140878439 0.084059313
0.063851193 0.141385749 0.084488690
0.133761063 0.143313199 0.082271688
0.202626944 0.143532380 0.083543122
0.268705636 0.142448321 0.086695939
0.332300991 0.142021254 0.091729939
0.391921908 0.142357379 0.098313317
0.448218226 0.144969508 0.106239125
0.500948012 0.149707824 0.115622751
0.551038027 0.157290071 0.125948742
0.598718882 0.167896882 0.137862444
0.644845724 0.180300683 0.150464132
0.689662695 0.194278255 0.164121121
0.733349025 0.210167766 0.179017067
0.775879323 0.226737827 0.194217831
0.816697717 0.243252650 0.210060269
0.855253398 0.259829432 0.225536823
0.000000000 0.215328082 0.085815936
0.044830304 0.215964571 0.085871562
0.131403565 0.218042314 0.084477060
0.204907581 0.220534191 0.078153379
0.275660872 0.220650136 0.080918312
0.341419697 0.220662013 0.086601250
0.402081907 0.221769631 0.093892194
0.458255053 0.224047884 0.102996252
0.510408938 0.227866456 0.112703249
0.559930742 0.233284146 0.124184124
0.607135713 0.240467459 0.136751190
0.652849615 0.248884112 0.149879143
0.697063923 0.258664340 0.164389506
0.740232885 0.269669533 0.179677263
0.782271206 0.281525135 0.195400208
0.822643161 0.294287324 0.211480141
0.860740662 0.307404190 0.227008805
0.000000000 0.290051281 0.086619318
0.022523437 0.290769070 0.086254314
0.125606313 0.291893005 0.085380435
0.204355896 0.295227170 0.077217251
0.277724832 0.297031969 0.068097249
0.345471531 0.297047973 0.076051436
0.407035172 0.297669590 0.085469566
0.463617265 0.298781991 0.095540136
0.516323864 0.301165074 0.107616194
0.566004395 0.304467440 0.121086501
0.613383889 0.308947086 0.134704754
0.658956826 0.314409792 0.148904681
0.703177750 0.321052581 0.164733201
0.746128619 0.328774929 0.180280462
0.787858009 0.337607175 0.196575448
0.828002930 0.347276449 0.212822512
0.865829766 0.357351601 0.228670746
0.000000000 0.360407084 0.089891061
0.019073751 0.360752672 0.089456439
0.124747992 0.360909194 0.089673936
0.206772640 0.364066243 0.081567310
0.279362589 0.366422296 0.071579129
0.347287536 0.367463052 0.062794186
0.409513056 0.367119402 0.071049497
0.466600895 0.367524058 0.085248008
0.519859672 0.368646115 0.101705320
0.570004523 0.370471895 0.116512373
0.617707908 0.373104841 0.131506190
0.663560033 0.376693130 0.147971690
0.707841396 0.381211042 0.164458439
0.750837326 0.386608452 0.180715635
0.792599201 0.392973959 0.197829589
0.832673669 0.400149435 0.214381382
0.870376468 0.407928675 0.230267182
0.000000000 0.424185097 0.097344503
0.018433072 0.424287081 0.096970446
0.132406205 0.424337268 0.096741885
0.214111134 0.426667273 0.088730060
0.283886999 0.429165274 0.078344434
0.349140525 0.430779696 0.067844823
0.410943091 0.431373894 0.058393382
0.468526393 0.430993974 0.072807312
0.522137940 0.431256473 0.093016386
0.572483540 0.432049572 0.110278681
0.620537817 0.433567494 0.128328994
0.666640401 0.435711861 0.146659136
0.711151421 0.438722491 0.163774565
0.754376888 0.442462713 0.181257710
0.796197414 0.447035700 0.198939711
0.836276591 0.452299148 0.215691954
0.873991251 0.458224267 0.231903687
0.000000000 0.482869416 0.109796129
0.052225895 0.482383490 0.110659376
0.150940076 0.482513011 0.110097885
0.225298882 0.484566629 0.103766128
0.291220635 0.486789733 0.094885699
0.353224814 0.488703758 0.084617943
0.412786096 0.489855111 0.075359136
0.469873339 0.490201980 0.069213696
0.523726702 0.489825904 0.083280936
0.574245930 0.489809424 0.103951320
0.622501969 0.490469337 0.125369564
0.668778837 0.491727352 0.144944757
0.713510633 0.493542612 0.163236082
0.756901920 0.496058941 0.181891829
0.798875391 0.499217272 0.200056702
0.839080274 0.503095925 0.217048824
0.876848817 0.507551372 0.233731940
0.000788502 0.537294030 0.126811132
0.092900626 0.536130190 0.129676074
0.173543260 0.536552966 0.128518507
0.239433140 0.538223684 0.123104073
0.300680816 0.540256858 0.115288258
0.359403938 0.542216957 0.105507754
0.416279018 0.543606341 0.096797436
0.471484095 0.544498265 0.088977061
0.524829388 0.544676840 0.082647003
0.575685024 0.544235945 0.097668938
0.623924434 0.544102788 0.121893317
0.670322299 0.544585049 0.142770067
0.715146542 0.545639515 0.162632376
0.758643925 0.547165573 0.182766706
0.800698817 0.549341500 0.201094702
0.841072977 0.552111924 0.218507260
0.878906488 0.555263817 0.235443503
0.034946062 0.587686181 0.147224501
0.131365880 0.586697817 0.149648502
0.197155684 0.587037265 0.148358509
0.255869597 0.588450372 0.143774867
0.312506139 0.590332747 0.137367949
0.367550045 0.592064261 0.130124569
0.421639442 0.593607843 0.122395754
0.474614590 0.594772518 0.114251748
0.526314139 0.595333934 0.106843375
0.576738417 0.595496893 0.100329563
0.625162601 0.594967246 0.117284313
0.671526253 0.594802618 0.140327573
0.716348827 0.595156074 0.162501886
0.759932816 0.595992088 0.183670834
0.802091420 0.597414970 0.202258393
0.842445135 0.599240243 0.220164090
0.880394638 0.601540506 0.237352863
0.097629368 0.634762347 0.170517057
0.169480249 0.634041190 0.172090814
0.221855015 0.634488165 0.170831442
0.274134010 0.635773063 0.167473808
0.326171011 0.637276053 0.162531689
0.377728522 0.638963819 0.156367689
0.428869128 0.640492380 0.149569124
0.479419589 0.641753018 0.141953245
0.529226482 0.642632961 0.134598687
0.578115821 0.643073082 0.127205998
0.626187742 0.643159807 0.121713810
0.672654986 0.642590880 0.137616619
0.717375100 0.642361164 0.162159070
0.760921717 0.642636836 0.184258342
0.803099811 0.643352211 0.203485832
0.843445718 0.644552529 0.222047076
0.881407738 0.646139860 0.239315182
0.152713567 0.679170549 0.193669885
0.204228073 0.678833067 0.194075927
0.247296438 0.679245532 0.192894384
0.293837696 0.680302262 0.190276682
0.341502011 0.681610286 0.185995251
0.389626801 0.683130383 0.180745870
0.437770218 0.684615731 0.174727574
0.485865593 0.685950935 0.168293387
0.533556521 0.686956286 0.161356121
0.580772936 0.687664032 0.154783621
0.627584994 0.688000917 0.148934886
0.673658729 0.687971294 0.145022005
0.718445063 0.687422633 0.162243068
0.761821985 0.687107503 0.184941769
0.803914785 0.687338293 0.204859719
0.844243050 0.687964380 0.224011198
0.882215917 0.688920021 0.241497502
0.197143003 0.721336782 0.215706319
0.235891387 0.721324027 0.215525940
0.273085892 0.721743524 0.214337751
0.314566046 0.722587824 0.212251067
0.358194560 0.723714411 0.208905697
0.402941942 0.725097775 0.204621837
0.448264807 0.726447523 0.199559122
0.493799388 0.727727830 0.194249943
0.539373100 0.728831530 0.188453436
0.584706962 0.729692519 0.182818696
0.629921257 0.730245888 0.177508071
0.674876213 0.730456233 0.172803938
0.719402850 0.730390370 0.169323877
0.762773454 0.729799688 0.185483962
0.804728150 0.729509950 0.206355259
0.844943166 0.729664981 0.226147518
0.882920086 0.730172515 0.243775114
0.235015228 0.761500835 0.237297386
0.266953468 0.761587083 0.236811206
0.298867255 0.761961579 0.235825837
0.335958153 0.762697518 0.234015644
0.375919878 0.763721883 0.231107399
0.417516649 0.764945388 0.227692455
0.459958047 0.766153991 0.223384842
0.503126442 0.767412245 0.218637705
0.546414495 0.768504381 0.213581517
0.589919686 0.769473493 0.208433270
0.633450866 0.770162702 0.203129470
0.677024961 0.770613909 0.198335782
0.720438421 0.770722628 0.194096595
0.763688028 0.770582855 0.191097572
0.805547178 0.770015538 0.207814962
0.845635891 0.769743562 0.228070885
0.883509278 0.769850016 0.246106625
0.269530356 0.799794316 0.258103102
0.296357036 0.800006330 0.257688850
0.324510217 0.800385952 0.256563783
0.357872337 0.800997555 0.255041957
0.394433469 0.801918447 0.252502710
0.432950884 0.802951813 0.249323711
0.472842246 0.804099917 0.245748386
0.513505340 0.805272341 0.241338953
0.554681420 0.806391180 0.236907825
0.596219003 0.807383657 0.232026085
0.638067842 0.808199823 0.227239147
0.680130363 0.808732271 0.222662091
0.722312987 0.809022427 0.218443215
0.764570355 0.809198260 0.214902207
0.806454122 0.809056520 0.212419853
0.846478820 0.808397114 0.230353892
0.884184420 0.808133245 0.248691618
0.301597714 0.836560011 0.278489858
0.324798375 0.836789250 0.278078198
0.349699467 0.837090731 0.277031183
0.379813820 0.837650180 0.275673270
0.413329661 0.838482618 0.273570687
0.449077845 0.839415193 0.270668089
0.486411572 0.840499938 0.267481208
0.524779439 0.841600299 0.263713449
0.563842773 0.842658877 0.259635836
0.603497505 0.843622923 0.255286992
0.643608332 0.844501734 0.250927925
0.684090972 0.845161557 0.246450573
0.724964321 0.845691025 0.242333338
0.766088009 0.845921636 0.238566965
0.807083905 0.845971823 0.235570639
0.847272635 0.845806003 0.233479515
0.884899676 0.845239520 0.251094192
0.331556827 0.871888041 0.298339307
0.351935059 0.872081041 0.297966689
0.374232382 0.872448921 0.296994418
0.401558220 0.872922897 0.295649350
0.432289749 0.873576820 0.293839425
0.465501368 0.874468029 0.291388243
0.500513077 0.875452936 0.288484693
0.536636770 0.876511335 0.285153806
0.573670983 0.877548397 0.281568557
0.611504197 0.878500521 0.277550042
0.649873078 0.879439175 0.273326010
0.688865125 0.880194306 0.269084126
0.728372753 0.880789340 0.265182078
0.768333375 0.881256878 0.261258245
0.808294117 0.881470919 0.257973254
0.847727835 0.881462991 0.255217910
0.885705829 0.881308913 0.253460765
0.000887500 0.004632500 0.086995877
0.042063691 0.003943000 0.117993064
0.106291503 0.000098625 0.133907631
0.167802960 0.000936749 0.136392191
0.229594141 0.000000000 0.138917252
0.293482929 0.000000000 0.143768251
0.356292903 0.000000001 0.149608627
0.417117417 0.000000000 0.157095373
0.474176645 0.000394501 0.165349379
0.527880788 0.002562687 0.174699932
0.578760386 0.002759750 0.184437618
0.627353549 0.025628563 0.195422441
0.674075365 0.048185632 0.207168505
0.719368160 0.071358785 0.219497457
0.763278842 0.108361661 0.232509762
0.805382371 0.139817983 0.245872259
0.845028996 0.170865878 0.259094983
0.000000000 0.069127247 0.145506755
0.055654503 0.069127262 0.149972886
0.126062691 0.067024998 0.151715696
0.192003846 0.064406686 0.150503248
0.255215496 0.061430246 0.150421858
0.317717701 0.054697186 0.153186068
0.378101081 0.051983502 0.157564700
0.435282350 0.053526185 0.163506746
0.489363015 0.054071877 0.170613497
0.540512621 0.066732123 0.178947628
0.589234769 0.083386496 0.188197687
0.636387467 0.101798937 0.198531240
0.681862652 0.124620497 0.209785998
0.726318479 0.147718593 0.222007141
0.769404352 0.170781836 0.234677270
0.810854733 0.194679007 0.247699142
0.850003421 0.216258630 0.260942429
0.000000000 0.139758512 0.155027881
0.051169999 0.141122565 0.155708313
0.131673008 0.141062751 0.155762509
0.203320697 0.139713004 0.154734015
0.270134002 0.138603881 0.155478865
0.333417118 0.137948751 0.158069819
0.393144876 0.138540998 0.161732122
0.449229181 0.141242877 0.167281270
0.501568973 0.145966992 0.173815623
0.551310122 0.153546318 0.181665942
0.598863900 0.164714515 0.190726623
0.644795656 0.177234694 0.200782508
0.689542651 0.191527769 0.211905748
0.733185709 0.207803205 0.223794401
0.775579154 0.224426404 0.236440152
0.816494346 0.241100580 0.249480501
0.855038881 0.258228749 0.262360752
0.000000000 0.215820760 0.157716066
0.030892679 0.216696009 0.157040119
0.131587133 0.216540813 0.157952949
0.205579206 0.218244135 0.156206250
0.277155697 0.218244135 0.156466261
0.343071997 0.218195766 0.159086943
0.403806269 0.218890190 0.163085878
0.459515154 0.221126556 0.168414623
0.511560321 0.225107878 0.175103262
0.560715377 0.230575085 0.183283240
0.607614517 0.237770632 0.192425430
0.653066218 0.246298403 0.202440679
0.697162986 0.256280899 0.213653386
0.740265727 0.267576993 0.225664943
0.782106340 0.279550612 0.238199204
0.822569311 0.292438060 0.251258940
0.860609829 0.305720985 0.264298826
0.000000000 0.291281611 0.160605490
0.017940251 0.292080522 0.160308927
0.125979245 0.291016608 0.161988646
0.206187069 0.292639971 0.160636008
0.278452963 0.295051783 0.156165630
0.346150458 0.295076191 0.158289000
0.407900542 0.295632750 0.162573501
0.464496315 0.296777427 0.168301746
0.517135859 0.298985124 0.175416872
0.566740513 0.302296430 0.183962613
0.613984644 0.306765765 0.193478495
0.659351826 0.312405884 0.203810811
0.703395844 0.319090992 0.215112761
0.746286452 0.326842248 0.227346450
0.788011909 0.335808486 0.240062639
0.828078687 0.345551878 0.253153950
