public/lut/56.cube
TITLE "17x17x17 Adobe/IRIDAS cube 3D LUT exported with GrossGrade v0.2.2 (beta) 64 bit"
DOMAIN_MIN 0 0 0
DOMAIN_MAX 1 1 1
LUT_3D_SIZE 5
0.000000000 0.000000000 0.000000000
0.221658513 0.002760250 0.020897500
0.469787002 0.000000000 0.060747005
0.673140287 0.058171757 0.117136002
0.845632017 0.175359994 0.188180998
0.000000000 0.289365262 0.003154000
0.275879264 0.299104512 0.000000000
0.515012980 0.302826762 0.022868505
0.702473998 0.322815537 0.106764004
0.865862489 0.358728737 0.191652745
0.001577003 0.536292493 0.038240008
0.299673736 0.542506754 0.007294501
0.525533438 0.545781016 0.000000000
0.715531826 0.546357989 0.089097261
0.879124999 0.556083500 0.195961505
0.198446006 0.721625268 0.164887011
0.357726246 0.725178003 0.151352763
0.540143967 0.729905963 0.120199010
0.720270514 0.731071711 0.094301008
0.883595526 0.730718017 0.203562006
0.331768990 0.872426987 0.266795993
0.432269484 0.874504030 0.260595739
0.574218035 0.878392994 0.246145502
0.729216516 0.881411731 0.227919742
0.886480987 0.881775975 0.214613006
0.000000000 0.009265751 0.187196746
0.225014001 0.000000000 0.275133729
0.477241009 0.000394501 0.287063241
0.674862504 0.029177004 0.311296761
0.844618976 0.163470507 0.344756246
0.000000000 0.289262772 0.308402002
0.274457723 0.289887518 0.308520973
0.516395986 0.293011278 0.309307039
0.702485085 0.313946515 0.325356483
0.864741504 0.351734519 0.354147017
0.000000000 0.539956510 0.322075754
0.301280737 0.535235286 0.326098263
0.520771801 0.540377021 0.316548228
0.712964535 0.542092979 0.333979249
0.877707720 0.551812708 0.363079250
0.177970767 0.723373771 0.358171999
0.358151972 0.720232964 0.361690015
0.536286533 0.724593997 0.353519738
0.715282261 0.727536500 0.341628224
0.879967570 0.728016257 0.372514248
0.325632244 0.871919990 0.406914264
0.431676239 0.870882273 0.408082485
0.571737230 0.873983264 0.401797980
0.724595547 0.878178239 0.389885992
0.881950736 0.879268527 0.380743235
0.000000000 0.022868503 0.391531527
0.188832015 0.001774250 0.461387038
0.474469006 0.000000000 0.510886014
0.676456034 0.006702756 0.514943719
0.844392002 0.140450999 0.523782969
0.000000000 0.277234495 0.518705249
0.264045507 0.277640253 0.531443000
0.508081257 0.278650999 0.537352502
0.699115992 0.300430000 0.532127500
0.861139238 0.341543257 0.536320329
0.000000000 0.534721494 0.543861508
0.283549011 0.534268260 0.543609977
0.513664961 0.533082485 0.543092430
0.708848774 0.533859968 0.541425228
0.873453975 0.544225514 0.547469974
0.125544265 0.724727035 0.551343679
0.339969754 0.722510755 0.551578045
0.533609748 0.718433738 0.554147720
0.707593501 0.722211957 0.548259258
0.874215782 0.723353744 0.555740476
0.300866485 0.874671996 0.572049975
0.419001013 0.872177720 0.573576450
0.569157481 0.868898511 0.576666951
0.718011498 0.872475207 0.571700692
0.874239504 0.875232995 0.563827991
0.000000000 0.043993253 0.547142506
0.198787749 0.024642752 0.598747253
0.452379018 0.006702752 0.651555538
0.673140764 0.008673999 0.687820017
0.844274759 0.109256998 0.688193262
0.009265756 0.275622785 0.662393749
0.272145271 0.278262496 0.678818345
0.491195023 0.284710765 0.694138765
0.692365527 0.289678037 0.706815302
0.858281016 0.328740746 0.701466799
0.063268766 0.523577273 0.708157480
0.302677244 0.524091005 0.712290287
0.507208467 0.522893190 0.718560278
0.701301754 0.523331523 0.718788266
0.867847502 0.535033047 0.713148296
0.112799264 0.719830275 0.721359968
0.327592492 0.719106495 0.721163988
0.521577001 0.717884302 0.720586777
0.700638771 0.716336489 0.720154047
0.872795939 0.715213239 0.717295289
0.275709480 0.874527991 0.726337790
0.399350524 0.873261750 0.726133525
0.556686997 0.870769501 0.726266742
0.718655765 0.865919232 0.731766701
0.865764976 0.869834781 0.731646001
0.005520000 0.076661997 0.671302974
0.232420757 0.072104000 0.710289478
0.448367536 0.073647499 0.759055495
0.651696265 0.073518753 0.799247503
0.845229983 0.084261000 0.827291012
0.107863255 0.283975512 0.771238506
0.294999510 0.288762480 0.786868751
0.486880273 0.298036993 0.806468010
0.674634755 0.307669997 0.824960232
0.856382012 0.316931754 0.839560211
0.174672499 0.516392469 0.828014016
0.331879258 0.517089009 0.834256291
0.510825515 0.517785549 0.842711985
0.690721035 0.521213293 0.847053528
0.863822997 0.525480509 0.850750983
0.222117245 0.710648239 0.849179983
0.362103760 0.710691035 0.850551963
0.528081536 0.710396767 0.853089213
0.693635523 0.707434058 0.863236964
0.866398215 0.706557035 0.857656717
0.271833003 0.870688975 0.857574999
0.392583013 0.869955540 0.857312024
0.547334552 0.868704498 0.856719494
0.711179793 0.866041243 0.854750276
0.861572981 0.866033018 0.855104983
