public/lut/57.cube
TITLE "17x17x17 Adobe/IRIDAS cube 3D LUT exported with GrossGrade v0.2.2 (beta) 64 bit"
DOMAIN_MIN 0 0 0
DOMAIN_MAX 1 1 1
LUT_3D_SIZE 17
0.000000000 0.000000000 0.000000000
0.081606872 0.004632438 0.004632438
0.137803376 0.012321251 0.012321251
0.191502824 0.020848377 0.023854628
0.246132255 0.030162750 0.036274500
0.300503492 0.038689625 0.049729999
0.354199648 0.046796128 0.062866628
0.406206548 0.056965820 0.076120004
0.456706017 0.068379506 0.089150503
0.505313873 0.081697561 0.102049246
0.552631617 0.096046254 0.115130372
0.598300278 0.110933244 0.127932876
0.642546475 0.126932502 0.141086012
0.685397863 0.143067569 0.154240519
0.727141440 0.159462392 0.167667389
0.767457783 0.175624758 0.180909514
0.806693017 0.192113996 0.194352001
0.004681750 0.098452881 0.004681750
0.097709432 0.097680315 0.004681750
0.156513184 0.098457187 0.013110250
0.211255521 0.101116814 0.023854628
0.264708310 0.104885317 0.037063252
0.317793310 0.109681062 0.050625999
0.369496673 0.115393013 0.064363882
0.419872403 0.122482315 0.077109195
0.468782336 0.130731568 0.090448506
0.516210198 0.139987811 0.103177994
0.562121451 0.150482431 0.116140008
0.606806099 0.161697373 0.129174560
0.650380731 0.173716456 0.142282754
0.692546368 0.186345026 0.155527264
0.733529687 0.199231878 0.168861389
0.773310483 0.212688521 0.182201326
0.811929047 0.226435870 0.195547432
0.001872750 0.163529873 0.007097000
0.099277377 0.163688749 0.007886000
0.162129506 0.163285494 0.007984500
0.221825525 0.163904011 0.017693441
0.277498245 0.165131256 0.032331377
0.331085265 0.167967498 0.046656061
0.382486761 0.171996623 0.061554007
0.432011217 0.177188873 0.075960949
0.480046242 0.183575258 0.089260757
0.526729524 0.190889508 0.102819063
0.571675122 0.199004129 0.116161630
0.615623236 0.207934007 0.129483372
0.658358872 0.217688873 0.142842501
0.699942291 0.227881581 0.156516954
0.740304232 0.238629758 0.169813633
0.779565692 0.250029832 0.183444023
0.817703366 0.261713743 0.196735993
0.000788999 0.228999645 0.005520001
0.095390931 0.228977010 0.006111750
0.163757443 0.228381127 0.006949251
0.226864263 0.228662193 0.006309001
0.286281139 0.229012653 0.020108622
0.341642231 0.230001763 0.035781249
0.393972427 0.232421339 0.053837873
0.443639278 0.235811144 0.070254631
0.491400272 0.240178525 0.085267253
0.537373066 0.245650649 0.100026682
0.582074225 0.251760244 0.114631623
0.625463665 0.258705258 0.128613546
0.667701185 0.266311198 0.142842501
0.708493829 0.274351746 0.156801879
0.748476803 0.283257991 0.170498401
0.786999643 0.292570800 0.184328899
0.824599743 0.302411169 0.197878748
0.000000000 0.293418527 0.005125499
0.087795563 0.293360382 0.005076187
0.163459256 0.292623878 0.005914249
0.229126766 0.292521685 0.007294249
0.290744245 0.292530000 0.005914250
0.348737121 0.292858601 0.019221311
0.402535409 0.293844372 0.039914258
0.453142405 0.295627117 0.059397008
0.501173258 0.298218489 0.077745751
0.547586203 0.301949918 0.094918817
0.592153370 0.306348026 0.111221753
0.635186434 0.311377257 0.126479745
0.676994026 0.317163497 0.141578764
0.717631340 0.323700130 0.156052396
0.756906748 0.330701739 0.170542270
0.795139670 0.338356107 0.184596077
0.832062721 0.346575737 0.198645249
0.000000000 0.355213255 0.006850750
0.079157054 0.355186999 0.006062437
0.163503498 0.354331374 0.007393187
0.231497884 0.353737444 0.008181188
0.293725818 0.353560746 0.008970188
0.352683395 0.353731066 0.008181187
0.408352017 0.353894114 0.022622569
0.460328162 0.354547262 0.042353764
0.509363651 0.355957270 0.066269442
0.556069672 0.358171642 0.087112434
0.600924253 0.361083120 0.105302751
0.644116521 0.364691705 0.122373939
0.685865164 0.369045228 0.138928443
0.726213574 0.373976648 0.154497445
0.765262067 0.379575372 0.169549823
0.803059280 0.385847181 0.184462324
0.839618921 0.392567247 0.198941007
0.000000000 0.414245635 0.003449876
0.077519685 0.414179772 0.003154001
0.165301263 0.413358510 0.004140001
0.234567642 0.412569016 0.005963626
0.297167003 0.411913902 0.007491375
0.355902940 0.411856651 0.007688376
0.411965132 0.412010998 0.006604500
0.465326548 0.412114143 0.025185257
0.515475154 0.412628412 0.051907502
0.562955856 0.413676590 0.075365312
0.608393133 0.415500879 0.097008117
0.651869118 0.417935044 0.117008433
0.693727672 0.421036780 0.134860381
0.734035194 0.424771160 0.151812643
0.772925556 0.429071754 0.167932510
0.810543001 0.434026331 0.183483511
0.846798599 0.439521283 0.198423252
0.000000000 0.470697582 0.011237129
0.081989437 0.470513016 0.010300753
0.169023067 0.469624549 0.010793879
0.238404632 0.468740851 0.012222943
0.300964862 0.468070924 0.014194130
0.359274358 0.467568755 0.015180130
0.414990366 0.467478693 0.015623945
0.468739748 0.467800826 0.015623944
0.519829750 0.467765838 0.037605058
0.568295360 0.468205780 0.061285120
0.614377558 0.469087273 0.086796679
0.658203542 0.470528275 0.109647997
0.700375259 0.472659439 0.129710063
0.740841031 0.475296348 0.147919014
0.779718995 0.478558421 0.165474772
0.817230105 0.482362032 0.181780636
0.853297591 0.486822665 0.197643623
0.000000000 0.524791956 0.011039998
0.090754375 0.524422944 0.010645499
0.174322382 0.523650527 0.012223000
0.243049324 0.522724450 0.015229249
0.305158734 0.521881998 0.018728498
0.363232553 0.521257699 0.021833749
0.418423533 0.520811439 0.024150126
0.471545398 0.520769000 0.024840001
0.522987485 0.520959496 0.022869000
0.572243094 0.521054506 0.045339309
0.618971407 0.521296740 0.075443625
0.663384914 0.522063434 0.101067305
0.705898523 0.523272514 0.123346254
0.746548176 0.525044680 0.143501267
0.785537124 0.527388394 0.162397146
0.823042274 0.530241966 0.179537773
0.858986020 0.533670008 0.196061492
0.010399063 0.576473057 0.018630249
0.103365123 0.576133728 0.018630249
0.182334185 0.575447679 0.020108750
0.249094158 0.574599445 0.021784250
0.310390502 0.573668897 0.024741562
0.367791116 0.572824240 0.027846251
0.422542512 0.572269082 0.030951750
0.475117832 0.571862578 0.032824252
0.525794506 0.571804762 0.033218313
0.575150251 0.571943045 0.032035813
0.622518539 0.571967125 0.064188935
0.667517841 0.572182894 0.091878124
0.710334241 0.572773039 0.116388634
0.751251459 0.573872328 0.138742954
0.790436447 0.575445592 0.158616379
0.827923536 0.577469289 0.176915631
0.863879800 0.580096781 0.194376811
0.024840124 0.626073420 0.037161250
0.120672747 0.625782251 0.037407879
0.192717999 0.625125110 0.038537122
0.256825835 0.624284506 0.041489750
0.316722780 0.623336256 0.045166373
0.373274952 0.622386992 0.048467562
0.427317649 0.621616364 0.051624626
0.479288727 0.621056974 0.054837938
0.529349029 0.620678246 0.056688249
0.577950060 0.620606244 0.057806499
0.625335038 0.620747745 0.056608371
0.670721233 0.620697498 0.083428815
0.713973165 0.620854139 0.109688878
0.755113542 0.621348262 0.133911192
0.794487655 0.622304261 0.154899642
0.832081914 0.623687863 0.174265325
0.867992759 0.625595272 0.192369625
0.048422687 0.673602045 0.046777375
0.140798181 0.673202217 0.047927558
0.205961689 0.672607362 0.050827876
0.266715109 0.671794415 0.053948376
0.324717581 0.670765221 0.058598001
0.380048931 0.669844270 0.063676938
0.433192492 0.668924809 0.068391062
0.484321028 0.668171644 0.072786942
0.533683300 0.667564988 0.075693369
0.581517041 0.667180121 0.077889502
0.628105462 0.667126715 0.078799061
0.673491418 0.667175233 0.078314498
0.716977715 0.667098582 0.105103821
0.758335292 0.667220891 0.129804343
0.797806084 0.667683065 0.151451513
0.835456729 0.668480098 0.171643376
0.871393263 0.669702172 0.190610632
0.090139255 0.718896270 0.067935757
0.164820075 0.718502939 0.068856694
0.222281873 0.717964530 0.070885256
0.279218048 0.717129588 0.074144885
0.334710002 0.716147304 0.078455001
0.388395160 0.715156317 0.083224878
0.440250516 0.714120507 0.087762132
0.490400463 0.713219881 0.092239566
0.538851976 0.712422252 0.096180752
0.585993290 0.711916387 0.099317759
0.631783307 0.711526036 0.101545759
0.676197052 0.711321235 0.102582127
0.719568014 0.711373985 0.102314003
0.761078298 0.711279511 0.127182454
0.800606906 0.711352766 0.149427772
0.838350832 0.711739004 0.170119390
0.874191999 0.712496519 0.189640000
0.132870108 0.761884928 0.092829518
0.191652715 0.761592388 0.093639895
0.241820380 0.760999799 0.094932027
0.294312388 0.760201454 0.097677834
0.346959293 0.759233177 0.101308338
0.398596883 0.758184314 0.104965955
0.448967963 0.757125676 0.109213278
0.497844756 0.756087303 0.113486335
0.545313656 0.755187988 0.117551707
0.591513634 0.754459560 0.121076517
0.636348128 0.753832579 0.123902835
0.679933369 0.753374994 0.126076147
0.722409606 0.753253698 0.127002478
0.763683379 0.753263235 0.127022266
0.803207934 0.753070414 0.149074763
0.840842843 0.753070414 0.170206696
0.876666844 0.753436148 0.189848006
0.173166931 0.802839160 0.117175892
0.220126778 0.802437425 0.117810212
0.264188409 0.801883817 0.119154394
0.312314034 0.801109195 0.121388830
0.361715019 0.800122559 0.123947650
0.410927922 0.799081504 0.127436712
0.459373891 0.797999263 0.131292284
0.506849647 0.796823800 0.135132641
0.553044856 0.795773089 0.138867259
0.598079145 0.794845462 0.142503262
0.641957521 0.794053316 0.145774901
0.684650421 0.793491662 0.148232639
0.726146638 0.793015957 0.150021270
0.766470969 0.792828858 0.151047915
0.805743456 0.792833447 0.151278406
0.843259156 0.792628348 0.171900824
0.878958523 0.792651653 0.191575870
0.211550772 0.841452301 0.141825840
0.250477463 0.841043591 0.142615706
0.289175957 0.840516627 0.143764600
0.332832903 0.839723349 0.145816028
0.378839642 0.838774025 0.148038834
0.425332963 0.837743402 0.151121661
0.471669286 0.836587369 0.154221788
0.517462194 0.835366070 0.157734275
0.562165916 0.834278226 0.161182508
0.605960906 0.833251059 0.164646149
0.648679912 0.832311928 0.167708710
0.690236032 0.831526875 0.170569703
0.730745435 0.830987751 0.172863960
0.770038724 0.830511808 0.174404696
0.808361232 0.830404699 0.175508782
0.845601082 0.830343068 0.175972387
0.881146669 0.830173373 0.194641933
0.248844996 0.878121972 0.165824994
0.281792670 0.877680004 0.166289076
0.315780491 0.877122045 0.167464256
0.355413318 0.876389802 0.169056877
0.397788525 0.875409007 0.171300247
0.441493690 0.874387980 0.173856497
0.485592633 0.873221397 0.176680624
0.529392123 0.872103393 0.179747254
0.572492003 0.870931029 0.182974011
0.614829481 0.869816542 0.186113313
0.656235397 0.868797243 0.189119995
0.696592152 0.867916405 0.192100883
0.736023784 0.867216468 0.194452748
0.774280906 0.866695821 0.196598500
0.811551094 0.866345763 0.198027253
0.847871900 0.866225898 0.199150309
0.883359015 0.866195023 0.199727997
0.003104750 0.003055437 0.055745311
0.086516999 0.005421438 0.084711872
0.140899941 0.012419876 0.087763444
0.195057765 0.021784315 0.093165375
0.249374330 0.030162750 0.100014813
0.303654134 0.038886879 0.107961379
0.356864601 0.046796128 0.116514012
0.408649296 0.057543881 0.125567123
0.458930820 0.068678811 0.135227993
0.507342815 0.082135938 0.145299882
0.554152250 0.096427627 0.155668184
0.599741101 0.111289814 0.166654691
0.643838286 0.127520248 0.177697256
0.686526299 0.143607140 0.188832700
0.728073835 0.159492895 0.200266823
0.768364966 0.176271945 0.212004334
0.807286918 0.192701504 0.223754317
0.005421438 0.096059375 0.094827443
0.098851323 0.097680315 0.095299058
0.157223612 0.098830819 0.097605310
0.212567195 0.101921506 0.101172939
0.266504437 0.105609879 0.106588937
0.319500923 0.110286690 0.113067441
0.371426582 0.116160750 0.120785192
0.421804905 0.122784749 0.129219934
0.470374465 0.131149381 0.138487175
0.517647564 0.140538201 0.148065135
0.563408971 0.150993928 0.158298627
0.607887626 0.162188813 0.168902069
0.651351035 0.174156874 0.179768950
0.693400979 0.186753318 0.190904140
0.734105945 0.199625134 0.202175647
0.773921311 0.213225454 0.213797957
0.812394738 0.226925060 0.225602999
0.004878937 0.161552936 0.097630374
0.098929189 0.163496375 0.096118748
0.163965687 0.163008511 0.097335376
0.222870752 0.163498074 0.102311246
0.278343052 0.165359318 0.108179383
0.331668884 0.168504611 0.115047373
0.383249581 0.172756806 0.123031318
0.432842582 0.178065315 0.131346494
0.480802447 0.184415758 0.140454933
0.527258277 0.191507623 0.150136754
0.572276235 0.199692115 0.160342067
0.616116166 0.208554059 0.170814112
0.658923805 0.218334004 0.181531444
0.700393677 0.228397772 0.192748159
0.740687549 0.239121139 0.204039514
0.779964149 0.250506401 0.215743080
0.817895114 0.262156606 0.227425873
0.001576999 0.226830021 0.099228248
0.095410869 0.229010895 0.096931249
0.165157497 0.228549823 0.097734250
0.228561133 0.228245452 0.098880194
0.287547201 0.228674322 0.105629563
0.342414647 0.229990572 0.113675371
0.394350320 0.232556403 0.122196309
0.444033593 0.236220196 0.131382808
0.491596401 0.240805566 0.141020998
0.537564576 0.246115834 0.150946945
0.582233012 0.252354234 0.161315635
0.625586689 0.259209335 0.172142208
0.667787135 0.266868711 0.183196753
0.708660424 0.275145739 0.194347695
0.748530626 0.283899218 0.205886841
0.787160695 0.293188423 0.217468455
0.824586451 0.302997440 0.229252681
0.000000000 0.291358888 0.099936441
0.088596933 0.293377131 0.096872494
0.164410010 0.293106318 0.097301811
0.230637193 0.292317510 0.099199504
0.292250693 0.292403013 0.099672563
0.349870741 0.292624801 0.108356439
0.403165072 0.293663055 0.118280187
0.453480422 0.295570880 0.128729314
0.501387298 0.298422009 0.139040008
0.547409952 0.302133769 0.149967313
0.591923892 0.306643426 0.160990328
0.635065079 0.311790496 0.172356308
0.676840842 0.317653000 0.183814749
0.717384577 0.324171841 0.195341334
0.756793082 0.331310689 0.207068071
0.794884920 0.338889629 0.218880504
0.831878781 0.347164571 0.230719611
0.000000000 0.353429258 0.100640997
0.080880560 0.355086356 0.097117871
0.163939506 0.354965389 0.097192869
0.232726887 0.353952885 0.099141568
0.295141071 0.353495121 0.101031996
0.353880763 0.353433609 0.101324499
0.409172893 0.353643328 0.111527070
0.460757852 0.354326010 0.123183943
0.509481192 0.355889201 0.135212809
0.556024194 0.358110696 0.147131756
0.600775182 0.361140490 0.159202009
0.643905461 0.364875793 0.171216205
0.685589671 0.369316995 0.183370322
0.725784779 0.374402225 0.195416138
0.764925539 0.379963696 0.207644776
0.802717090 0.386240512 0.219786003
0.839287341 0.393006861 0.231885374
0.000000000 0.412465930 0.101728506
0.078774184 0.414032131 0.097840063
0.165208369 0.413776547 0.098161876
0.235059261 0.412920773 0.100097433
0.298154742 0.412092656 0.102429941
0.356825560 0.411637068 0.104175560
0.412742347 0.411758900 0.103795633
0.465856254 0.411837339 0.116168126
0.515725613 0.412403136 0.129455566
0.563100815 0.413634121 0.142632008
0.608245373 0.415452689 0.155818745
0.651610553 0.417933762 0.168968126
0.693415463 0.421115518 0.181922436
0.733667374 0.424921662 0.194723651
0.772522807 0.429272026 0.207291514
0.810091138 0.434311330 0.219918191
0.846313477 0.439851135 0.232414007
0.000000000 0.469087690 0.104486190
0.082284935 0.470381260 0.100839309
0.168405503 0.470137388 0.100909814
0.238282949 0.469294786 0.102828071
0.301401317 0.468383163 0.105433941
0.359919548 0.467689157 0.107778750
0.415584952 0.467341036 0.109370187
0.469270289 0.467550546 0.109033629
0.520199656 0.467546970 0.122604631
0.568432450 0.467958748 0.136950627
0.614304662 0.468961954 0.151435882
0.658097029 0.470380723 0.165553063
0.700130761 0.472605973 0.179322124
0.740463257 0.475283414 0.192948192
0.779358327 0.478632331 0.206252560
0.816803098 0.482567787 0.219399378
0.852844477 0.487027287 0.232372746
0.000000000 0.523447216 0.108032495
0.090511501 0.524326503 0.105086252
0.173649326 0.524069190 0.105388135
0.242586255 0.523261428 0.107204258
0.305250227 0.522299349 0.109895371
0.363635868 0.521487176 0.112853557
0.418848902 0.520893037 0.115038626
0.471998394 0.520627439 0.116218939
0.523288131 0.520678520 0.115835756
0.572389364 0.520753801 0.130619556
0.619018435 0.521050692 0.146200806
0.663252652 0.521794319 0.161323428
0.705662966 0.523136199 0.176091626
0.746242404 0.524955094 0.190537065
0.785209656 0.527414620 0.204646692
0.822612643 0.530304372 0.218412966
0.858473837 0.533792496 0.231708199
0.011532812 0.575458109 0.114045620
0.103394248 0.576052010 0.111833811
0.181246057 0.575737119 0.112115689
0.248336941 0.575019896 0.113853559
0.310062438 0.574025452 0.116531134
0.367972016 0.573125839 0.119443186
0.422771633 0.572324395 0.122266129
0.475369006 0.571775436 0.124587499
0.526010454 0.571637094 0.125547871
0.575322986 0.571780324 0.125346065
0.622591853 0.571724117 0.141087681
0.667460322 0.571984172 0.157115817
0.710258603 0.572638333 0.172495380
0.751014948 0.573761821 0.187659308
0.790093422 0.575383306 0.202447832
0.827540755 0.577442348 0.216840446
0.863415837 0.580092967 0.230875254
0.027452314 0.625480771 0.122975811
0.119630255 0.625673056 0.121326618
0.191604376 0.625363588 0.121490628
0.255807906 0.624598503 0.123179570
0.316178620 0.623731792 0.125705630
0.373155594 0.622683525 0.128704876
0.427386791 0.621794224 0.131694064
0.479440808 0.621079266 0.134397626
0.529479921 0.620601058 0.136316448
0.578091264 0.620368958 0.137642875
0.625387728 0.620487630 0.137243569
0.670639396 0.620425284 0.152901486
0.713842571 0.620663106 0.168874830
0.754938960 0.621191859 0.184826151
0.794174254 0.622179627 0.200173825
0.831677973 0.623561025 0.215119019
0.867545843 0.625449836 0.229713738
0.050434500 0.673070073 0.132848188
0.139677882 0.673114657 0.131775320
0.204699188 0.672776699 0.132339925
0.265730858 0.672020137 0.133933812
0.324077219 0.671121120 0.136244878
0.379655093 0.670099795 0.139200747
0.433009267 0.669072151 0.142163187
0.484307408 0.668225527 0.145083457
0.533657312 0.667508483 0.147470117
0.581599057 0.667106867 0.149518505
0.628110588 0.666946769 0.150451556
0.673344135 0.666967273 0.150331751
0.716876924 0.666913033 0.166368067
0.758147597 0.667081714 0.182404563
0.797549009 0.667515039 0.198266760
0.835132003 0.668355167 0.213633761
0.870936632 0.669608951 0.228755876
0.090470761 0.718554795 0.145283073
0.163884893 0.718438745 0.144562006
0.220929250 0.718076169 0.145028949
0.278159827 0.717344761 0.146602303
0.333910376 0.716457129 0.148731232
0.387836307 0.715382218 0.151358262
0.440022230 0.714347899 0.154471815
0.490337491 0.713321567 0.157440007
0.538841069 0.712453485 0.160107493
0.585973442 0.711793303 0.162467510
0.631728649 0.711397111 0.164396882
0.676124215 0.711148024 0.165123701
0.719487906 0.711229205 0.165107384
0.760886192 0.711132526 0.181342512
0.800413966 0.711211026 0.197174400
0.838024914 0.711542249 0.212800145
0.873781264 0.712289453 0.228196248
0.132214487 0.761719704 0.159596696
0.190444037 0.761513174 0.159579635
0.240689889 0.761124790 0.159891516
0.293350756 0.760396183 0.161331132
0.346134633 0.759490907 0.163231507
0.397961497 0.758444667 0.165783510
0.448528320 0.757317126 0.168444961
0.497662544 0.756232977 0.171436280
0.545202374 0.755221725 0.174316257
0.591377318 0.754369378 0.176898569
0.636217594 0.753703773 0.179120138
0.679824352 0.753302097 0.180823088
0.722224176 0.753041208 0.181668460
0.763458788 0.753038764 0.181885526
0.802901089 0.752883136 0.197296947
0.840537846 0.752948940 0.212901637
0.876279831 0.753260970 0.228470191
0.172263175 0.802661836 0.174707085
0.219057515 0.802406073 0.174961954
0.263113648 0.801951170 0.175583124
0.311364681 0.801237345 0.176845759
0.360865325 0.800308764 0.178613007
0.410242051 0.799271107 0.180976719
0.458934039 0.798125565 0.183551639
0.506509542 0.796907365 0.186311781
0.552794218 0.795877397 0.189300448
0.597957969 0.794895768 0.192035943
0.641846895 0.794019043 0.194503337
0.684471667 0.793359697 0.196635455
0.725955725 0.792881429 0.198177084
0.766211152 0.792719960 0.199261516
0.805469096 0.792694509 0.199482456
0.842952311 0.792480469 0.214732334
0.878611624 0.792478263 0.230142057
0.210454717 0.841355562 0.191349015
0.249572098 0.841045737 0.191733822
0.288031131 0.840552688 0.192334384
0.331946373 0.839860260 0.193481520
0.378012896 0.838943005 0.195249647
0.424636781 0.837872505 0.197348446
0.471131861 0.836714745 0.199781016
0.516968191 0.835501909 0.202470958
0.561878085 0.834406614 0.205382630
0.605722189 0.833248913 0.208167896
0.648473263 0.832275569 0.210682586
0.690028965 0.831479907 0.213208526
0.730501711 0.830870211 0.215172321
0.769769013 0.830433130 0.216724321
0.808017075 0.830215991 0.217740580
0.845209837 0.830203116 0.218142077
0.880807579 0.830064058 0.233124942
0.247789249 0.877999008 0.209259748
0.280745715 0.877619982 0.209806308
0.314749748 0.877239883 0.210339129
0.354418367 0.876473784 0.211264133
0.396926939 0.875584722 0.212870926
0.440836549 0.874527991 0.214916065
0.484920561 0.873398304 0.217209250
0.528847396 0.872193754 0.219730318
0.572082996 0.871011019 0.222414315
0.614506364 0.869837165 0.225201681
0.655920744 0.868797243 0.227825195
0.696352482 0.867888391 0.230298862
0.735727787 0.867145777 0.232546642
0.773983181 0.866576076 0.234482884
0.811237097 0.866253972 0.235903427
0.847507358 0.866035104 0.236858502
0.882921934 0.866097987 0.237485945
0.009167250 0.008476876 0.105866253
0.084188752 0.012321251 0.131853878
0.144846618 0.013110250 0.143181130
0.199016899 0.021685690 0.146168008
0.253122389 0.030951502 0.150626376
0.306872189 0.038689625 0.156196624
0.359675407 0.047411878 0.162918121
0.411229938 0.058118444 0.170310766
0.461048514 0.069456004 0.178158000
0.509207964 0.082572564 0.186539814
0.555855095 0.097212128 0.195413619
0.601047337 0.112001315 0.204585493
0.645066142 0.127909139 0.214011267
0.687757373 0.144144714 0.223945200
0.728949130 0.160395131 0.234045908
0.769240499 0.176901877 0.244468570
0.807987750 0.193084002 0.254744500
0.013110250 0.096063815 0.150644630
0.100013815 0.098830819 0.151981801
0.158686265 0.099989377 0.155456185
0.214343444 0.102359250 0.156260759
0.269192755 0.106306627 0.159352124
0.322195292 0.110889934 0.163617924
0.373711467 0.116375133 0.168969363
0.423817515 0.123591498 0.175238445
0.472336441 0.131455243 0.182590052
0.519250154 0.140944257 0.190298751
0.564893603 0.151373371 0.198733881
0.609209418 0.162508756 0.207582191
0.652373731 0.174596578 0.216759875
0.694446385 0.187175274 0.226464450
0.735245943 0.200334698 0.236321822
0.774731994 0.213612393 0.246471524
0.813118100 0.227435678 0.256894886
0.004928250 0.160648748 0.158686757
0.100851685 0.161833376 0.159205064
0.164434001 0.162519366 0.159834489
0.223392069 0.163742363 0.161591947
0.279492497 0.166236252 0.164589241
0.332851887 0.169464439 0.168544248
0.384559393 0.173626244 0.173465252
0.434295028 0.178716242 0.179400504
0.482080877 0.184937879 0.186248884
0.528408706 0.192122996 0.193687379
0.573444307 0.200130135 0.201748624
0.617189109 0.209298253 0.210400432
0.659726083 0.218756139 0.219514370
0.701169968 0.229019895 0.228930771
0.741513312 0.239753142 0.238695398
0.780503273 0.251054883 0.248694584
0.818350196 0.262724370 0.259025127
0.003006249 0.225381821 0.161789358
0.097774565 0.226921126 0.161342010
0.165558323 0.228763133 0.160831675
0.229740649 0.227895707 0.161835045
0.288385153 0.228516951 0.166050687
0.342828184 0.230273381 0.170795187
0.394785196 0.233099192 0.176127508
0.444421142 0.236838266 0.182348445
0.491908818 0.241363823 0.189107686
0.537974298 0.246918023 0.196615756
0.582562625 0.253188998 0.204633564
0.625875175 0.259982884 0.213236362
0.668088377 0.267644346 0.222189695
0.708982229 0.275774956 0.231525391
0.748704612 0.284424484 0.241180331
0.787409067 0.293890178 0.251229346
0.824790180 0.303574741 0.261327505
0.000000000 0.289529026 0.164410755
0.092022434 0.291639209 0.163191870
0.164605245 0.293054879 0.162035257
0.231748268 0.292386204 0.162981689
0.293478251 0.292021513 0.164165020
0.350643933 0.292243510 0.169625625
0.403537393 0.293437123 0.175869614
0.453568906 0.295603901 0.182698175
0.501412153 0.298822612 0.190090865
0.547416508 0.302613556 0.197942883
0.591928780 0.307175487 0.206320629
0.635081053 0.312488109 0.215176120
0.676798165 0.318300515 0.224183992
0.717318058 0.324747235 0.233758211
0.756704211 0.331864119 0.243460253
0.794839740 0.339515328 0.253435254
