public/lut/57.cube
TITLE "17x17x17 Adobe/IRIDAS cube 3D LUT exported with GrossGrade v0.2.2 (beta) 64 bit"
DOMAIN_MIN 0 0 0
DOMAIN_MAX 1 1 1
LUT_3D_SIZE 5
0.000000000 0.000000000 0.000000000
0.246132255 0.030162750 0.036274500
0.456706017 0.068379506 0.089150503
0.642546475 0.126932502 0.141086012
0.806693017 0.192113996 0.194352001
0.000000000 0.293418527 0.005125499
0.290744245 0.292530000 0.005914250
0.501173258 0.298218489 0.077745751
0.676994026 0.317163497 0.141578764
0.832062721 0.346575737 0.198645249
0.000000000 0.524791956 0.011039998
0.305158734 0.521881998 0.018728498
0.522987485 0.520959496 0.022869000
0.705898523 0.523272514 0.123346254
0.858986020 0.533670008 0.196061492
0.090139255 0.718896270 0.067935757
0.334710002 0.716147304 0.078455001
0.538851976 0.712422252 0.096180752
0.719568014 0.711373985 0.102314003
0.874191999 0.712496519 0.189640000
0.248844996 0.878121972 0.165824994
0.397788525 0.875409007 0.171300247
0.572492003 0.870931029 0.182974011
0.736023784 0.867216468 0.194452748
0.883359015 0.866195023 0.199727997
0.020305749 0.026811501 0.192752749
0.260548770 0.030162750 0.259674519
0.466382533 0.070519000 0.275224268
0.648295283 0.129961506 0.300567001
0.810068011 0.194856256 0.330911249
0.000000000 0.288531750 0.285121977
0.294303238 0.291350514 0.286853015
0.501683235 0.300256997 0.296571732
0.677554011 0.319832534 0.315836757
0.832216740 0.349207997 0.342476726
0.008871500 0.518383980 0.298560262
0.303766251 0.522475004 0.294528246
0.523936749 0.519894958 0.299364269
0.704551280 0.522883534 0.323211253
0.856423020 0.534475267 0.351895213
0.108367257 0.714657545 0.315968513
0.331008494 0.716428220 0.312001228
0.538237751 0.712495267 0.317274272
0.718679249 0.710533738 0.322188467
0.871984720 0.711763263 0.354402244
0.248115748 0.876031995 0.345972747
0.393641979 0.875544727 0.344776750
0.570042491 0.871188045 0.349770010
0.734275043 0.866778731 0.357491016
0.881039500 0.865448475 0.361905009
0.038246002 0.072871000 0.366519511
0.255510747 0.082058005 0.427621782
0.479171515 0.073114008 0.471977502
0.656720757 0.136110246 0.481656760
0.815095484 0.200706005 0.497891515
0.063883506 0.289663732 0.478056252
0.303069234 0.298278004 0.482599258
0.506496310 0.304564983 0.496148527
0.681519032 0.323828995 0.500801980
0.834750772 0.353137761 0.512338996
0.043199010 0.515541494 0.508568525
0.313513517 0.516760767 0.509760737
0.523952484 0.518607974 0.511492968
0.701697469 0.524594903 0.517460823
0.853071928 0.537479043 0.528385520
0.146047011 0.708237052 0.520417750
0.338610262 0.710123539 0.519821525
0.535102963 0.712296069 0.517664552
0.716657221 0.709270954 0.522201717
0.867353797 0.711364985 0.536924243
0.263374984 0.869350493 0.536999464
0.395436496 0.870802045 0.535081506
0.565243006 0.870850027 0.533398986
0.730892003 0.866195261 0.538323998
0.876862526 0.864343524 0.542686462
0.094554253 0.116977006 0.519270480
0.271486223 0.127954245 0.568292022
0.472980231 0.135378018 0.619175494
0.668137014 0.143252000 0.652832806
0.822162211 0.208818257 0.659569025
0.149716496 0.301100492 0.624715507
0.321018279 0.311118007 0.634874225
0.505977690 0.320457518 0.654482484
0.687848210 0.329567015 0.671395481
0.838189721 0.359111995 0.674397051
0.160065502 0.513873219 0.676885009
0.343769252 0.516841531 0.678159237
0.531699777 0.523319244 0.680087268
0.704286993 0.528225720 0.688189507
0.853403509 0.541165709 0.690835476
0.180098757 0.705995500 0.695294559
0.355920732 0.706345737 0.696018755
0.542648017 0.706906557 0.697236776
0.715148270 0.708186030 0.698613524
0.864570975 0.711910009 0.702137232
0.290169746 0.863904238 0.705311060
0.411697984 0.864205480 0.705543995
0.568814039 0.865042329 0.705331326
0.728852749 0.865058959 0.706614792
0.871968746 0.862731516 0.714570999
0.166304007 0.161451995 0.655030012
0.302723527 0.173084751 0.693298757
0.480326504 0.186920002 0.741034985
0.662528276 0.200217009 0.779179275
0.832542002 0.218024999 0.805410028
0.221724749 0.320016742 0.745709240
0.350940496 0.329463243 0.758185029
0.515771270 0.340965986 0.780517936
0.685486317 0.352019995 0.801999509
0.845347285 0.366159230 0.818346024
0.253094494 0.517666459 0.806887507
0.385407746 0.522296250 0.808647990
0.548028469 0.530620575 0.813317478
0.707024217 0.537494004 0.823757529
0.856982470 0.546266496 0.832644463
0.272936493 0.703478515 0.835474014
0.402146995 0.704457283 0.836187720
0.565553248 0.706706524 0.836850286
0.722069263 0.711186290 0.841686010
0.864961505 0.714931726 0.844753027
0.323893994 0.861801028 0.847404003
0.434534013 0.861523509 0.847846508
0.583579004 0.861213028 0.848639011
0.735304534 0.860558748 0.849005282
0.870688975 0.862192988 0.850901008
