public/lut/58.cube
TITLE "17x17x17 Adobe/IRIDAS cube 3D LUT exported with GrossGrade v0.2.2 (beta) 64 bit"
DOMAIN_MIN 0 0 0
DOMAIN_MAX 1 1 1
LUT_3D_SIZE 5
0.000000000 0.000000000 0.000000000
0.210434750 0.010842750 0.021685751
0.430500507 0.015377002 0.062504500
0.626966476 0.063220754 0.110154256
0.799780011 0.139742002 0.162679002
0.000000000 0.265764266 0.000000000
0.261313021 0.266399503 0.000000000
0.481603265 0.271829993 0.033317253
0.665634751 0.290057003 0.102338009
0.827772975 0.319614500 0.163896993
0.000000000 0.509590507 0.000000000
0.272571027 0.506944001 0.000000000
0.505837977 0.506457031 0.000000000
0.697845519 0.508901715 0.053756006
0.857146502 0.519585490 0.152832508
0.000000000 0.713192999 0.000000002
0.299311280 0.710268021 0.002168752
0.522564292 0.706756234 0.013011502
0.712627053 0.705825031 0.016165502
0.872884512 0.707022786 0.131270751
0.188599005 0.877644002 0.088290997
0.370221734 0.874648213 0.097627752
0.559644997 0.869915485 0.115181506
0.730849504 0.866049230 0.130738497
0.882440984 0.864929020 0.138016999
0.002760250 0.016165750 0.163862258
0.227528498 0.007097000 0.231389254
0.443224013 0.015377002 0.248373002
0.634507060 0.065063253 0.275337756
0.804248452 0.142989501 0.307282984
0.000000000 0.261854023 0.259350985
0.268056989 0.265367001 0.261176020
0.483915001 0.273896039 0.271177977
0.667404532 0.292766511 0.291246265
0.828779757 0.322483748 0.319190025
0.000000000 0.502889514 0.272069991
0.273263276 0.507784724 0.267498970
0.508510768 0.505436003 0.272278994
0.697243273 0.508418202 0.297482729
0.854931474 0.520402730 0.327781767
0.000591503 0.707980752 0.288726032
0.296202004 0.710898519 0.282785505
0.522985697 0.707000017 0.288437486
0.712428987 0.704975963 0.293549746
0.871003270 0.706324041 0.328358233
0.191087008 0.875329018 0.318429500
0.366369277 0.874912977 0.316790760
0.557696521 0.870262027 0.322421968
0.729511023 0.865603030 0.330863476
0.880309463 0.864172518 0.335515231
0.000000000 0.048632503 0.342660517
0.219544262 0.046705499 0.407394260
0.457435012 0.013800003 0.454405010
0.644503474 0.070112757 0.465106517
0.810280502 0.149404004 0.482438505
0.000000000 0.263447493 0.461795270
0.275188267 0.272552997 0.466340989
0.489559233 0.277978748 0.480570495
0.672430277 0.296699762 0.485636473
0.832020283 0.326386750 0.497866750
0.000000000 0.500344992 0.494004518
0.283628225 0.501988053 0.495340765
0.509268522 0.504085064 0.497103512
0.695096970 0.510223746 0.503402531
0.851829469 0.523555517 0.514849007
0.041226514 0.701962531 0.506464541
0.306271285 0.704285026 0.505764961
0.520378292 0.706820726 0.503368258
0.710952044 0.703647554 0.508148253
0.866487503 0.705879211 0.523605466
0.213884503 0.868284464 0.523993492
0.369578004 0.869842768 0.521890044
0.553021550 0.869931579 0.520059466
0.726221800 0.864961505 0.525282979
0.875967979 0.863024473 0.529950500
0.003745504 0.086179249 0.504333735
0.232842252 0.091950752 0.555191040
0.451017261 0.085039005 0.609009266
0.656753063 0.075012252 0.644398510
0.818162024 0.158277750 0.651812494
0.067386754 0.274734497 0.616122007
0.290584266 0.285685778 0.625779986
0.488558024 0.294599533 0.646468520
0.679259539 0.302321255 0.664206982
0.835967004 0.332562238 0.667581260
0.062662505 0.498910248 0.670600235
0.314423263 0.502203465 0.671731770
0.517135501 0.508982241 0.673627794
0.697900772 0.513967037 0.682106197
0.852277756 0.527474761 0.684926033
0.081800014 0.700080514 0.689566255
0.324596524 0.700519741 0.690308809
0.528374076 0.701205015 0.691594779
0.709374487 0.702486992 0.693018019
0.863383532 0.706420243 0.696665525
0.246995509 0.862739205 0.700010240
0.387791753 0.863024473 0.700288236
0.557052195 0.863830984 0.700116754
0.723960996 0.863725007 0.701508820
0.870672703 0.861270010 0.709740758
0.082415998 0.127492994 0.646884024
0.264392495 0.137582749 0.686287284
0.458548516 0.146301001 0.736279011
0.651499987 0.153550252 0.775917470
0.829183996 0.167967007 0.802869976
0.165096015 0.294523269 0.741916716
0.320425987 0.304794997 0.754289746
0.498387754 0.315984994 0.777319968
0.677127063 0.326164484 0.799545050
0.843410254 0.339774251 0.816376507
0.202935502 0.502847016 0.805122495
0.358758986 0.507938981 0.806718707
0.534151435 0.516651988 0.811252952
0.701034546 0.523648500 0.822048187
0.855978489 0.532818019 0.831071019
0.224157497 0.697610497 0.834094763
0.376177996 0.698643565 0.834716797
0.552846789 0.701013267 0.835363507
0.716814756 0.705678046 0.840202212
0.863652229 0.709662259 0.843267977
0.288143009 0.860656977 0.846001029
0.413335234 0.860313535 0.846401989
0.572968960 0.859904528 0.847203970
0.730762482 0.859109521 0.847563028
0.869204998 0.860723019 0.849505007
