public/lut/58.cube
TITLE "17x17x17 Adobe/IRIDAS cube 3D LUT exported with GrossGrade v0.2.2 (beta) 64 bit"
DOMAIN_MIN 0 0 0
DOMAIN_MAX 1 1 1
LUT_3D_SIZE 17
0.000000000 0.000000000 0.000000000
0.056645185 0.003055437 0.003055437
0.105596006 0.006899875 0.007688875
0.156564891 0.009463001 0.013898314
0.210434750 0.010842750 0.021685751
0.265956253 0.010251000 0.030557375
0.322057515 0.011040001 0.040589377
0.377269775 0.009807751 0.051472444
0.430500507 0.015377002 0.062504500
0.482166618 0.023213750 0.073735878
0.532073498 0.027994750 0.085441500
0.580205619 0.044835877 0.097317189
0.626966476 0.063220754 0.110154256
0.672198951 0.080544829 0.122665331
0.716338694 0.100885265 0.135789767
0.758673251 0.120080650 0.149084195
0.799780011 0.139742002 0.162679002
0.002366000 0.072194248 0.002366000
0.071711443 0.072712310 0.002366000
0.125055745 0.072750121 0.006998500
0.177665442 0.074185997 0.013159565
0.231419936 0.076129556 0.020749750
0.285851210 0.077702381 0.030014938
0.339761585 0.079936378 0.040160567
0.392821014 0.083421312 0.050547071
0.444392145 0.088836007 0.061960004
0.494399756 0.095861495 0.073224001
0.542696834 0.104476623 0.085275002
0.589845955 0.115420625 0.097465687
0.635783494 0.127464429 0.110176884
0.680056453 0.140273452 0.123233579
0.723218024 0.154183403 0.136393517
0.765122414 0.168975577 0.149868324
0.805476129 0.184008449 0.163411006
0.000000000 0.133134127 0.001675625
0.069702625 0.133949190 0.001724875
0.131058514 0.134205624 0.001675625
0.189860821 0.134722441 0.005470751
0.245937884 0.135396868 0.013898375
0.301196992 0.137295872 0.023213562
0.354687512 0.140032619 0.034598880
0.406861693 0.143759817 0.045900941
0.457378417 0.148806393 0.057728130
0.506220520 0.155051053 0.070915624
0.553545892 0.162196502 0.083273880
0.599696457 0.170609936 0.096203618
0.644718766 0.180211246 0.109477505
0.688382745 0.190369889 0.122989826
0.730870724 0.201289639 0.136448517
0.771950543 0.213114768 0.150416270
0.811858535 0.225157872 0.164108753
0.000000000 0.199066758 0.000788999
0.056213245 0.199840128 0.000788999
0.130686432 0.199500009 0.000788999
0.195202202 0.199893132 0.000147937
0.256226391 0.200233445 0.001971374
0.313825846 0.201198310 0.009314999
0.368303359 0.203053325 0.020996124
0.420348912 0.206060022 0.033268005
0.470274270 0.209851131 0.048226375
0.518386126 0.214817777 0.063581996
0.565348864 0.220724255 0.077995688
0.610861838 0.227302313 0.092392877
0.655126214 0.234709635 0.107099570
0.697980285 0.242662638 0.121480763
0.739814103 0.251561880 0.135622144
0.780190766 0.261030555 0.150150701
0.819556773 0.271128505 0.164139003
0.000000000 0.265764266 0.000000000
0.028043624 0.266589195 0.000000000
0.125464886 0.266201496 0.000000000
0.196554139 0.266143382 0.000000000
0.261313021 0.266399503 0.000000000
0.321966946 0.266720027 0.000986000
0.378258377 0.267620265 0.004140126
0.431322455 0.269306690 0.015475693
0.481603265 0.271829993 0.033317253
0.530072987 0.275302887 0.049896501
0.576661110 0.279429972 0.067756504
0.621820271 0.284391999 0.086110003
0.665634751 0.290057003 0.102338009
0.708090901 0.296478242 0.118072018
0.749247849 0.303473145 0.133676022
0.789280295 0.311254203 0.148899943
0.827772975 0.319614500 0.163896993
0.000000000 0.331087053 0.000000000
0.016757499 0.331665874 0.000000000
0.117825061 0.331027061 0.000000000
0.196738705 0.330470830 0.000000000
0.264142305 0.330367923 0.000000000
0.326403171 0.330609322 0.000000000
0.384900570 0.330896884 0.000000001
0.439411163 0.331569552 0.005322880
0.490803003 0.332915753 0.015278753
0.539737344 0.335052371 0.030360250
0.586714804 0.337825269 0.053125501
0.631909966 0.341315508 0.075645432
0.675560355 0.345644265 0.094504625
0.717691779 0.350516677 0.113084272
0.758548796 0.356119514 0.130272448
0.798035741 0.362522125 0.146672398
0.836004972 0.369355142 0.162342131
0.000000000 0.393332630 0.000000000
0.004534498 0.393639386 0.000000000
0.110001758 0.392855883 0.000000000
0.197279826 0.392137140 0.000000000
0.266747028 0.391629130 0.000000000
0.329610109 0.391591400 0.000000000
0.388889253 0.391921014 0.000000000
0.444953293 0.392015398 0.000000000
0.497656524 0.392656267 0.000295876
0.547472715 0.393671334 0.013701185
0.595091462 0.395466506 0.037753120
0.640574574 0.397837996 0.060872681
0.684396982 0.400900006 0.083257124
0.726391017 0.404590964 0.105674773
0.767046928 0.408950150 0.125195652
0.806197226 0.413926840 0.142985523
0.843930483 0.419600517 0.160152376
0.000000000 0.452764541 0.000000000
0.005027442 0.452963173 0.000000000
0.106610626 0.452086627 0.000000000
0.198671386 0.451235414 0.000000000
0.269570529 0.450493902 0.000000000
0.332745135 0.450221539 0.000000000
0.392030537 0.450108290 0.000000000
0.448706895 0.450508326 0.000000000
0.502476692 0.450549960 0.000000000
0.553373635 0.451090485 0.007589811
0.601610661 0.451920211 0.022769928
0.647686362 0.453415662 0.042142551
0.691718698 0.455476552 0.069063000
0.733937323 0.458133280 0.095834076
0.774490356 0.461382449 0.117943086
0.813530982 0.465331405 0.137940392
0.851004303 0.469884902 0.157029942
0.000000000 0.509590507 0.000000000
0.011533000 0.509557962 0.000000000
0.107631251 0.508624315 0.000000000
0.201122448 0.507700682 0.000000000
0.272571027 0.506944001 0.000000000
0.336288989 0.506452918 0.000000000
0.395372003 0.506100535 0.000000000
0.451744258 0.506169677 0.000000000
0.505837977 0.506457031 0.000000000
0.557685971 0.506587505 0.001577499
0.606767774 0.506861985 0.006012746
0.653359890 0.507673204 0.023115309
0.697845519 0.508901715 0.053756006
0.740212381 0.510701001 0.083606333
0.780917943 0.513107538 0.108834654
0.819876790 0.516065657 0.131700754
0.857146502 0.519585490 0.152832508
0.000000000 0.563904524 0.000000000
0.006456562 0.563741922 0.000000000
0.110538438 0.563068807 0.000000000
0.205059126 0.562121034 0.000000000
0.276569664 0.561253667 0.000000000
0.340226382 0.560560703 0.000000000
0.399295151 0.560042500 0.000000000
0.455330491 0.559824467 0.000000000
0.508893430 0.559775054 0.000000000
0.560763419 0.560028851 0.000000000
0.610607684 0.560049891 0.000000000
0.657777011 0.560357034 0.014243500
0.702659369 0.560981214 0.042753134
0.745353580 0.562085927 0.071552463
0.786181748 0.563690007 0.098909087
0.825122476 0.565813839 0.124976709
0.862286627 0.568537533 0.147741497
0.000000000 0.616045356 0.000000000
0.012913125 0.615900278 0.000000000
0.119683005 0.615134895 0.000000000
0.211008325 0.614136517 0.000000000
0.281963766 0.613181770 0.000000000
0.345143378 0.612399638 0.000000000
0.403904408 0.611730397 0.000000000
0.459535301 0.611271322 0.000000000
0.512613595 0.611054003 0.000000000
0.563857198 0.611019731 0.000000000
0.613650262 0.611169636 0.000000000
0.661255300 0.611140966 0.010645876
0.706553519 0.611412525 0.033810005
0.749527276 0.611948907 0.059838399
0.790462911 0.612891436 0.088652283
0.829464257 0.614353299 0.117733277
0.866571903 0.616298020 0.142043382
0.000000000 0.665769815 0.002366000
0.036352124 0.665486455 0.001577000
0.135491818 0.664725065 0.002020813
0.220309764 0.663842499 0.002366000
0.289459735 0.662788272 0.003400563
0.351649761 0.661971688 0.004435813
0.409610331 0.661110103 0.005716938
0.464546740 0.660483897 0.007048063
0.517077446 0.660004199 0.007442376
0.567674458 0.659683585 0.008181250
0.616658568 0.659634590 0.008082625
0.664177239 0.659753442 0.008082625
0.709732711 0.659750521 0.024100693
0.752919137 0.659883678 0.047086529
0.793928564 0.660329342 0.078044973
0.832981527 0.661227107 0.109857216
0.870060563 0.662518919 0.136396885
0.000000000 0.713192999 0.000000002
0.065170944 0.712897897 0.000000002
0.155978501 0.712094426 0.000000002
0.233239010 0.711286604 0.000838064
0.299311280 0.710268021 0.002168752
0.359946549 0.709257722 0.003943001
0.416787773 0.708272636 0.006801502
0.470859230 0.707443357 0.009906252
0.522564292 0.706756234 0.013011502
0.572445869 0.706261754 0.015525000
0.620636821 0.705946326 0.016954251
0.667253256 0.705752730 0.016954252
0.712627053 0.705825031 0.016165502
0.755854428 0.705779731 0.035584215
0.796926081 0.705819726 0.069029406
0.835939229 0.706249118 0.103127472
0.872884512 0.707022786 0.131270751
0.011877597 0.758129239 0.009561269
0.100706168 0.757748187 0.009561270
0.181088790 0.757003367 0.010350081
0.249939173 0.756139696 0.011286022
0.312270641 0.755113304 0.012666772
0.370674431 0.754088700 0.013799963
0.425967604 0.752988458 0.015870091
0.478751719 0.751984417 0.018186588
0.529416561 0.751107991 0.021143522
0.578381956 0.750374377 0.024248771
0.625609934 0.749774575 0.027353898
0.671373963 0.749367654 0.029571775
0.715725899 0.749245048 0.030310715
0.758720100 0.749247551 0.029571775
0.799692929 0.749026954 0.063867100
0.838555634 0.749117970 0.099086285
0.875426769 0.749414980 0.128370687
0.059528939 0.800490260 0.032430153
0.143804222 0.799999774 0.033169840
0.210068911 0.799333274 0.034598902
0.270684123 0.798517644 0.036458280
0.328731269 0.797465444 0.038803406
0.384090573 0.796341062 0.041750096
0.437267661 0.795210302 0.045496155
0.488600045 0.794061363 0.048363034
0.537936985 0.792964935 0.051538035
0.585632026 0.792028725 0.054430347
0.631862640 0.791227818 0.057140782
0.676628351 0.790647745 0.060172163
0.719914258 0.790203810 0.062445410
0.761829376 0.790003002 0.063562602
0.802483261 0.789943695 0.063590787
0.841092110 0.789732277 0.098510280
0.877811670 0.789764702 0.128467739
0.128229052 0.840219021 0.058457278
0.190160170 0.839712501 0.059627902
0.241657838 0.839146435 0.061406776
0.295024216 0.838255703 0.064149208
0.348233223 0.837236404 0.067627721
0.400266737 0.836128533 0.071695283
0.450997174 0.834882855 0.076240905
0.500371218 0.833656132 0.080575846
0.548024714 0.832477927 0.084752098
0.594388366 0.831428647 0.088872775
0.639358521 0.830495119 0.092278093
0.682802856 0.829691112 0.095734283
0.724978566 0.829038084 0.098558530
0.765835166 0.828660429 0.100922972
0.805365026 0.828492045 0.102038600
0.843577743 0.828428328 0.102424785
0.880036712 0.828158915 0.131593376
0.188599005 0.877644002 0.088290997
0.232998252 0.877171993 0.089137755
0.275083989 0.876546979 0.091265626
0.321969271 0.875706017 0.093767814
0.370221734 0.874648213 0.097627752
0.418697059 0.873554289 0.101889558
0.466688275 0.872326374 0.106367126
0.513775587 0.871147871 0.110677250
0.559644997 0.869915485 0.115181506
0.604332387 0.868733108 0.119669877
0.647816539 0.867717862 0.123519748
0.689945042 0.866773069 0.127375618
0.730849504 0.866049230 0.130738497
0.770477533 0.865468800 0.133663878
0.808885455 0.865111709 0.135756373
0.846176684 0.864929020 0.137165114
0.882440984 0.864929020 0.138016999
0.001527750 0.002316688 0.038689688
0.061942190 0.003104750 0.060808688
0.110192627 0.006998500 0.063606001
0.161392897 0.009463000 0.068408757
0.215145871 0.010103250 0.074581742
0.270399749 0.009709250 0.081288688
0.325722009 0.010793437 0.089150570
0.380247653 0.009758500 0.097643696
0.433556318 0.015377002 0.106750377
0.484714806 0.022819689 0.116355568
0.533985496 0.028438000 0.126011997
0.582053721 0.045561250 0.136830375
0.628636122 0.063322753 0.147604451
0.673645973 0.081018142 0.158730835
0.717328370 0.100979023 0.170227081
0.759849548 0.120990202 0.181961462
0.800637245 0.140294254 0.194116384
0.002366000 0.070622250 0.069558062
0.073227309 0.072194248 0.070131004
0.127119377 0.073195502 0.072129689
0.179924637 0.074693061 0.075170875
0.234410122 0.076165751 0.080238938
0.288736165 0.078034446 0.085828811
0.342951834 0.080265380 0.093199439
0.395658880 0.083354063 0.100705996
0.446738571 0.089026749 0.109401442
0.496570140 0.095861495 0.118466631
0.544726253 0.104615375 0.128146991
0.591436744 0.115659937 0.138531834
0.637116909 0.127755880 0.149248198
0.681344569 0.140751392 0.160241842
0.724210382 0.154473156 0.171618089
0.766113400 0.169444889 0.183620840
0.806247830 0.184422806 0.195689321
0.000000000 0.131864578 0.071679063
0.071213312 0.133949265 0.070202753
0.134205580 0.133907631 0.071187437
0.192142650 0.134267822 0.075697750
0.248133123 0.135671884 0.080892630
0.303130060 0.137681007 0.087024376
0.356543809 0.140512377 0.094420373
0.408530861 0.144533560 0.102087066
0.458750576 0.149585992 0.110483624
0.507299364 0.155582190 0.119614318
0.554691315 0.162881687 0.129460692
0.600658119 0.171306506 0.139768124
0.645527184 0.180853382 0.150362074
0.689268768 0.190806955 0.161693379
0.731452823 0.201676250 0.173183009
0.772678792 0.213661760 0.185105592
0.812335372 0.225821376 0.197236508
0.000000000 0.197509140 0.070648000
0.058710683 0.199670091 0.068112440
0.133645251 0.199723065 0.068621315
0.198540524 0.199853390 0.069649503
0.258832097 0.200049132 0.075691566
0.315573126 0.201161325 0.083452746
0.369528562 0.203220069 0.091212377
0.421408892 0.206464753 0.099892758
0.471000940 0.210511759 0.109104507
0.519183457 0.215438321 0.118965752
0.565997183 0.221315145 0.129188627
0.611330569 0.227918386 0.140015498
0.655486047 0.235313147 0.151137874
0.698378146 0.243468598 0.162459433
0.740056038 0.252279311 0.174279839
0.780605137 0.261648238 0.186325818
0.819655001 0.271683127 0.198598430
0.000000000 0.264433831 0.065435313
0.032676876 0.266371369 0.062670693
0.128227696 0.266645253 0.062159002
0.199461386 0.266029745 0.064236000
0.264090657 0.266229630 0.063822001
0.324198812 0.266532332 0.072217502
0.379832268 0.267565608 0.082576692
0.432163775 0.269290060 0.093494125
0.482230544 0.271995872 0.104252011
0.530379176 0.275608748 0.115245000
0.576856256 0.279881239 0.126631558
0.621935010 0.284825921 0.138327703
0.665646017 0.290537506 0.150192648
0.708059549 0.296994716 0.162075520
0.749333680 0.304161996 0.174520507
0.789156437 0.311756045 0.186959445
0.827699780 0.320178151 0.199386314
0.000000000 0.329796314 0.056920625
0.019024249 0.330941558 0.053693250
0.120483063 0.331401736 0.052955311
0.199417189 0.330645144 0.054928500
0.266526967 0.330353618 0.056144252
0.328485757 0.330396682 0.055942751
0.386555433 0.330631316 0.068161443
0.440438062 0.331350505 0.082224756
0.491415381 0.332760274 0.095402509
0.540028155 0.334951490 0.108501181
0.586820781 0.337885797 0.121666752
0.631851435 0.341515124 0.134853005
0.675457060 0.345906168 0.147831380
0.717540920 0.350912869 0.160548210
0.758299649 0.356484741 0.173723325
0.797805429 0.362908930 0.186641887
0.835790277 0.369804054 0.199619621
0.000000000 0.392076403 0.051257126
0.007097434 0.393065393 0.048452623
0.112671256 0.393200904 0.047239687
0.199206889 0.392488033 0.049261123
0.268816054 0.391698390 0.051715750
0.331456751 0.391502529 0.052823685
0.390380919 0.391687006 0.051715754
0.446159840 0.391831756 0.065859504
0.498419464 0.392377913 0.081671752
0.547939658 0.393515944 0.097995818
0.595219612 0.395382196 0.114099368
0.640510917 0.397809893 0.129328817
0.684179008 0.400993437 0.143547565
0.726242542 0.404789120 0.157729894
0.766714036 0.409129649 0.171699077
0.805910110 0.414265156 0.185448393
0.843558550 0.419980884 0.199078307
0.000000000 0.451487303 0.045910623
0.005322942 0.452311397 0.042367745
0.108205751 0.452465832 0.040813498
0.199780390 0.451642275 0.043435808
0.270958006 0.450821549 0.046358559
0.334193379 0.450272769 0.049042746
0.393294692 0.450057030 0.049682122
0.449757248 0.450324029 0.048151374
0.503318071 0.450396210 0.064665750
0.553912997 0.450762659 0.084865063
0.601932883 0.451747417 0.104052484
0.647719741 0.453225851 0.121183433
0.691633940 0.455402374 0.137428626
0.733761191 0.458137959 0.153337687
0.774295807 0.461564422 0.168474585
0.813156247 0.465543389 0.183213145
0.850597084 0.470161170 0.197470561
0.000000000 0.508260667 0.041934002
0.011926999 0.508946478 0.038541563
0.108178377 0.509098649 0.037654564
0.201512083 0.508228540 0.039801627
0.273465753 0.507428050 0.042862251
0.337255925 0.506700039 0.045663372
0.396439642 0.506197512 0.047990438
0.452642173 0.506100535 0.048629187
0.506636620 0.506266177 0.047198251
0.558278203 0.506393135 0.069654249
0.607061088 0.506615639 0.090717182
0.653453588 0.507369578 0.110599063
0.697729528 0.508683622 0.129743502
0.740092993 0.510613322 0.147835642
0.780687451 0.513107538 0.164565459
0.819516718 0.516106486 0.180085942
0.856659710 0.519680500 0.195283368
0.000000000 0.562601209 0.049800813
0.007195813 0.563480973 0.046201061
0.110082567 0.563415229 0.045396753
0.204951629 0.562650621 0.047154628
0.276863426 0.561648905 0.049722813
0.340856940 0.560830474 0.052847125
0.400004506 0.560154021 0.055320688
0.456008077 0.559760630 0.057857815
0.509570360 0.559664965 0.058468375
0.561341882 0.559865236 0.057598814
0.610997736 0.559907019 0.077663690
0.657954216 0.560172260 0.099611178
0.702696741 0.560789466 0.121166632
0.745294154 0.561968625 0.141290143
0.785965264 0.563594460 0.159264326
0.824815512 0.565765083 0.176156074
0.861880660 0.568537533 0.192470074
0.000000000 0.614703894 0.054460749
0.012913125 0.615662575 0.048249938
0.118433751 0.615504980 0.047901001
0.210211933 0.614710450 0.050788812
0.281822026 0.613807321 0.054457560
0.345350564 0.612832606 0.058610372
0.404316902 0.611962795 0.062494442
0.460010737 0.611363590 0.065652624
0.513080239 0.610914230 0.067589939
0.564307511 0.610834420 0.068732373
0.613999486 0.610968709 0.067479439
0.661468446 0.610987782 0.088872373
0.706635296 0.611202359 0.112405069
0.749473453 0.611738741 0.133869022
0.790299058 0.612713993 0.153448850
0.829174638 0.614210367 0.171853825
0.866156399 0.616168380 0.189403325
0.000000000 0.664593101 0.058804251
0.035383377 0.665455461 0.053904813
0.133672565 0.665174544 0.054096688
0.219060317 0.664407432 0.056621313
0.288806081 0.663458109 0.060337566
0.351420969 0.662426531 0.065180689
0.409719825 0.661472797 0.069827810
0.464889765 0.660668671 0.074245311
0.517406344 0.659986734 0.077311002
0.567996979 0.659642816 0.079930127
0.616937995 0.659477651 0.080588065
0.664343655 0.659570932 0.079293564
0.709793806 0.659550846 0.104204133
0.752868116 0.659695387 0.126721010
0.793816686 0.660143852 0.147781953
0.832772493 0.661080718 0.167716265
0.869709849 0.662369132 0.186493635
0.000000001 0.712492049 0.073355936
0.064520948 0.712853551 0.070957065
0.153990269 0.712536752 0.070957065
0.231901512 0.711740732 0.072939567
0.298488826 0.710775375 0.075877130
0.359432936 0.709734261 0.079570934
0.416744292 0.708662510 0.084018379
0.471014559 0.707668245 0.088468060
0.522810757 0.706888974 0.092331760
0.572671890 0.706245780 0.095552310
0.620812476 0.705806375 0.097858317
0.667379022 0.705609679 0.098585382
0.712629676 0.705660284 0.097532630
0.755787075 0.705560029 0.121115774
0.796799541 0.705662906 0.143233076
0.835703492 0.706047773 0.164484143
0.872540832 0.706858814 0.184031188
0.011877597 0.757697582 0.089302637
0.099553660 0.757685602 0.088865705
0.179306835 0.757299006 0.089353450
0.248776793 0.756495297 0.091396078
0.311452001 0.755550325 0.094228894
0.370098710 0.754455447 0.097494707
0.425688624 0.753314912 0.101125903
0.478733569 0.752235472 0.105138458
0.529528141 0.751217723 0.109108701
0.578470826 0.750364423 0.112356767
0.625755489 0.749732852 0.115492828
0.671450257 0.749247611 0.117671013
0.715691864 0.749001920 0.118370771
0.758606851 0.749014735 0.118322209
0.799526691 0.748859942 0.140886694
0.838297665 0.748916805 0.162686259
0.875136971 0.749230742 0.183034182
0.058923692 0.800191343 0.108209774
0.142707542 0.800040245 0.108253270
0.208647028 0.799549818 0.108960964
0.269577384 0.798767686 0.111318961
0.327838808 0.797815681 0.114050023
0.383443564 0.796650946 0.117525958
0.436989516 0.795484722 0.121384963
0.488379538 0.794284284 0.125223204
0.537827134 0.793131292 0.129238576
0.585689962 0.792129099 0.132783383
0.631869018 0.791257143 0.135812700
0.676583648 0.790558696 0.138505146
0.719873607 0.790112734 0.140494823
0.761644304 0.789860845 0.141571343
0.802246094 0.789806128 0.141799659
0.840796769 0.789620399 0.163508072
0.877524793 0.789645910 0.183907315
0.127273485 0.840082049 0.130581141
0.189134181 0.839740157 0.131151959
0.240426719 0.839188039 0.131776780
0.294049203 0.838420451 0.133750573
0.347413301 0.837442398 0.136554584
0.399684578 0.836362123 0.139665648
0.450551510 0.835117042 0.143406466
0.500041068 0.833873689 0.147184074
0.547907293 0.832627475 0.151014447
0.594328821 0.831492305 0.154730454
0.639271855 0.830471456 0.157996833
0.682750642 0.829630673 0.161113814
0.724881709 0.828978181 0.163384452
0.765647113 0.828520477 0.165408775
0.805114746 0.828296900 0.166337833
0.843338847 0.828288317 0.166637585
0.879756749 0.828118503 0.186490119
0.187775135 0.877583981 0.153322443
0.231860384 0.877142012 0.154083312
0.274127007 0.876639009 0.155083299
0.320961177 0.875891984 0.156822324
0.369395852 0.874882936 0.159247816
0.418077558 0.873790979 0.162341267
0.466161460 0.872551382 0.165584683
0.513373375 0.871298850 0.169175625
0.559361637 0.869979501 0.172600746
0.604076266 0.868787169 0.176277876
0.647606552 0.867717862 0.179683805
0.689800262 0.866700053 0.182885125
0.730700493 0.865937591 0.185563818
0.770245731 0.865422547 0.187794194
0.808579087 0.864959121 0.189399630
0.845850289 0.864805102 0.190437451
0.882095039 0.864828944 0.191235319
0.004632500 0.004632500 0.077183872
0.058449127 0.006949187 0.102635875
0.113270000 0.006998500 0.114221632
0.165356770 0.008674000 0.117342934
0.219107881 0.010054000 0.121532381
0.274567068 0.008674000 0.127374440
0.329579532 0.010251001 0.133977383
0.383752555 0.009019188 0.141203627
0.436282128 0.015377002 0.149172634
0.487158775 0.022425188 0.157541618
0.536302149 0.028388750 0.166430503
0.583981514 0.045775000 0.175662175
0.630359828 0.063721128 0.185181871
0.675188422 0.081489645 0.195183650
0.718600214 0.102000892 0.205560878
0.760893703 0.121339329 0.216131389
0.801641107 0.141093135 0.226817250
0.003992250 0.070699938 0.121256247
0.073227309 0.073195495 0.122868128
0.128413871 0.073744878 0.126261741
0.183019012 0.075197004 0.127708569
0.237853438 0.076595627 0.130418062
0.292430639 0.078034446 0.134744942
0.345904142 0.079966001 0.140036613
0.398492485 0.083751999 0.146464378
0.449264765 0.088999502 0.153464705
0.498757064 0.096064992 0.161189944
0.546602368 0.104992375 0.169528991
0.593320310 0.115764625 0.178509936
0.638656855 0.128068253 0.187809125
0.682693958 0.141087264 0.197517216
0.725636661 0.155372843 0.207637191
0.767048895 0.169911757 0.218041778
0.807265401 0.184864387 0.228931814
0.000000000 0.131277740 0.130097121
0.072775751 0.132750377 0.130688936
0.135097116 0.133393124 0.130973622
0.193516389 0.134526566 0.132773817
0.250218272 0.136239260 0.135656118
0.305195153 0.138416305 0.139539808
0.358889669 0.141304746 0.144429013
0.410669625 0.144829631 0.150307938
0.460720658 0.149933502 0.157034755
0.509140313 0.156076819 0.164376006
0.556304157 0.163109004 0.172306642
0.602258265 0.171737745 0.181116998
0.646930039 0.181275874 0.190241501
0.690347254 0.191373706 0.199821070
0.732609689 0.202378526 0.209946886
0.773539722 0.214001328 0.220262021
0.813062489 0.226163864 0.230878621
0.000000000 0.196033016 0.132755250
0.062101118 0.197960079 0.132450998
0.134735748 0.199969634 0.131582618
0.200467452 0.199500009 0.132490620
0.260517538 0.199893132 0.136577874
0.316747397 0.201382130 0.141209006
0.370799005 0.203827813 0.146519870
0.422348142 0.207006708 0.152474627
0.471959323 0.211123899 0.159248322
0.520013869 0.216278940 0.166698307
0.566721976 0.222067073 0.174828187
0.611975610 0.228635952 0.183376372
0.656164765 0.236096770 0.192588121
0.699020147 0.244107351 0.202240512
0.740614176 0.252871186 0.212112904
0.781030297 0.262303650 0.222526491
0.820066810 0.272329688 0.233150616
0.000000000 0.262739539 0.133870870
0.039030813 0.264471591 0.132950693
0.129181877 0.266645402 0.131235242
0.201702207 0.266361982 0.132104069
0.266324371 0.265992254 0.133267626
0.325717568 0.266221583 0.138362691
0.380800515 0.267373890 0.144697011
0.432899415 0.269376367 0.151565701
0.482769638 0.272315502 0.159010366
0.530738652 0.275984377 0.166989371
0.577280641 0.280416280 0.175490499
0.622273803 0.285496831 0.184593499
0.665908754 0.291271865 0.194047630
0.708252311 0.297624588 0.203781083
0.749503136 0.304716140 0.213938758
0.789275646 0.312519312 0.224460647
