public/lut/59.cube
TITLE "17x17x17 Adobe/IRIDAS cube 3D LUT exported with GrossGrade v0.2.2 (beta) 64 bit"
DOMAIN_MIN 0 0 0
DOMAIN_MAX 1 1 1
LUT_3D_SIZE 5
0.000000000 0.000000000 0.000000000
0.263130248 0.000000000 0.000000000
0.510770500 0.000000000 0.000000000
0.735195518 0.000000000 0.000000000
0.934267998 0.000000000 0.000000000
0.000000000 0.263379514 0.000000000
0.268065006 0.266198009 0.000000000
0.515448272 0.254726261 0.000000000
0.735449553 0.231915742 0.000000000
0.931244731 0.202098012 0.000000000
0.000000000 0.501034498 0.000000000
0.255002737 0.504130006 0.000000000
0.512762010 0.502611518 0.000000000
0.729815960 0.495819271 0.000000000
0.921319008 0.487954021 0.000000000
0.000000000 0.704602003 0.000000000
0.252463758 0.707019210 0.000000000
0.512437522 0.708097279 0.000000000
0.726120234 0.703763008 0.000000000
0.910697281 0.698544502 0.000000000
0.000000000 0.873839021 0.000000000
0.298453003 0.876000047 0.000000000
0.531558037 0.876463532 0.000000000
0.732532978 0.873413742 0.000000000
0.906630993 0.868041992 0.000000000
0.000000000 0.000000000 0.257774770
0.264308006 0.000000000 0.254267514
0.513041973 0.000000000 0.246150509
0.735659778 0.000000000 0.235110745
0.933165967 0.000000000 0.221227258
0.000000000 0.263160259 0.251445740
0.276346982 0.260564506 0.247168273
0.523397744 0.245629758 0.236269996
0.741108477 0.219547510 0.222253487
0.934560776 0.186884016 0.206208259
0.000000000 0.501019239 0.233924508
0.268878758 0.498661757 0.232193738
0.517334998 0.498827755 0.215811238
0.733700275 0.491666257 0.198000014
0.924318254 0.482923508 0.178318262
0.000000000 0.704432011 0.209218755
0.267371058 0.702281773 0.207769752
0.516051054 0.704241753 0.186037764
0.727295041 0.700819016 0.164253518
0.911076725 0.695819259 0.140108258
0.001577000 0.872676015 0.191496253
0.311151743 0.871349514 0.187265515
0.534856975 0.872282207 0.162545249
0.732573748 0.870552003 0.127058268
0.905515015 0.865667760 0.108678259
0.000000000 0.000000000 0.492828012
0.253107756 0.000000000 0.490557283
0.511671543 0.000000000 0.485340506
0.732436538 0.000000000 0.478098005
0.927763999 0.000000000 0.469824493
0.000000000 0.258036256 0.486312985
0.274219751 0.253396273 0.483556002
0.520182014 0.236031502 0.480572283
0.737236261 0.207643509 0.473309010
0.929377496 0.171783745 0.464222997
0.000000000 0.498628020 0.476303011
0.271942496 0.496672243 0.474019229
0.520043015 0.492830515 0.469338000
0.736566305 0.483602762 0.460647762
0.924780011 0.474319994 0.451671511
0.000000000 0.703475475 0.464985728
0.274465263 0.700732708 0.463955760
0.521123052 0.697502732 0.461431026
0.727306008 0.696220756 0.450244248
0.910104454 0.691220999 0.440498531
0.003154000 0.871912003 0.457907498
0.319894761 0.868809760 0.458111763
0.540945530 0.865643501 0.456137002
0.731513500 0.865643263 0.444343507
0.902325988 0.861850023 0.435846508
0.000000000 0.000000000 0.695257783
0.245451495 0.000000000 0.693819761
0.511781752 0.000000000 0.690405011
0.731010497 0.000000000 0.683840990
0.923007250 0.000000000 0.677070975
0.000000000 0.249713495 0.688316762
0.272824764 0.243599266 0.686528802
0.520774961 0.224286258 0.684923232
0.734213710 0.196107253 0.679561794
0.922880530 0.158785015 0.672949016
0.000000000 0.494084775 0.678346753
0.276761234 0.492038280 0.676737547
0.522716522 0.487163782 0.673594236
0.732481003 0.477151275 0.670510769
0.918217242 0.467402011 0.664090276
0.000000000 0.700143754 0.667818785
0.281583488 0.698341489 0.666279018
0.525605261 0.694783211 0.663370013
0.727806509 0.690678239 0.658603251
0.908986449 0.684480786 0.651655793
0.012025755 0.869665504 0.659342766
0.326581001 0.867297232 0.658357501
0.545812488 0.862731516 0.657057285
0.731474280 0.859543741 0.653803051
0.898371994 0.857401967 0.645681739
0.000000000 0.000000000 0.864278972
0.263825774 0.000000000 0.863570511
0.521574020 0.000000000 0.860787988
0.735952795 0.000000000 0.855558038
0.922604024 0.000000000 0.848739028
0.000000000 0.239018500 0.857303262
0.291765511 0.231913507 0.855492473
0.531078517 0.211615011 0.854122519
0.738708496 0.179348260 0.850577235
0.921424031 0.143133759 0.844266236
0.000000000 0.488910019 0.846401513
0.301007271 0.486341536 0.845162988
0.535052061 0.481550515 0.841770053
0.736287534 0.471509755 0.840286732
0.914633036 0.463738501 0.835389018
0.000000000 0.695959508 0.834520757
0.310738266 0.694164515 0.833114028
0.537842989 0.690786242 0.830479264
0.731786788 0.686045289 0.827894330
0.904765010 0.679425001 0.824589252
0.122060999 0.866033018 0.824078023
0.349677980 0.864075005 0.822934747
0.554984510 0.860460997 0.820762038
0.736081004 0.856184721 0.818127036
0.897839010 0.852725029 0.813565016
