public/lut/59.cube
TITLE "17x17x17 Adobe/IRIDAS cube 3D LUT exported with GrossGrade v0.2.2 (beta) 64 bit"
DOMAIN_MIN 0 0 0
DOMAIN_MAX 1 1 1
LUT_3D_SIZE 17
0.000000000 0.000000000 0.000000000
0.085520811 0.000000000 0.000000000
0.144015998 0.000000000 0.000000000
0.203122258 0.000000000 0.000000000
0.263130248 0.000000000 0.000000000
0.325958878 0.000000000 0.000000000
0.388367891 0.000000000 0.000000000
0.450412720 0.000000000 0.000000000
0.510770500 0.000000000 0.000000000
0.569308519 0.000000000 0.000000000
0.626320601 0.000000000 0.000000000
0.681464434 0.000000000 0.000000000
0.735195518 0.000000000 0.000000000
0.787159562 0.000000000 0.000000000
0.837854445 0.000000000 0.000000000
0.886729002 0.000000000 0.000000000
0.934267998 0.000000000 0.000000000
0.000000000 0.079570316 0.000000000
0.083303064 0.080049753 0.000000000
0.143996924 0.078215070 0.000000000
0.204288393 0.072346747 0.000000000
0.266632974 0.062403694 0.000000000
0.329587877 0.044801064 0.000000000
0.392183185 0.022720682 0.000000000
0.453839451 0.004484807 0.000000000
0.513896525 0.000000000 0.000000000
0.571993947 0.000000000 0.000000000
0.628322899 0.000000000 0.000000000
0.683177948 0.000000000 0.000000000
0.736462116 0.000000000 0.000000000
0.788300216 0.000000000 0.000000000
0.838487387 0.000000000 0.000000000
0.887278795 0.000000000 0.000000000
0.934414029 0.000000000 0.000000000
0.000000000 0.138682872 0.000000000
0.078759372 0.140076682 0.000000000
0.142583504 0.140076756 0.000000000
0.205180272 0.138100803 0.000000000
0.268535376 0.134095505 0.000000000
0.331838995 0.127391323 0.000000000
0.394258648 0.117581494 0.000000000
0.455618471 0.104256928 0.000000000
0.515153646 0.086045876 0.000000000
0.572983444 0.063571498 0.000000000
0.629219711 0.042046756 0.000000000
0.683895528 0.025185252 0.000000000
0.737164021 0.007491497 0.000000000
0.788671494 0.000000000 0.000000000
0.838705301 0.000000000 0.000000000
0.887286663 0.000000000 0.000000000
0.934432387 0.000000000 0.000000000
0.000000000 0.200246945 0.000000000
0.064211369 0.201755136 0.000000000
0.137399003 0.202929884 0.000000000
0.204275578 0.202504516 0.000000000
0.268974781 0.200791076 0.000000000
0.333042771 0.197764829 0.000000000
0.395534903 0.192950949 0.000000000
0.456384212 0.187031820 0.000000000
0.515702486 0.179937273 0.000000000
0.572964430 0.171170577 0.000000000
0.629085362 0.161498070 0.000000000
0.683540940 0.149656460 0.000000000
0.736440122 0.135387957 0.000000000
0.787735343 0.120234311 0.000000000
0.837763727 0.104437575 0.000000000
0.886097014 0.085649505 0.000000000
0.933075666 0.065042466 0.000000000
0.000000000 0.263379514 0.000000000
0.034788996 0.264345735 0.000000000
0.127370760 0.265981644 0.000000000
0.200291336 0.267068684 0.000000000
0.268065006 0.266198009 0.000000000
0.332902730 0.264620513 0.000000000
0.395546257 0.262006521 0.000000000
0.456549853 0.258818358 0.000000000
0.515448272 0.254726261 0.000000000
0.572843790 0.249940246 0.000000000
0.628575027 0.244531885 0.000000000
0.682619154 0.238331378 0.000000000
0.735449553 0.231915742 0.000000000
0.786664426 0.224779427 0.000000000
0.836366057 0.217342764 0.000000000
0.884580672 0.209690496 0.000000000
0.931244731 0.202098012 0.000000000
0.000000000 0.326101363 0.000000000
0.007344000 0.326450825 0.000000000
0.111973502 0.328082919 0.000000000
0.193807065 0.329559326 0.000000000
0.265351832 0.329793721 0.000000000
0.332001239 0.328732878 0.000000000
0.395224124 0.327131808 0.000000000
0.456121713 0.325037420 0.000000000
0.514920652 0.322438866 0.000000000
0.572088003 0.319435120 0.000000000
0.627629519 0.315712631 0.000000000
0.681636631 0.311757386 0.000000000
0.734247804 0.307349145 0.000000000
0.785253048 0.302839100 0.000000000
0.834676206 0.298002124 0.000000000
0.882726550 0.293385267 0.000000000
0.929061174 0.288809478 0.000000000
0.000000000 0.386690140 0.000000000
0.000000000 0.386748582 0.000000000
0.092669755 0.388057888 0.000000000
0.186836958 0.389641583 0.000000000
0.261901140 0.390444636 0.000000000
0.330425918 0.390250146 0.000000000
0.394473016 0.388972759 0.000000000
0.455420166 0.387312144 0.000000000
0.514257669 0.385471791 0.000000000
0.571139812 0.383281201 0.000000000
0.626676738 0.380762398 0.000000000
0.680486023 0.377917707 0.000000000
0.732877374 0.374776781 0.000000000
0.783609450 0.371467412 0.000000000
0.832849264 0.368107140 0.000000000
0.880549371 0.364733577 0.000000000
0.926659524 0.361544520 0.000000000
0.000000000 0.445114523 0.000000000
0.000000000 0.444927782 0.000000000
0.071897745 0.445827782 0.000000000
0.179731444 0.447409332 0.000000000
0.258507103 0.448445261 0.000000000
0.328252226 0.448696166 0.000000000
0.393251002 0.448184520 0.000000000
0.454807222 0.446983516 0.000000000
0.513485968 0.445265800 0.000000000
0.570405304 0.443631411 0.000000000
0.625640869 0.441706210 0.000000000
0.679267704 0.439578146 0.000000000
0.731313348 0.437141478 0.000000000
0.781849205 0.434697539 0.000000000
0.830780029 0.432123214 0.000000000
0.878261924 0.429597735 0.000000000
0.923990786 0.427194536 0.000000000
0.000000000 0.501034498 0.000000000
0.000000000 0.500845373 0.000000000
0.053646877 0.501388669 0.000000000
0.173449695 0.503092706 0.000000000
0.255002737 0.504130006 0.000000000
0.326100498 0.504746377 0.000000000
0.391678870 0.504596293 0.000000000
0.453846157 0.503866255 0.000000000
0.512762010 0.502611518 0.000000000
0.569580853 0.501064241 0.000000000
0.624713778 0.499436259 0.000000000
0.678052485 0.497751534 0.000000000
0.729815960 0.495819271 0.000000000
0.780091524 0.493843257 0.000000000
0.828686595 0.491814375 0.000000000
0.875834703 0.489824474 0.000000000
0.921319008 0.487954021 0.000000000
0.000000000 0.554948330 0.000000000
0.000000000 0.554716945 0.000000000
0.044130567 0.555260897 0.000000000
0.167790070 0.556684077 0.000000000
0.252133697 0.557901323 0.000000000
0.324240744 0.558586955 0.000000000
0.390455633 0.558843970 0.000000000
0.452821791 0.558429062 0.000000000
0.512220502 0.557489932 0.000000000
0.568948209 0.556135178 0.000000000
0.623794913 0.554604590 0.000000000
0.676901698 0.553087711 0.000000000
0.728414476 0.551502705 0.000000000
0.778281987 0.549897134 0.000000000
0.826632917 0.548224330 0.000000000
0.873386621 0.546520591 0.000000000
0.918504477 0.545044899 0.000000000
0.000000000 0.606832623 0.000000000
0.000000000 0.606648862 0.000000000
0.038474500 0.607064903 0.000000000
0.163515031 0.608523726 0.000000000
0.250090748 0.609613419 0.000000000
0.323039949 0.610413849 0.000000000
0.389566123 0.610784769 0.000000000
0.452144414 0.610705197 0.000000000
0.511615396 0.610062718 0.000000000
0.568607986 0.609019339 0.000000000
0.623284757 0.607586622 0.000000000
0.676078498 0.606108487 0.000000000
0.727268636 0.604689121 0.000000000
0.776761651 0.603210807 0.000000000
0.824664176 0.601714492 0.000000000
0.871024072 0.600328445 0.000000000
0.915708661 0.598990142 0.000000000
0.000000000 0.656743228 0.000000000
0.000000000 0.656503916 0.000000000
0.036274128 0.656981349 0.000000000
0.162032261 0.658262074 0.000000000
0.250126302 0.659299493 0.000000000
0.323260933 0.660086572 0.000000000
0.389836073 0.660575271 0.000000000
0.452194601 0.660560906 0.000000000
0.511613429 0.660275102 0.000000000
0.568460286 0.659439325 0.000000000
0.623163819 0.658272505 0.000000000
0.675711513 0.656779408 0.000000000
0.726439595 0.655342579 0.000000000
0.775421977 0.653928101 0.000000000
0.823003054 0.652565598 0.000000000
0.868828356 0.651245475 0.000000000
0.913080871 0.650103569 0.000000000
0.000000000 0.704602003 0.000000000
0.000000000 0.704360723 0.000000000
0.039687131 0.704845846 0.000000000
0.165054783 0.706087828 0.000000000
0.252463758 0.707019210 0.000000000
0.325214505 0.707785666 0.000000000
0.391392022 0.708260655 0.000000000
0.453454465 0.708329022 0.000000000
0.512437522 0.708097279 0.000000000
0.569041014 0.707487583 0.000000000
0.623471022 0.706549108 0.000000000
0.675685346 0.705261886 0.000000000
0.726120234 0.703763008 0.000000000
0.774725199 0.702359140 0.000000000
0.821659684 0.700989604 0.000000000
0.867051542 0.699736238 0.000000000
0.910697281 0.698544502 0.000000000
0.000000000 0.750215471 0.000000000
0.000000000 0.749993622 0.000000000
0.049741395 0.750656128 0.000000000
0.173399270 0.751700044 0.000000000
0.258224756 0.752568007 0.000000000
0.329581410 0.753277421 0.000000000
0.394901395 0.753676116 0.000000000
0.456219971 0.753783703 0.000000000
0.514590085 0.753605962 0.000000000
0.570615768 0.753131568 0.000000000
0.624583125 0.752288163 0.000000000
0.676428199 0.751138508 0.000000000
0.726449788 0.749770820 0.000000000
0.774500072 0.748331368 0.000000000
0.820950985 0.746885240 0.000000000
0.865758181 0.745600820 0.000000000
0.908802271 0.744392455 0.000000000
0.000000000 0.793647051 0.000000000
0.000000000 0.793516994 0.000000000
0.072129533 0.794287682 0.000000000
0.187452778 0.795195699 0.000000000
0.267537624 0.795966864 0.000000000
0.336886138 0.796509862 0.000000000
0.400740921 0.796908498 0.000000000
0.461035967 0.797010005 0.000000000
0.518405139 0.796831191 0.000000000
0.573584020 0.796372116 0.000000000
0.626794517 0.795600057 0.000000000
0.678064287 0.794633746 0.000000000
0.727549136 0.793314815 0.000000000
0.775073051 0.791843653 0.000000000
0.820890009 0.790391028 0.000000000
0.864984691 0.788986981 0.000000000
0.907477856 0.787814796 0.000000000
0.000000000 0.834737778 0.000000000
0.004878961 0.834940314 0.000000000
0.112165727 0.835673749 0.000000000
0.206861094 0.836406171 0.000000000
0.281221807 0.837077081 0.000000000
0.347345203 0.837551653 0.000000000
0.409173697 0.837833941 0.000000000
0.467926353 0.837927520 0.000000000
0.524081945 0.837677002 0.000000000
0.578139365 0.837221563 0.000000000
0.630397916 0.836519003 0.000000000
0.680863440 0.835559368 0.000000000
0.729548931 0.834426761 0.000000000
0.776441574 0.833084285 0.000000000
0.821635962 0.831652999 0.000000000
0.864923775 0.830175281 0.000000000
0.906721115 0.828885376 0.000000000
0.000000000 0.873839021 0.000000000
0.048630562 0.874377966 0.000000000
0.153328001 0.874940991 0.000000000
0.230810761 0.875544965 0.000000000
0.298453003 0.876000047 0.000000000
0.360905379 0.876453280 0.000000000
0.420218647 0.876654983 0.000000000
0.477040291 0.876700997 0.000000000
0.531558037 0.876463532 0.000000000
0.584309280 0.876028001 0.000000000
0.635436296 0.875349045 0.000000000
0.684752643 0.874432027 0.000000000
0.732532978 0.873413742 0.000000000
0.778572977 0.872179627 0.000000000
0.822854221 0.870841742 0.000000000
0.865523100 0.869439721 0.000000000
0.906630993 0.868041992 0.000000000
0.000000000 0.000000000 0.075222567
0.083369873 0.000000000 0.075331941
0.142997742 0.000000000 0.073807999
0.202788398 0.000000000 0.070764937
0.264095128 0.000000000 0.067533247
0.327104539 0.000000000 0.063257307
0.389769584 0.000000000 0.058076497
0.451449364 0.000000000 0.052441373
0.511887491 0.000000000 0.045378312
0.570442975 0.000000000 0.037556186
0.627077639 0.000000000 0.028684312
0.682413816 0.000000000 0.018975187
0.735869646 0.000000000 0.011483499
0.787861228 0.000000000 0.004731367
0.838329315 0.000000000 0.000000000
0.887298107 0.000000000 0.000000000
0.934707999 0.000000000 0.000000000
0.000000000 0.079088807 0.073739246
0.085067689 0.078155190 0.072270125
0.146361068 0.074817747 0.069702625
0.206951022 0.068284817 0.066547185
0.269580960 0.056672934 0.062263753
0.332276136 0.038120687 0.057628751
0.394758761 0.017200869 0.051848561
0.455809414 0.001182748 0.045343556
0.515193105 0.000000000 0.037161686
0.573022425 0.000000000 0.028635062
0.629360735 0.000000000 0.018925875
0.683847785 0.000000000 0.011434188
0.737267077 0.000000000 0.004830061
0.788874865 0.000000000 0.000000000
0.838984132 0.000000000 0.000000000
0.887756050 0.000000000 0.000000000
0.934825003 0.000000000 0.000000000
0.000000000 0.138930500 0.070196256
0.081993744 0.138393626 0.068667568
0.145026818 0.138413578 0.064911380
0.208129942 0.136372447 0.060901940
0.271752745 0.131485179 0.055170000
0.334884822 0.124260120 0.049409624
0.397390217 0.113867059 0.042322811
0.458379209 0.099438310 0.034105875
0.517452717 0.080131121 0.025579123
0.575001001 0.056827694 0.016757123
0.630932510 0.037452687 0.009659939
0.685362458 0.020256625 0.003400937
0.738205075 0.004189373 0.000000000
0.789670646 0.000000000 0.000000000
0.839445591 0.000000000 0.000000000
0.887903452 0.000000000 0.000000000
0.934834182 0.000000000 0.000000000
0.000000000 0.200559765 0.062183879
0.070034489 0.200273201 0.061009809
0.140958443 0.201573819 0.055752374
0.207201898 0.201197326 0.049992371
0.271891385 0.199327320 0.043141559
0.335686266 0.196022838 0.035678752
0.398360968 0.191063508 0.027304683
0.459256113 0.184797898 0.019369619
0.518005908 0.177232951 0.012272434
0.575268388 0.168594748 0.005667873
0.630932748 0.158198521 0.000640937
0.685065687 0.146152198 0.000000000
0.737773299 0.131398037 0.000000000
0.789048433 0.116108261 0.000000000
0.838699400 0.099524453 0.000000000
0.886954367 0.079991378 0.000000000
0.933659911 0.059910469 0.000000000
0.000000000 0.263485253 0.047483500
0.041962937 0.263475835 0.045459624
0.132133067 0.264965713 0.039578184
0.203628525 0.265848577 0.031000560
0.270967722 0.265251011 0.024692312
0.335602105 0.263473213 0.018334188
0.398171455 0.260839313 0.011729998
0.458790720 0.257366747 0.005667747
0.517439067 0.253146857 0.000788624
0.574588060 0.248243704 0.000000000
0.630013525 0.242676258 0.000000000
0.684001863 0.236480758 0.000000000
0.736566544 0.229775757 0.000000000
0.787618518 0.222632438 0.000000000
0.837240279 0.215109378 0.000000000
0.885239005 0.207489893 0.000000000
0.931632817 0.199736997 0.000000000
0.000000000 0.326062709 0.025579000
0.013504250 0.326086640 0.024051312
0.118397944 0.327209175 0.020108437
0.197649658 0.328526080 0.012617435
0.268362999 0.328822136 0.006505749
0.334475636 0.327674925 0.002513500
0.397452533 0.326136053 0.000394250
0.458041102 0.323879987 0.000000000
0.516634583 0.321241409 0.000000000
0.573496878 0.318023443 0.000000000
0.628997743 0.314450264 0.000000000
0.682756364 0.310364544 0.000000000
0.735188961 0.305981576 0.000000000
0.785987794 0.301326811 0.000000000
0.835288763 0.296529680 0.000000000
0.883129418 0.291757464 0.000000000
0.929413855 0.287177116 0.000000000
0.000000000 0.386543036 0.007195870
0.000000000 0.386513948 0.005963371
0.100611247 0.387471080 0.003302310
0.190970391 0.388888717 0.000443688
0.265083909 0.389664769 0.000000000
0.332812995 0.389284283 0.000000000
0.396451205 0.388061136 0.000000000
0.457136393 0.386406749 0.000000000
0.515771866 0.384543449 0.000000000
0.572585225 0.382287562 0.000000000
0.627830386 0.379697144 0.000000000
0.681471646 0.376820326 0.000000000
0.733633399 0.373602271 0.000000000
0.784265101 0.370348930 0.000000000
0.833353698 0.366987705 0.000000000
0.880989611 0.363579333 0.000000000
0.926972747 0.360399902 0.000000000
0.000000000 0.444797844 0.000000000
0.000000000 0.444584846 0.000000000
0.081013307 0.445547462 0.000000000
0.184053570 0.447000653 0.000000000
0.261386991 0.447910726 0.000000000
0.330599993 0.448062539 0.000000000
0.395214289 0.447433591 0.000000000
0.456332684 0.446120054 0.000000000
0.514852941 0.444570452 0.000000000
0.571529925 0.442764640 0.000000000
0.626630962 0.440789998 0.000000000
0.680100381 0.438609242 0.000000000
0.732059121 0.436204672 0.000000000
0.782413006 0.433689356 0.000000000
0.831366837 0.431152284 0.000000000
0.878638208 0.428644985 0.000000000
0.924331546 0.426239729 0.000000000
0.000000000 0.500775695 0.000000000
0.000000000 0.500517368 0.000000000
0.061659310 0.501339912 0.000000000
0.177574381 0.502672017 0.000000000
0.257894814 0.503742397 0.000000000
0.328321725 0.504216611 0.000000000
0.393556356 0.503988266 0.000000000
0.455326587 0.503167510 0.000000000
0.514083803 0.501837015 0.000000000
0.570684254 0.500278294 0.000000000
0.625553966 0.498655915 0.000000000
0.678735912 0.496868908 0.000000000
0.730490923 0.494968742 0.000000000
0.780547023 0.493008733 0.000000000
0.829189062 0.491005540 0.000000000
0.876162291 0.488982797 0.000000000
0.921515822 0.487044215 0.000000000
0.000000000 0.554666579 0.000000000
0.000000000 0.554435551 0.000000000
0.049144126 0.555051923 0.000000000
0.171808317 0.556432486 0.000000000
0.254773647 0.557510257 0.000000000
0.326340079 0.558156252 0.000000000
0.392084479 0.558246374 0.000000000
0.454256892 0.557834625 0.000000000
0.513338149 0.556871891 0.000000000
0.569997430 0.555450678 0.000000000
0.624693394 0.553980052 0.000000000
0.677667499 0.552463055 0.000000000
0.729054511 0.550824940 0.000000000
0.778792500 0.549115181 0.000000000
0.827023149 0.547423065 0.000000000
0.873671353 0.545828819 0.000000000
0.918684483 0.544282854 0.000000000
0.000000000 0.606648922 0.000000000
0.000000000 0.606429994 0.000000000
0.043523379 0.606951416 0.000000000
0.167406142 0.608192742 0.000000000
0.252749592 0.609313309 0.000000000
0.325078249 0.609979272 0.000000000
0.391126275 0.610283136 0.000000000
0.453456223 0.610110223 0.000000000
0.512727797 0.609508991 0.000000000
0.569472492 0.608377576 0.000000000
0.624064922 0.606939971 0.000000000
0.676708341 0.605439544 0.000000000
0.727732241 0.604003310 0.000000000
0.777123868 0.602551222 0.000000000
0.825009882 0.601086974 0.000000000
0.871247351 0.599628627 0.000000000
0.915796697 0.598238885 0.000000000
0.000000000 0.656589150 0.000000000
0.000000000 0.656289399 0.000000000
0.041384500 0.656789064 0.000000000
0.165738836 0.658009827 0.000000000
0.252348751 0.659006536 0.000000000
0.325076073 0.659739375 0.000000000
0.391214222 0.660089135 0.000000000
0.453427285 0.660139084 0.000000000
0.512511015 0.659638703 0.000000000
0.569287360 0.658849120 0.000000000
0.623841226 0.657636106 0.000000000
0.676179111 0.656185508 0.000000000
0.726878762 0.654773593 0.000000000
0.775824964 0.653333485 0.000000000
0.823237479 0.651969790 0.000000000
0.869016171 0.650645077 0.000000000
0.913124025 0.649433196 0.000000000
0.000000000 0.704400778 0.000000000
0.000000000 0.704081714 0.000000000
0.044298630 0.704686999 0.000000000
0.168475777 0.705761492 0.000000000
0.254686207 0.706768155 0.000000000
0.326916158 0.707431257 0.000000000
0.392713338 0.707788110 0.000000000
0.454546094 0.707896531 0.000000000
0.513312638 0.707598686 0.000000000
0.569762111 0.706956267 0.000000000
0.624012053 0.705950677 0.000000000
0.676162541 0.704677522 0.000000000
0.726491094 0.703167200 0.000000000
0.774957180 0.701769412 0.000000000
0.821865916 0.700408041 0.000000000
0.867103636 0.699127257 0.000000000
0.910742223 0.697993577 0.000000000
0.000000000 0.750037313 0.000000000
0.000000000 0.749836445 0.000000000
0.053895455 0.750443101 0.000000000
0.176531225 0.751426160 0.000000000
0.259980232 0.752260685 0.000000000
0.331079811 0.752901852 0.000000000
0.396055162 0.753292024 0.000000000
0.457199514 0.753358126 0.000000000
0.515400052 0.753170252 0.000000000
0.571243227 0.752608120 0.000000000
0.625052094 0.751747131 0.000000000
0.676826060 0.750625193 0.000000000
0.726740181 0.749266386 0.000000000
0.774704456 0.747771621 0.000000000
0.821074784 0.746311486 0.000000000
0.865754187 0.745057762 0.000000000
0.908739865 0.743815839 0.000000000
0.000000000 0.793391705 0.000000000
0.000000000 0.793360174 0.000000000
0.077472970 0.794110537 0.000000000
0.190128475 0.794950902 0.000000000
0.269261062 0.795656323 0.000000000
0.338151485 0.796238542 0.000000000
0.401765525 0.796539426 0.000000000
0.461824596 0.796600699 0.000000000
0.519050121 0.796398997 0.000000000
0.574113607 0.795885444 0.000000000
0.627193332 0.795141876 0.000000000
0.678413212 0.794035912 0.000000000
0.727778614 0.792859674 0.000000000
0.775248706 0.791366339 0.000000000
0.820892155 0.789885879 0.000000000
0.865001321 0.788506448 0.000000000
0.907418847 0.787243068 0.000000000
0.000000000 0.834437430 0.000000000
0.007146339 0.834773839 0.000000000
0.116585597 0.835444331 0.000000000
0.209066272 0.836162090 0.000000000
0.282718897 0.836777747 0.000000000
0.348462135 0.837231934 0.000000000
0.410055757 0.837481618 0.000000000
0.468597412 0.837498665 0.000000000
0.524663925 0.837259710 0.000000000
0.578622460 0.836779952 0.000000000
0.630778790 0.836041331 0.000000000
0.681152761 0.835133791 0.000000000
0.729775131 0.833931148 0.000000000
0.776563227 0.832653284 0.000000000
0.821598887 0.831150174 0.000000000
0.864909708 0.829692721 0.000000000
0.906658113 0.828377604 0.000000000
0.000000000 0.873678982 0.000000000
0.055043064 0.874125957 0.000000000
0.156130746 0.874747992 0.000000000
0.232619524 0.875286996 0.000000000
0.299757957 0.875770032 0.000000000
0.361904383 0.876129985 0.000000000
0.420945168 0.876359999 0.000000000
0.477568537 0.876321971 0.000000000
0.532007217 0.876038015 0.000000000
0.584653139 0.875586450 0.000000000
0.635670602 0.874900639 0.000000000
0.684956908 0.874021709 0.000000000
0.732643485 0.872924745 0.000000000
0.778509855 0.871705651 0.000000000
0.822882652 0.870364666 0.000000000
0.865456223 0.868993759 0.000000000
0.906479955 0.867599130 0.000000000
0.000000000 0.000000000 0.136132628
0.081529498 0.000000000 0.135261253
0.142138109 0.000000000 0.133299887
0.203173876 0.000000000 0.131507367
0.264992356 0.000000000 0.128882125
0.327853739 0.000000000 0.126120061
0.390861243 0.000000000 0.122973002
0.452617645 0.000000000 0.119124502
0.512640774 0.000000000 0.115104504
0.571042418 0.000000000 0.110482439
0.627648532 0.000000000 0.105566502
0.682601094 0.000000000 0.099741817
0.736216903 0.000000000 0.093324497
0.788026214 0.000000000 0.085651621
0.838417411 0.000000000 0.077193245
0.887298286 0.000000000 0.067141056
0.934458613 0.000000000 0.056327377
0.000000000 0.078155190 0.133217201
0.083764061 0.076258190 0.131834492
0.145795122 0.072327755 0.131730065
0.207591578 0.065109126 0.129422754
0.270735443 0.052760374 0.126948074
0.333501309 0.033218689 0.123824373
0.395765543 0.013454995 0.120348938
0.456811845 0.000295874 0.116227500
0.516061008 0.000000000 0.111799687
0.573559523 0.000000000 0.106856190
0.629671454 0.000000000 0.101244688
0.684166431 0.000000000 0.094567187
0.737334251 0.000000000 0.087371439
0.789020181 0.000000000 0.079079553
0.839208901 0.000000000 0.069617242
0.887606978 0.000000000 0.058650050
0.934621274 0.000000000 0.046765253
0.000000000 0.138105243 0.131143004
0.082027934 0.137814999 0.129960880
0.146304488 0.136941746 0.128725126
0.210479647 0.133829877 0.126091063
0.274436772 0.128518373 0.123227999
0.337439388 0.120990999 0.119941562
0.399779022 0.109947875 0.115764245
0.460495710 0.094753429 0.111125380
0.519236386 0.074932374 0.106153123
0.576330185 0.051711626 0.100564614
0.632094622 0.032726128 0.094202504
0.686196148 0.015328126 0.087050557
0.738894284 0.001577375 0.078746252
0.790265441 0.000000000 0.069176301
0.840028882 0.000000000 0.058099240
0.888212740 0.000000000 0.046795614
0.935005248 0.000000000 0.035979003
0.000000000 0.200286329 0.127265260
0.071507618 0.200220570 0.126361310
0.143451765 0.200038195 0.125411987
0.209525004 0.200051382 0.121638127
0.274728894 0.197931647 0.117768750
0.338685811 0.193869874 0.113472246
0.401212901 0.188613951 0.108840883
0.461906463 0.181949392 0.103609629
0.520523310 0.174196154 0.097830690
0.577552140 0.164961264 0.091360062
0.633035719 0.154208452 0.083760560
0.687037230 0.141529709 0.074830629
0.739511430 0.126159519 0.064890243
0.790631592 0.110709578 0.053995050
0.840112805 0.093066573 0.042669926
0.888232648 0.072104380 0.033070493
0.934792578 0.054502409 0.025135748
0.000000000 0.263859391 0.121015251
0.045522060 0.263494790 0.120371439
0.136438876 0.263341755 0.119443379
0.206540629 0.264460206 0.115066573
0.273374885 0.264021754 0.110309877
0.337910205 0.262177914 0.105324119
0.400733262 0.259390503 0.099423625
0.461374164 0.255675465 0.093177930
0.519984841 0.251229763 0.085869506
0.576958954 0.246130198 0.077784561
0.632408977 0.240287989 0.068452880
0.686264217 0.233854815 0.058653373
0.738670111 0.226807252 0.047585249
0.789522469 0.219401509 0.037670620
0.839035869 0.211784616 0.028782869
0.886883736 0.203844681 0.020946741
