public/lut/60.cube
TITLE "17x17x17 Adobe/IRIDAS cube 3D LUT exported with GrossGrade v0.2.2 (beta) 64 bit"
DOMAIN_MIN 0 0 0
DOMAIN_MAX 1 1 1
LUT_3D_SIZE 17
0.000000000 0.000000000 0.000000000
0.069675937 0.000000000 0.000000000
0.126349375 0.000000000 0.000000000
0.182516381 0.000000000 0.000000000
0.244275004 0.000000000 0.000000000
0.309319496 0.000000000 0.000000000
0.376062900 0.000000000 0.000000000
0.443481326 0.000000000 0.000000000
0.509826541 0.000000000 0.000000000
0.575161219 0.000000000 0.000000000
0.639286757 0.000000000 0.000000000
0.701624334 0.000000000 0.000000000
0.762068510 0.000000000 0.000000000
0.820761740 0.000000000 0.000000000
0.877412558 0.000000000 0.000000000
0.931656957 0.000000000 0.000000000
0.981832027 0.000000000 0.000000000
0.000000000 0.066964433 0.000000000
0.069140069 0.067552745 0.000000000
0.126892686 0.065889753 0.000000000
0.186496317 0.059746809 0.000000000
0.249507889 0.046706684 0.000000000
0.315202832 0.024889562 0.000000000
0.382049322 0.004435621 0.000000000
0.448978096 0.000000000 0.000000000
0.514891922 0.000000000 0.000000000
0.579508364 0.000000000 0.000000000
0.642831445 0.000000000 0.000000000
0.704716325 0.000000000 0.000000000
0.764800966 0.000000000 0.000000000
0.822935820 0.000000000 0.000000000
0.878876984 0.000000000 0.000000000
0.932877123 0.000000000 0.000000000
0.982457161 0.000000000 0.000000000
0.000000000 0.124027997 0.000000000
0.062701188 0.125582993 0.000000000
0.125901118 0.126174122 0.000000000
0.188082457 0.124002874 0.000000000
0.252970010 0.119221754 0.000000000
0.319385469 0.110584006 0.000000000
0.386185020 0.096657246 0.000000000
0.452808231 0.074268863 0.000000000
0.518518925 0.046270870 0.000000000
0.582973242 0.022080252 0.000000000
0.645815611 0.002070125 0.000000000
0.707278728 0.000000000 0.000000000
0.766951501 0.000000000 0.000000000
0.824654937 0.000000000 0.000000000
0.880333364 0.000000000 0.000000000
0.933795810 0.000000000 0.000000000
0.982876003 0.000000000 0.000000000
0.000000000 0.186493009 0.000000000
0.038932241 0.187773332 0.000000000
0.118065000 0.189777195 0.000000000
0.187212706 0.189970940 0.000000000
0.254310608 0.188007653 0.000000000
0.322023928 0.184520572 0.000000000
0.389179647 0.178623199 0.000000000
0.455541909 0.170253456 0.000000000
0.520969033 0.159689188 0.000000000
0.584866345 0.145071149 0.000000000
0.647519886 0.125888348 0.000000000
0.708685100 0.103033215 0.000000000
0.767974377 0.074268401 0.000000000
0.825286448 0.049976271 0.000000000
0.880623221 0.035067201 0.000000000
0.933661938 0.021636574 0.000000000
0.982613921 0.008624642 0.000000000
0.000000000 0.252970248 0.000000000
0.005864747 0.253741384 0.000000000
0.100252502 0.255882263 0.000000000
0.180786192 0.257698059 0.000000000
0.253199995 0.257362753 0.000000000
0.322725385 0.255769640 0.000000000
0.390499532 0.252815634 0.000000000
0.457237899 0.248815313 0.000000000
0.522227824 0.243256003 0.000000000
0.586120963 0.236362755 0.000000000
0.648455620 0.228212506 0.000000000
0.709002972 0.218590766 0.000000000
0.768094063 0.208067983 0.000000000
0.825040698 0.196286291 0.000000000
0.879790366 0.182921618 0.000000000
0.932449102 0.168786556 0.000000000
0.980869293 0.153479010 0.000000000
0.000000000 0.320694298 0.000000000
0.000000000 0.321332723 0.000000000
0.065488756 0.322631627 0.000000000
0.169025958 0.325075686 0.000000000
0.248653188 0.326150626 0.000000000
0.321493506 0.325440824 0.000000000
0.390589386 0.323896497 0.000000000
0.457601458 0.321437567 0.000000000
0.522899032 0.318344295 0.000000000
0.586535513 0.314327061 0.000000000
0.648696125 0.309365124 0.000000000
0.709048629 0.303882241 0.000000000
0.767645955 0.297709763 0.000000000
0.824184358 0.291291863 0.000000000
0.878464103 0.284717292 0.000000000
0.930471063 0.278705239 0.000000000
0.978558421 0.273301691 0.000000000
0.000000000 0.387711138 0.000000000
0.000000000 0.388131082 0.000000000
0.028290367 0.388740391 0.000000000
0.152987763 0.391190827 0.000000000
0.241221249 0.392781138 0.000000000
0.318163991 0.393250018 0.000000000
0.389446765 0.392281026 0.000000000
0.457221597 0.390692323 0.000000000
0.522782683 0.388646543 0.000000000
0.586415350 0.386010319 0.000000000
0.648470640 0.382916361 0.000000000
0.708583832 0.379322767 0.000000000
0.766754746 0.375347018 0.000000000
0.822715878 0.371190399 0.000000000
0.876577318 0.367223650 0.000000000
0.927903831 0.363486379 0.000000000
0.975814402 0.360448003 0.000000000
0.000000000 0.453040212 0.000000000
0.000000000 0.453230917 0.000000000
0.002020871 0.453410774 0.000000000
0.130319759 0.455463082 0.000000000
0.232010379 0.457343221 0.000000000
0.313121319 0.458361149 0.000000000
0.386939406 0.458337605 0.000000000
0.456267357 0.457312405 0.000000000
0.522143543 0.455721706 0.000000000
0.585935295 0.453924716 0.000000000
0.647765875 0.451709628 0.000000000
0.707545340 0.449198782 0.000000000
0.765379250 0.446463585 0.000000000
0.820876598 0.443720222 0.000000000
0.874047756 0.440989792 0.000000000
0.924850106 0.438600540 0.000000000
0.972279370 0.436723143 0.000000000
0.000000000 0.516246557 0.000000000
0.000000000 0.516246557 0.000000000
0.000000000 0.516262650 0.000000000
0.103362277 0.517909646 0.000000000
0.221485510 0.519808531 0.000000000
0.307361066 0.521234870 0.000000000
0.383371651 0.521635115 0.000000000
0.454365253 0.521263599 0.000000000
0.521151543 0.520061016 0.000000000
0.585160494 0.518548012 0.000000000
0.646888733 0.516862988 0.000000000
0.706355691 0.514963746 0.000000000
0.763704062 0.512984812 0.000000000
0.818748116 0.510950506 0.000000000
0.871304274 0.508963764 0.000000000
0.921348929 0.507348716 0.000000000
0.968363047 0.506135523 0.000000000
0.000000000 0.577199101 0.000000000
0.000000000 0.577057362 0.000000000
0.000000000 0.577033758 0.000000000
0.073131979 0.578166366 0.000000000
0.210907683 0.580172658 0.000000000
0.301683366 0.581597149 0.000000000
0.380046397 0.582341731 0.000000000
0.452145100 0.582400203 0.000000000
0.520038366 0.581693172 0.000000000
0.584304512 0.580352008 0.000000000
0.645912409 0.578766644 0.000000000
0.705065131 0.577219963 0.000000000
0.761958539 0.575556934 0.000000000
0.816372991 0.573991776 0.000000000
0.868322313 0.572523117 0.000000000
0.917524219 0.571234703 0.000000000
0.964070439 0.570426881 0.000000000
0.000000000 0.635479867 0.000000000
0.000000000 0.635479867 0.000000000
0.000000000 0.635261714 0.000000000
0.052742593 0.636089146 0.000000000
0.201605633 0.637956500 0.000000000
0.297123432 0.639370799 0.000000000
0.377470642 0.640240967 0.000000000
0.450670600 0.640530944 0.000000000
0.519021273 0.640103281 0.000000000
0.583816230 0.639174402 0.000000000
0.645386755 0.637693882 0.000000000
0.704178452 0.636119545 0.000000000
0.760506392 0.634624600 0.000000000
0.814193606 0.633208036 0.000000000
0.865314543 0.631878257 0.000000000
0.913778841 0.630941689 0.000000000
0.959432960 0.630217612 0.000000000
0.000000000 0.690824270 0.000000000
0.000000000 0.690698683 0.000000000
0.000000000 0.690502942 0.000000000
0.046574846 0.691071808 0.000000000
0.196491569 0.692774594 0.000000000
0.295515299 0.694122434 0.000000000
0.377183139 0.695001721 0.000000000
0.450725794 0.695299923 0.000000000
0.519327819 0.695084333 0.000000000
0.584023833 0.694294333 0.000000000
0.645552754 0.693113506 0.000000000
0.703846276 0.691535056 0.000000000
0.759539127 0.689972997 0.000000000
0.812429965 0.688534796 0.000000000
0.862746298 0.687280297 0.000000000
0.910158336 0.686274171 0.000000000
0.954816282 0.685663998 0.000000000
0.000000000 0.742926776 0.000000000
0.000000000 0.742721498 0.000000000
0.000000000 0.742352247 0.000000000
0.049080595 0.742939472 0.000000000
0.199011266 0.744392753 0.000000000
0.298540056 0.745647967 0.000000000
0.380134016 0.746318877 0.000000000
0.453449070 0.746595025 0.000000000
0.521594048 0.746477485 0.000000000
0.585922956 0.745750189 0.000000000
0.646910965 0.744661570 0.000000000
0.704711318 0.743176877 0.000000000
0.759605765 0.741530299 0.000000000
0.811646879 0.739971757 0.000000000
0.860874772 0.738639116 0.000000000
0.907286286 0.737513721 0.000000000
0.950657248 0.736707270 0.000000000
0.000000000 0.791185439 0.000000000
0.000000000 0.790888906 0.000000000
0.000000000 0.790491164 0.000000000
0.064476565 0.791153610 0.000000000
0.212277949 0.792446554 0.000000000
0.307818949 0.793376029 0.000000000
0.387780488 0.793910742 0.000000000
0.459911466 0.794065654 0.000000000
0.526971221 0.793776631 0.000000000
0.590205729 0.793127120 0.000000000
0.650243461 0.791987896 0.000000000
0.707143605 0.790596008 0.000000000
0.761229396 0.788878977 0.000000000
0.812085569 0.787150204 0.000000000
0.860160708 0.785568714 0.000000000
0.905346334 0.784260690 0.000000000
0.947498143 0.783272684 0.000000000
0.000000000 0.835221946 0.000000000
0.000000000 0.834811687 0.000000000
0.000295760 0.834575057 0.000000000
0.108779393 0.835510850 0.000000000
0.236217543 0.836403668 0.000000000
0.324853599 0.837071955 0.000000000
0.401196063 0.837417841 0.000000000
0.470956028 0.837341547 0.000000000
0.536155760 0.836921811 0.000000000
0.597736776 0.836079657 0.000000000
0.656311631 0.834895670 0.000000000
0.711923003 0.833483279 0.000000000
0.764637232 0.831747234 0.000000000
0.814227521 0.829920411 0.000000000
0.860980809 0.828122556 0.000000000
0.904668510 0.826573670 0.000000000
0.945644259 0.825397789 0.000000000
0.000000000 0.874806821 0.000000000
0.000049316 0.874424219 0.000000000
0.035477951 0.874732554 0.000000000
0.169829592 0.875494838 0.000000000
0.270029694 0.876164556 0.000000000
0.349437207 0.876547277 0.000000000
0.420725793 0.876577318 0.000000000
0.487104684 0.876301646 0.000000000
0.549474895 0.875739217 0.000000000
0.608844757 0.874765098 0.000000000
0.665395260 0.873476923 0.000000000
0.719157696 0.871965051 0.000000000
0.770181954 0.870216429 0.000000000
0.818210065 0.868393838 0.000000000
0.863325477 0.866548657 0.000000000
0.905455291 0.864858449 0.000000000
0.944964647 0.863444686 0.000000000
0.000000000 0.910317004 0.000000000
0.023411000 0.910587192 0.000000000
0.132141754 0.911121845 0.000000000
0.231502011 0.911660314 0.000000000
0.309704781 0.911895990 0.000000000
0.379854441 0.912137985 0.000000000
0.445372641 0.911910355 0.000000000
0.507469416 0.911476493 0.000000000
0.566596508 0.910712481 0.000000000
0.623108149 0.909650564 0.000000000
0.677284896 0.908305407 0.000000000
0.728617966 0.906720936 0.000000000
0.777580500 0.905040503 0.000000000
0.823699534 0.903243363 0.000000000
0.866927683 0.901391268 0.000000000
0.907492816 0.899695992 0.000000000
0.945538998 0.898055017 0.000000000
0.000000000 0.000000000 0.061102938
0.070699945 0.000000000 0.064773500
0.126010865 0.000000000 0.061935000
0.183594137 0.000000000 0.059012562
0.246364370 0.000000000 0.055574063
0.311638981 0.000000000 0.051150374
0.378535956 0.000000000 0.045708314
0.445730537 0.000000000 0.039128684
0.512086451 0.000000000 0.031345811
0.577428520 0.000000000 0.022425126
0.640996993 0.000000000 0.013307189
0.703230321 0.000000000 0.006703063
0.763741314 0.000000000 0.000542438
0.822301388 0.000000000 0.000000000
0.878594637 0.000000000 0.000000000
0.932867765 0.000000000 0.000000000
0.982593358 0.000000000 0.000000000
0.000000000 0.066411056 0.061942190
0.070699938 0.065896377 0.060258374
0.129854307 0.062596127 0.057874873
0.190096945 0.055525810 0.054830749
0.253028333 0.041129436 0.050445817
0.318756819 0.019517437 0.045224812
0.385179520 0.001725312 0.039129499
0.451744527 0.000000000 0.031641684
0.517223716 0.000000000 0.022425123
0.581713915 0.000000000 0.013947750
0.644781172 0.000000000 0.006555188
0.706276000 0.000000000 0.000493125
0.766249478 0.000000000 0.000000000
0.824271321 0.000000000 0.000000000
0.880061209 0.000000000 0.000000000
0.933846891 0.000000000 0.000000000
0.983242810 0.000000000 0.000000000
0.000000000 0.124027997 0.057867128
0.066586941 0.123750642 0.056721624
0.128682062 0.124371372 0.052451126
0.191719398 0.122119434 0.048485875
0.256997824 0.116677999 0.042282876
0.323424995 0.107146189 0.036076315
0.390168488 0.091915436 0.028388934
0.456360966 0.068169303 0.019418871
0.521468222 0.040862557 0.011384936
0.585354626 0.017101938 0.004731501
0.648106396 0.000394500 0.000098562
0.709038436 0.000000000 0.000000000
0.768538117 0.000000000 0.000000000
0.826154053 0.000000000 0.000000000
0.881385982 0.000000000 0.000000000
0.934790254 0.000000000 0.000000000
0.983755291 0.000000000 0.000000000
0.000000000 0.186564565 0.047917496
0.045616493 0.186959013 0.046512559
0.122830257 0.188582897 0.041524932
0.191074327 0.188777819 0.034695558
0.258305609 0.186758071 0.027895682
0.325732499 0.182857528 0.020206997
0.392732590 0.176405519 0.012518746
0.459076703 0.167990699 0.006308557
0.523867846 0.156705692 0.000739437
0.587561846 0.142098278 0.000000000
0.649806798 0.121935837 0.000000000
0.710462689 0.098377712 0.000000000
0.769651294 0.069241591 0.000000000
0.826751530 0.046758581 0.000000000
0.881758928 0.032134324 0.000000000
0.934717536 0.019073945 0.000000000
0.983273685 0.006062015 0.000000000
0.000000000 0.253150314 0.028733874
0.010645812 0.253531516 0.026417373
0.107181311 0.255267441 0.021686248
0.185377017 0.256642878 0.014046686
0.257284582 0.256525159 0.008723748
0.326390594 0.254677266 0.003942749
0.393997967 0.251735538 0.000443625
0.460225910 0.247365251 0.000000000
0.524971187 0.241664082 0.000000000
0.588387012 0.234597564 0.000000000
0.650395393 0.226249129 0.000000000
0.710766912 0.216556013 0.000000000
0.769506931 0.205777124 0.000000000
0.826310635 0.193859562 0.000000000
0.881000698 0.180473119 0.000000000
0.933276534 0.165725484 0.000000000
0.981563866 0.150079012 0.000000000
0.000000000 0.320808500 0.006407063
0.000000000 0.321196973 0.005470376
0.075848758 0.322535783 0.003302437
0.174573153 0.324445963 0.000394375
0.252902061 0.325404227 0.000000000
0.325053602 0.324482739 0.000000000
0.393728673 0.322826326 0.000000000
0.460408032 0.320397735 0.000000000
0.525261402 0.317146868 0.000000000
0.588735223 0.312976480 0.000000000
0.650557518 0.308079034 0.000000000
0.710638762 0.302324295 0.000000000
0.769101202 0.296235323 0.000000000
0.825361133 0.289746881 0.000000000
0.879442394 0.283154011 0.000000000
0.931342900 0.276975304 0.000000000
0.979248762 0.271559626 0.000000000
0.000000000 0.387599915 0.000000000
0.000000000 0.388037771 0.000000000
0.037675429 0.388656318 0.000000000
0.159321636 0.390800595 0.000000000
0.245710954 0.392220706 0.000000000
0.321814358 0.392405003 0.000000000
0.392461807 0.391407788 0.000000000
0.459875405 0.389764756 0.000000000
0.525191426 0.387766540 0.000000000
0.588551462 0.385099173 0.000000000
0.650225580 0.381772637 0.000000000
0.710127056 0.378165632 0.000000000
0.768107712 0.374117136 0.000000000
0.823940635 0.370015472 0.000000000
0.877515078 0.365955949 0.000000000
0.928779602 0.362305462 0.000000000
0.976304591 0.359216958 0.000000000
0.000000000 0.452895939 0.000000000
0.000000000 0.452999145 0.000000000
0.007787366 0.453427941 0.000000000
0.138414755 0.455350578 0.000000000
0.236711502 0.457079262 0.000000000
0.316811353 0.457857400 0.000000000
0.390003979 0.457752973 0.000000000
0.458769768 0.456583411 0.000000000
0.524320900 0.454943359 0.000000000
0.587857842 0.453039497 0.000000000
0.649460852 0.450852245 0.000000000
0.709051013 0.448292345 0.000000000
0.766679823 0.445518076 0.000000000
0.821959674 0.442697167 0.000000000
0.875020862 0.439991951 0.000000000
0.925574958 0.437638253 0.000000000
0.972824097 0.435811788 0.000000000
0.000000000 0.516058028 0.000000000
0.000000000 0.516062081 0.000000000
0.000000000 0.516117454 0.000000000
0.112451710 0.517705441 0.000000000
0.226347148 0.519566476 0.000000000
0.310929805 0.520723283 0.000000000
0.386360526 0.521113813 0.000000000
0.456791073 0.520625591 0.000000000
0.523278296 0.519379556 0.000000000
0.586969018 0.517776728 0.000000000
0.648388386 0.516068697 0.000000000
0.707693517 0.514130712 0.000000000
0.764910460 0.512138665 0.000000000
0.819684148 0.510096192 0.000000000
0.872116089 0.508168399 0.000000000
0.921933889 0.506483078 0.000000000
0.968791783 0.505274594 0.000000000
0.000000000 0.576927543 0.000000000
0.000000000 0.576900482 0.000000000
0.000000000 0.576900482 0.000000000
0.084100097 0.578062594 0.000000000
0.215798691 0.579892814 0.000000000
0.305166364 0.581246674 0.000000000
0.382841825 0.581879795 0.000000000
0.454503447 0.581788242 0.000000000
0.521988988 0.581050992 0.000000000
0.586113930 0.579704463 0.000000000
0.647420883 0.578123450 0.000000000
0.706391096 0.576563776 0.000000000
0.763046861 0.574904919 0.000000000
0.817260683 0.573216736 0.000000000
0.869001567 0.571757913 0.000000000
0.918071210 0.570552051 0.000000000
0.964459121 0.569756031 0.000000000
0.000000000 0.635385096 0.000000000
0.000000000 0.635237634 0.000000000
0.000000000 0.635082185 0.000000000
0.059432849 0.635886610 0.000000000
0.206784502 0.637733638 0.000000000
0.300636560 0.639007032 0.000000000
0.380251765 0.639826238 0.000000000
0.452898473 0.639959097 0.000000000
0.520948410 0.639541984 0.000000000
0.585397840 0.638501763 0.000000000
0.646737933 0.637016177 0.000000000
0.705265045 0.635427415 0.000000000
0.761385679 0.633979201 0.000000000
0.814976215 0.632573247 0.000000000
0.865933776 0.631316721 0.000000000
0.914125800 0.630193472 0.000000000
0.959657669 0.629529357 0.000000000
0.000000000 0.690693200 0.000000000
0.000000000 0.690527022 0.000000000
0.000000000 0.690248668 0.000000000
0.051806409 0.690919578 0.000000000
0.201552823 0.692532420 0.000000000
0.298839927 0.693797171 0.000000000
0.379629284 0.694563925 0.000000000
0.452823400 0.694872856 0.000000000
0.521011055 0.694505394 0.000000000
0.585538983 0.693709612 0.000000000
0.646737158 0.692494035 0.000000000
0.704863846 0.690865219 0.000000000
0.760323763 0.689400017 0.000000000
0.813098013 0.687935591 0.000000000
0.863219023 0.686711371 0.000000000
0.910507679 0.685674667 0.000000000
0.954903364 0.685027897 0.000000000
0.000000000 0.742768526 0.000000000
0.000000000 0.742498577 0.000000000
0.000000000 0.742175519 0.000000000
0.053688847 0.742763460 0.000000000
0.204101190 0.744202495 0.000000000
0.301698685 0.745275795 0.000000000
0.382498711 0.745932102 0.000000000
0.455463707 0.746186137 0.000000000
0.523191929 0.745913684 0.000000000
0.587179661 0.745217681 0.000000000
0.647936940 0.744083583 0.000000000
0.705580056 0.742587090 0.000000000
0.760273218 0.740900517 0.000000000
0.812145293 0.739395857 0.000000000
0.861230135 0.738001704 0.000000000
0.907391429 0.736960292 0.000000000
0.950698256 0.736172855 0.000000000
0.000000000 0.790927291 0.000000000
0.000000000 0.790626228 0.000000000
0.000000000 0.790265083 0.000000000
0.070142560 0.790963650 0.000000000
0.216515899 0.792175233 0.000000000
0.310756058 0.793046117 0.000000000
0.389932901 0.793508232 0.000000000
0.461675614 0.793636024 0.000000000
0.528361022 0.793326795 0.000000000
0.591350496 0.792582870 0.000000000
0.651209414 0.791454375 0.000000000
0.707933664 0.789991438 0.000000000
0.761704564 0.788303316 0.000000000
0.812442660 0.786527574 0.000000000
0.860355198 0.784937024 0.000000000
0.905342519 0.783777297 0.000000000
0.947438300 0.782754600 0.000000000
0.000000000 0.834956706 0.000000000
0.000000000 0.834581792 0.000000000
0.000492890 0.834385335 0.000000000
0.117045328 0.835267007 0.000000000
0.239939421 0.836112857 0.000000000
0.327326030 0.836722016 0.000000000
0.403142750 0.837016940 0.000000000
0.472557157 0.836898267 0.000000000
0.537395239 0.836436331 0.000000000
0.598793983 0.835599542 0.000000000
0.657100439 0.834371984 0.000000000
0.712475359 0.832915545 0.000000000
0.765029550 0.831234038 0.000000000
0.814555287 0.829369187 0.000000000
0.861048520 0.827586532 0.000000000
0.904653251 0.826090813 0.000000000
0.945440352 0.824861288 0.000000000
0.000000000 0.874494135 0.000000000
0.000098569 0.874178350 0.000000000
0.039776769 0.874534011 0.000000000
0.174538091 0.875238299 0.000000000
0.272833794 0.875864804 0.000000000
0.351485401 0.876184642 0.000000000
0.422374785 0.876206577 0.000000000
0.488349736 0.875872970 0.000000000
0.550592124 0.875252724 0.000000000
0.609710634 0.874244213 0.000000000
0.666073740 0.872995436 0.000000000
0.719649613 0.871456265 0.000000000
0.770472765 0.869722486 0.000000000
0.818369508 0.867875040 0.000000000
0.863307297 0.865999222 0.000000000
0.905298531 0.864370942 0.000000000
0.944713652 0.862933338 0.000000000
0.000789000 0.910106838 0.000000000
0.028684564 0.910313249 0.000000000
0.137546688 0.910876870 0.000000000
0.234730318 0.911359131 0.000000000
0.311976939 0.911592066 0.000000000
0.381527513 0.911685228 0.000000000
0.446727574 0.911550522 0.000000000
0.508531690 0.911021531 0.000000000
0.567401290 0.910234034 0.000000000
0.623720944 0.909125686 0.000000000
0.677665055 0.907809913 0.000000000
0.728943825 0.906229854 0.000000000
0.777741313 0.904512465 0.000000000
0.823666930 0.902703881 0.000000000
0.866866827 0.900910676 0.000000000
0.907215297 0.899152517 0.000000000
0.945196569 0.897660732 0.000000000
0.000000000 0.000000000 0.123237871
0.066445246 0.000000000 0.120174564
0.124758877 0.000000000 0.118956372
0.184652895 0.000000000 0.117582813
0.247726753 0.000000000 0.114953503
0.313465387 0.000000000 0.111954376
0.380729020 0.000000000 0.108468004
0.447839767 0.000000000 0.104443312
0.514013529 0.000000000 0.099736631
0.578943551 0.000000000 0.094221190
0.642525434 0.000000000 0.088059001
0.704490423 0.000000000 0.080928937
0.764807701 0.000000000 0.071889497
0.823221624 0.000000000 0.061537743
0.879315913 0.000000000 0.049981743
0.933450699 0.000000000 0.037447616
0.982999325 0.000000000 0.027895501
0.000000000 0.065370694 0.118956313
0.069133937 0.064170688 0.118261248
0.129013374 0.060324125 0.117340378
0.190566331 0.051316246 0.115649126
0.255037546 0.036369000 0.112998880
0.321070194 0.015574375 0.110099442
0.387257159 0.000542125 0.105931938
0.453649104 0.000000000 0.101454005
0.518979967 0.000000000 0.096351370
0.583162785 0.000000000 0.090008564
0.646179616 0.000000000 0.082943313
0.707489729 0.000000000 0.074228816
0.767320454 0.000000000 0.064177439
0.825160444 0.000000000 0.052416928
0.880947828 0.000000000 0.040199425
0.934394181 0.000000000 0.029177621
0.983645797 0.000000000 0.019911377
0.000000000 0.123705760 0.117222376
0.066066004 0.123405002 0.116246253
0.130404249 0.123013124 0.114916876
0.195134014 0.119880252 0.112560190
0.260665387 0.113639005 0.109433502
0.326809198 0.103656441 0.105847500
0.393294483 0.087118372 0.101075508
0.459341824 0.062358297 0.096014872
0.523930550 0.035657622 0.089839369
0.587419629 0.012469251 0.082604930
0.649722755 0.000000000 0.074267626
0.710450649 0.000000000 0.063794501
0.769648671 0.000000000 0.052414499
0.826977253 0.000000000 0.040061235
0.882299483 0.000000000 0.028388619
0.935340285 0.000000000 0.019073993
0.984024584 0.000000000 0.009265375
0.000000000 0.186790824 0.113236874
0.046996556 0.186973274 0.112271249
0.125973240 0.186959013 0.111232631
0.194003195 0.187395006 0.107355446
0.262105703 0.185286388 0.103008442
0.329712421 0.180696055 0.098413564
0.396717668 0.173805133 0.092507809
0.462759346 0.164648563 0.086140878
0.527283072 0.152938023 0.078399368
0.590731144 0.137134328 0.069194309
0.652644575 0.116079904 0.058033310
0.713152647 0.091415651 0.046513997
0.771909118 0.062064093 0.034939498
0.828770638 0.042442892 0.024150364
0.883465230 0.028093200 0.014835050
0.936215699 0.014441005 0.005125678
0.984333336 0.003351639 0.000000000
0.000000000 0.253551513 0.105226375
0.013011809 0.253861576 0.104444817
0.113075122 0.254001617 0.103665754
0.189378142 0.255545020 0.098451629
0.260577768 0.255287260 0.092864998
0.329726905 0.253369182 0.086636938
0.397648036 0.250200629 0.079034366
0.463799268 0.245609745 0.070157558
0.528407931 0.239505738 0.059750993
0.591702402 0.232175454 0.048893876
0.653629243 0.223401248 0.037705377
0.713822484 0.213434964 0.027255125
0.772223473 0.202322617 0.017644122
0.828616261 0.189737171 0.008723617
0.882988393 0.175953358 0.001084622
0.934985042 0.160886005 0.000000000
