public/lut/60.cube
TITLE "17x17x17 Adobe/IRIDAS cube 3D LUT exported with GrossGrade v0.2.2 (beta) 64 bit"
DOMAIN_MIN 0 0 0
DOMAIN_MAX 1 1 1
LUT_3D_SIZE 5
0.000000000 0.000000000 0.000000000
0.244275004 0.000000000 0.000000000
0.509826541 0.000000000 0.000000000
0.762068510 0.000000000 0.000000000
0.981832027 0.000000000 0.000000000
0.000000000 0.252970248 0.000000000
0.253199995 0.257362753 0.000000000
0.522227824 0.243256003 0.000000000
0.768094063 0.208067983 0.000000000
0.980869293 0.153479010 0.000000000
0.000000000 0.516246557 0.000000000
0.221485510 0.519808531 0.000000000
0.521151543 0.520061016 0.000000000
0.763704062 0.512984812 0.000000000
0.968363047 0.506135523 0.000000000
0.000000000 0.742926776 0.000000000
0.199011266 0.744392753 0.000000000
0.521594048 0.746477485 0.000000000
0.759605765 0.741530299 0.000000000
0.950657248 0.736707270 0.000000000
0.000000000 0.910317004 0.000000000
0.309704781 0.911895990 0.000000000
0.566596508 0.910712481 0.000000000
0.777580500 0.905040503 0.000000000
0.945538998 0.898055017 0.000000000
0.000000000 0.000000000 0.247367769
0.247418508 0.000000000 0.244432002
0.516408980 0.000000000 0.236004248
0.766133487 0.000000000 0.223963246
0.982608736 0.000000000 0.208065748
0.000000000 0.253270507 0.242544502
0.264711976 0.251842260 0.238363236
0.533889294 0.233110011 0.226343513
0.776184976 0.193070754 0.209681988
0.984699488 0.133615255 0.189679757
0.000000000 0.516500056 0.219450504
0.243281513 0.515011549 0.217280254
0.529225707 0.516265333 0.196632251
0.769605517 0.508669019 0.173204988
0.971582770 0.501301765 0.144033998
0.000000000 0.742649257 0.179357260
0.225447506 0.740384281 0.176903263
0.528264046 0.742462754 0.142334506
0.761953473 0.738370299 0.109786257
0.950363278 0.733953714 0.081628501
0.003943000 0.909055233 0.161175013
0.325704753 0.907157779 0.152805507
0.570827007 0.906401992 0.120825760
0.777366281 0.901903033 0.088960506
0.942810774 0.895506263 0.073177755
0.000000000 0.000000000 0.507004023
0.222047001 0.000000000 0.504340768
0.515635014 0.000000000 0.499968499
0.764398277 0.000000000 0.492711484
0.977475524 0.000000000 0.484390497
0.000000000 0.248327509 0.502039015
0.255091012 0.243672997 0.499325037
0.531442046 0.220837504 0.496444792
0.773295760 0.176072747 0.488866746
0.979126215 0.115493260 0.479280531
0.000000000 0.514724493 0.492180049
0.243783250 0.513404787 0.489818990
0.533302009 0.509642005 0.484749049
0.773383260 0.499847531 0.475146294
0.970920503 0.492362529 0.465580523
0.000000000 0.741776764 0.479700744
0.235399008 0.739027977 0.478518009
0.535223246 0.734859943 0.476142526
0.761341512 0.733259320 0.464058995
0.946304321 0.729319990 0.454681516
0.005520000 0.907775521 0.477468520
0.337532759 0.903339267 0.478011250
0.576561987 0.898456931 0.476069510
0.773655057 0.896266520 0.464742750
0.935029984 0.891216040 0.458691537
0.000000000 0.000000000 0.732700765
0.186818019 0.000000000 0.730262995
0.514168978 0.000000000 0.727559507
0.763269305 0.000000000 0.720937014
0.971018255 0.000000000 0.713920534
0.000000000 0.239136249 0.725998044
0.238912508 0.231621251 0.723961234
0.531341732 0.204504758 0.722348273
0.770228982 0.155431002 0.716684222
0.970578969 0.100993261 0.709643006
0.000000000 0.510379076 0.715019286
0.244010508 0.508608043 0.713129699
0.536689818 0.503509998 0.709593832
0.768394947 0.492972016 0.706236482
0.960551798 0.485986531 0.699477017
0.000000000 0.738228500 0.702400029
0.246978015 0.736155272 0.700690508
0.540633976 0.731865287 0.697535515
0.760006011 0.727367997 0.692593992
0.939946949 0.722842813 0.685736537
0.013405506 0.904428482 0.695074260
0.348152995 0.900918007 0.694056988
0.581815243 0.894395232 0.692875504
0.769731998 0.889338493 0.689881682
0.924727738 0.886402249 0.683166265
0.000000000 0.000000000 0.902372003
0.223698512 0.000000000 0.900825500
0.534266531 0.000000000 0.898023963
0.774668515 0.000000000 0.892253995
0.971813023 0.000000000 0.884653986
0.000000000 0.226757258 0.894270718
0.275484025 0.216521993 0.892121196
0.551879525 0.185743004 0.890520215
0.780724525 0.126405999 0.886126935
0.969650030 0.088712260 0.878942251
0.000000000 0.505656540 0.880173981
0.293294013 0.503000498 0.878647208
0.559675455 0.497813016 0.874832511
0.777326465 0.487645268 0.872691751
0.956166029 0.484340519 0.866908550
0.000000000 0.733901978 0.863708735
0.308554769 0.731751740 0.862021506
0.563956738 0.727712750 0.858953714
0.767766476 0.722883821 0.855855048
0.933929980 0.718726754 0.852194786
0.174680993 0.899722993 0.850701988
0.391703755 0.896739483 0.849438250
0.599303007 0.891355991 0.847136974
0.775631011 0.885576248 0.844618976
0.921140015 0.882156014 0.840388000
