public/lut/61.cube
TITLE "17x17x17 Adobe/IRIDAS cube 3D LUT exported with GrossGrade v0.2.2 (beta) 64 bit"
DOMAIN_MIN 0 0 0
DOMAIN_MAX 1 1 1
LUT_3D_SIZE 17
0.000000000 0.000000000 0.000000000
0.081068873 0.000000000 0.000000000
0.144015998 0.000000000 0.000000000
0.209001899 0.000000000 0.000000000
0.273346245 0.000000000 0.000000000
0.336091369 0.000000000 0.000000000
0.396479130 0.000000000 0.000000000
0.454396605 0.000000000 0.000000000
0.510780513 0.000000000 0.000000000
0.565422773 0.000000000 0.000000000
0.618614495 0.000000000 0.000000000
0.669960678 0.000000000 0.000000000
0.720111251 0.000000000 0.000000000
0.768637300 0.000000000 0.000000000
0.815969825 0.000000000 0.000000000
0.861460447 0.000000000 0.000000000
0.905683994 0.000000000 0.000000000
0.000000000 0.080014691 0.000000000
0.080965750 0.082771868 0.000000000
0.145992503 0.081425808 0.000000000
0.211783379 0.078034125 0.000000000
0.276207864 0.070375875 0.000000000
0.338573277 0.059226498 0.000000000
0.398083031 0.045715436 0.000000000
0.455697000 0.031888310 0.000000000
0.511729717 0.021439685 0.000000000
0.566215456 0.011237125 0.000000000
0.618935406 0.000887063 0.000000000
0.670382679 0.000000000 0.000000000
0.720317245 0.000000000 0.000000000
0.768792510 0.000000000 0.000000000
0.815794289 0.000000000 0.000000000
0.861299753 0.000000000 0.000000000
0.905377984 0.000000000 0.000000000
0.000000000 0.146463245 0.000000000
0.073819555 0.148842871 0.000000000
0.145444006 0.149893507 0.000000000
0.212335140 0.149359882 0.000000000
0.276761740 0.147504002 0.000000000
0.338471115 0.144577309 0.000000000
0.397669882 0.140517876 0.000000000
0.455185413 0.135342181 0.000000000
0.511069298 0.129341885 0.000000000
0.565443456 0.122159056 0.000000000
0.618156135 0.113444254 0.000000000
0.669421017 0.103999503 0.000000000
0.719388843 0.093568876 0.000000000
0.767777503 0.081964865 0.000000000
0.814687848 0.069824740 0.000000000
0.860169291 0.058610991 0.000000000
0.904029369 0.052965000 0.000000000
0.000000000 0.212592199 0.000000000
0.059198998 0.214355201 0.000000000
0.141347930 0.216175690 0.000000000
0.211452141 0.216653764 0.000000000
0.276009083 0.216162577 0.000000000
0.337801427 0.215279520 0.000000000
0.397075236 0.213645816 0.000000000
0.454379261 0.211264014 0.000000000
0.510165870 0.208479509 0.000000000
0.564184606 0.205005646 0.000000000
0.616910517 0.201323017 0.000000000
0.668165565 0.197164953 0.000000000
0.717952251 0.192744836 0.000000000
0.766050160 0.188381508 0.000000000
0.812912166 0.184099317 0.000000000
0.858158171 0.180147693 0.000000000
0.901941240 0.176773578 0.000000000
0.000000000 0.276089489 0.000000000
0.041062497 0.276968390 0.000000000
0.136675879 0.278805524 0.000000000
0.209484324 0.280128777 0.000000000
0.275172025 0.280100018 0.000000000
0.336899310 0.279868722 0.000000000
0.396151781 0.279124737 0.000000000
0.453488588 0.278089136 0.000000000
0.508948207 0.276589990 0.000000000
0.563093841 0.274612904 0.000000000
0.615621209 0.272598892 0.000000000
0.666562557 0.270003200 0.000000000
0.716215730 0.267657995 0.000000000
0.764309287 0.265180945 0.000000000
0.810874939 0.262767255 0.000000000
0.856049418 0.260639578 0.000000000
0.899569273 0.258874744 0.000000000
0.000000000 0.336258113 0.000000000
0.026860625 0.336782247 0.000000000
0.130470872 0.338419765 0.000000000
0.206447631 0.339904189 0.000000000
0.273727268 0.340789855 0.000000000
0.336153448 0.340817392 0.000000000
0.395314127 0.340399742 0.000000000
0.452555239 0.339829892 0.000000000
0.507907987 0.339137495 0.000000000
0.561748207 0.338175565 0.000000000
0.614085853 0.336825877 0.000000000
0.664852738 0.335346699 0.000000000
0.714325011 0.333746880 0.000000000
0.762217939 0.332213134 0.000000000
0.808539867 0.330733806 0.000000000
0.853526354 0.329610735 0.000000000
0.896834135 0.328704804 0.000000000
0.000000000 0.393976390 0.000000000
0.016609183 0.394348443 0.000000000
0.123347506 0.395713389 0.000000000
0.203106582 0.397389501 0.000000000
0.271450996 0.398565888 0.000000000
0.334738761 0.399065286 0.000000000
0.394563138 0.398949623 0.000000000
0.451712340 0.398517519 0.000000000
0.506873250 0.398119152 0.000000000
0.560379386 0.397492558 0.000000000
0.612578154 0.396746010 0.000000000
0.663224041 0.395950079 0.000000000
0.712380648 0.394900531 0.000000000
0.760022879 0.393932611 0.000000000
0.806169689 0.393058151 0.000000000
0.850837708 0.392287344 0.000000000
0.893991113 0.391852021 0.000000000
0.000000000 0.449716091 0.000000000
0.005371870 0.449898720 0.000000000
0.115385175 0.451021284 0.000000000
0.199147642 0.452645808 0.000000000
0.269077897 0.453861654 0.000000000
0.333028704 0.454672098 0.000000000
0.393342197 0.455008268 0.000000000
0.450860232 0.454860091 0.000000000
0.505874991 0.454464376 0.000000000
0.559298098 0.454149663 0.000000000
0.611194611 0.453669518 0.000000000
0.661463320 0.453091294 0.000000000
0.710400939 0.452539861 0.000000000
0.757763267 0.451884478 0.000000000
0.803584695 0.451307893 0.000000000
0.848062515 0.450875968 0.000000000
0.890758634 0.450625271 0.000000000
0.000000000 0.503237486 0.000000000
0.000000000 0.503401995 0.000000000
0.107030123 0.504249752 0.000000000
0.195622087 0.505933583 0.000000000
0.266821504 0.507174492 0.000000000
0.331491321 0.508180916 0.000000000
0.392071426 0.508726478 0.000000000
0.449893177 0.508787870 0.000000000
0.505063057 0.508628964 0.000000000
0.558288455 0.508217931 0.000000000
0.609935760 0.507886529 0.000000000
0.659910738 0.507497489 0.000000000
0.708498478 0.507158518 0.000000000
0.755585074 0.506707728 0.000000000
0.801109672 0.506289542 0.000000000
0.845208228 0.506069481 0.000000000
0.887612998 0.506004512 0.000000000
0.000000000 0.554955661 0.000000000
0.000000000 0.554923058 0.000000000
0.100308940 0.555770159 0.000000000
0.192901328 0.557192326 0.000000000
0.265192509 0.558504760 0.000000000
0.330295056 0.559520900 0.000000000
0.391124278 0.560224056 0.000000000
0.449004263 0.560591638 0.000000000
0.504415512 0.560591578 0.000000000
0.557557106 0.560264826 0.000000000
0.608837008 0.559818089 0.000000000
0.658550143 0.559496343 0.000000000
0.706742167 0.559166968 0.000000000
0.753520668 0.558930814 0.000000000
0.798692584 0.558727443 0.000000000
0.842354655 0.558561563 0.000000000
0.884438217 0.558565080 0.000000000
0.000000000 0.604608238 0.000000000
0.000000000 0.604692996 0.000000000
0.097057879 0.605352163 0.000000000
0.191730127 0.606668115 0.000000000
0.264539748 0.607897997 0.000000000
0.329913497 0.608978927 0.000000000
0.390714496 0.609713912 0.000000000
0.448574543 0.610178471 0.000000000
0.503830552 0.610378981 0.000000000
0.557034969 0.610242665 0.000000000
0.608198225 0.609810650 0.000000000
0.657531381 0.609387934 0.000000000
0.705457807 0.609106004 0.000000000
0.751638889 0.608803689 0.000000000
0.796450794 0.608643591 0.000000000
0.839739621 0.608540416 0.000000000
0.881451249 0.608579278 0.000000000
0.000000000 0.652318895 0.000000000
0.000000000 0.652333558 0.000000000
0.098897815 0.652940810 0.000000000
0.193003625 0.654208004 0.000000000
0.265861005 0.655295134 0.000000000
0.330887944 0.656300426 0.000000000
0.391452968 0.657077432 0.000000000
0.448961079 0.657574654 0.000000000
0.503992021 0.657835662 0.000000000
0.556916773 0.657795012 0.000000000
0.607938647 0.657615781 0.000000000
0.657029808 0.657161951 0.000000000
0.704512954 0.656752348 0.000000000
0.750235975 0.656405747 0.000000000
0.794574022 0.656196296 0.000000000
0.837354422 0.656041861 0.000000000
0.878613949 0.656062663 0.000000000
0.000000000 0.698052287 0.000000000
0.000000002 0.698023200 0.000000000
0.107091755 0.698584259 0.000000000
0.197788388 0.699729919 0.000000000
0.269444495 0.700766563 0.000000000
0.333582312 0.701632023 0.000000000
0.393626034 0.702406347 0.000000000
0.450575471 0.702925742 0.000000000
0.505076528 0.703243017 0.000000000
0.557594419 0.703277707 0.000000000
0.608235955 0.703105032 0.000000000
0.656976461 0.702780128 0.000000000
0.704050779 0.702295005 0.000000000
0.749363780 0.701835811 0.000000000
0.793132305 0.701526046 0.000000000
0.835418820 0.701261580 0.000000000
0.876263976 0.701152265 0.000000000
0.000000000 0.741560161 0.000000000
0.011582274 0.741498232 0.000000000
0.122247770 0.742131948 0.000000000
0.206651405 0.743186235 0.000000000
0.275930494 0.744097412 0.000000000
0.338596523 0.744918168 0.000000000
0.397560716 0.745614529 0.000000000
0.453712910 0.746016324 0.000000000
0.507492065 0.746312320 0.000000000
0.559357703 0.746448040 0.000000000
0.609397590 0.746307433 0.000000000
0.657703757 0.746029019 0.000000000
0.704275966 0.745624483 0.000000000
0.749092162 0.745076478 0.000000000
0.792276382 0.744611859 0.000000000
0.834026515 0.744233251 0.000000000
0.874428034 0.743991137 0.000000000
0.000000000 0.782955408 0.000000000
0.042137794 0.782996774 0.000000000
0.144163415 0.783732712 0.000000000
0.219728708 0.784550488 0.000000000
0.285483390 0.785385847 0.000000000
0.346206516 0.786130130 0.000000000
0.403589785 0.786689401 0.000000000
0.458516657 0.787140310 0.000000000
0.511354089 0.787379205 0.000000000
0.562280416 0.787487209 0.000000000
0.611514568 0.787398100 0.000000000
0.659142315 0.787175119 0.000000000
0.705048859 0.786786199 0.000000000
0.749290705 0.786298275 0.000000000
0.791957140 0.785796821 0.000000000
0.833133161 0.785326004 0.000000000
0.873165011 0.785026073 0.000000000
0.000986138 0.822426736 0.000000000
0.089260668 0.822697878 0.000000000
0.169353411 0.823339820 0.000000000
0.236380219 0.824093521 0.000000000
0.298121631 0.824796736 0.000000000
0.356015623 0.825447261 0.000000000
0.411498338 0.825997829 0.000000000
0.464993268 0.826396883 0.000000000
0.516457021 0.826634288 0.000000000
0.566319704 0.826711893 0.000000000
0.614619493 0.826632380 0.000000000
0.661292970 0.826394916 0.000000000
0.706449389 0.826092780 0.000000000
0.750023127 0.825704575 0.000000000
0.792169094 0.825255096 0.000000000
0.832827628 0.824683905 0.000000000
0.872227907 0.824269235 0.000000000
0.041758999 0.860297024 0.000000000
0.134071752 0.860748887 0.000000000
0.196213380 0.861327589 0.000000000
0.255534053 0.862005472 0.000000000
0.312708497 0.862576246 0.000000000
0.367696375 0.863173366 0.000000000
0.421050519 0.863603234 0.000000000
0.472742110 0.864008129 0.000000000
0.522745967 0.864246011 0.000000000
0.571393847 0.864329576 0.000000000
0.618598282 0.864310980 0.000000000
0.664205015 0.864105701 0.000000000
0.708427250 0.863879800 0.000000000
0.751227558 0.863570631 0.000000000
0.792695701 0.863093734 0.000000000
0.832928419 0.862673879 0.000000000
0.871879995 0.862192988 0.000000000
0.000000000 0.000000000 0.082475938
0.079159126 0.000000000 0.081941687
0.143862754 0.000000000 0.081431687
0.209238514 0.000000000 0.080456257
0.273876160 0.000000000 0.079070874
0.336787701 0.000000000 0.076694123
0.396577984 0.000000000 0.073901497
0.454624265 0.000000000 0.070852436
0.511010647 0.000000000 0.067146190
0.565605521 0.000000000 0.062442128
0.618488729 0.000000000 0.056804128
0.669991553 0.000000000 0.050893564
0.720021188 0.000000000 0.044081435
0.768528998 0.000000000 0.036619242
0.815663159 0.000000000 0.029078372
0.861274838 0.000000000 0.024495121
0.905270338 0.000000000 0.019320125
0.000000000 0.081367873 0.082271695
0.082271688 0.081838563 0.081838563
0.149091631 0.079558626 0.080485560
0.214669630 0.074753754 0.078593247
0.278895557 0.066622682 0.075834125
0.340587676 0.054987814 0.073365562
0.399724662 0.041164309 0.070135690
0.457226276 0.028536372 0.066056311
0.512726784 0.018137123 0.061593436
0.566748142 0.007885749 0.056201689
0.619352221 0.000000000 0.050450563
0.670552611 0.000000000 0.043595251
0.720361888 0.000000000 0.036569938
0.768801987 0.000000000 0.028979745
0.815599084 0.000000000 0.023656871
0.861175060 0.000000000 0.018531185
0.904937208 0.000000000 0.013356186
0.000000000 0.147260502 0.080450319
0.077677816 0.147802204 0.080485560
0.148034930 0.149110258 0.078107193
0.215068325 0.148302197 0.075264938
0.279592752 0.145959988 0.071812123
0.341035753 0.142627954 0.068321437
0.400177270 0.138191119 0.064400129
0.457516581 0.132832751 0.059845746
0.513061523 0.126417682 0.054337375
0.566933513 0.118654370 0.048454877
0.619566023 0.109808251 0.042163063
0.670567095 0.099844255 0.035239503
0.720249116 0.088859938 0.028241061
0.768550634 0.077174366 0.022868870
0.815305829 0.064611815 0.018481933
0.860613048 0.054674812 0.013356183
0.904401481 0.050038621 0.008279750
0.000000000 0.213274762 0.076656505
0.065425806 0.213567823 0.076656505
0.144848078 0.215261504 0.073767245
0.213858634 0.215995699 0.070150062
0.278176248 0.215477809 0.066076502
0.339955002 0.214387640 0.061684936
0.398972034 0.212423965 0.056509376
0.456545204 0.209999830 0.051191993
0.511958838 0.206821203 0.045700748
0.565875053 0.203419760 0.039115250
0.618426681 0.199307010 0.032873496
0.669376254 0.195139825 0.026713185
0.718967617 0.190681323 0.021587433
0.766994834 0.186144069 0.017003432
0.813660979 0.181673452 0.012074995
0.858813167 0.177709386 0.007540993
0.902448833 0.174136430 0.002464562
0.000000000 0.276461750 0.070238560
0.046941377 0.276597261 0.069746748
0.140633568 0.277906626 0.067472562
0.211706251 0.279252440 0.061530314
0.276959598 0.279610366 0.057304189
0.338591844 0.279225439 0.052903689
0.397729069 0.278496593 0.047624435
0.455002099 0.277362585 0.041492496
0.510453165 0.275620461 0.035190247
0.564350665 0.273634315 0.029325061
0.616771042 0.271292567 0.024297999
0.667545795 0.268762261 0.019862374
0.717057705 0.266199201 0.015130499
0.765106857 0.263671756 0.010399308
0.811650336 0.261253685 0.006062432
0.856551230 0.259171367 0.000986060
0.899902463 0.257433504 0.000000000
0.000000000 0.336545736 0.062012501
0.031444751 0.336733460 0.061282873
0.134707436 0.337685019 0.058545936
0.208795279 0.339101136 0.052360244
0.275334686 0.340280414 0.045680560
0.337356478 0.340123683 0.040452190
0.396498144 0.339910626 0.036074065
0.453677237 0.339350820 0.031247314
0.508937120 0.338431358 0.026466873
0.562679231 0.337332517 0.022030625
0.614948153 0.336048841 0.017398000
0.665628552 0.334347188 0.012962125
0.714982927 0.332890570 0.008181186
0.762750149 0.331249654 0.003449933
0.809027672 0.329722375 0.000197249
0.853920877 0.328484684 0.000000000
0.897111177 0.327535748 0.000000000
0.000000000 0.394211262 0.051608749
0.021045433 0.394357324 0.051608749
0.127715811 0.395111859 0.048328310
0.205276266 0.396671504 0.041384246
0.272953510 0.397926956 0.034894627
0.335846663 0.398551524 0.029571747
0.395314157 0.398376524 0.026368309
0.452392519 0.398070484 0.022622434
0.507589579 0.397592634 0.018925810
0.561137676 0.397048295 0.015229248
0.613229394 0.396162301 0.010300748
0.663663387 0.395234555 0.005717123
0.712841392 0.394209594 0.001774248
0.760422111 0.393252045 0.000000000
0.806486189 0.392287910 0.000000000
0.851130128 0.391589522 0.000000000
0.894076288 0.390973836 0.000000000
0.000000000 0.449799359 0.040878430
0.008625183 0.449823409 0.040448122
0.119367249 0.450655431 0.037845559
0.201337010 0.452153593 0.032183498
0.270484567 0.453419000 0.026959185
0.334058255 0.454260826 0.021932123
0.394119442 0.454641908 0.017496681
0.451414287 0.454387397 0.014539306
0.506404817 0.454084635 0.011631370
0.559716105 0.453679979 0.007343872
0.611504197 0.453199625 0.003252747
0.661841869 0.452591717 0.000295874
0.710715830 0.451950669 0.000000000
0.757983267 0.451279789 0.000000000
0.803824127 0.450726300 0.000000000
0.848129332 0.450279295 0.000000000
0.890908837 0.450066656 0.000000000
0.000000000 0.503335536 0.031296875
0.000345187 0.503368497 0.031296875
0.110707559 0.504086256 0.029817935
0.197469190 0.505410135 0.025431499
0.268101156 0.506758153 0.020502998
0.332323074 0.507700741 0.015180062
0.392729282 0.508281589 0.010103622
0.450384557 0.508443713 0.005815621
0.505482435 0.508153200 0.002858310
0.558625340 0.507806122 0.000739249
0.610111594 0.507425904 0.000000000
0.660081863 0.507024467 0.000000000
0.708648801 0.506635368 0.000000000
0.755614042 0.506257653 0.000000000
0.801190436 0.505880117 0.000000000
0.845166922 0.505615473 0.000000000
0.887571633 0.505488634 0.000000000
0.000000000 0.554872274 0.026072625
0.000000000 0.554985166 0.025678126
0.103817627 0.555590749 0.024297813
0.194554329 0.556818247 0.019566562
0.266322374 0.558081686 0.014440563
0.331076980 0.559144855 0.008625188
0.391600728 0.559852421 0.002759749
0.449419498 0.560181439 0.000295874
0.504684031 0.560206831 0.000000000
0.557779193 0.559893608 0.000000000
0.609071493 0.559492826 0.000000000
0.658718646 0.559173882 0.000000000
0.706858635 0.558870196 0.000000000
0.753542364 0.558576822 0.000000000
0.798669517 0.558328986 0.000000000
0.842278898 0.558138847 0.000000000
0.884335876 0.558138371 0.000000000
0.000000000 0.604659855 0.020503063
0.000000000 0.604718924 0.020207189
0.100505874 0.605154753 0.018778063
0.193162888 0.606343150 0.013997124
0.265652955 0.607592940 0.008625187
0.330698073 0.608633757 0.002316500
0.391262710 0.609396577 0.000000000
0.448952854 0.609867334 0.000000000
0.504120886 0.610027134 0.000000000
0.557219028 0.609832644 0.000000000
0.608349144 0.609406829 0.000000000
0.657616556 0.609002292 0.000000000
0.705359399 0.608723879 0.000000000
0.751619399 0.608459949 0.000000000
0.796338201 0.608290672 0.000000000
0.839579046 0.608190835 0.000000000
0.881223619 0.608094394 0.000000000
0.000000000 0.652377903 0.016067438
0.000000000 0.652369499 0.016067438
0.101784192 0.652811289 0.014391124
0.194384381 0.653921843 0.009265436
0.266687632 0.655034721 0.003548750
0.331571430 0.655985951 0.000000000
0.391859949 0.656792045 0.000000000
0.449291945 0.657334030 0.000000000
0.504197896 0.657502472 0.000000000
0.557057321 0.657548487 0.000000000
0.607947350 0.657231808 0.000000000
0.657032728 0.656845272 0.000000000
0.704356074 0.656400144 0.000000000
0.750165284 0.656138062 0.000000000
0.794401467 0.655823350 0.000000000
0.837187409 0.655727088 0.000000000
0.878392994 0.655677438 0.000000000
0.000000000 0.698081851 0.013356186
0.000197253 0.697974503 0.013356186
0.109553069 0.698487937 0.011040313
0.198976576 0.699475110 0.005963873
0.270403802 0.700500965 0.000295687
0.334253311 0.701423705 0.000000000
0.393989861 0.702152371 0.000000000
0.450912833 0.702651381 0.000000000
0.505297720 0.702926219 0.000000000
0.557714164 0.703009009 0.000000000
0.608236074 0.702809155 0.000000000
0.656962395 0.702484250 0.000000000
0.703933299 0.701929569 0.000000000
0.749199629 0.701544523 0.000000000
0.792977571 0.701221406 0.000000000
0.835207701 0.701026678 0.000000000
0.875986278 0.700874507 0.000000000
0.000000000 0.741505563 0.012617438
0.013800211 0.741459250 0.012617438
0.124422893 0.742000282 0.009758249
0.207898915 0.742905915 0.004681874
0.276616693 0.743794858 0.000000000
0.339222312 0.744636357 0.000000000
0.397960067 0.745298624 0.000000000
0.453959584 0.745797157 0.000000000
0.507693708 0.746095657 0.000000000
0.559404314 0.746147633 0.000000000
0.609388173 0.746034086 0.000000000
0.657610595 0.745760202 0.000000000
0.704100788 0.745273948 0.000000000
0.748873830 0.744802833 0.000000000
0.792036772 0.744312942 0.000000000
0.833732665 0.743998528 0.000000000
0.874153852 0.743756294 0.000000000
0.000000000 0.782888353 0.014933254
0.044359855 0.782886028 0.014293006
0.146001592 0.783483267 0.010596503
0.220926195 0.784268975 0.006161002
0.286356062 0.785138905 0.000246566
0.346705586 0.785819173 0.000000000
0.403965592 0.786388040 0.000000000
0.458792329 0.786822796 0.000000000
0.511438131 0.787105739 0.000000000
0.562273383 0.787235081 0.000000000
0.611457705 0.787117302 0.000000000
0.658986092 0.786852956 0.000000000
0.704895496 0.786519527 0.000000000
0.749104261 0.786040545 0.000000000
0.791676283 0.785506248 0.000000000
0.832887948 0.785065293 0.000000000
0.872837961 0.784732997 0.000000000
0.001724885 0.822327137 0.020158380
0.092148677 0.822498739 0.018629819
0.170939162 0.823053300 0.015031881
0.237590909 0.823764205 0.009955504
0.298841536 0.824496210 0.004189445
0.356529891 0.825092912 0.000000002
0.411856651 0.825652480 0.000000000
0.465128720 0.826028109 0.000000000
0.516575873 0.826327980 0.000000000
0.566327691 0.826412320 0.000000000
0.614543796 0.826340973 0.000000000
0.661169350 0.826157451 0.000000000
0.706290901 0.825846851 0.000000000
0.749813318 0.825488269 0.000000000
0.791843176 0.825015426 0.000000000
0.832488120 0.824500382 0.000000000
0.871944070 0.824035048 0.000000000
0.044692185 0.860172153 0.027550563
0.136625439 0.860469222 0.026022876
0.197727814 0.861043811 0.021587500
0.256781191 0.861621678 0.017249875
0.313547373 0.862203360 0.012173438
0.368244708 0.862782419 0.005618562
0.421387941 0.863260925 0.000492813
0.472913653 0.863621414 0.000000000
0.522832036 0.863869786 0.000000000
0.571306229 0.863991618 0.000000000
0.618409634 0.863963187 0.000000000
0.663952649 0.863810778 0.000000000
0.708150029 0.863584876 0.000000000
0.750849128 0.863267004 0.000000000
0.792370617 0.862894595 0.000000000
0.832522213 0.862419009 0.000000000
0.871530056 0.861936033 0.000000000
0.000000000 0.000000000 0.147429511
0.073688619 0.000000000 0.148191497
0.141826749 0.000000000 0.148517489
0.208117396 0.000000000 0.148070306
0.273418635 0.000000000 0.147579506
0.336003542 0.000000000 0.146475613
0.395884633 0.000000000 0.145122141
0.454186529 0.000000000 0.143601447
0.510224640 0.000000000 0.141673252
0.564872622 0.000000000 0.139718249
0.617821872 0.000000000 0.137551993
0.669129133 0.000000000 0.134957194
0.719078124 0.000000000 0.132132754
0.767655492 0.000000000 0.129050121
0.814587295 0.000000000 0.125652879
0.860281289 0.000000000 0.122161999
0.904240787 0.000000000 0.118521497
0.000000000 0.081367873 0.148053616
0.078629121 0.081338748 0.148379132
0.147550628 0.078593120 0.149128884
0.214016259 0.072841808 0.148339570
0.278699249 0.064309061 0.147289380
0.340200335 0.052292250 0.145909876
0.399417639 0.038912561 0.144293010
0.456720054 0.026318870 0.142357439
0.512103200 0.016264183 0.140254438
0.566022456 0.006062125 0.137740314
0.618646204 0.000000000 0.135282740
0.669754028 0.000000000 0.132462129
0.719571888 0.000000000 0.129422754
0.767916739 0.000000000 0.126333818
0.814812958 0.000000000 0.123103812
0.860054612 0.000000000 0.119516745
0.903929710 0.000000000 0.115475819
0.000000000 0.147550628 0.148360506
0.076226249 0.148285508 0.148536175
0.148322999 0.148285627 0.148285627
0.216318712 0.146714494 0.147024706
0.280992746 0.144049987 0.145676613
0.342258424 0.140639126 0.144037738
0.401340634 0.135897249 0.141925618
0.458389163 0.130351305 0.139688253
0.513715506 0.123631254 0.137414247
0.567509353 0.115688555 0.134804994
0.619889379 0.106431127 0.132033139
0.670804977 0.096341625 0.129069373
0.720457613 0.085035749 0.125991240
0.768643677 0.072313361 0.122511625
0.815347075 0.059746373 0.118883498
0.860539019 0.051162627 0.114848360
0.904160261 0.046416752 0.110671498
0.000000000 0.213701010 0.147799999
0.064862370 0.214052945 0.147799999
0.146693304 0.214234948 0.147783369
0.214899525 0.215273634 0.145693421
0.279816419 0.214864075 0.143532947
0.341417700 0.213161886 0.141360685
0.400791585 0.210815310 0.139074132
0.458096981 0.208112314 0.136668935
0.513480663 0.204927385 0.134210005
0.567291558 0.201063901 0.131406620
0.619657576 0.196868449 0.128447816
0.670448899 0.192583889 0.125308812
0.719960570 0.187878072 0.121809632
0.767993331 0.183396831 0.118209623
0.814560115 0.178881258 0.114171997
0.859571457 0.174649447 0.110025249
0.902978539 0.170974702 0.105929315
0.000000000 0.276850879 0.146420747
0.048195750 0.277004004 0.146401674
0.142890513 0.277139276 0.146420747
0.213076890 0.278310627 0.144548357
0.277961254 0.279038846 0.141772375
0.339516014 0.278662115 0.139395937
0.399090737 0.277777851 0.136609629
0.456358701 0.276311338 0.133703887
0.511904597 0.274426371 0.130965248
0.565726817 0.272153944 0.127778381
0.618214071 0.269736886 0.124550998
0.669033766 0.267071426 0.121151179
0.718463063 0.264269620 0.117282495
0.766238451 0.261585355 0.113492236
0.812782526 0.259174496 0.109266125
0.857589245 0.256864518 0.104878746
