public/lut/61.cube
TITLE "17x17x17 Adobe/IRIDAS cube 3D LUT exported with GrossGrade v0.2.2 (beta) 64 bit"
DOMAIN_MIN 0 0 0
DOMAIN_MAX 1 1 1
LUT_3D_SIZE 5
0.000000000 0.000000000 0.000000000
0.273346245 0.000000000 0.000000000
0.510780513 0.000000000 0.000000000
0.720111251 0.000000000 0.000000000
0.905683994 0.000000000 0.000000000
0.000000000 0.276089489 0.000000000
0.275172025 0.280100018 0.000000000
0.508948207 0.276589990 0.000000000
0.716215730 0.267657995 0.000000000
0.899569273 0.258874744 0.000000000
0.000000000 0.503237486 0.000000000
0.266821504 0.507174492 0.000000000
0.505063057 0.508628964 0.000000000
0.708498478 0.507158518 0.000000000
0.887612998 0.506004512 0.000000000
0.000000000 0.698052287 0.000000000
0.269444495 0.700766563 0.000000000
0.505076528 0.703243017 0.000000000
0.704050779 0.702295005 0.000000000
0.876263976 0.701152265 0.000000000
0.041758999 0.860297024 0.000000000
0.312708497 0.862576246 0.000000000
0.522745967 0.864246011 0.000000000
0.708427250 0.863879800 0.000000000
0.871879995 0.862192988 0.000000000
0.000000000 0.000000000 0.276882231
0.270937026 0.000000000 0.279162228
0.507653058 0.000000000 0.276963741
0.716298997 0.000000000 0.272276521
0.901102781 0.000000000 0.266220242
0.000000000 0.277103782 0.277780265
0.277574003 0.277310252 0.277446270
0.513007462 0.271000296 0.272630513
0.719120502 0.260030985 0.266120791
0.900895000 0.250710487 0.259165525
0.000000000 0.504201293 0.275403976
0.273136020 0.503745019 0.275948763
0.505878031 0.506688952 0.268200517
0.709910035 0.504998267 0.259819001
0.889055967 0.503152251 0.251867235
0.000000000 0.698675513 0.273787498
0.276743710 0.697676241 0.274643987
0.505843282 0.700477779 0.266391277
0.703114808 0.700810254 0.257606745
0.875152707 0.699964046 0.251210749
0.044188250 0.860395014 0.282217026
0.319655716 0.859265447 0.283011019
0.523806572 0.860877752 0.275697768
0.706620693 0.862005234 0.265247762
0.869520485 0.861008525 0.260384768
0.000000000 0.000000000 0.505200505
0.260586262 0.000000000 0.508127749
0.502614021 0.000000000 0.509081483
0.709582567 0.000000000 0.506995261
0.892636001 0.000000000 0.504082501
0.000000000 0.276461750 0.505633056
0.272000015 0.275511742 0.505748034
0.506135464 0.267743766 0.507562995
0.711652756 0.256469488 0.505535543
0.892651200 0.247027501 0.501776516
0.000000000 0.504281998 0.504608989
0.270259768 0.504266500 0.504348040
0.504122496 0.503956497 0.504055023
0.709289730 0.500282288 0.500249982
0.886590958 0.498100519 0.496340990
0.000000000 0.698923290 0.504234016
0.275038272 0.698192775 0.504283011
0.507094741 0.696750522 0.504935026
0.699824810 0.698537350 0.499589026
0.871847987 0.697773218 0.494955242
0.034303002 0.860607982 0.508309007
0.318223476 0.859199524 0.508906722
0.525142491 0.857196510 0.510145485
0.702872992 0.858928978 0.505407512
0.864391983 0.859084964 0.500710011
0.000000000 0.000000000 0.702241004
0.252723485 0.000000000 0.704764009
0.499124527 0.000000000 0.707127273
0.705280244 0.000000000 0.706089079
0.885158241 0.000000000 0.704030037
0.000000000 0.274653256 0.701470792
0.266914487 0.272904009 0.702187061
0.503412545 0.265046209 0.704433680
0.705907583 0.254228741 0.704381526
0.883374512 0.247491241 0.702400267
0.000000000 0.503629982 0.699094772
0.268606514 0.503482938 0.699255764
0.503825009 0.502533555 0.699041247
0.701856494 0.498498797 0.700413525
0.876638770 0.496089518 0.698557556
0.000000000 0.698321760 0.696922779
0.276435494 0.697816730 0.696836710
0.506608069 0.696858287 0.696416259
0.696298778 0.696028292 0.696104050
0.867952764 0.693832040 0.693115532
0.045452502 0.860076487 0.697085500
0.318338484 0.859027743 0.697020233
0.523713470 0.857295513 0.697128534
0.700566769 0.855542243 0.697613001
0.858444989 0.856908739 0.693626285
0.000000000 0.000000000 0.867426991
0.266704023 0.000000000 0.869971991
0.505128026 0.000000000 0.872121453
0.706562996 0.000000000 0.872282028
0.881965995 0.000000000 0.870495975
0.000000000 0.272279501 0.866008997
0.281510741 0.270094007 0.866438508
0.510255754 0.262608498 0.868348956
0.706861556 0.251513988 0.869810700
0.879220724 0.247295514 0.868357241
0.000000000 0.502876997 0.862323523
0.285733014 0.502205729 0.862722993
0.511590481 0.501401544 0.862160504
0.702305555 0.498017758 0.863896012
0.871043503 0.496406019 0.863725007
0.000000000 0.697385252 0.858280778
0.295589745 0.696879268 0.858182490
0.513397276 0.695951760 0.857886732
0.697506249 0.695001245 0.857845545
0.860886216 0.692518234 0.858814240
0.116726004 0.858887970 0.855895996
0.333046734 0.858108282 0.855714500
0.528171480 0.856736004 0.855435014
0.700438499 0.855517507 0.855154514
0.854906976 0.854874015 0.854874015
