public/lut/62.cube
TITLE "17x17x17 Adobe/IRIDAS cube 3D LUT exported with GrossGrade v0.2.2 (beta) 64 bit"
DOMAIN_MIN 0 0 0
DOMAIN_MAX 1 1 1
LUT_3D_SIZE 17
0.000000000 0.000000000 0.000000000
0.067004688 0.000000000 0.000000000
0.117303379 0.000000000 0.000000000
0.170298889 0.000000000 0.000000000
0.218579754 0.000000000 0.000000000
0.267735869 0.000000000 0.000000000
0.317283660 0.000000000 0.000000000
0.366879851 0.000000000 0.000000000
0.416586518 0.000000000 0.000000000
0.466438740 0.000000000 0.000000000
0.516754508 0.000000000 0.000000000
0.568156004 0.000000000 0.000000000
0.620328784 0.000000000 0.000000000
0.673685193 0.000000000 0.000000000
0.727419078 0.000000000 0.000000000
0.780448973 0.000000000 0.000000000
0.830694020 0.000000000 0.000000000
0.000000000 0.076222003 0.000000000
0.064288877 0.076754503 0.000000000
0.115523882 0.075759813 0.000000000
0.165726393 0.072397754 0.000000000
0.216282889 0.067227244 0.000000000
0.266701430 0.058860809 0.000000000
0.317287385 0.046257559 0.000000000
0.367544144 0.029621117 0.000000000
0.417559952 0.013306872 0.000000000
0.467747927 0.005569500 0.000000000
0.518209517 0.001182938 0.000000000
0.569447219 0.000000000 0.000000000
0.621813059 0.000000000 0.000000000
0.675154984 0.000000000 0.000000000
0.729081094 0.000000000 0.000000000
0.781803131 0.000000000 0.000000000
0.831802607 0.000000000 0.000000000
0.000000000 0.130087763 0.000000000
0.056180000 0.130942687 0.000000000
0.110366128 0.131530493 0.000000000
0.162330896 0.130658373 0.000000000
0.214078128 0.128882125 0.000000000
0.265624672 0.125758618 0.000000000
0.316579133 0.121293247 0.000000000
0.367129028 0.114998937 0.000000000
0.417591512 0.107112117 0.000000000
0.468048245 0.097173750 0.000000000
0.518815458 0.083397880 0.000000000
0.570283413 0.067170247 0.000000000
0.622945011 0.048200745 0.000000000
0.676422238 0.025825672 0.000000000
0.730078399 0.011533122 0.000000000
0.783095717 0.007491183 0.000000000
0.833080292 0.004830000 0.000000000
0.000000000 0.185691699 0.000000000
0.038522057 0.186554641 0.000000000
0.102420315 0.187720627 0.000000000
0.158590838 0.188474327 0.000000000
0.211920127 0.187900960 0.000000000
0.264216840 0.186818630 0.000000000
0.316034168 0.185134009 0.000000000
0.366910338 0.182240322 0.000000000
0.417373508 0.178841010 0.000000000
0.468090385 0.174624696 0.000000000
0.519132912 0.169297770 0.000000000
0.570652962 0.162983581 0.000000000
0.623457611 0.155286565 0.000000000
0.677014887 0.146229625 0.000000000
0.730729222 0.136072382 0.000000000
0.783780515 0.125158086 0.000000000
0.833704948 0.113893770 0.000000000
0.000000000 0.242413506 0.000000000
0.011483247 0.243108869 0.000000000
0.089647874 0.244511247 0.000000000
0.152339190 0.245770499 0.000000000
0.209153250 0.246442750 0.000000000
0.262962162 0.246165261 0.000000000
0.315329880 0.245603114 0.000000000
0.366636217 0.244635135 0.000000000
0.417558014 0.243110508 0.000000000
0.468371391 0.241039246 0.000000000
0.519599617 0.238346368 0.000000000
0.571401179 0.235154197 0.000000000
0.624170482 0.231388748 0.000000000
0.677772641 0.227152377 0.000000000
0.731618166 0.222472370 0.000000000
0.784429312 0.217937320 0.000000000
0.834223270 0.213856012 0.000000000
0.000000000 0.299764037 0.000000000
0.000000000 0.299927562 0.000000000
0.069114752 0.301011384 0.000000000
0.144076884 0.302614927 0.000000000
0.204881817 0.303946227 0.000000000
0.261111557 0.304536760 0.000000000
0.314646423 0.304547250 0.000000000
0.366563410 0.304321617 0.000000000
0.417932749 0.303812057 0.000000000
0.468970805 0.302950174 0.000000000
0.520348251 0.301770449 0.000000000
0.572298288 0.300112635 0.000000000
0.625240624 0.298251390 0.000000000
0.678749382 0.296099484 0.000000000
0.732588232 0.293874562 0.000000000
0.785318196 0.291771024 0.000000000
0.834842563 0.290090621 0.000000000
0.000000000 0.355989128 0.000000000
0.000000000 0.356513381 0.000000000
0.043574866 0.357065618 0.000000000
0.134269014 0.358853072 0.000000000
0.199840635 0.360421419 0.000000000
0.258580625 0.361612827 0.000000000
0.313682407 0.362219781 0.000000000
0.366683215 0.362460464 0.000000000
0.418473005 0.362378269 0.000000000
0.469942510 0.362280369 0.000000000
0.521502495 0.361896664 0.000000000
0.573606968 0.361400127 0.000000000
0.626654983 0.360620022 0.000000000
0.680232823 0.359726578 0.000000000
0.733854473 0.358854502 0.000000000
0.786378205 0.358071893 0.000000000
0.835690796 0.357723027 0.000000000
0.000000000 0.411900014 0.000000000
0.000000000 0.412193149 0.000000000
0.024445618 0.412576765 0.000000000
0.122275136 0.414242446 0.000000000
0.194089770 0.416082293 0.000000000
0.255574375 0.417616338 0.000000000
0.312440753 0.418706030 0.000000000
0.366606295 0.419412792 0.000000000
0.419394463 0.419699669 0.000000000
0.471275389 0.419868767 0.000000000
0.523033261 0.420026094 0.000000000
0.575247943 0.420143396 0.000000000
0.628209531 0.420090169 0.000000000
0.681776643 0.420103729 0.000000000
0.735333622 0.420076996 0.000000000
0.787529707 0.420249283 0.000000000
0.836525857 0.420747399 0.000000000
0.000000000 0.466644526 0.000000000
0.000000000 0.467038035 0.000000000
0.008280123 0.467343777 0.000000000
0.107756257 0.468913883 0.000000000
0.187929496 0.470718503 0.000000000
0.252326429 0.472395718 0.000000000
0.311043262 0.473817408 0.000000000
0.366717339 0.474978387 0.000000000
0.420408487 0.475733995 0.000000000
0.472934812 0.476150692 0.000000000
0.524977744 0.476531386 0.000000000
0.577337265 0.476982772 0.000000000
0.630354762 0.477431267 0.000000000
0.683646679 0.477893203 0.000000000
0.736979306 0.478450149 0.000000000
0.789026380 0.479206592 0.000000000
0.837529004 0.480300009 0.000000000
0.000000000 0.520380974 0.000000000
0.000000000 0.520650327 0.000000000
0.000000000 0.521045685 0.000000000
0.091849327 0.522213638 0.000000000
0.182028189 0.524089515 0.000000000
0.249733999 0.525874436 0.000000000
0.310282767 0.527436912 0.000000000
0.366912723 0.528783381 0.000000000
0.421528518 0.529887021 0.000000000
0.474877566 0.530732632 0.000000000
0.527426064 0.531266630 0.000000000
0.579836965 0.531785190 0.000000000
0.632731378 0.532451987 0.000000000
0.686011195 0.533298910 0.000000000
0.739003003 0.534224629 0.000000000
0.790550232 0.535329580 0.000000000
0.838598728 0.536684394 0.000000000
0.000000000 0.572265387 0.000000000
0.000000000 0.572606385 0.000000000
0.000000000 0.572904646 0.000000000
0.080449529 0.573936403 0.000000000
0.177717879 0.575752199 0.000000000
0.248380989 0.577536702 0.000000000
0.310497284 0.579198122 0.000000000
0.368176758 0.580658197 0.000000000
0.423449486 0.581936896 0.000000000
0.477275878 0.583007395 0.000000000
0.530364513 0.583877146 0.000000000
0.582969546 0.584482610 0.000000000
0.635875046 0.585155010 0.000000000
0.688783407 0.586068273 0.000000000
0.741356969 0.587161481 0.000000000
0.792458236 0.588497221 0.000000000
0.839999855 0.590083241 0.000000000
0.000000000 0.621939957 0.000000000
0.000000000 0.622220695 0.000000000
0.000000000 0.622604430 0.000000000
0.074351519 0.623484910 0.000000000
0.176138446 0.625183403 0.000000000
0.249233693 0.626965344 0.000000000
0.312420428 0.628615558 0.000000000
0.370829523 0.630102813 0.000000000
0.426467150 0.631473422 0.000000000
0.480606765 0.632634580 0.000000000
0.533950925 0.633622646 0.000000000
0.586723328 0.634451330 0.000000000
0.639511228 0.635195494 0.000000000
0.692248464 0.635938883 0.000000000
0.744398594 0.637092948 0.000000000
0.794789732 0.638447106 0.000000000
0.841637850 0.640069187 0.000000000
0.000000000 0.668932319 0.000000000
0.000000000 0.669147015 0.000000000
0.000000000 0.669431508 0.000000000
0.077597834 0.670242786 0.000000000
0.179647759 0.671866298 0.000000000
0.253305674 0.673578024 0.000000000
0.316870034 0.675138354 0.000000000
0.375496924 0.676680267 0.000000000
0.431219041 0.678033531 0.000000000
0.485405505 0.679209948 0.000000000
0.538672149 0.680217266 0.000000000
0.591361165 0.681150913 0.000000000
0.644012809 0.681949258 0.000000000
0.696376562 0.682694912 0.000000000
0.747950912 0.683592916 0.000000000
0.797771990 0.684967458 0.000000000
0.843788028 0.686453521 0.000000000
0.000000000 0.712691009 0.000000000
0.000000000 0.712929130 0.000000000
0.000000000 0.713140786 0.000000000
0.092019230 0.713958442 0.000000000
0.189390153 0.715470791 0.000000000
0.261588126 0.717085361 0.000000000
0.324448556 0.718531609 0.000000000
0.382651210 0.719946325 0.000000000
0.438118517 0.721228719 0.000000000
0.491938114 0.722361445 0.000000000
0.544819236 0.723414421 0.000000000
0.597287834 0.724302113 0.000000000
0.649517596 0.725114107 0.000000000
0.701429546 0.725797057 0.000000000
0.752399206 0.726616621 0.000000000
0.801422536 0.727662086 0.000000000
0.846664965 0.729102910 0.000000000
0.000000000 0.753389478 0.000000000
0.000000000 0.753501475 0.000000000
0.008575525 0.753705680 0.000000000
0.116851479 0.754658937 0.000000000
0.205618382 0.756051421 0.000000000
0.274413943 0.757459760 0.000000000
0.335556895 0.758787572 0.000000000
0.392762840 0.760081768 0.000000000
0.447455496 0.761242747 0.000000000
0.500578344 0.762310743 0.000000000
0.552824497 0.763276339 0.000000000
0.604702652 0.764149010 0.000000000
0.656270742 0.764877796 0.000000000
0.707441330 0.765552521 0.000000000
0.757654309 0.766227007 0.000000000
0.805687726 0.767076135 0.000000000
0.850165725 0.768257558 0.000000000
0.000000000 0.791519940 0.000000000
0.000049316 0.791695893 0.000000000
0.048298307 0.791951478 0.000000000
0.151390120 0.793024480 0.000000000
0.227965340 0.794266164 0.000000000
0.292106867 0.795533001 0.000000000
0.350769490 0.796740234 0.000000000
0.406136423 0.797890782 0.000000000
0.459499627 0.798926473 0.000000000
0.511593163 0.799825191 0.000000000
0.562805533 0.800684631 0.000000000
0.613619566 0.801419556 0.000000000
0.664348900 0.802205145 0.000000000
0.714573443 0.802834809 0.000000000
0.763730884 0.803519666 0.000000000
0.810801387 0.804286778 0.000000000
0.854486287 0.805309594 0.000000000
0.000000000 0.828840017 0.000000000
0.018383812 0.828973711 0.000000000
0.112243503 0.829634905 0.000000000
0.191250071 0.830579996 0.000000000
0.256016493 0.831704259 0.000000000
0.314718485 0.832787752 0.000000000
0.370077401 0.833839655 0.000000000
0.423039466 0.834810555 0.000000000
0.474584043 0.835762978 0.000000000
0.525083482 0.836617231 0.000000000
0.574933708 0.837419093 0.000000000
0.624419034 0.838073790 0.000000000
0.673825026 0.838706255 0.000000000
0.722759962 0.839372694 0.000000000
0.770795524 0.840134859 0.000000000
0.816872180 0.840908766 0.000000000
0.859642029 0.841736972 0.000000000
0.000000000 0.000000000 0.068440750
0.064329818 0.000000000 0.068640381
0.117094129 0.000000000 0.068634436
0.169426024 0.000000000 0.067580312
0.218034625 0.000000000 0.064456999
0.267717391 0.000000000 0.061500937
0.317599595 0.000000000 0.058592059
0.367424905 0.000000000 0.055527687
0.417010993 0.000000000 0.051727626
0.466973603 0.000000000 0.048082437
0.517382741 0.000000000 0.043212686
0.568502307 0.000000000 0.037901189
0.620833039 0.000000000 0.030951750
0.674036980 0.000000000 0.024001870
0.727872550 0.000000000 0.016461743
0.780655324 0.000000000 0.008131929
0.830822408 0.000000000 0.001478438
0.000000000 0.076718502 0.068059005
0.064288877 0.075759813 0.067044623
0.116529249 0.073370747 0.064890496
0.167650834 0.070300505 0.062638752
0.217932254 0.064477250 0.060324810
0.268380672 0.055382065 0.057524316
0.319031030 0.042679809 0.054504938
0.368967414 0.025136054 0.051118497
0.418710768 0.010645435 0.047348246
0.468647212 0.004485062 0.043120563
0.518892646 0.000443813 0.037112188
0.570253730 0.000000000 0.030902438
0.622554243 0.000000000 0.023952624
0.675859332 0.000000000 0.017003369
0.729321897 0.000000000 0.009511803
0.782310903 0.000000000 0.002119557
0.832273006 0.000000000 0.000000000
0.000000000 0.130373061 0.063789129
0.057994563 0.130066693 0.063712440
0.111771822 0.130373061 0.061507251
0.164586708 0.130003259 0.058598500
0.216368377 0.127618998 0.055697247
0.267717481 0.124205433 0.052605752
0.319031030 0.119350746 0.049127623
0.369243979 0.112757564 0.045043625
0.419561327 0.104488812 0.040915810
0.469813138 0.094148882 0.035190001
0.520377636 0.080281563 0.029374063
0.571707726 0.063787818 0.022523500
0.624036610 0.044349622 0.015524936
0.677329361 0.022720922 0.008181183
0.731137574 0.010251748 0.002070245
0.783720016 0.006801683 0.000000000
0.833647490 0.004139625 0.000000000
0.000000000 0.185918406 0.058107186
0.041652992 0.186102390 0.057987813
0.104985066 0.186920077 0.056240812
0.160752773 0.187734708 0.052552938
0.213884130 0.187325582 0.049290873
0.266211390 0.186252445 0.045804061
0.317871273 0.183985636 0.041141123
0.368800282 0.181234717 0.036323555
0.419386446 0.177627817 0.030902183
0.469990700 0.173172951 0.024889436
0.520742893 0.167778894 0.018728372
0.572138250 0.161245450 0.012074873
0.624704003 0.153520197 0.005175061
0.678158820 0.144278437 0.000788873
0.731779993 0.134033889 0.000000000
0.784475505 0.123168819 0.000000000
0.834228873 0.111451775 0.000000000
0.000000000 0.242749751 0.049333937
0.015278372 0.243191883 0.049284689
0.093733318 0.243809879 0.047814373
0.154849753 0.245197996 0.042409122
0.211134568 0.246030018 0.037888624
0.264769882 0.245833263 0.034056749
0.316967010 0.245135248 0.029472809
0.368304014 0.244115874 0.024100684
0.419138581 0.242440507 0.018236060
0.469910413 0.240183949 0.012222811
0.521069467 0.237485513 0.006505812
0.572738469 0.234251618 0.002267250
0.625377417 0.230356187 0.000147937
0.678841949 0.226105630 0.000000000
0.732449949 0.221527800 0.000000000
0.785115182 0.216888428 0.000000000
0.834703743 0.212867364 0.000000000
0.000000000 0.299680203 0.036323376
0.000197250 0.300157964 0.035535313
0.074581876 0.300840378 0.034007564
0.147257581 0.302362502 0.029423499
0.207084313 0.303663582 0.022720749
0.262952834 0.304231137 0.018186811
0.316359222 0.304254681 0.014194435
0.368017972 0.303987801 0.009659936
0.419260859 0.303417414 0.005076562
0.470285952 0.302469730 0.001527938
0.521601498 0.301165223 0.000197250
0.573410511 0.299599826 0.000000000
0.626232266 0.297619700 0.000000000
0.679668188 0.295419157 0.000000000
0.733315289 0.293165267 0.000000000
0.785871029 0.290979385 0.000000000
0.835318863 0.289336413 0.000000000
0.000000000 0.356183410 0.019812996
0.000000000 0.356545895 0.019517433
0.048845991 0.357166409 0.017595120
0.137790322 0.358611584 0.012370683
0.202245250 0.360168785 0.007639559
0.260414243 0.361358702 0.003942810
0.315479875 0.362029403 0.001478749
0.368161976 0.362137973 0.000492812
0.419736475 0.362051457 0.000000000
0.471174926 0.361890912 0.000000000
0.522625983 0.361581534 0.000000000
0.574554622 0.360920727 0.000000000
0.627358794 0.360094965 0.000000000
0.680800319 0.359179795 0.000000000
0.734509230 0.358330697 0.000000000
0.786828756 0.357530206 0.000000000
0.836005270 0.357213497 0.000000000
0.000000000 0.411821634 0.004189309
0.000000000 0.412388086 0.004189308
0.027797056 0.412817717 0.003154309
0.126102954 0.414345175 0.001429561
0.196615756 0.416061044 0.000295874
0.257432789 0.417431414 0.000000000
0.314077586 0.418600589 0.000000000
0.368134767 0.419185281 0.000000000
0.420681834 0.419500351 0.000000000
0.472347736 0.419580907 0.000000000
0.524142206 0.419754952 0.000000000
0.576161265 0.419845521 0.000000000
0.629001260 0.419752032 0.000000000
0.682446599 0.419734120 0.000000000
0.735828936 0.419661403 0.000000000
0.788007796 0.419916213 0.000000000
0.836852551 0.420334518 0.000000000
0.000000000 0.466846764 0.000000000
0.000000000 0.467134297 0.000000000
0.011877683 0.467558771 0.000000000
0.111803137 0.468936712 0.000000000
0.190246210 0.470720261 0.000000000
0.254137993 0.472276717 0.000000000
0.312597692 0.473682493 0.000000000
0.367998987 0.474768430 0.000000000
0.421536386 0.475558519 0.000000000
0.473949194 0.475918949 0.000000000
0.525916338 0.476318210 0.000000000
0.578145742 0.476709902 0.000000000
0.630980194 0.477173030 0.000000000
0.684267879 0.477534205 0.000000000
0.737498164 0.478102028 0.000000000
0.789333224 0.478898525 0.000000000
0.837762237 0.479956955 0.000000000
0.000000000 0.520461917 0.000000000
0.000000000 0.520748436 0.000000000
0.000345188 0.521166921 0.000000000
0.096204653 0.522314608 0.000000000
0.184464887 0.524243712 0.000000000
0.251718462 0.525847733 0.000000000
0.311817259 0.527444720 0.000000000
0.368200034 0.528694570 0.000000000
0.422619700 0.529688597 0.000000000
0.475798190 0.530518234 0.000000000
0.528246105 0.531087995 0.000000000
0.580574334 0.531590939 0.000000000
0.633408844 0.532231033 0.000000000
0.686511576 0.533029795 0.000000000
0.739397168 0.533978283 0.000000000
0.790856421 0.535092413 0.000000000
0.838811874 0.536473036 0.000000000
0.000000000 0.572432518 0.000000000
0.000000000 0.572667539 0.000000000
0.000000000 0.573032260 0.000000000
0.084778592 0.574025512 0.000000000
0.179965317 0.575823307 0.000000000
0.250045836 0.577590525 0.000000000
0.311867684 0.579152465 0.000000000
0.369409353 0.580613256 0.000000000
0.424492955 0.581841707 0.000000000
0.478140980 0.582888246 0.000000000
0.531074762 0.583680272 0.000000000
0.583627522 0.584296823 0.000000000
0.636374414 0.585010111 0.000000000
0.689213097 0.585889935 0.000000000
0.741811752 0.586943507 0.000000000
0.792697728 0.588239253 0.000000000
0.840098739 0.589855015 0.000000000
0.000000000 0.622124076 0.000000000
0.000000000 0.622351348 0.000000000
0.000000000 0.622638583 0.000000000
0.078698337 0.623528659 0.000000000
0.178486690 0.625214279 0.000000000
0.250835985 0.626966238 0.000000000
0.313694894 0.628566504 0.000000000
0.371860772 0.630013943 0.000000000
0.427441001 0.631411850 0.000000000
0.481468618 0.632469177 0.000000000
0.534519136 0.633445323 0.000000000
0.587342322 0.634288967 0.000000000
0.640044570 0.634971261 0.000000000
0.692593157 0.635817945 0.000000000
0.744636655 0.636918247 0.000000000
0.795019329 0.638308704 0.000000000
0.841715515 0.639924407 0.000000000
0.000000000 0.669074059 0.000000000
0.000000000 0.669257998 0.000000000
0.000000000 0.669545412 0.000000000
0.081580907 0.670327127 0.000000000
0.181908891 0.671943188 0.000000000
0.254784226 0.673600495 0.000000000
0.318053484 0.675175726 0.000000000
0.376448244 0.676607609 0.000000000
0.432119668 0.677915812 0.000000000
0.486167252 0.679118454 0.000000000
0.539278686 0.680089533 0.000000000
0.591874242 0.680990160 0.000000000
0.644438803 0.681766808 0.000000000
0.696651161 0.682503223 0.000000000
0.748228610 0.683455169 0.000000000
0.797828138 0.684804797 0.000000000
0.843838215 0.686316729 0.000000000
0.000000000 0.712798417 0.000000000
0.000000000 0.712976038 0.000000000
0.000000001 0.713151097 0.000000000
0.095546678 0.714028955 0.000000000
0.191321641 0.715535879 0.000000000
0.263003498 0.717025340 0.000000000
0.325487196 0.718503594 0.000000000
0.383513391 0.719850898 0.000000000
0.438885838 0.721123040 0.000000000
0.492585480 0.722243011 0.000000000
0.545370638 0.723242581 0.000000000
0.597690821 0.724148571 0.000000000
0.649874806 0.724916816 0.000000000
0.701675653 0.725648761 0.000000000
0.752501428 0.726445794 0.000000000
0.801348269 0.727539480 0.000000000
0.846600115 0.728883684 0.000000000
0.000000000 0.753391922 0.000000000
0.000000000 0.753574371 0.000000000
0.010842902 0.753802955 0.000000000
0.119775236 0.754724741 0.000000000
0.207247391 0.756162524 0.000000000
0.275762051 0.757506073 0.000000000
0.336696774 0.758860230 0.000000000
0.393561453 0.760030985 0.000000000
0.448099643 0.761197507 0.000000000
0.501157820 0.762236714 0.000000000
0.553317606 0.763127506 0.000000000
0.604967594 0.763950646 0.000000000
0.656498373 0.764662445 0.000000000
0.707653165 0.765338123 0.000000000
0.757729650 0.766121924 0.000000000
0.805683315 0.766960084 0.000000000
0.850036860 0.768153191 0.000000000
0.000000000 0.791590631 0.000000000
0.000049316 0.791702747 0.000000000
0.051383376 0.792079210 0.000000000
0.153713986 0.793049574 0.000000000
0.229295284 0.794289291 0.000000000
0.293210149 0.795519471 0.000000000
0.351630092 0.796640337 0.000000000
0.406809330 0.797770679 0.000000000
0.460139513 0.798845053 0.000000000
0.512042582 0.799769104 0.000000000
0.563159585 0.800576687 0.000000000
0.613886595 0.801354408 0.000000000
0.664500713 0.802021027 0.000000000
0.714633882 0.802718163 0.000000000
0.763689935 0.803345323 0.000000000
0.810697615 0.804119110 0.000000000
0.854260445 0.805137515 0.000000000
0.000000000 0.828943014 0.000000000
0.019911561 0.829041779 0.000000000
0.115294322 0.829700887 0.000000000
0.192876443 0.830704272 0.000000000
0.257182032 0.831693113 0.000000000
0.315633684 0.832813263 0.000000000
0.370765328 0.833813548 0.000000000
0.423683643 0.834810555 0.000000000
0.475143015 0.835663140 0.000000000
0.525483251 0.836515248 0.000000000
0.575214028 0.837289453 0.000000000
0.624618113 0.837952673 0.000000000
0.673954606 0.838653386 0.000000000
0.722821414 0.839274943 0.000000000
0.770654142 0.839944601 0.000000000
0.816690922 0.840706706 0.000000000
0.859353185 0.841606200 0.000000000
0.000000000 0.000000000 0.123237871
0.061499562 0.000000000 0.123816200
0.115405753 0.000000000 0.123795256
0.167618752 0.000000000 0.122822814
0.217370376 0.000000000 0.119798623
0.267462909 0.000000000 0.116903253
0.317521393 0.000000000 0.114237748
0.367544413 0.000000000 0.111819185
0.417158514 0.000000000 0.109350249
0.467128068 0.000000000 0.106668189
0.517570853 0.000000000 0.104062252
0.568838835 0.000000000 0.100884750
0.621036768 0.000000000 0.097605132
0.674270809 0.000000000 0.093295068
0.727914214 0.000000000 0.088949375
0.780741811 0.000000000 0.083641425
0.830774903 0.000000000 0.077952504
0.000000000 0.075826809 0.122093625
0.062099066 0.074390501 0.120779559
0.115155637 0.072781935 0.120403625
0.166349515 0.068331443 0.118221439
0.218229890 0.062687807 0.116730571
0.268913507 0.053338815 0.114146754
0.319338143 0.039687999 0.111994192
0.369358271 0.022819366 0.109642625
0.419045091 0.009906686 0.107178003
0.468946904 0.003745375 0.104607247
0.519289374 0.000443813 0.101615883
0.570465744 0.000000000 0.098142125
0.622663915 0.000000000 0.094494499
0.675876021 0.000000000 0.090236366
0.729372919 0.000000000 0.085330799
0.782205999 0.000000000 0.079395935
0.832140386 0.000000000 0.072996937
0.000000000 0.130351990 0.117796130
0.056797002 0.130330935 0.117164128
0.112102374 0.130045623 0.116824374
0.165917829 0.128787056 0.114804812
0.218051746 0.126066864 0.113107629
0.269619077 0.122367561 0.110825501
0.320576400 0.117119998 0.108582869
0.370961964 0.110312939 0.106095627
0.421153158 0.102107503 0.103553496
0.470986903 0.091105573 0.100506872
0.521450102 0.077477008 0.097719878
0.572726369 0.060453750 0.094146878
0.624989748 0.040381245 0.089848876
0.678055942 0.019172050 0.085048802
0.731390655 0.009462872 0.079392746
0.784198463 0.006160623 0.073061928
0.833728313 0.003450125 0.066647753
0.000000000 0.186159194 0.114199691
0.041559685 0.186342314 0.114130437
0.106827632 0.186483830 0.114109129
0.161921069 0.186920136 0.112021379
0.215311259 0.186679944 0.109895878
0.268143445 0.185273379 0.107436687
0.320038766 0.182952091 0.104616247
0.370990604 0.179813445 0.101891130
0.421519756 0.176020682 0.098950937
0.471864551 0.171376258 0.096122935
0.522502482 0.165593699 0.092495002
0.574058115 0.159090281 0.088125810
0.626485884 0.151130125 0.083674565
0.679694235 0.141482070 0.077605806
0.733151197 0.131115824 0.071113490
0.785854876 0.119672947 0.064355552
0.835416615 0.107623212 0.056967683
0.000000000 0.243276253 0.110300377
0.016609062 0.243516877 0.109940127
0.096152127 0.243359268 0.109940127
0.157270566 0.244406953 0.108531319
0.212911874 0.245448768 0.105623499
0.266261518 0.245302573 0.103116937
0.318679869 0.244529247 0.100153126
0.370188475 0.243321568 0.096959636
0.421212018 0.241687506 0.093719624
0.471890688 0.239212826 0.089624941
0.522985756 0.236321613 0.085405745
0.574722588 0.232940868 0.080651693
0.627217710 0.228853494 0.075069129
0.680647969 0.224401072 0.068511553
0.734232187 0.219641626 0.061572745
0.786707044 0.214953810 0.053883556
