public/lut/62.cube
TITLE "17x17x17 Adobe/IRIDAS cube 3D LUT exported with GrossGrade v0.2.2 (beta) 64 bit"
DOMAIN_MIN 0 0 0
DOMAIN_MAX 1 1 1
LUT_3D_SIZE 5
0.000000000 0.000000000 0.000000000
0.218579754 0.000000000 0.000000000
0.416586518 0.000000000 0.000000000
0.620328784 0.000000000 0.000000000
0.830694020 0.000000000 0.000000000
0.000000000 0.242413506 0.000000000
0.209153250 0.246442750 0.000000000
0.417558014 0.243110508 0.000000000
0.624170482 0.231388748 0.000000000
0.834223270 0.213856012 0.000000000
0.000000000 0.466644526 0.000000000
0.187929496 0.470718503 0.000000000
0.420408487 0.475733995 0.000000000
0.630354762 0.477431267 0.000000000
0.837529004 0.480300009 0.000000000
0.000000000 0.668932319 0.000000000
0.179647759 0.671866298 0.000000000
0.431219041 0.678033531 0.000000000
0.644012809 0.681949258 0.000000000
0.843788028 0.686453521 0.000000000
0.000000000 0.828840017 0.000000000
0.256016493 0.831704259 0.000000000
0.474584043 0.835762978 0.000000000
0.673825026 0.838706255 0.000000000
0.859642029 0.841736972 0.000000000
0.000000000 0.000000000 0.235358998
0.213262513 0.000000000 0.231239751
0.416173518 0.000000000 0.222117260
0.620415986 0.000000000 0.215684503
0.829733253 0.000000000 0.209307253
0.000000000 0.243591011 0.222469255
0.214211762 0.244062245 0.221771002
0.424120009 0.238697499 0.216367245
0.630024731 0.224875748 0.209922761
0.837909937 0.206248254 0.202378750
0.000000000 0.467987776 0.217159003
0.199292749 0.469044507 0.217960998
0.424497545 0.474416256 0.210414991
0.633961797 0.476294011 0.202507004
0.840514719 0.478420496 0.193011254
0.000000000 0.669942260 0.214104250
0.192726508 0.670735478 0.215236500
0.435558259 0.675985992 0.207755253
0.645479023 0.681084275 0.196850508
0.843872249 0.685904503 0.191560000
0.000000000 0.829510033 0.228617758
0.266944021 0.829484522 0.230423257
0.478283763 0.833250999 0.223992750
0.673667789 0.837436020 0.214593261
0.857821226 0.841063023 0.214004248
0.000000000 0.000000000 0.450108021
0.190090492 0.000000000 0.441694498
0.410950512 0.000000000 0.436065018
0.616986513 0.000000000 0.432759523
0.825323999 0.000000000 0.432005525
0.000000000 0.243199259 0.432999521
0.204073250 0.242368758 0.432702005
0.419697762 0.235003754 0.434374988
0.626649499 0.220218509 0.434118271
0.833958745 0.201488748 0.433720767
0.000000000 0.469151497 0.435472012
0.195206761 0.470434010 0.435960531
0.426174521 0.472314507 0.437578499
0.636901021 0.473249257 0.435938030
0.841517568 0.474603027 0.435816020
0.000000000 0.671516240 0.445249021
0.193493515 0.672352791 0.446370512
0.440463752 0.673615515 0.449283779
0.645111799 0.679727793 0.446839511
0.841736495 0.685012281 0.446875513
0.000000000 0.830659509 0.464157522
0.269407511 0.830299497 0.465926766
0.482601017 0.830419540 0.469509482
0.671617031 0.835057497 0.468488514
0.852757990 0.840016007 0.469326526
0.000000000 0.000000000 0.637344003
0.152527004 0.000000000 0.632934272
0.402799487 0.000000000 0.631761968
0.613785267 0.000000000 0.631381512
0.820283234 0.000000000 0.633079767
0.000000000 0.241214007 0.627645016
0.180979013 0.239343509 0.627967060
0.415002495 0.232031494 0.630608797
0.622864723 0.216520250 0.633895993
0.827179253 0.200944498 0.636920035
0.000000000 0.470007479 0.631502271
0.184159249 0.471073776 0.632676482
0.425727010 0.472402781 0.634929776
0.632524014 0.471637517 0.639923811
0.834078014 0.473083764 0.643675208
0.000000000 0.672657311 0.643579781
0.192759499 0.673547506 0.644652963
0.441292524 0.675268352 0.646960497
0.644040823 0.678222537 0.650789022
0.852732003 0.678171515 0.643095493
0.001971252 0.831259012 0.661318302
0.272946984 0.831336021 0.662631512
0.483461261 0.831566989 0.665350556
0.658184230 0.836119771 0.657706738
0.847604990 0.840346038 0.651832521
0.000000000 0.000000000 0.802833974
0.141114995 0.000000000 0.801937222
0.405245543 0.000000000 0.803156495
0.616594017 0.000000000 0.805266738
0.820116997 0.000000000 0.808293998
0.000000000 0.238050491 0.798653007
0.179809257 0.235614747 0.799510002
0.420692295 0.227954999 0.802116990
0.626439214 0.211870506 0.807120740
0.825868785 0.199606746 0.811368465
0.000000000 0.470825016 0.802314520
0.199684247 0.471446514 0.803747475
0.435661018 0.472489506 0.806051970
0.637048483 0.472592503 0.811058760
0.830265522 0.475271016 0.816990018
0.000000000 0.673739254 0.811951280
0.225409999 0.674639523 0.813053489
0.454282761 0.676356256 0.815332472
0.645526767 0.678703785 0.831726730
0.852989256 0.671611011 0.844533503
0.063952997 0.831686974 0.825877011
0.302733749 0.831849456 0.826981485
0.496089011 0.832491040 0.829166532
0.661239982 0.836782455 0.835074544
0.842881024 0.838867009 0.838190019
