public/lut/63.cube
TITLE "17x17x17 Adobe/IRIDAS cube 3D LUT exported with GrossGrade v0.2.2 (beta) 64 bit"
DOMAIN_MIN 0 0 0
DOMAIN_MAX 1 1 1
LUT_3D_SIZE 17
0.000000000 0.000000000 0.000000000
0.020897686 0.001527750 0.000789000
0.065598249 0.002366000 0.003055500
0.124495074 0.001724937 0.006013126
0.177371740 0.000000000 0.010054000
0.220021620 0.000000000 0.013947750
0.267791510 0.000000000 0.019122627
0.320593417 0.000000000 0.025776878
0.378950536 0.000000000 0.035091504
0.441160381 0.000000000 0.045268063
0.507378995 0.000000000 0.057347625
0.577128351 0.000000000 0.069924623
0.649824500 0.000000000 0.082403257
0.724012971 0.000000000 0.095770702
0.797556937 0.000000000 0.109796144
0.867521822 0.001528297 0.123235948
0.929436028 0.066202000 0.135977000
0.003893687 0.033169687 0.003893687
0.030113313 0.037014127 0.004681750
0.078151494 0.042289503 0.006949187
0.138174325 0.046465129 0.010695002
0.191299260 0.048506439 0.015278188
0.232224882 0.048585437 0.019171936
0.279572636 0.049123377 0.024544066
0.331546396 0.048339002 0.031543065
0.388768703 0.047105812 0.040495437
0.450252295 0.045902688 0.050754689
0.515257835 0.045309562 0.062068123
0.584078789 0.047122877 0.073986813
0.655856073 0.053359002 0.086313687
0.729158521 0.066478513 0.099267453
0.801948786 0.086790025 0.112605266
0.870894074 0.114707157 0.126055017
0.932040453 0.147166312 0.138540819
0.000986125 0.101675250 0.009955375
0.034845252 0.105009504 0.011582499
0.090780623 0.111653753 0.013110250
0.153695196 0.118595749 0.017644189
0.207300127 0.123775378 0.022376001
0.248071820 0.127445310 0.026269689
0.294507921 0.131372496 0.032232877
0.345952094 0.135371119 0.039231315
0.402165413 0.139703885 0.048011251
0.462576210 0.144105569 0.057574939
0.526878297 0.149109751 0.068039253
0.594525933 0.155249566 0.079268754
0.664928555 0.163057625 0.091414630
0.737022877 0.173327819 0.104224890
0.808589220 0.187387526 0.117609635
0.876212358 0.205859393 0.130601391
0.936008513 0.228792876 0.143476367
0.000000000 0.179354712 0.016264312
0.032380752 0.182576135 0.018581003
0.100865684 0.188040212 0.021636376
0.168256521 0.195794016 0.024642628
0.222815752 0.201648876 0.030064065
0.263544142 0.206031829 0.035337750
0.309392840 0.210873947 0.041503880
0.360403985 0.216121703 0.048362132
0.415854067 0.221667320 0.056647319
0.475422889 0.227692202 0.065976255
0.538672209 0.234132200 0.076214626
0.605309486 0.241393939 0.087058932
0.674690664 0.249732286 0.098739445
0.745448530 0.259904325 0.111337014
0.815579653 0.272431135 0.124397457
0.881606936 0.288229823 0.137559339
0.939610362 0.307015091 0.150383487
0.000000000 0.235211015 0.020897500
0.028881688 0.237986565 0.024002438
0.108024500 0.242627993 0.029374626
0.177632451 0.250263005 0.031592563
0.233518004 0.256374508 0.036274500
0.274371624 0.260629237 0.041649126
0.320100754 0.265462756 0.048537876
0.370764285 0.270875186 0.055674128
0.425789535 0.276826978 0.064079255
0.484733343 0.283132941 0.072831251
0.547304749 0.289956629 0.082978748
0.613171995 0.297590882 0.093909867
0.681481779 0.306178510 0.105562754
0.751231492 0.316240191 0.118218958
0.820143163 0.328365624 0.131226644
0.884885669 0.342911273 0.144391641
0.941438258 0.360098988 0.157265753
0.000000000 0.289771140 0.027649624
0.028536564 0.292405307 0.031543314
0.115618944 0.296435684 0.038245939
0.187592387 0.303507149 0.041403376
0.243632749 0.309592634 0.044588812
0.284740061 0.314065129 0.048579000
0.330679655 0.318737060 0.055509001
0.381170452 0.324052870 0.063613072
0.435718089 0.329956800 0.071955875
0.494196266 0.336427212 0.080811314
0.555980265 0.343440056 0.090739749
0.620929599 0.351053745 0.101582438
0.688296676 0.359670132 0.113385625
0.756947279 0.369598627 0.125864893
0.824760675 0.381222188 0.138871714
0.888099492 0.394995630 0.152125835
0.943242133 0.410852253 0.165146559
0.000000000 0.351042897 0.039034255
0.034598816 0.353197396 0.043285441
0.125615492 0.356764525 0.050149880
0.199143201 0.362874836 0.054628693
0.255348504 0.369025022 0.057104252
0.296536058 0.373401523 0.060507942
0.342631519 0.378238022 0.065400749
0.393015385 0.383336633 0.073104195
0.447148740 0.388998151 0.082037508
0.504862785 0.395351142 0.091289066
0.565926433 0.402261376 0.101304628
0.629923522 0.409848452 0.112013757
0.696255744 0.418362021 0.123701133
0.763539910 0.427985519 0.136050954
0.829850435 0.439040512 0.148956150
0.891544163 0.451867998 0.162118822
0.944943249 0.466325909 0.175015256
0.000000000 0.416613787 0.055497821
0.050438199 0.418514282 0.059493948
0.139091149 0.421697676 0.065983877
0.213414654 0.426836282 0.072291128
0.269201607 0.432583928 0.074030943
0.310139745 0.436912388 0.076348260
0.355924815 0.441783786 0.080467381
0.406210840 0.446809143 0.086170517
0.459923744 0.452211857 0.094845951
0.516934216 0.458161592 0.104761690
0.577017248 0.464790970 0.114692450
0.639899731 0.472158343 0.125255004
0.704851031 0.480229288 0.136773139
0.770654857 0.489374667 0.148878887
0.835295677 0.499781847 0.161588073
0.895147800 0.511638224 0.174526393
0.946600616 0.524754941 0.187450632
0.001971502 0.484548032 0.076615505
0.077870131 0.486326575 0.080433011
0.158098876 0.489090145 0.086079881
0.230856583 0.493302464 0.092942134
0.285851240 0.498641253 0.094943255
0.326127946 0.502729952 0.096828699
0.371226370 0.507334113 0.099972010
0.420821160 0.512331724 0.104587689
0.474150002 0.517678022 0.111278012
0.530422807 0.523138285 0.120703503
0.589340389 0.529214919 0.131113768
0.650891185 0.536018252 0.141725123
0.714342475 0.543645263 0.152931005
0.778296113 0.552115738 0.164700583
0.840922713 0.561749637 0.176967263
0.898607254 0.572472334 0.189624026
0.948048949 0.584298968 0.202345997
0.044881560 0.552797318 0.101765253
0.114749879 0.554312408 0.104933441
0.183911949 0.556774378 0.110158563
0.252986580 0.560315490 0.117012814
0.306253314 0.564996898 0.119294807
0.345290691 0.568811297 0.120741934
0.389269769 0.573128760 0.123512931
0.437827170 0.577860594 0.127443507
0.489990115 0.582876980 0.132861003
0.545296609 0.588199556 0.140327886
0.603062332 0.593646646 0.150004879
0.663015246 0.599746287 0.160897553
0.724563599 0.606623411 0.171912506
0.786546707 0.614357889 0.183453828
0.846872091 0.623049378 0.195295647
0.902118385 0.632669449 0.207485884
0.949494481 0.643040895 0.219926447
0.112526380 0.619107366 0.130342990
0.159413010 0.620355010 0.133015320
0.217480123 0.622466207 0.137606248
0.280906379 0.625453234 0.143809617
0.331428766 0.629535139 0.146427989
0.368624985 0.633040905 0.147784501
0.410944790 0.636945009 0.149992377
0.457809716 0.641306996 0.153405875
0.508341610 0.645911574 0.158073127
0.562135339 0.650783062 0.164238691
0.618364751 0.655898869 0.172316760
0.676506639 0.661256313 0.182493135
0.735896826 0.667161286 0.193575755
0.795571685 0.673952878 0.204736829
0.853218079 0.681612015 0.216208145
0.905800521 0.689847708 0.227761135
0.951105654 0.698791504 0.239650995
0.176048502 0.681337178 0.161237001
0.210390568 0.682364762 0.163485512
0.258790761 0.684172750 0.167684555
0.315396011 0.686702251 0.173155755
0.362043500 0.690338910 0.175505444
0.396987617 0.693404138 0.176740870
0.436950594 0.696896732 0.178784132
0.481699526 0.700756669 0.181781992
0.530025125 0.704886913 0.185913876
0.581572950 0.709210217 0.191312566
0.635721087 0.713788569 0.198302060
0.691721082 0.718491018 0.206857741
0.748754859 0.723512053 0.217438698
0.805587232 0.729174972 0.228351206
0.860320032 0.735570490 0.239307776
0.910111427 0.742550373 0.250302136
0.953333318 0.749889553 0.261602998
0.240005255 0.737354755 0.193808019
0.266752303 0.738255382 0.195974752
0.306813002 0.739678144 0.199518502
0.356149256 0.741992295 0.203948393
0.398325771 0.745329976 0.205632508
0.430527270 0.747938216 0.206979692
0.467802405 0.750965655 0.208949506
0.509741604 0.754224956 0.211658016
0.555355489 0.757745981 0.215436995
0.604297876 0.761539459 0.220301509
0.655708194 0.765403628 0.226440012
0.709053874 0.769436777 0.234064937
0.763311505 0.773554802 0.243217260
0.817042828 0.778104186 0.253597021
0.868489504 0.783220768 0.264156997
0.915413141 0.788872361 0.274571747
0.956671238 0.794780791 0.285365760
0.305464447 0.785918772 0.227479845
0.326645106 0.786549985 0.229169399
0.360121697 0.787763596 0.232436091
0.402062982 0.790274799 0.234992534
0.439699173 0.793165445 0.236306652
0.469033033 0.795269251 0.237612531
0.503317177 0.797788858 0.239622533
0.542130172 0.800532103 0.242343590
0.584599674 0.803470612 0.245819971
0.630464911 0.806568980 0.250269651
0.678669512 0.809818447 0.255859792
0.728778899 0.813151777 0.262646705
0.779706359 0.816541970 0.270824105
0.830040455 0.820190132 0.280274332
0.877872944 0.824246883 0.290131956
0.922039688 0.828839779 0.300050825
0.961259246 0.833577633 0.310063154
0.370483547 0.827330947 0.261429399
0.387849629 0.827877522 0.263116777
0.415220797 0.829394042 0.264578551
0.451222748 0.831962883 0.265709341
0.484676182 0.834278524 0.267293423
0.511147380 0.836025119 0.268699408
0.542309344 0.838071704 0.270672023
0.577726960 0.840320468 0.273359597
0.616809309 0.842776656 0.276728928
0.659106195 0.845375657 0.280818462
0.703779459 0.848010123 0.285901427
0.750232339 0.850810051 0.292083889
0.797488391 0.853714406 0.299433291
0.843893468 0.856774092 0.307765067
0.888273537 0.860126436 0.316938162
0.929594517 0.863910258 0.326345503
0.966916621 0.867837787 0.335762143
0.433634192 0.864367962 0.294641763
0.447447091 0.865351737 0.294901907
0.470527560 0.866909087 0.295631528
0.502064168 0.868933082 0.297194093
0.531754196 0.870832682 0.298817247
0.555366158 0.872234583 0.300244421
0.583330333 0.873909533 0.302253127
0.615370572 0.875769377 0.304843754
0.650929570 0.877789855 0.308036596
0.689495802 0.879980385 0.311882526
0.730329096 0.882263660 0.316643149
0.772809505 0.884623051 0.322170079
0.815811813 0.887071788 0.328742623
0.858305573 0.889787078 0.336198896
0.899327517 0.892628968 0.344580770
0.937914908 0.895873785 0.353299826
0.973316073 0.899284720 0.362046152
0.495032996 0.900278986 0.326804012
0.506978452 0.900977373 0.327242047
0.526913345 0.902183473 0.328317374
0.554334939 0.903832197 0.329931319
0.580430984 0.905331492 0.331577003
0.601378739 0.906535685 0.333050072
0.626197755 0.907878399 0.335042506
0.654799223 0.909445226 0.337496877
0.686645508 0.911167502 0.340485990
0.721264720 0.912985802 0.344105601
0.757982850 0.914931357 0.348518133
0.796125174 0.916988373 0.353674501
0.834779501 0.919223011 0.359748006
0.873277068 0.921611130 0.366274983
0.910936713 0.924273372 0.373588502
0.947013438 0.927177012 0.381949365
0.980539024 0.930293024 0.390282989
0.002316688 0.002316688 0.026072688
0.026269814 0.003104750 0.027797561
0.072519936 0.004681750 0.032528561
0.131851763 0.004829624 0.040059816
0.185340375 0.001724937 0.047279872
0.226467311 0.000000000 0.053024501
0.274122089 0.000000000 0.059699316
0.327400655 0.000000000 0.067321137
0.384617329 0.000000000 0.075996004
0.446538091 0.000000000 0.085492931
0.512143433 0.000000000 0.095915064
0.581623852 0.000000000 0.107071310
0.653819203 0.000000000 0.118946873
0.727561116 0.000000000 0.131507277
0.800977111 0.000000000 0.144595519
0.870406747 0.013356370 0.157546878
0.931990623 0.076967686 0.170180634
0.006998437 0.040107626 0.033957750
0.036274433 0.042383566 0.036323685
0.084940068 0.046597999 0.040875562
0.145407632 0.051210564 0.047869127
0.198441878 0.053218000 0.054418433
0.239028797 0.054203626 0.059723500
0.285527527 0.054263558 0.065892622
0.337520212 0.053521372 0.073010758
0.394175857 0.053004686 0.081421748
0.455049992 0.052478690 0.090407498
0.519915283 0.052330878 0.100209817
0.588423848 0.054452188 0.110970750
0.659730732 0.061175384 0.122813255
0.732634783 0.073721200 0.135298699
0.805175245 0.094011709 0.148051009
0.873877466 0.121332593 0.160963699
0.934735060 0.151839629 0.172634006
0.004977500 0.106826439 0.045804501
0.043081250 0.110324189 0.049153812
0.097925119 0.116099574 0.052414693
0.160507768 0.123008505 0.058454752
0.213965565 0.128037989 0.064299062
0.254112422 0.131286934 0.069027185
0.300175458 0.135147125 0.074592881
0.351422668 0.139263064 0.081497692
0.407312989 0.143415824 0.089233190
0.467348069 0.148075432 0.097645685
0.531090975 0.153094441 0.107168809
0.598487198 0.159221873 0.117438063
0.668843031 0.167277813 0.128926009
0.740464211 0.177673012 0.140948012
0.811573505 0.191621587 0.153711021
0.878956258 0.210237890 0.166380882
0.938450038 0.232227698 0.177705362
0.000000000 0.183997512 0.059148315
0.042930435 0.187074378 0.062030625
0.108822569 0.192471638 0.065874122
0.174720243 0.199841514 0.070048124
0.228914127 0.205365255 0.075685501
0.269208997 0.209528446 0.080311999
0.314718395 0.214403272 0.085660994
0.365584970 0.219654635 0.091913752
0.420644462 0.225127399 0.099332258
0.479851097 0.231080443 0.107347749
0.542787194 0.237588644 0.116477937
0.609167099 0.244859263 0.126595631
0.678224504 0.253128231 0.137625247
0.748672545 0.263254970 0.149213016
0.818538904 0.275876433 0.161523268
0.884277761 0.291541785 0.174054071
0.942057371 0.310014665 0.185094684
0.000000000 0.239392191 0.068657875
0.041890752 0.242154136 0.071667627
0.115963757 0.246602446 0.076118067
0.184149399 0.254172176 0.079479814
0.239234373 0.259808153 0.084044680
0.279847264 0.264103621 0.088442251
0.325107217 0.268848658 0.094040252
0.375651091 0.274191231 0.100345552
0.430254012 0.280001819 0.107234314
0.488962710 0.286366671 0.115363501
0.551255405 0.293173134 0.124174491
0.616766870 0.300719202 0.134025559
0.684890687 0.309384108 0.144990131
0.754347563 0.319418252 0.156612456
0.823032022 0.331569076 0.168686390
0.887445688 0.346147507 0.180966944
0.943814099 0.362796724 0.192105174
0.000000000 0.293876559 0.078812569
0.042941503 0.296084017 0.081604563
0.123897754 0.300246537 0.086494498
0.193854257 0.307188898 0.089876495
0.249228820 0.313080430 0.093305938
0.289968252 0.317311198 0.097203940
0.335563749 0.321996212 0.102498129
0.385759205 0.327256888 0.109167002
0.440051377 0.333118677 0.116256692
0.498227596 0.339511871 0.124082625
0.559772372 0.346489280 0.132726505
0.624525309 0.354086101 0.142432377
0.691693306 0.362713307 0.153163135
0.760014534 0.372659355 0.164582461
0.827472746 0.384236574 0.176632345
0.890506387 0.397978842 0.188739955
0.945447266 0.413484812 0.199802250
0.000000000 0.354711443 0.091319501
0.050289318 0.356822878 0.094206691
0.134003058 0.360347033 0.099189632
0.205353513 0.366522342 0.103325009
0.260882139 0.372362852 0.105967008
0.301574260 0.376701385 0.108798631
0.347241044 0.381391972 0.113216192
0.397386283 0.386383176 0.119744748
0.451244265 0.392075241 0.127110243
0.508792400 0.398345828 0.135010809
0.569557846 0.405129671 0.143470690
0.633332193 0.412742078 0.152975753
0.699413121 0.421232104 0.163558573
0.766367316 0.430737555 0.174708620
0.832393646 0.441802025 0.186460897
0.893833578 0.454646200 0.198627144
0.947042167 0.468830973 0.209468380
0.000000000 0.420053095 0.106959134
0.065638006 0.421979040 0.109807074
0.147423893 0.425056905 0.114467070
0.219300464 0.430181980 0.119262449
0.274404645 0.435864985 0.121538565
0.314880431 0.440063834 0.123969018
0.360374302 0.444764376 0.127572760
0.410339415 0.449813992 0.132556751
0.463860273 0.455167532 0.139758497
0.520620704 0.461007714 0.148064569
0.580433905 0.467589170 0.156541273
0.643115044 0.474886090 0.166037366
0.707855701 0.483018458 0.176152140
0.773350060 0.492116928 0.187218457
0.837653697 0.502456546 0.198656008
0.897255361 0.514306426 0.210540712
0.948584735 0.527246237 0.221232072
0.010448381 0.487735868 0.125582561
0.090409383 0.489463657 0.128194943
0.165767640 0.492285103 0.132628947
0.236594945 0.496492058 0.138230503
0.290702939 0.501735091 0.140239879
0.330582768 0.505758941 0.142165810
0.375395030 0.510272264 0.145063490
0.424855471 0.515201628 0.149379507
0.477805883 0.520396888 0.155154333
0.533862889 0.525879443 0.163006946
0.592544436 0.531879604 0.172059581
0.653864264 0.538661659 0.181343570
0.717032790 0.546213865 0.191266388
0.780850589 0.554717183 0.201910898
0.843186498 0.564315856 0.213244081
0.900566936 0.574998021 0.224675164
0.949887455 0.586628437 0.235303268
0.062790252 0.555916905 0.147451684
0.124860503 0.557285190 0.149565369
0.190898255 0.559730887 0.153880805
0.258422256 0.563301623 0.159488618
0.310870975 0.567950130 0.161692008
0.349537194 0.571673095 0.163254693
0.393261999 0.575923204 0.165876880
0.441475898 0.580565214 0.169500992
0.493496150 0.585524261 0.174497560
0.548504531 0.590746760 0.180842996
0.606065810 0.596244454 0.189381957
0.665765882 0.602245688 0.198957190
0.727103233 0.609071195 0.208928809
0.788886845 0.616793156 0.219210193
0.848940372 0.625378311 0.229977190
0.903918505 0.634989977 0.241296321
0.951119840 0.645214677 0.251646012
0.123275876 0.621948898 0.172002986
0.167390868 0.623098969 0.174330264
0.223694429 0.625257611 0.177909315
0.285872012 0.628236055 0.183179632
0.335789561 0.632298589 0.185616300
0.372698814 0.635756612 0.187191129
0.414724439 0.639649153 0.189373568
0.461291194 0.643829882 0.192601934
0.511569560 0.648414552 0.196811244
0.565157771 0.653260827 0.202559695
0.621170521 0.658346891 0.209662750
0.679020166 0.663565397 0.218701378
0.738306642 0.669576406 0.228587389
0.797697067 0.676299810 0.238730073
0.855112314 0.683859169 0.249141634
0.907436907 0.692160428 0.259816885
0.952576816 0.700886309 0.269816816
0.183613062 0.683968008 0.198958755
0.216946945 0.684972227 0.201075554
0.264223695 0.686754048 0.204438686
0.319914818 0.689334095 0.209264562
0.366120428 0.692945540 0.211458445
0.400738657 0.695982158 0.212857187
0.440460205 0.699377298 0.214878947
0.484878421 0.703201532 0.217751384
0.532953978 0.707244575 0.221610814
0.584346473 0.711538494 0.226657689
0.638243496 0.716032922 0.232957885
0.694055915 0.720752299 0.240879938
0.750840485 0.725709558 0.250201553
0.807536185 0.731367409 0.260262370
0.861988842 0.737643003 0.270269573
0.911581755 0.744721711 0.280397803
0.954650044 0.751906395 0.290017128
0.245777205 0.739820063 0.227843553
0.271979272 0.740690112 0.229834393
0.311459690 0.742081642 0.232799560
0.360160261 0.744459867 0.236795887
0.401877284 0.747731626 0.238484070
0.433933944 0.750307083 0.239816129
0.470974028 0.753251731 0.241725072
0.512678862 0.756485522 0.244487703
0.558167636 0.759998620 0.248054072
0.606785119 0.763667405 0.252647996
0.658092678 0.767562687 0.258379519
0.711201787 0.771545470 0.265351236
0.765254200 0.775684714 0.273838311
0.818798900 0.780133247 0.283332348
0.870007455 0.785258353 0.293094903
0.916810870 0.790881813 0.302715451
0.957895994 0.796699941 0.311892807
0.309929073 0.788174272 0.258160591
0.330906063 0.788855731 0.259768784
0.363975674 0.790067017 0.262586266
0.405585825 0.792572737 0.264972776
0.442908168 0.795394123 0.266394287
0.472088158 0.797495246 0.267745167
0.506196141 0.799940228 0.269699156
0.544774055 0.802637398 0.272267520
0.587089896 0.805537224 0.275626153
0.632713735 0.808616519 0.279859722
0.680775940 0.811817646 0.285167396
0.730704427 0.815070033 0.291519701
0.781472862 0.818510950 0.299132407
0.831499636 0.822152078 0.307938695
0.879256427 0.826178968 0.317109227
0.923190892 0.830695331 0.326280743
0.962336183 0.835404873 0.335058600
0.374316931 0.829429448 0.289167911
0.391625136 0.830100298 0.290787220
0.418550164 0.831580043 0.291993558
0.454251945 0.834105372 0.293349773
0.487553567 0.836353898 0.294856310
0.513887644 0.838084280 0.296330035
0.544837713 0.840090752 0.298268586
0.580155969 0.842332423 0.300784051
0.619059026 0.844732285 0.304041982
0.661183000 0.847296298 0.307999730
0.705688715 0.849933565 0.312859446
0.751975000 0.852723479 0.318665147
0.799006939 0.855542362 0.325539738
0.845268428 0.858611822 0.333408535
0.889396608 0.861903727 0.342083097
0.930637836 0.865642905 0.350855201
0.967832744 0.869580746 0.359244704
0.436713994 0.866469443 0.319943100
0.450563729 0.867451489 0.320277393
0.473429382 0.868957818 0.320954114
0.504711986 0.870931208 0.322590977
0.534242988 0.872736335 0.324176431
0.557794034 0.874174297 0.325682551
0.585591435 0.875821173 0.327548206
0.617523074 0.877676845 0.330076009
0.652904034 0.879683971 0.333104521
0.691333473 0.881832302 0.336826026
0.731981575 0.884062588 0.341404587
0.774298370 0.886363983 0.346702218
0.817177773 0.888874829 0.352939397
0.859478176 0.891548514 0.360019445
0.900376499 0.894397616 0.367925525
0.938856959 0.897605598 0.376264036
0.974157095 0.900955558 0.384053707
0.497645199 0.902183414 0.350362331
0.509307802 0.902908027 0.350349247
0.529139996 0.904047191 0.351174325
0.556456149 0.905639827 0.352853268
0.582380772 0.907110035 0.354460746
0.603339434 0.908371687 0.356220871
0.628075004 0.909685016 0.358028203
0.656513870 0.911207736 0.360319495
0.688403606 0.912938833 0.363590688
0.722756743 0.914724171 0.366997242
0.759422183 0.916668653 0.371303141
0.797482967 0.918726027 0.376528323
0.835965693 0.920887411 0.382071257
0.874283135 0.923299849 0.388319522
0.911837518 0.925935626 0.395227432
0.947799206 0.928831697 0.402962506
0.981244683 0.931973577 0.411360383
0.003252625 0.006111750 0.078744248
0.031691249 0.008427626 0.083535753
0.082141504 0.010053875 0.090222374
0.142034262 0.010103188 0.097058252
0.195601374 0.007787375 0.103636384
0.236717552 0.003992125 0.109028257
0.283665270 0.000690374 0.115386374
0.335728526 0.000000000 0.122416750
0.392977387 0.000000000 0.130578503
0.454237521 0.000000000 0.139750764
0.519493043 0.000000000 0.149761617
0.588497579 0.000000000 0.160560563
0.659955263 0.000000000 0.171956882
0.733234107 0.000000000 0.184296027
0.806074917 0.001084639 0.196883887
0.875012517 0.037813187 0.209622189
0.936184525 0.093260877 0.221776500
0.008624750 0.048559688 0.089948066
0.042338811 0.051790625 0.092813686
0.093979932 0.055494439 0.098267250
0.154560998 0.059125125 0.104704440
0.207561001 0.060903125 0.110813312
0.247996375 0.062025562 0.115890130
0.294384539 0.062975876 0.122174680
0.345989466 0.062918499 0.128892183
0.402137130 0.063217066 0.136612073
0.462683678 0.063069187 0.145287186
0.526975870 0.064228445 0.154822931
0.594886124 0.067488439 0.165162385
0.665878832 0.074422874 0.176565319
0.738295734 0.087168895 0.188596815
0.810284793 0.106642894 0.200842768
0.878366590 0.132338405 0.213221639
0.938681304 0.162171751 0.224472940
0.009462999 0.115655124 0.103106625
0.052414689 0.118932575 0.105734378
0.107827999 0.123705134 0.110579371
0.170453325 0.129739001 0.115994565
0.223585635 0.134437740 0.121637493
0.263778806 0.137785882 0.126003936
0.309568018 0.141510636 0.131747127
0.360234022 0.145229742 0.137787879
0.415674120 0.149711505 0.145292506
0.475070477 0.154545814 0.153619364
0.538243353 0.159821764 0.162635759
0.605081439 0.166271448 0.172619492
0.674587250 0.174441263 0.183480009
0.745852768 0.184913903 0.194979072
0.816645682 0.199029401 0.206942648
0.883406281 0.217605963 0.219261378
0.942404270 0.239451766 0.230159372
0.000887562 0.192005441 0.118011877
0.056037940 0.194945440 0.120854624
0.119845189 0.199196085 0.125234500
0.184072137 0.206278071 0.129770622
0.237860143 0.211826831 0.134796187
0.278074443 0.215995565 0.138737187
0.323558599 0.220395327 0.143578559
0.374044359 0.225342497 0.149318576
0.428835183 0.230786011 0.156200886
0.487760931 0.236567393 0.163998514
0.550123036 0.242963448 0.172597006
0.616055191 0.250107199 0.182031304
0.684505403 0.258539647 0.192385063
0.754366577 0.268832952 0.203376830
0.823613167 0.281588256 0.215018764
0.888758957 0.297361404 0.226839945
0.945902169 0.315803826 0.237651572
0.000000000 0.246645257 0.129092753
0.058108505 0.249449074 0.131684065
0.127602875 0.253310502 0.136034131
0.193971455 0.260024250 0.140985116
0.247966871 0.266021520 0.144609004
0.288012505 0.269988060 0.148665875
0.333244771 0.274741858 0.153310508
0.383368284 0.279903948 0.158708319
0.437962294 0.285611868 0.165215880
0.496331751 0.291683614 0.172603756
0.558190882 0.298415989 0.180769250
0.623409629 0.305998236 0.190051302
0.690953016 0.314489126 0.200142130
0.759784997 0.324568152 0.210919201
0.827880681 0.336673647 0.222364277
0.891755998 0.351362050 0.233934939
