public/lut/63.cube
TITLE "17x17x17 Adobe/IRIDAS cube 3D LUT exported with GrossGrade v0.2.2 (beta) 64 bit"
DOMAIN_MIN 0 0 0
DOMAIN_MAX 1 1 1
LUT_3D_SIZE 5
0.000000000 0.000000000 0.000000000
0.177371740 0.000000000 0.010054000
0.378950536 0.000000000 0.035091504
0.649824500 0.000000000 0.082403257
0.929436028 0.066202000 0.135977000
0.000000000 0.235211015 0.020897500
0.233518004 0.256374508 0.036274500
0.425789535 0.276826978 0.064079255
0.681481779 0.306178510 0.105562754
0.941438258 0.360098988 0.157265753
0.001971502 0.484548032 0.076615505
0.285851240 0.498641253 0.094943255
0.474150002 0.517678022 0.111278012
0.714342475 0.543645263 0.152931005
0.948048949 0.584298968 0.202345997
0.240005255 0.737354755 0.193808019
0.398325771 0.745329976 0.205632508
0.555355489 0.757745981 0.215436995
0.763311505 0.773554802 0.243217260
0.956671238 0.794780791 0.285365760
0.495032996 0.900278986 0.326804012
0.580430984 0.905331492 0.331577003
0.686645508 0.911167502 0.340485990
0.834779501 0.919223011 0.359748006
0.980539024 0.930293024 0.390282989
0.000000000 0.024051750 0.206361249
0.215831250 0.027994750 0.228055254
0.411491275 0.011039999 0.252205253
0.674386263 0.006900003 0.289831251
0.945134521 0.131036997 0.335347503
0.018925501 0.265156746 0.251476526
0.266742706 0.281573504 0.267143488
0.455634028 0.299557984 0.285636723
0.705450475 0.327537268 0.316737771
0.957510233 0.380943745 0.355817765
0.089460008 0.507601261 0.305334985
0.318752229 0.518548548 0.318998247
0.497662753 0.536684036 0.331702262
0.733068764 0.561804771 0.357202023
0.960834980 0.601369023 0.391071498
0.275684774 0.754809499 0.381801516
0.424215734 0.760522783 0.392606258
0.574225783 0.771961808 0.402217746
0.776097238 0.788006544 0.420719504
0.964510500 0.808658779 0.449567258
0.515578270 0.911743999 0.475995511
0.597182751 0.915900767 0.481132746
0.698993027 0.922088981 0.488331765
0.842244983 0.930817008 0.502131462
0.985281229 0.941903234 0.525126517
0.000000000 0.075902000 0.423082530
0.248874500 0.081342503 0.438989758
0.445551515 0.078824013 0.461028039
0.701388240 0.100341007 0.493393004
0.960834503 0.193324000 0.532676995
0.065705255 0.302173018 0.458144009
0.299799502 0.315852523 0.470941007
0.483726263 0.330818236 0.490252495
0.727945268 0.357940495 0.517991483
0.970445752 0.411533237 0.551555514
0.154532015 0.537113547 0.503355503
0.352715015 0.547290504 0.513760746
0.525671482 0.561316013 0.528630495
0.755359232 0.584889293 0.550158501
0.974815965 0.623215497 0.577998996
0.316332757 0.778039515 0.564598262
0.454116762 0.783191025 0.573120236
0.599738538 0.790614307 0.585881710
0.791147292 0.807120085 0.600633800
0.972947240 0.827289999 0.622557759
0.539559960 0.930248499 0.634862483
0.619101763 0.932319522 0.641359508
0.716055989 0.936699510 0.649756491
0.850895762 0.946152806 0.660393476
0.990143001 0.957489014 0.677816510
0.043493271 0.138728008 0.673888743
0.310352772 0.146289498 0.685853243
0.497691512 0.151968509 0.705157757
0.741142511 0.180274248 0.732623518
0.980504036 0.265476257 0.764163792
0.167353272 0.351935983 0.700289011
0.358085245 0.363241255 0.710725009
0.531638324 0.377076983 0.726759493
0.761790276 0.402231008 0.751650751
0.985212445 0.456873506 0.779038548
0.251503527 0.577548027 0.733898520
0.411530733 0.586425602 0.742388546
0.571383476 0.598785520 0.754467607
0.783096254 0.618993998 0.776207030
0.985424757 0.656396270 0.798903465
0.387987494 0.809257984 0.777276754
0.506064773 0.814108551 0.783822536
0.638599992 0.820917308 0.793153286
0.814010262 0.833386004 0.808658719
0.983890772 0.852342010 0.824813247
0.582081258 0.955275536 0.821849763
0.654215693 0.957289457 0.826757252
0.743434310 0.960212052 0.833761990
0.865914762 0.966372013 0.845203757
0.996739745 0.978539526 0.856911302
0.304042011 0.193947002 0.863659978
0.441387981 0.201047242 0.874247730
0.592764020 0.211598501 0.889431953
0.803152263 0.243761763 0.911978483
0.999945998 0.327138007 0.936143994
0.355275750 0.398533493 0.882875979
0.479357243 0.407801509 0.891402483
0.620439529 0.419682741 0.904772460
0.818160772 0.444211006 0.925567269
1.000000000 0.499791265 0.946614981
0.413645506 0.615215003 0.906874537
0.523720980 0.622550964 0.914180040
0.653305531 0.633616984 0.923856020
0.832244277 0.652467012 0.942033529
1.000000000 0.689383507 0.959985495
0.511802793 0.837136984 0.936743259
0.599806726 0.841322303 0.941990495
0.706548750 0.847369552 0.949378788
0.852630556 0.858550489 0.961512744
0.998099506 0.875460029 0.976459026
0.658010006 0.976423979 0.965515971
0.715843499 0.978346527 0.969237983
0.788244963 0.981240988 0.974385977
0.892075241 0.987009466 0.982890010
1.000000000 0.998522997 0.995992005
