public/lut/64.cube
TITLE "17x17x17 Adobe/IRIDAS cube 3D LUT exported with GrossGrade v0.2.2 (beta) 64 bit"
DOMAIN_MIN 0 0 0
DOMAIN_MAX 1 1 1
LUT_3D_SIZE 5
0.000000000 0.000000000 0.000000000
0.261829734 0.000000000 0.000000000
0.487300009 0.000000000 0.000000000
0.737882018 0.000000000 0.000000000
0.989408016 0.000000000 0.000000000
0.000000000 0.263527513 0.000000000
0.263707995 0.265812516 0.000000000
0.487815261 0.262737513 0.000000000
0.735948801 0.250672251 0.000000000
0.986204267 0.230578512 0.000000000
0.000000000 0.485051513 0.000000000
0.251139760 0.486967027 0.000000000
0.483714491 0.487375975 0.000000000
0.730066776 0.484262764 0.000000000
0.979036987 0.478064507 0.000000000
0.000000000 0.723219991 0.000000000
0.229711995 0.724184752 0.000000000
0.474913538 0.725566506 0.000000000
0.721986234 0.724461079 0.000000000
0.967270255 0.719926238 0.000000000
0.000000000 0.951152027 0.000000000
0.206083745 0.950233996 0.000000000
0.456827015 0.948221982 0.000000000
0.694573283 0.939787745 0.000000000
0.918052018 0.919883013 0.000000000
0.000000000 0.000000000 0.261424005
0.262338519 0.000000000 0.265132010
0.489120513 0.000000000 0.264028013
0.739241779 0.000000000 0.259655744
0.989516735 0.000000000 0.252534509
0.000000000 0.265385509 0.265206486
0.265954494 0.265100747 0.264386773
0.491554260 0.260496497 0.261476964
0.739091516 0.247151002 0.255831242
0.973690748 0.247830510 0.265397012
0.000000000 0.486983240 0.258780241
0.256789029 0.485787034 0.259805977
0.486079276 0.486761987 0.255050272
0.732678533 0.483471513 0.248161510
0.973204494 0.481273770 0.258639246
0.000000000 0.724686265 0.247036755
0.236843511 0.723384798 0.248502016
0.477438778 0.724512279 0.243529513
0.723188519 0.724122763 0.235598505
0.968222737 0.719336510 0.226419508
0.000000000 0.951704025 0.229299515
0.212696508 0.949271679 0.230765000
0.459567785 0.946333528 0.224789262
0.694942236 0.938307524 0.210740000
0.917556047 0.918540478 0.194868267
0.000000000 0.000000000 0.491440535
0.252309024 0.000000000 0.493913502
0.487983018 0.000000000 0.493250012
0.739161253 0.000000000 0.488780260
0.988973022 0.000000000 0.482502997
0.000000000 0.264210463 0.492595255
0.258518040 0.262881517 0.492141753
0.490491509 0.256310523 0.490694284
0.738943338 0.242700502 0.486314237
0.974038243 0.243896753 0.482438028
0.000000000 0.487577498 0.486930996
0.251361012 0.487085760 0.486010998
0.486966968 0.485772491 0.484436512
0.734402180 0.481195539 0.480331540
0.964954019 0.485499501 0.486254513
0.000000000 0.726302266 0.478295267
0.233533740 0.725208759 0.478226781
0.480658531 0.723096728 0.478907019
0.723979533 0.723333240 0.474034786
0.959893823 0.720578313 0.488525748
0.000000000 0.952526987 0.463923514
0.208995491 0.949767470 0.463852525
0.490543514 0.939255476 0.490242511
0.704264998 0.931907535 0.483077496
0.914860010 0.914497972 0.468810022
0.000000000 0.000000000 0.745818496
0.226530761 0.000000000 0.746332765
0.481310010 0.000000000 0.744576991
0.736089230 0.000000000 0.739652038
0.987426281 0.000000000 0.732453227
0.000000000 0.261073738 0.743220031
0.237491265 0.258340031 0.742664278
0.484942287 0.251098007 0.740916252
0.736159980 0.235352010 0.736642241
0.973336518 0.237591758 0.723989010
0.000000000 0.486146003 0.734854758
0.236686513 0.485428035 0.734391987
0.483248502 0.483181000 0.732567310
0.732143521 0.477508783 0.729753256
0.964320242 0.483286023 0.719376504
0.000000000 0.725924253 0.724347711
0.221864000 0.725423694 0.723703027
0.476563036 0.724256039 0.722336292
0.723775029 0.722027004 0.720110714
0.960389495 0.717889309 0.716040552
0.000000000 0.951295495 0.703916013
0.194564492 0.948804259 0.702276826
0.486876547 0.938511729 0.706713557
0.703947783 0.927059710 0.700448513
0.910719991 0.909382761 0.683313251
0.000000000 0.000000000 0.998549998
0.188407257 0.000000000 0.997958004
0.471044004 0.000000000 0.995978475
0.730082750 0.000000000 0.991880774
0.984082997 0.000000000 0.985206008
0.000000000 0.254447013 0.995580256
0.220626503 0.260119021 0.971616745
0.473004282 0.256328493 0.971937239
0.721665263 0.246299744 0.972397268
0.971366286 0.228305757 0.971414804
0.000000000 0.483230025 0.987378001
0.235724494 0.483180285 0.970661521
0.480775505 0.484025508 0.960240483
0.719487727 0.483130276 0.960665464
0.962431490 0.480504006 0.960297465
0.000000000 0.724101007 0.973920763
0.225977510 0.722839475 0.968558252
0.488092273 0.721110284 0.958397746
0.722125232 0.720651984 0.958624959
0.956799209 0.714017987 0.952763259
0.000000000 0.946348011 0.944150984
0.175010502 0.943767488 0.941518486
0.478462517 0.934325993 0.931944489
0.696578026 0.922469974 0.919979751
0.903508008 0.901480019 0.898921013
