public/lut/64.cube
TITLE "17x17x17 Adobe/IRIDAS cube 3D LUT exported with GrossGrade v0.2.2 (beta) 64 bit"
DOMAIN_MIN 0 0 0
DOMAIN_MAX 1 1 1
LUT_3D_SIZE 17
0.000000000 0.000000000 0.000000000
0.093297631 0.000000000 0.000000000
0.167417631 0.000000000 0.000000000
0.215385258 0.000000000 0.000000000
0.261829734 0.000000000 0.000000000
0.313354939 0.000000000 0.000000000
0.369071394 0.000000000 0.000000000
0.427125394 0.000000000 0.000000000
0.487300009 0.000000000 0.000000000
0.548972249 0.000000000 0.000000000
0.611639023 0.000000000 0.000000000
0.674838006 0.000000000 0.000000000
0.737882018 0.000000000 0.000000000
0.800926387 0.000000000 0.000000000
0.863846183 0.000000000 0.000000000
0.926516831 0.000000000 0.000000000
0.989408016 0.000000000 0.000000000
0.000000000 0.091736689 0.000000000
0.092224561 0.092615500 0.000000000
0.167876184 0.092973687 0.000000000
0.217601389 0.092212871 0.000000000
0.263536811 0.090848751 0.000000000
0.314666867 0.088049687 0.000000000
0.369935781 0.084157936 0.000000000
0.428116083 0.077326059 0.000000000
0.487964392 0.067346305 0.000000000
0.549589813 0.054259125 0.000000000
0.611965656 0.037056189 0.000000000
0.674938321 0.020749312 0.000000000
0.737941086 0.004386498 0.000000000
0.800893366 0.000000000 0.000000000
0.863663673 0.000000000 0.000000000
0.926264942 0.000000000 0.000000000
0.988933325 0.000000000 0.000000000
0.000000000 0.167622373 0.000000000
0.091788873 0.169007003 0.000000000
0.168568507 0.169678390 0.000000000
0.218267456 0.169477135 0.000000000
0.264262348 0.169241622 0.000000000
0.315316528 0.168343872 0.000000000
0.370488524 0.166788250 0.000000000
0.428252667 0.164004877 0.000000000
0.488117516 0.160456881 0.000000000
0.549395680 0.155578703 0.000000000
0.611810505 0.149265617 0.000000000
0.674560547 0.141504318 0.000000000
0.737491250 0.132359251 0.000000000
0.800236702 0.121617168 0.000000000
0.862983704 0.107981741 0.000000000
0.925521910 0.092086926 0.000000000
0.988036215 0.075877003 0.000000000
0.000000000 0.217469275 0.000000000
0.088382497 0.218634829 0.000000000
0.167446882 0.219366699 0.000000000
0.217826024 0.219389826 0.000000000
0.264175236 0.219411701 0.000000000
0.315414310 0.219178259 0.000000000
0.370470107 0.218213707 0.000000000
0.428360254 0.216787189 0.000000000
0.488027930 0.214451820 0.000000000
0.549346149 0.211456448 0.000000000
0.611431003 0.207463950 0.000000000
0.674008965 0.202647895 0.000000000
0.736776054 0.197141528 0.000000000
0.799542069 0.191036060 0.000000000
0.862159848 0.183958441 0.000000000
0.924621046 0.176155254 0.000000000
0.987253666 0.167231694 0.000000000
0.000000000 0.263527513 0.000000000
0.083223440 0.264327556 0.000000000
0.165565759 0.265348494 0.000000000
0.216954827 0.265670508 0.000000000
0.263707995 0.265812516 0.000000000
0.315174073 0.265583009 0.000000000
0.370439261 0.265118361 0.000000000
0.428135276 0.264190853 0.000000000
0.487815261 0.262737513 0.000000000
0.548918426 0.260602057 0.000000000
0.610879004 0.257912368 0.000000000
0.673460484 0.254566133 0.000000000
0.735948801 0.250672251 0.000000000
0.798522592 0.246438012 0.000000000
0.861205101 0.241698742 0.000000000
0.923496246 0.236469001 0.000000000
0.986204267 0.230578512 0.000000000
0.000000000 0.314670771 0.000000000
0.073583871 0.315268308 0.000000000
0.161660507 0.316166461 0.000000000
0.214715630 0.316723019 0.000000000
0.262333184 0.317099631 0.000000000
0.314475805 0.316991240 0.000000000
0.369843036 0.316800684 0.000000000
0.427625597 0.316108316 0.000000000
0.487266332 0.315295875 0.000000000
0.548282564 0.313852191 0.000000000
0.610118926 0.312004179 0.000000000
0.672432303 0.309706688 0.000000000
0.734963536 0.307093084 0.000000000
0.797375679 0.304019392 0.000000000
0.859865427 0.300551504 0.000000000
0.922224462 0.296900839 0.000000000
0.984841466 0.292759001 0.000000000
0.000000000 0.369397402 0.000000000
0.058442056 0.369752705 0.000000000
0.156088129 0.370738655 0.000000000
0.211058944 0.371407390 0.000000000
0.259675860 0.371884018 0.000000000
0.312707931 0.371892661 0.000000000
0.368621141 0.371767163 0.000000000
0.426853329 0.371533602 0.000000000
0.486444384 0.370909631 0.000000000
0.547373235 0.369945377 0.000000000
0.609134853 0.368737519 0.000000000
0.671297193 0.367120534 0.000000000
0.733605504 0.365164995 0.000000000
0.795829773 0.363020062 0.000000000
0.858297586 0.360585511 0.000000000
0.920537055 0.357900530 0.000000000
0.983226240 0.354838908 0.000000000
0.000000000 0.426565528 0.000000000
0.036556616 0.426712900 0.000000000
0.147946939 0.427644402 0.000000000
0.205827266 0.428251475 0.000000000
0.255915344 0.428726077 0.000000000
0.309971452 0.428981274 0.000000000
0.366799295 0.429161459 0.000000000
0.425420403 0.428971052 0.000000000
0.485201210 0.428457201 0.000000000
0.546079516 0.427861810 0.000000000
0.607777774 0.427018464 0.000000000
0.669814289 0.425850391 0.000000000
0.731980503 0.424501896 0.000000000
0.794169545 0.422888815 0.000000000
0.856431484 0.421042770 0.000000000
0.918665111 0.418943524 0.000000000
0.981208384 0.416584283 0.000000000
0.000000000 0.485051513 0.000000000
0.014588621 0.485060275 0.000000000
0.137412384 0.485840619 0.000000000
0.199118882 0.486421019 0.000000000
0.251139760 0.486967027 0.000000000
0.306596756 0.487400562 0.000000000
0.364206553 0.487622261 0.000000000
0.423548639 0.487673342 0.000000000
0.483714491 0.487375975 0.000000000
0.544702470 0.486770391 0.000000000
0.606197596 0.486137629 0.000000000
0.668028474 0.485274941 0.000000000
0.730066776 0.484262764 0.000000000
0.792140007 0.483027816 0.000000000
0.854408026 0.481617779 0.000000000
0.916479707 0.479883969 0.000000000
0.979036987 0.478064507 0.000000000
0.000000000 0.544436872 0.000000000
0.000000000 0.544440627 0.000000000
0.124779806 0.545024812 0.000000000
0.191394836 0.545574546 0.000000000
0.245767072 0.546080232 0.000000000
0.302537441 0.546569645 0.000000000
0.361197829 0.546871841 0.000000000
0.421067387 0.547000885 0.000000000
0.481719136 0.546828985 0.000000000
0.542987347 0.546386659 0.000000000
0.604460239 0.545816123 0.000000000
0.666152775 0.545125186 0.000000000
0.728088319 0.544266164 0.000000000
0.790078044 0.543331981 0.000000000
0.852220178 0.542195141 0.000000000
0.914249599 0.540748358 0.000000000
0.976644278 0.539244890 0.000000000
0.000000000 0.603994131 0.000000000
0.000000000 0.604088962 0.000000000
0.110347629 0.604409158 0.000000000
0.183487639 0.604910791 0.000000000
0.240179375 0.605359137 0.000000000
0.298535734 0.605859876 0.000000000
0.358170658 0.606250644 0.000000000
0.418518156 0.606448054 0.000000000
0.479566127 0.606412292 0.000000000
0.541060090 0.606234372 0.000000000
0.602558494 0.605702519 0.000000000
0.664318383 0.605072379 0.000000000
0.726051390 0.604396343 0.000000000
0.787905395 0.603559852 0.000000000
0.849946141 0.602545738 0.000000000
0.912014723 0.601484060 0.000000000
0.974125385 0.600217521 0.000000000
0.000000000 0.663662076 0.000000000
0.000000000 0.663662076 0.000000000
0.094300620 0.663826525 0.000000000
0.175714836 0.664347649 0.000000000
0.234774739 0.664798021 0.000000000
0.294554740 0.665242136 0.000000000
0.354972720 0.665644765 0.000000000
0.415974408 0.665887654 0.000000000
0.477277696 0.666027963 0.000000000
0.538905740 0.665921807 0.000000000
0.600536168 0.665641546 0.000000000
0.662314177 0.665038526 0.000000000
0.724011660 0.664448500 0.000000000
0.785773575 0.663711369 0.000000000
0.847653925 0.662881136 0.000000000
0.909647882 0.661942363 0.000000000
0.971595228 0.660927474 0.000000000
0.000000000 0.723219991 0.000000000
0.000000000 0.723240256 0.000000000
0.079491377 0.723307252 0.000000000
0.168094829 0.723758399 0.000000000
0.229711995 0.724184752 0.000000000
0.290838748 0.724632561 0.000000000
0.352046371 0.725044668 0.000000000
0.413389266 0.725347221 0.000000000
0.474913538 0.725566506 0.000000000
0.536600232 0.725610375 0.000000000
0.598352730 0.725418270 0.000000000
0.660133481 0.725069880 0.000000000
0.721986234 0.724461079 0.000000000
0.783627748 0.723795116 0.000000000
0.845503688 0.723039627 0.000000000
0.907318830 0.722291470 0.000000000
0.967270255 0.719926238 0.000000000
0.000000000 0.782632232 0.000000000
0.000000000 0.782686472 0.000000000
0.067388989 0.782677114 0.000000000
0.160901010 0.783049464 0.000000000
0.224849373 0.783500493 0.000000000
0.287155330 0.783972025 0.000000000
0.349019140 0.784337103 0.000000000
0.410753161 0.784702182 0.000000000
0.472429335 0.784969807 0.000000000
0.534230232 0.785078049 0.000000000
0.596054018 0.785087287 0.000000000
0.657881618 0.784856737 0.000000000
0.719775259 0.784488201 0.000000000
0.780313730 0.782602906 0.000000000
0.840676785 0.780808985 0.000000000
0.900911689 0.778893054 0.000000000
0.960852563 0.776769102 0.000000000
0.000000000 0.842164099 0.000000000
0.000000000 0.842104554 0.000000000
0.054649111 0.842147291 0.000000000
0.153913647 0.842484355 0.000000000
0.220199123 0.842836559 0.000000000
0.283426344 0.843188763 0.000000000
0.345832378 0.843599081 0.000000000
0.407904834 0.843759239 0.000000000
0.469298899 0.843360305 0.000000000
0.530681849 0.842885494 0.000000000
0.591835141 0.842157900 0.000000000
0.652964115 0.841282427 0.000000000
0.713858783 0.840106189 0.000000000
0.774397075 0.838478863 0.000000000
0.834366083 0.836446106 0.000000000
0.893559694 0.833882987 0.000000000
0.952004015 0.830761313 0.000000000
0.000000000 0.898329079 0.000000000
0.000000000 0.898154795 0.000000000
0.039538361 0.897952735 0.000000000
0.144639492 0.898002923 0.000000000
0.213681012 0.898168683 0.000000000
0.277967274 0.898292363 0.000000000
0.340669841 0.898253918 0.000000000
0.402541041 0.898197889 0.000000000
0.463939667 0.897928178 0.000000000
0.525156200 0.897322655 0.000000000
0.585909367 0.896404564 0.000000000
0.646435440 0.895214200 0.000000000
0.706493735 0.893331230 0.000000000
0.765874267 0.890874386 0.000000000
0.824377537 0.887794137 0.000000000
0.881815374 0.883776486 0.000000000
0.937881887 0.878911138 0.000000000
0.000000000 0.951152027 0.000000000
0.000000000 0.950928390 0.000000000
0.022868376 0.950581610 0.000000000
0.134088695 0.950354397 0.000000000
0.206083745 0.950233996 0.000000000
0.271306008 0.950108111 0.000000000
0.334125757 0.949742019 0.000000000
0.395844340 0.949102700 0.000000000
0.456827015 0.948221982 0.000000000
0.517125964 0.946879983 0.000000000
0.576968610 0.945134401 0.000000000
0.636115491 0.942783535 0.000000000
0.694573283 0.939787745 0.000000000
0.752238333 0.936081350 0.000000000
0.808830559 0.931520522 0.000000000
0.864135623 0.926171243 0.000000000
0.918052018 0.919883013 0.000000000
0.000000000 0.000000000 0.093936369
0.091800876 0.000000000 0.092224568
0.166720375 0.000000000 0.091736689
0.215722322 0.000000000 0.091768876
0.262089968 0.000000000 0.092050187
0.313717812 0.000000000 0.091414869
0.369307101 0.000000000 0.090617128
0.427526027 0.000000000 0.089586437
0.487899452 0.000000000 0.088274620
0.549693704 0.000000000 0.086304560
0.612109184 0.000000000 0.084062502
0.675078750 0.000000000 0.080861121
0.738253534 0.000000000 0.077800751
0.801279485 0.000000000 0.073384926
0.863982737 0.000000000 0.068198182
0.926747143 0.000000000 0.062115178
0.989481449 0.000000000 0.055524811
0.000000000 0.092551693 0.092160754
0.093361817 0.092973679 0.092583686
0.169160366 0.092551686 0.092525631
0.218943268 0.091671810 0.092160746
0.264626205 0.089586437 0.091341995
0.315758467 0.086717442 0.090590686
0.371117890 0.082379438 0.089619562
0.428972274 0.075374559 0.088470370
0.488766849 0.065445937 0.086759374
0.550253510 0.051485252 0.084752187
0.612575650 0.035091378 0.082072251
0.675495982 0.019024312 0.078794308
0.738393486 0.002908062 0.074934997
0.801169515 0.000000000 0.070720993
0.864015520 0.000000000 0.065404616
0.926546812 0.000000000 0.058630936
0.989033818 0.000000000 0.051167939
0.000000000 0.168755248 0.092973687
0.093057126 0.168365568 0.093062997
0.169290245 0.169509381 0.092551693
0.219320387 0.169256121 0.091335937
0.265472740 0.168816820 0.090159126
0.316678047 0.167693570 0.089291498
0.371843576 0.165890247 0.088029757
0.429699212 0.163139567 0.086311445
0.489450604 0.159354061 0.084266558
0.550623715 0.154215425 0.081805319
0.612832963 0.147907436 0.078793749
0.675561965 0.139973819 0.075161122
0.738394916 0.130882695 0.070894375
0.801023185 0.119712301 0.066116802
0.863561630 0.106070362 0.060358174
0.926064849 0.090441555 0.053214058
0.988267720 0.073587127 0.045792371
0.000000000 0.218313962 0.092128560
0.090438992 0.218136072 0.092551693
0.168378249 0.219024450 0.090986691
0.218811885 0.219332010 0.090073124
0.265004903 0.219378263 0.089204557
0.316584796 0.218880206 0.087887317
0.371804327 0.217857122 0.086276688
0.429611415 0.216312945 0.084069684
0.489308029 0.213828504 0.081739567
0.550534129 0.210581139 0.079180062
0.612612486 0.206521645 0.075838313
0.675098121 0.201606452 0.071870252
0.737789810 0.195968956 0.067494251
0.800305009 0.189681187 0.061613556
0.862935185 0.182667017 0.055542368
0.925351202 0.174874499 0.048564743
0.987523139 0.165830582 0.040027186
0.000000000 0.264234453 0.090132691
0.085477129 0.264137983 0.090960629
0.166746065 0.264939964 0.089693129
0.217836395 0.265519112 0.087995507
0.264451951 0.265565515 0.086778939
0.316073060 0.265528500 0.085457690
0.371259183 0.264870375 0.083658248
0.429317802 0.263940454 0.081739441
0.488889515 0.262276441 0.078792624
0.550092876 0.260146409 0.075807311
0.612010837 0.257239461 0.072007187
0.674486816 0.253809184 0.067741498
0.736976504 0.249930486 0.062691316
0.799320996 0.245497376 0.056977056
0.862019658 0.240710124 0.050499246
0.924218535 0.235512435 0.042960681
0.986554086 0.229471073 0.034647752
0.000000000 0.315361738 0.087641940
0.076371685 0.315136582 0.088083565
0.163507625 0.315811187 0.086744696
0.215630695 0.316491425 0.084968306
0.263188481 0.316931546 0.083195873
0.315204322 0.316961497 0.081505246
0.370596677 0.316614240 0.079994187
0.428550839 0.316015691 0.077559322
0.488264889 0.315013379 0.074291065
0.549344659 0.313625574 0.070860505
0.611145973 0.311583906 0.066770501
0.673407197 0.309251815 0.061703317
0.735908270 0.306551635 0.056393750
0.798229396 0.303407460 0.050125308
0.860653341 0.300034881 0.043139055
0.922950566 0.296203166 0.035387240
0.985185206 0.292140067 0.027846253
0.000000000 0.369873941 0.083309188
0.061334308 0.369796008 0.083449811
0.158084005 0.370386660 0.082265437
0.212470636 0.370973051 0.080072686
0.260625213 0.371527165 0.078168124
0.313629657 0.371831387 0.075723559
0.369436711 0.371665537 0.073452368
0.427589655 0.371413589 0.071404621
0.487254381 0.370787263 0.067954749
0.548206210 0.369753182 0.063581437
0.609926105 0.368544757 0.058988746
0.672133267 0.366798699 0.053558249
0.734362662 0.364859104 0.047652371
0.796597898 0.362619519 0.040579427
0.858980596 0.360151798 0.034056742
0.921142519 0.357332528 0.027107494
0.983544946 0.354347467 0.020700309
0.000000000 0.426913202 0.076596119
0.039053861 0.426873982 0.076416120
0.150245503 0.427354038 0.075446181
0.207420453 0.427886516 0.073399931
0.257124186 0.428461105 0.070866123
0.310903758 0.428914666 0.067405611
0.367583156 0.429056466 0.064034805
0.426175326 0.428847402 0.061249617
0.485898972 0.428377628 0.058292434
0.546774626 0.427746028 0.054096371
0.608450174 0.426838666 0.048580371
0.670454502 0.425714046 0.042808436
0.732604265 0.424275368 0.036812119
0.794698775 0.422633737 0.030360240
0.857018173 0.420765877 0.024396306
0.919152737 0.418666780 0.018827304
0.981564403 0.416262984 0.012715683
0.000000000 0.485282838 0.067162246
0.016806746 0.485326529 0.066840932
0.139844820 0.485583127 0.065757439
0.200784639 0.486194134 0.063232496
0.252471507 0.486673325 0.060195934
0.307400942 0.487171531 0.056412872
0.364987612 0.487477005 0.052403618
0.424155921 0.487545490 0.047890626
0.484354883 0.487210333 0.044419121
0.545228481 0.486668706 0.040786438
0.606732428 0.486036122 0.035978623
0.668551385 0.485188842 0.030901996
0.730555832 0.484159291 0.025628498
0.792622924 0.482912064 0.020453492
0.854838848 0.481431574 0.015229305
0.916957319 0.479714096 0.009462932
0.979289889 0.477785528 0.003991998
0.000000000 0.544551373 0.054686561
0.000394500 0.544675112 0.054407001
0.127430946 0.544870079 0.053164937
0.193195999 0.545358062 0.050214685
0.247132137 0.545800567 0.046899557
0.303527921 0.546375334 0.042657562
0.361967713 0.546709359 0.038218435
0.421742111 0.546865165 0.033613063
0.482329339 0.546740770 0.029423563
0.543544531 0.546357512 0.026121438
0.604879737 0.545694232 0.023460438
0.666631758 0.545055211 0.019566564
0.728505313 0.544210792 0.014835311
0.790434718 0.543191612 0.010300620
0.852545738 0.542050481 0.005421182
0.914600849 0.540659189 0.000788498
0.976879418 0.539119959 0.000000000
0.000000000 0.604116738 0.039762564
0.000000000 0.604126811 0.039713312
0.112938628 0.604327440 0.038568877
0.185144633 0.604813159 0.035190001
0.241411120 0.605262578 0.032134376
0.299469948 0.605725229 0.028881624
0.358829081 0.606099069 0.025234373
0.419206381 0.606354117 0.021143809
0.480090559 0.606325209 0.017249938
0.541472912 0.606089115 0.013701563
0.603004396 0.605624259 0.010793626
0.664665341 0.604958475 0.007442251
0.726424456 0.604295731 0.004090749
0.788236380 0.603488684 0.001330872
0.850222647 0.602480412 0.000000000
0.912247062 0.601364255 0.000000000
0.974318624 0.600074351 0.000000000
0.000000000 0.663780332 0.026663689
0.000000000 0.663737476 0.026417125
0.097470254 0.663826525 0.025234252
0.177286506 0.664256454 0.022769876
0.236082256 0.664766669 0.019862313
0.295451999 0.665190101 0.016954187
0.355703592 0.665567100 0.013307186
0.416610718 0.665887356 0.009216435
0.477823138 0.665993750 0.005273500
0.539359689 0.665890455 0.002119313
0.600977063 0.665576041 0.000443813
0.662642300 0.664995790 0.000000000
0.724343061 0.664379597 0.000000000
0.786071062 0.663596213 0.000000000
0.847939551 0.662805974 0.000000000
0.909826756 0.661858737 0.000000000
0.971749961 0.660745025 0.000000000
0.000000000 0.723287046 0.014736498
0.000000000 0.723258197 0.014736498
0.082397439 0.723376334 0.013996809
0.169652134 0.723787129 0.011138560
0.230862692 0.724197328 0.008230809
0.291630000 0.724640131 0.005322935
0.352712572 0.725031853 0.001872875
0.413975388 0.725374341 0.000000000
0.475379556 0.725520611 0.000000000
0.536988735 0.725576758 0.000000000
0.598756194 0.725395381 0.000000000
0.660524011 0.725003541 0.000000000
0.722259045 0.724430799 0.000000000
0.783909500 0.723730505 0.000000000
0.845740020 0.723001420 0.000000000
0.907508433 0.722170711 0.000000000
0.967408538 0.719742358 0.000000000
0.000000000 0.782664657 0.003252930
0.000000000 0.782709539 0.003252930
0.069879673 0.782725215 0.002562743
0.162197024 0.783144236 0.000690247
0.225902379 0.783493519 0.000000000
0.287958443 0.783955991 0.000000000
0.349687636 0.784341812 0.000000000
0.411301285 0.784686029 0.000000000
0.472828090 0.784925580 0.000000000
0.534605980 0.785046101 0.000000000
0.596396804 0.785013676 0.000000000
0.658219039 0.784729958 0.000000000
0.719974160 0.784343064 0.000000000
0.780513883 0.782489359 0.000000000
0.840928197 0.780725181 0.000000000
0.901154101 0.778765440 0.000000000
0.961011231 0.776632607 0.000000000
0.000000000 0.842197061 0.000000000
0.000000000 0.842168212 0.000000000
0.057403732 0.842153609 0.000000000
0.155151829 0.842516243 0.000000000
0.221067190 0.842901886 0.000000000
0.284215271 0.843249500 0.000000000
0.346533656 0.843784511 0.000000000
0.408329457 0.843666852 0.000000000
0.469709665 0.843335032 0.000000000
0.530925333 0.842805386 0.000000000
0.592130721 0.842145205 0.000000000
0.653130829 0.841210604 0.000000000
0.713995039 0.840034425 0.000000000
0.774549663 0.838424683 0.000000000
0.834492087 0.836315870 0.000000000
0.893690348 0.833748400 0.000000000
0.952088296 0.830542147 0.000000000
0.000000000 0.898323417 0.000000000
0.000000000 0.898205280 0.000000000
0.042251296 0.897898436 0.000000000
0.146195948 0.898059189 0.000000000
0.214625701 0.898120403 0.000000000
0.278549641 0.898222804 0.000000000
0.341086715 0.898253918 0.000000000
0.403004646 0.898128152 0.000000000
0.464363396 0.897848845 0.000000000
0.525430560 0.897214174 0.000000000
0.586206377 0.896362066 0.000000000
0.646664441 0.895070314 0.000000000
0.706647158 0.893208265 0.000000000
0.765976787 0.890758455 0.000000000
0.824483395 0.887557030 0.000000000
0.881789327 0.883504510 0.000000000
0.937826574 0.878756225 0.000000000
0.000000000 0.951152027 0.000000000
0.000000000 0.950928390 0.000000000
0.026466316 0.950401247 0.000000000
0.135320887 0.950330853 0.000000000
0.207016870 0.950235784 0.000000000
0.271722049 0.950043619 0.000000000
0.334552765 0.949675918 0.000000000
0.396230906 0.949028969 0.000000000
0.457079828 0.948122323 0.000000000
0.517351449 0.946748257 0.000000000
0.577129900 0.944984972 0.000000000
0.636269808 0.942547619 0.000000000
0.694723070 0.939608872 0.000000000
0.752277136 0.935834646 0.000000000
0.808828354 0.931301951 0.000000000
0.864137709 0.925939798 0.000000000
0.917962015 0.919676781 0.000000000
0.000000000 0.000000000 0.167925254
0.090191312 0.000000000 0.166563943
0.166291744 0.000000000 0.167622373
0.216179699 0.000000000 0.167636991
0.263052732 0.000000000 0.168205753
0.314534932 0.000000000 0.168020070
0.369948149 0.000000000 0.167713627
0.428338975 0.000000000 0.167147249
0.488362014 0.000000000 0.166281134
0.550125420 0.000000000 0.165265694
0.612632751 0.000000000 0.163810626
0.675694644 0.000000000 0.162300080
0.738671362 0.000000000 0.160251752
0.801528752 0.000000000 0.158198446
0.864363194 0.000000000 0.155514747
0.926997721 0.000000000 0.152905568
0.989438534 0.000000000 0.149823874
0.000000000 0.092551693 0.167196497
0.091762818 0.092160746 0.167843506
0.168771446 0.091362059 0.168332934
0.218846634 0.090073124 0.168363735
0.264949262 0.088436440 0.168303877
0.316535801 0.085430190 0.168020070
0.371659338 0.080559008 0.167459756
0.429698944 0.073411748 0.166760877
0.489537150 0.063198186 0.165595263
0.550841093 0.048902310 0.164437875
0.613230824 0.032085191 0.163023487
0.675960898 0.016362937 0.161195755
0.738831043 0.001133500 0.159082428
0.801600575 0.000000000 0.156997561
0.864273667 0.000000000 0.154452622
0.926879287 0.000000000 0.151630431
0.988991737 0.000000000 0.148484632
0.000000000 0.168771505 0.168536007
0.091788873 0.169257879 0.168584824
0.169509381 0.169072002 0.168365493
0.220179826 0.168974504 0.168521509
0.266256750 0.167918131 0.167684361
0.317731977 0.166986376 0.167417631
0.373000890 0.164812997 0.166556999
0.431036919 0.162084565 0.165613756
0.490583926 0.157955870 0.164303511
0.551621437 0.152803689 0.162978515
0.613732159 0.146234021 0.161338374
0.676181257 0.138441071 0.159507990
0.738961041 0.129078999 0.157273114
0.801492691 0.117819674 0.155040935
0.864107430 0.103915110 0.152444005
0.926524520 0.088010989 0.149332449
0.988431573 0.071237497 0.145883754
0.000000000 0.218800262 0.168521509
0.089224368 0.218989640 0.168349236
0.169288620 0.218989700 0.168615624
0.219508886 0.219178259 0.167874441
0.266192198 0.219201386 0.167414129
0.317660958 0.218513817 0.166524127
0.373098761 0.217166841 0.165432379
0.431048989 0.215291142 0.164255068
0.490711480 0.212847769 0.163102552
0.551819324 0.209398195 0.161660939
0.613779306 0.205216467 0.159849629
0.676238179 0.200279891 0.158016443
0.738620102 0.194613814 0.155775249
0.801122904 0.188263074 0.153223515
0.863702655 0.181216761 0.150361314
0.925932646 0.173112437 0.147424698
0.987792790 0.164141387 0.143685251
0.000000000 0.264871359 0.167746246
0.084503196 0.264967829 0.167921752
0.167979866 0.264548361 0.168158248
0.218846083 0.265262008 0.167461500
0.265441239 0.265547007 0.166762501
0.317084610 0.265289247 0.165820271
0.372642398 0.264690369 0.164448887
0.430648297 0.263368309 0.163087443
0.490373760 0.261600852 0.161645755
0.551485777 0.259271502 0.160006627
0.613337994 0.256361872 0.158253253
0.675702453 0.252851516 0.156062320
0.738003075 0.248841763 0.153743759
0.800412595 0.244383052 0.151107132
0.862938821 0.239531636 0.148323625
0.925161839 0.234090894 0.145069689
