public/lut/65.cube
TITLE "17x17x17 Adobe/IRIDAS cube 3D LUT exported with GrossGrade v0.2.2 (beta) 64 bit"
DOMAIN_MIN 0 0 0
DOMAIN_MAX 1 1 1
LUT_3D_SIZE 5
0.000000000 0.000000000 0.000000000
0.203473508 0.034894504 0.037260503
0.379631013 0.085154004 0.092784002
0.601682067 0.148988992 0.162909254
0.861343980 0.232609004 0.247924000
0.041176502 0.264778495 0.053955499
0.243716761 0.270310253 0.048797004
0.423062742 0.276870012 0.100683004
0.638000727 0.299343258 0.170356497
0.887164712 0.346310735 0.254331768
0.088928506 0.489108503 0.118395001
0.263188243 0.492380500 0.115937755
0.441798031 0.497057498 0.108788505
0.667562962 0.502668738 0.171690002
0.919086993 0.522337496 0.261285007
0.172031507 0.722833037 0.194389001
0.303947985 0.724505484 0.193272755
0.463944763 0.728191972 0.188794509
0.682487249 0.732884526 0.181115001
0.941242695 0.736272037 0.263699234
0.261067986 0.935675025 0.272937000
0.356169760 0.935565233 0.272005498
0.490836501 0.935353041 0.268487513
0.682812274 0.932180285 0.259393513
0.915764987 0.916548014 0.245601997
0.024445502 0.029177502 0.175085753
0.211829513 0.040979248 0.239302009
0.388804018 0.083325505 0.256878018
0.607763767 0.147913754 0.289424747
0.864985466 0.232277006 0.344049752
0.031148752 0.267683506 0.271627516
0.246444508 0.270933747 0.274549246
0.427963257 0.276838750 0.280797482
0.642257273 0.298756272 0.304753751
0.890198767 0.346025229 0.353743494
0.085605502 0.491641521 0.294088006
0.267209470 0.492718041 0.296034753
0.444254518 0.497142017 0.295597017
0.670109034 0.502865255 0.317098260
0.921393752 0.522118270 0.365738750
0.172319502 0.724402785 0.333201021
0.307083994 0.724843800 0.334637761
0.466201246 0.727805018 0.334149987
0.683594465 0.732894778 0.330576241
0.936202228 0.737425029 0.398521751
0.260958493 0.936173499 0.380834520
0.365391999 0.934480250 0.387954265
0.509782553 0.931207538 0.406696498
0.683134019 0.931089759 0.372582972
0.915154457 0.915388227 0.358609736
0.060161501 0.080042005 0.340534508
0.203952253 0.094557755 0.397150010
0.390801489 0.098913006 0.450205028
0.617991269 0.145053744 0.470593512
0.871751487 0.231279999 0.499273509
0.089474507 0.268952250 0.462702006
0.249330252 0.274316758 0.472666740
0.426357269 0.279668003 0.486097783
0.647393346 0.298506975 0.491732031
0.894737005 0.345844239 0.512459278
0.066739500 0.493891537 0.502008557
0.263795257 0.495461047 0.503335238
0.445971012 0.497888535 0.505568504
0.673285544 0.502488256 0.509984493
0.934605002 0.516041994 0.524073005
0.164358258 0.727214277 0.520435452
0.304735482 0.727683067 0.521265030
0.468819767 0.728538513 0.523448467
0.684863806 0.732935309 0.523649454
0.933474541 0.738435268 0.560153484
0.256451994 0.937343478 0.543424010
0.360713243 0.935645998 0.545501232
0.564554453 0.920481980 0.599687457
0.717641771 0.917811751 0.607178807
0.909055471 0.907958508 0.627316475
0.101763502 0.136262253 0.519920230
0.216608748 0.147852764 0.562245786
0.378678024 0.159583509 0.618033290
0.620110035 0.160948753 0.676064253
0.881395459 0.229607001 0.693533480
0.139587015 0.282836229 0.635180533
0.260878980 0.289096266 0.649785995
0.418769777 0.297952026 0.672287703
0.645990491 0.305481762 0.701300085
0.901202559 0.345765233 0.708555996
0.161005765 0.492500007 0.706162751
0.291382253 0.495046556 0.709953010
0.451279521 0.499097764 0.716238260
0.671444237 0.503913283 0.726286471
0.934193969 0.517259955 0.730613232
0.155335501 0.728761017 0.735746026
0.300127029 0.729645252 0.736518979
0.466398001 0.731065094 0.737741232
0.686047792 0.733348727 0.739909291
0.941830993 0.735519528 0.741606474
0.246456251 0.937628746 0.739197254
0.348723978 0.936509728 0.738468528
0.568578780 0.920675993 0.755772829
0.710963488 0.918217719 0.750885248
0.907691717 0.906149507 0.746421754
0.151787996 0.190262005 0.687430978
0.244689494 0.199384257 0.719176292
0.385073513 0.212242499 0.768637538
0.603963017 0.224289253 0.833888233
0.891653001 0.227072001 0.891902983
0.190878242 0.307657003 0.786509275
0.284892499 0.314036757 0.802343488
0.422849536 0.324063003 0.828714728
0.631857574 0.336566985 0.867966473
0.908065021 0.345374018 0.907180250
0.226985008 0.497433484 0.876012504
0.323534727 0.500459790 0.881717205
0.449413002 0.501322508 0.926814973
0.670381010 0.507230282 0.929436207
0.933135986 0.519546032 0.930691481
0.244119242 0.726203322 0.927645266
0.344991773 0.727519751 0.929354489
0.492452770 0.729382753 0.928297520
0.689163744 0.733727574 0.937628746
0.939131737 0.734625757 0.935148001
0.235076994 0.935235977 0.933032990
0.340365261 0.933959484 0.931738496
0.573732018 0.918802977 0.916352510
0.710334241 0.915794730 0.913295984
0.903508008 0.901480019 0.898921013
