public/lut/65.cube
TITLE "17x17x17 Adobe/IRIDAS cube 3D LUT exported with GrossGrade v0.2.2 (beta) 64 bit"
DOMAIN_MIN 0 0 0
DOMAIN_MAX 1 1 1
LUT_3D_SIZE 17
0.000000000 0.000000000 0.000000000
0.064561501 0.004632438 0.004632438
0.123928510 0.015278250 0.015278250
0.169733062 0.025579376 0.027156377
0.203473508 0.034894504 0.037260503
0.243416816 0.045989811 0.049268000
0.285972267 0.058491006 0.062999628
0.331301570 0.071243010 0.077600069
0.379631013 0.085154004 0.092784002
0.430249482 0.099482685 0.108694375
0.483956873 0.114820622 0.125663996
0.541103840 0.131295189 0.143478066
0.601682067 0.148988992 0.162909254
0.665437043 0.168219954 0.183217332
0.731730402 0.189084649 0.204678640
0.797965646 0.211111695 0.226567447
0.861343980 0.232609004 0.247924000
0.009265875 0.093393624 0.009216563
0.080277622 0.095816061 0.009265875
0.143784553 0.098516002 0.019270439
0.189716205 0.102110878 0.031839065
0.223571569 0.106141374 0.041892003
0.261371076 0.111094065 0.053877372
0.302595377 0.117379814 0.067455381
0.346701473 0.125028819 0.081457384
0.393308014 0.133988753 0.096043937
0.443010002 0.144285873 0.111731812
0.495294183 0.155608132 0.128138989
0.551005840 0.168421879 0.145926178
0.610619962 0.182865679 0.164878815
0.673393011 0.199201837 0.185067013
0.738538861 0.217406064 0.206199452
0.804172575 0.236876324 0.228223503
0.866914749 0.256399870 0.249285877
0.023262750 0.168901250 0.027107125
0.088807561 0.170925006 0.026959311
0.151183620 0.172924504 0.024839751
0.200042829 0.174281314 0.032775000
0.235615015 0.175766379 0.043993250
0.274611443 0.178176492 0.056375999
0.316558391 0.181369871 0.069788635
0.360908031 0.185727566 0.083956882
0.407443136 0.191219747 0.098811634
0.456544548 0.197998703 0.114645191
0.508407593 0.206268504 0.131140128
0.563327789 0.215723068 0.148568198
0.621859610 0.227133125 0.167391002
0.683686972 0.240514755 0.187249705
0.747671366 0.255512536 0.208411530
0.812505245 0.272189289 0.230053574
0.874556363 0.289238632 0.251227140
0.032824315 0.217542946 0.040404879
0.094844751 0.218823388 0.039674941
0.155578449 0.221012518 0.038048629
0.203845382 0.222517192 0.036619376
0.240485951 0.223235443 0.042502254
0.280862451 0.224620327 0.056376003
0.323817015 0.226728648 0.070509501
0.368816644 0.229596883 0.084927946
0.415994883 0.233464763 0.100216500
0.465260625 0.238513961 0.116045937
0.517083764 0.244855687 0.132409558
0.571852982 0.252685100 0.150167868
0.629931450 0.262022763 0.168910578
0.691231012 0.273271382 0.189030007
0.754906178 0.286434174 0.210089087
0.819092631 0.301134259 0.231566831
0.880723238 0.316386491 0.252737552
0.041176502 0.264778495 0.053955499
0.100978494 0.265775412 0.053308249
0.159967005 0.267683506 0.051420126
0.207361013 0.269097567 0.050120004
0.243716761 0.270310253 0.048797004
0.285157770 0.271119267 0.053877376
0.329165518 0.272219121 0.069253877
0.375327408 0.274281263 0.084840760
0.423062742 0.276870012 0.100683004
0.473019987 0.280671358 0.116707623
0.525064468 0.285423100 0.133701265
0.579959333 0.291566074 0.151526183
0.638000727 0.299343258 0.170356497
0.699000180 0.308794737 0.190533191
0.762252569 0.320133865 0.211728886
0.825956404 0.332876951 0.233203024
0.887164712 0.346310735 0.254331768
0.052172624 0.316800684 0.068815187
0.107924506 0.317623615 0.068309754
0.165229946 0.319342822 0.067254186
0.211688340 0.320757359 0.065629624
0.247355253 0.321934193 0.064358376
0.288325071 0.322938055 0.062862687
0.333439529 0.324008822 0.065976314
0.380744278 0.325110704 0.083183132
0.429612309 0.326857179 0.099948317
0.480141252 0.329363436 0.116707623
0.532984316 0.332908869 0.134372622
0.588244498 0.337525368 0.152377367
0.646350741 0.343580693 0.171558946
0.707175195 0.351238430 0.191947833
0.770372689 0.360677838 0.213354021
0.833817303 0.371462941 0.234938830
0.894725204 0.383100182 0.256090939
0.062421128 0.372381657 0.084526256
0.115709573 0.372982472 0.084526256
0.171050638 0.374409169 0.083610006
0.216882274 0.375768602 0.081932627
0.251614869 0.376980364 0.080749251
0.292026877 0.378039002 0.079052322
0.336633533 0.379253894 0.077324882
0.384753495 0.380125880 0.078902632
0.434792131 0.381121248 0.097363010
0.486424267 0.382829636 0.115423687
0.540008783 0.385267019 0.133814499
0.595849514 0.388613522 0.152721003
0.654342949 0.393239886 0.172410265
0.715516746 0.399245441 0.193134576
0.778555095 0.406810790 0.214716762
0.842038751 0.415736824 0.236670703
0.902927995 0.425473005 0.257982641
0.074054129 0.430220217 0.101143256
0.124179564 0.430761456 0.101316951
0.178164676 0.431829095 0.100411691
0.222715199 0.432977498 0.098959193
0.256859750 0.434031487 0.097864196
0.296520203 0.435188413 0.096498251
0.340435535 0.436399162 0.094474256
0.387942851 0.437649399 0.092599943
0.438633591 0.438569099 0.092547879
0.491331547 0.439477265 0.112350561
0.545773804 0.441040009 0.132050559
0.602358580 0.443397015 0.152065501
0.661443055 0.446719080 0.172481000
0.723069191 0.451329917 0.193691894
0.786574721 0.457219034 0.215889692
0.850223064 0.464320093 0.238216639
0.911096573 0.472247213 0.259712368
0.088928506 0.489108503 0.118395001
0.134786189 0.489441693 0.118395001
0.186400384 0.490400642 0.118058503
0.229740024 0.491456151 0.116767570
0.263188243 0.492380500 0.115937755
0.302007139 0.493473709 0.114403442
0.345112145 0.494669139 0.112721004
0.391881943 0.495911956 0.110748194
0.441798031 0.497057498 0.108788505
0.494904160 0.497978866 0.107345134
0.550347507 0.498815656 0.128681496
0.607738018 0.500355422 0.150200993
0.667562962 0.502668738 0.171690002
0.729779482 0.506010413 0.193781137
0.793756604 0.510426760 0.216676012
0.857834220 0.515985250 0.239481330
0.919086993 0.522337496 0.261285007
0.105686754 0.548386514 0.136417687
0.147567376 0.548667550 0.136543691
0.196429938 0.549443424 0.135994688
0.238348573 0.550262332 0.135424435
0.270956427 0.551126003 0.134386376
0.308766812 0.552075922 0.133082822
0.350944459 0.553273320 0.131593436
0.396718889 0.554432154 0.129740670
0.445905566 0.555680871 0.127628759
0.498100311 0.556786895 0.125623301
0.553749442 0.557729959 0.124346562
0.612041593 0.558491290 0.147030503
0.672517717 0.559930146 0.169917509
0.735509992 0.562242389 0.193194702
0.800202370 0.565531850 0.216809660
0.864772856 0.569758952 0.240360200
0.926418006 0.574724555 0.262639016
0.126212627 0.607315123 0.155340001
0.163033888 0.607543588 0.155340001
0.208897367 0.608144879 0.155083627
0.249080554 0.608898282 0.154290885
0.280453503 0.609569371 0.153599128
0.317112744 0.610429525 0.152669817
0.358136177 0.611517608 0.151210755
0.402884483 0.612667739 0.149555132
0.450943530 0.613865852 0.147672623
0.502148390 0.615006804 0.145668119
0.556931734 0.616138458 0.143771872
0.615314960 0.617069662 0.142639562
0.676620662 0.617772520 0.167297259
0.740266800 0.619347990 0.191869408
0.805631518 0.621618807 0.216472790
0.870873272 0.624802589 0.240778401
0.933003604 0.628668010 0.263627619
0.148810372 0.665567458 0.174635947
0.181055859 0.665778935 0.174635947
0.223597929 0.666281819 0.174437433
0.261490166 0.666898608 0.173997313
0.291602373 0.667539537 0.173326939
0.326937914 0.668234110 0.172423989
0.366711080 0.669234753 0.171211377
0.410196722 0.670286894 0.169844449
0.456983745 0.671444356 0.168039113
0.507104635 0.672697544 0.166048765
0.560741067 0.673838675 0.164153069
0.618162870 0.674926043 0.162234440
0.679765046 0.675823927 0.163543075
0.744195879 0.676623404 0.189674914
0.810238838 0.678172290 0.215663895
0.876120269 0.680496931 0.240907088
0.938794136 0.683443904 0.264378995
0.172031507 0.722833037 0.194389001
0.200922370 0.722997248 0.194389001
0.239822134 0.723403037 0.194261491
0.275462508 0.723991036 0.193819761
0.303947985 0.724505484 0.193272755
0.337909669 0.725207329 0.192674369
0.376215011 0.726060390 0.191536263
0.418390095 0.727066159 0.190275192
0.463944763 0.728191972 0.188794509
0.512727320 0.729347706 0.186986327
0.565289497 0.730644763 0.185077995
0.621749997 0.731813788 0.182987317
0.682487249 0.732884526 0.181115001
0.747375011 0.733732164 0.186598033
0.814021111 0.734638572 0.214101523
0.879956365 0.735641956 0.240160778
0.941242695 0.736272037 0.263699234
0.195907399 0.779000103 0.214467257
0.221412569 0.779282510 0.214467257
0.256962180 0.779599249 0.214444399
0.290214002 0.780066967 0.214103952
0.317323804 0.780533671 0.213785574
0.349768370 0.781089425 0.213101462
0.386600226 0.781926930 0.212233275
0.427307993 0.782856226 0.211152643
0.471531093 0.783926725 0.209669515
0.519151628 0.785035431 0.208142072
0.570534170 0.786304533 0.206175134
0.625905395 0.787523448 0.204259768
0.685779631 0.788776755 0.202276498
0.748607039 0.788542271 0.200208560
0.814484894 0.787998319 0.210874647
0.879843354 0.787603736 0.237772718
0.941544473 0.787589431 0.262260824
0.219103396 0.834350824 0.234742135
0.241939828 0.834623218 0.234731883
0.274558276 0.834900260 0.234599143
0.305665463 0.835240781 0.234394133
0.331267476 0.835679650 0.234066024
0.362193048 0.836134911 0.233458698
0.397655159 0.837044537 0.232767880
0.436717957 0.837438583 0.231690586
0.479197264 0.837819815 0.230376765
0.525140405 0.838380992 0.228664637
0.574755967 0.838946044 0.226661772
0.628291845 0.839376688 0.224412397
0.686164856 0.839736164 0.222071633
0.748038173 0.839811325 0.219924390
0.812903583 0.839197278 0.217685640
0.877925277 0.837669373 0.234365463
0.938468099 0.835726798 0.259045750
0.240580767 0.886029005 0.253992647
0.260996640 0.886116028 0.253852040
0.290960968 0.886243939 0.253852040
0.319894075 0.886432707 0.253693044
0.343971610 0.886580527 0.253289342
0.373191804 0.886838317 0.252838463
0.406789690 0.887187421 0.252093911
0.444386125 0.887578547 0.251110643
0.485522151 0.887965560 0.249836504
0.530018926 0.888407052 0.248333946
0.578168869 0.888710976 0.246356711
0.630159318 0.888864398 0.244145885
0.686204255 0.888611794 0.241654202
0.745968342 0.887719870 0.238943204
0.808475435 0.885921896 0.236064076
0.871303916 0.883127332 0.233330071
0.930043519 0.878912330 0.253882259
0.261067986 0.935675025 0.272937000
0.279396117 0.935673237 0.272798985
0.306820244 0.935565412 0.272523999
0.333680868 0.935617030 0.272386014
0.356169760 0.935565233 0.272005498
0.383705676 0.935558021 0.271460414
0.415792763 0.935558021 0.270775110
0.451515347 0.935450494 0.269651324
0.490836501 0.935353041 0.268487513
0.533428609 0.935109496 0.266831368
0.579518259 0.934535265 0.264789492
0.629263043 0.933658004 0.262332708
0.682812274 0.932180285 0.259393513
0.739846587 0.929918408 0.256210923
0.799453318 0.926555753 0.252530754
0.859224319 0.922045708 0.248787433
0.915764987 0.916548014 0.245601997
0.003844438 0.003844438 0.056506313
0.065772504 0.006949125 0.082236931
0.128102556 0.014687250 0.088392183
0.172821149 0.025579376 0.093486249
0.207218632 0.034894504 0.099084184
0.245602071 0.045454688 0.105821066
0.288101405 0.057501756 0.114326254
0.333474487 0.071042009 0.124036185
0.381406575 0.084729388 0.134847119
0.432233512 0.099257126 0.147062123
0.485629171 0.114496060 0.160259426
0.542416573 0.130990997 0.175107181
0.602898717 0.148906559 0.191399753
0.666566670 0.168219954 0.209172145
0.732556522 0.189046204 0.228297457
0.798739016 0.210927010 0.248308644
0.862151921 0.232619315 0.267991364
0.009265875 0.094611749 0.097006559
0.080753505 0.096224815 0.098615132
0.145423993 0.098595753 0.100906372
0.191904381 0.102420442 0.104729317
0.225317448 0.105865374 0.108358249
0.263561040 0.110978939 0.113894373
0.304505885 0.117170438 0.121009685
0.348533839 0.124851629 0.129379258
0.395183325 0.133689880 0.139640570
0.444342762 0.144008875 0.150856942
0.496826112 0.155446187 0.163770944
0.552516997 0.168202192 0.178016931
0.611737251 0.182812929 0.194034755
0.674326599 0.199054077 0.211348265
0.739457905 0.217260644 0.230252698
0.804864645 0.236734584 0.249962911
0.867669582 0.256251603 0.269507021
0.021735001 0.170444131 0.106449500
0.090080000 0.171325698 0.107214242
0.152218133 0.172956005 0.107583314
0.201332748 0.174541369 0.110142872
0.236849070 0.175899312 0.113955617
0.276304066 0.178217754 0.119245820
0.318344146 0.181369871 0.126093239
0.362511545 0.185595691 0.134334698
0.409068197 0.191142872 0.144037068
0.457975805 0.197813869 0.154947251
0.509675026 0.206053242 0.167503059
0.564547181 0.215566754 0.181263059
0.622811437 0.226993874 0.196859807
0.684567869 0.240226999 0.214161217
0.748636842 0.255475014 0.232717201
0.813126445 0.272041768 0.252209336
0.875160635 0.288998008 0.271550924
0.031247318 0.218765393 0.113299072
0.096293934 0.219297260 0.113973498
0.156618252 0.221035466 0.114321940
0.204968244 0.222585633 0.113948122
0.241471559 0.223453209 0.116028428
0.282221228 0.224930450 0.121806815
0.325164557 0.226706401 0.128621429
0.370347232 0.229582950 0.136965126
0.417413443 0.233497009 0.146578178
0.466646999 0.238453940 0.157481059
0.518403947 0.244726941 0.169872016
0.573009431 0.252393126 0.183565259
0.631030262 0.261923134 0.199064881
0.692118347 0.273194641 0.216171011
0.755655706 0.286304384 0.234548837
0.819778025 0.301019073 0.253995091
0.881259203 0.316177487 0.273319244
0.041028563 0.265519202 0.120572247
0.102401122 0.266031742 0.121536568
0.161156937 0.267665118 0.121536568
0.208438829 0.269220084 0.120920062
0.244731516 0.270422041 0.120303318
0.286038637 0.271275431 0.122803062
0.330242842 0.272398114 0.130064011
0.376449287 0.274306536 0.138612568
0.424376339 0.277014583 0.148304865
0.474194944 0.280678123 0.159473762
0.526260495 0.285431594 0.171773002
0.580956817 0.291510493 0.185500816
0.638866007 0.299095988 0.201046750
0.699749827 0.308666885 0.218059823
0.762942195 0.319997847 0.236558273
0.826657593 0.332817048 0.255885780
0.887865663 0.346226156 0.275066316
0.051764313 0.317701995 0.129505068
0.109020747 0.318076670 0.130197570
0.166618794 0.319228649 0.130405188
0.212788254 0.320636153 0.129582569
0.248240501 0.321773529 0.129210368
0.289273560 0.323098660 0.128532365
0.334192514 0.324015766 0.130329490
0.381609410 0.325124562 0.139454424
0.430610389 0.326877832 0.149522752
0.481197566 0.329446763 0.160932630
0.534011066 0.332913995 0.173407316
0.589172244 0.337459713 0.187430441
0.647217929 0.343450874 0.202970192
0.708078921 0.351187915 0.220129266
0.771086335 0.360547125 0.238648713
0.834435105 0.371426761 0.257972479
0.895339072 0.383047312 0.277163416
0.062644631 0.373165995 0.140076503
0.116820380 0.373450339 0.140626371
0.172531992 0.374372512 0.140644252
0.217853963 0.375622630 0.140145943
0.252774000 0.376753300 0.139518812
0.292859554 0.378057003 0.138496995
0.337402403 0.379259884 0.137647256
0.385545522 0.380288213 0.138807058
0.435615778 0.381317139 0.149588138
0.487199187 0.382820576 0.161364749
0.540765882 0.385329068 0.174503371
0.596677721 0.388697594 0.188711435
0.655096769 0.393206894 0.204602629
0.716211557 0.399197489 0.221892893
0.779294312 0.406773210 0.240678445
0.842678189 0.415659010 0.260030061
0.903463364 0.425423026 0.279285014
0.074616075 0.430841148 0.151687548
0.125436068 0.431066096 0.152194440
0.179477766 0.431857914 0.152210936
0.223896697 0.432926834 0.151720673
0.257982075 0.433955610 0.151259944
0.297377825 0.435119867 0.150414675
0.341108710 0.436465204 0.149098620
0.388645023 0.437719405 0.147891179
0.439283103 0.438604087 0.147977889
0.492009461 0.439549655 0.160805821
0.546389818 0.441069633 0.174516618
0.603027582 0.443420470 0.189401746
0.662191868 0.446804225 0.205565304
0.723765075 0.451315284 0.223327264
0.787133753 0.457145274 0.242323086
0.850810528 0.464275539 0.262006670
0.911663532 0.472180843 0.281379253
0.089585006 0.489666283 0.164578438
0.135801449 0.489810348 0.164819688
0.187804684 0.490423679 0.165044561
0.230983630 0.491384596 0.164608806
0.264281482 0.492264509 0.164123639
0.302966624 0.493375182 0.163285881
0.345817000 0.494569540 0.162034824
0.392455280 0.495886445 0.160849750
0.442408621 0.497061759 0.159405872
0.495483816 0.498066604 0.158529311
0.550895214 0.498873502 0.173247501
0.608265281 0.500334561 0.189021245
0.668087363 0.502682090 0.205873370
0.730325162 0.505985498 0.224266708
0.794279099 0.510429859 0.243582889
0.858333230 0.515973449 0.263697565
0.919531941 0.522281945 0.283323765
0.106060319 0.548813462 0.178343311
0.148627132 0.548986495 0.178977877
0.197797060 0.549553216 0.178882942
0.239522189 0.550262332 0.178577930
0.272047490 0.550977588 0.178133070
0.309723258 0.551948667 0.177423120
0.351689547 0.553125083 0.176235124
0.397389412 0.554381371 0.175019875
0.446389735 0.555597901 0.173359320
0.498593181 0.556778729 0.172111049
0.554264128 0.557738483 0.171068743
0.612427056 0.558470190 0.187594995
0.673017621 0.560045242 0.205540016
0.735962033 0.562341571 0.224534899
0.800580382 0.565595508 0.244678885
0.865221739 0.569784045 0.265099466
0.926807225 0.574704468 0.285065293
0.126938194 0.607680380 0.193582878
0.164095491 0.607817054 0.193988696
0.210071117 0.608273804 0.193988696
0.250216186 0.608866870 0.193711177
0.281493396 0.609503984 0.193417817
0.318062633 0.610333085 0.192680627
0.358938545 0.611387312 0.191732258
0.403532416 0.612606943 0.190472931
0.451444149 0.613792896 0.189032122
0.502632082 0.614996791 0.187502876
0.557248533 0.616163969 0.186064810
0.615652919 0.617021561 0.185359687
0.676962197 0.617828965 0.204346493
0.740643024 0.619363427 0.224189132
0.805957079 0.621684074 0.245049581
0.871259511 0.624842823 0.266157150
0.933330894 0.628705323 0.286541164
0.149426743 0.665850163 0.209652618
0.182100683 0.665944517 0.209942624
0.224450678 0.666339397 0.209999815
0.262482613 0.666835666 0.209894001
0.292517602 0.667400301 0.209662884
0.327846944 0.668188751 0.209045500
0.367407054 0.669038951 0.208133563
0.410803050 0.670161307 0.207028806
0.457565188 0.671387732 0.205656365
0.507464051 0.672601521 0.204083994
0.561077356 0.673866808 0.202399746
0.618512511 0.674929440 0.200870186
0.680093884 0.675830066 0.202106386
0.744426310 0.676657021 0.223259270
0.810497642 0.678203106 0.244980201
0.876396537 0.680541277 0.266731948
0.939111531 0.683416367 0.287644625
0.172706753 0.723087251 0.226601943
0.201640114 0.723254681 0.226920828
0.240609944 0.723505974 0.226931438
0.276337802 0.724021673 0.226879060
0.304933250 0.724444270 0.226579577
0.338716179 0.725109458 0.225992247
0.376970589 0.725968897 0.225329742
0.418996423 0.726999998 0.224330068
0.464355469 0.728072524 0.223043382
0.513134837 0.729294956 0.221420392
0.565582037 0.730593801 0.219960243
0.622028291 0.731798708 0.218222380
0.682787120 0.732884526 0.216827631
0.747528076 0.733727098 0.221363336
0.814271510 0.734679043 0.244198069
0.880128920 0.735626161 0.266564101
0.941422462 0.736337423 0.287402004
0.196320534 0.779266179 0.244051263
0.221925810 0.779400945 0.244364947
0.257717282 0.779650211 0.244364947
0.290989608 0.780040741 0.244364947
0.318101376 0.780473709 0.244129390
0.350491345 0.781031072 0.243620187
0.387262970 0.781839073 0.243029699
0.427935392 0.782760978 0.242133334
0.472019017 0.783793271 0.241032332
0.519533575 0.785035551 0.239627078
0.570806563 0.786251724 0.238040954
0.626107216 0.787530184 0.236381084
0.685872495 0.788670957 0.234669879
0.748717368 0.788473248 0.232879505
0.814636111 0.787986994 0.241756767
0.879970193 0.787601471 0.264734060
0.941649556 0.787466884 0.286101550
0.219323769 0.834635854 0.262183726
0.242433637 0.834684849 0.262210846
0.275214523 0.834919512 0.262202412
0.306463063 0.835257947 0.262166083
0.331937909 0.835603297 0.262030780
0.362788498 0.836122394 0.261733085
0.398214340 0.836885393 0.261199743
0.437171429 0.837266803 0.260210097
0.479548752 0.837720335 0.258941799
0.525418639 0.838230968 0.257472783
0.574997604 0.838785052 0.255799085
0.628470719 0.839305222 0.253738761
0.686255097 0.839660048 0.251743197
0.748099685 0.839692473 0.249653757
0.813062727 0.839163303 0.247707888
0.878039241 0.837603688 0.261952102
0.938515246 0.835649669 0.283422202
0.240888387 0.886180997 0.279281646
0.261566639 0.886234224 0.279407114
0.291431338 0.886295199 0.279398918
0.320414096 0.886365891 0.279264688
0.344532818 0.886509836 0.279004723
0.373724192 0.886757791 0.278634936
0.407370329 0.887075663 0.278020650
0.444868714 0.887449265 0.277227163
0.485889405 0.887857318 0.276091725
0.530343950 0.888265729 0.274754584
0.578432620 0.888613224 0.272988468
0.630285740 0.888701141 0.270991474
0.686297953 0.888460755 0.268662244
0.746047676 0.887621284 0.266008556
0.808477581 0.885801911 0.263322383
0.871318042 0.882854342 0.260631979
0.930034280 0.878752530 0.278251439
0.261077046 0.935733974 0.295994252
0.279789120 0.935620666 0.296002239
0.307165116 0.935530841 0.295877069
0.334019870 0.935477376 0.295743793
0.356664360 0.935415626 0.295524865
0.384220123 0.935373187 0.295147300
0.416151345 0.935367584 0.294447333
0.451955646 0.935325801 0.293587685
0.491102189 0.935153008 0.292510360
0.533697844 0.934881806 0.290957749
0.579698563 0.934326351 0.288944393
0.629361451 0.933437586 0.286655128
0.682917237 0.931980968 0.283907562
0.739926219 0.929741442 0.280722141
0.799380541 0.926381469 0.277162820
0.859128535 0.921844125 0.273559451
0.915733159 0.916338921 0.270290732
0.011533250 0.012222750 0.107922502
0.063052997 0.016954686 0.131388247
0.128059372 0.019319750 0.149581507
0.177336633 0.025480876 0.156654939
0.210753500 0.034204252 0.158827499
0.249690190 0.045269437 0.163271487
0.291450024 0.057501756 0.168546632
0.336421430 0.070548385 0.175238490
0.384273887 0.084243998 0.183292747
0.434473068 0.098689623 0.192278937
0.487860262 0.114126623 0.202840120
0.544517338 0.130685434 0.214832440
0.604518414 0.148452252 0.228328750
0.667954683 0.167747572 0.243520141
0.733784318 0.188694254 0.260190010
0.799839079 0.210742325 0.277953088
0.863167405 0.232609004 0.295518249
0.020897625 0.094999187 0.159649685
0.083040193 0.097361378 0.163878873
0.145110875 0.099707372 0.168144196
0.193280578 0.102468446 0.170026183
0.227245823 0.105795629 0.171007246
0.265410423 0.110851377 0.173256680
0.306693405 0.117149197 0.177174002
0.350767940 0.125028819 0.182551250
0.397119015 0.133540943 0.189147443
0.446475089 0.143627927 0.197376311
0.498553991 0.155351683 0.207125261
0.554122984 0.168099135 0.218337938
0.613292694 0.182582140 0.231543303
0.675773680 0.198857397 0.246114522
0.740548790 0.217071086 0.262425005
0.805987477 0.236562520 0.279916257
0.868580878 0.256112874 0.297237486
0.019418376 0.171109393 0.174067125
0.089212187 0.172250256 0.174991697
0.152984500 0.173611492 0.176524490
0.202315688 0.174735874 0.177406386
0.238532245 0.176050365 0.178893864
0.277684689 0.178025931 0.180714756
0.319774777 0.181205750 0.184365749
0.364318460 0.185515046 0.189030364
0.410819769 0.190936759 0.195112869
0.459853798 0.197687745 0.202776685
0.511375368 0.205818892 0.211959481
0.566073418 0.215386316 0.222584397
0.624311268 0.226792872 0.235218883
0.685831189 0.240057021 0.249508634
0.749697983 0.255325675 0.265439510
0.814176261 0.271930158 0.282508612
0.876175106 0.288981497 0.299730271
0.028142503 0.219769314 0.178746879
0.095119931 0.220531702 0.179232880
0.157581002 0.221690208 0.180303618
0.205894455 0.222782269 0.180960566
0.242665619 0.223627463 0.181980118
0.283491999 0.224952951 0.184461117
0.326617002 0.226760328 0.187917680
0.371958643 0.229489580 0.192579508
0.419198394 0.233299762 0.198556125
0.468510449 0.238292873 0.206172004
0.520012021 0.244512454 0.215002701
0.574517667 0.252261549 0.225488946
0.632354677 0.261671185 0.237820327
0.693416297 0.272995621 0.251847804
0.756750882 0.286158055 0.267608643
0.820820570 0.300911784 0.284583300
0.882179856 0.316155374 0.301567614
0.037359003 0.266873240 0.183831006
0.101363935 0.267392248 0.184272125
0.162371010 0.268105507 0.185326248
0.209709585 0.269229054 0.185908616
0.245552123 0.270346493 0.185778260
0.287167698 0.271368951 0.186930746
0.331418008 0.272597253 0.190598756
0.377903759 0.274392694 0.195423871
0.425964773 0.277005732 0.201515004
0.475784987 0.280560881 0.208898559
0.527774990 0.285244524 0.217773110
0.582461834 0.291343927 0.228160560
0.640242279 0.299049497 0.240465760
0.701019824 0.308436990 0.254382521
0.764095247 0.319791377 0.269965023
0.827594995 0.332599103 0.286738545
