public/lut/66.cube
TITLE "17x17x17 Adobe/IRIDAS cube 3D LUT exported with GrossGrade v0.2.2 (beta) 64 bit"
DOMAIN_MIN 0 0 0
DOMAIN_MAX 1 1 1
LUT_3D_SIZE 5
0.000000000 0.000000000 0.000000000
0.195798263 0.013208751 0.035485502
0.421568513 0.007097000 0.099100009
0.683971286 0.028192004 0.181657001
0.935441017 0.175810993 0.275539994
0.081345499 0.222981498 0.059397001
0.268996775 0.228535756 0.056027755
0.489124507 0.233312756 0.114639506
0.727785707 0.263703257 0.193727016
0.959737480 0.335094512 0.284857005
0.131161004 0.500235498 0.131161004
0.308362752 0.506105542 0.126123518
0.522240996 0.513008475 0.120552003
0.762275815 0.523025751 0.203637764
0.983452499 0.553428054 0.299636006
0.271229744 0.761440277 0.237773001
0.388299227 0.764084458 0.236029997
0.562975287 0.768845797 0.231377274
0.781882763 0.772815228 0.230958015
0.987576246 0.778979063 0.322171986
0.454573005 0.945568025 0.356858999
0.520991266 0.945568025 0.355479240
0.639739037 0.944744468 0.352114975
0.802179754 0.939954996 0.346567243
0.968741000 0.927127004 0.341226995
0.014785750 0.016362749 0.146812245
0.210181504 0.010448250 0.222908735
0.433512032 0.005520001 0.250114262
0.690139771 0.030163003 0.300794005
0.937855005 0.179925993 0.367368013
0.075780749 0.228242010 0.261451006
0.275415748 0.230376750 0.267486513
0.495827496 0.234381750 0.282577753
0.732016504 0.265130997 0.320049018
0.961463451 0.336870015 0.379164517
0.137906760 0.504105270 0.301600486
0.315831244 0.507097006 0.304609478
0.526108265 0.514601111 0.303732216
0.765442014 0.524331331 0.338526756
0.984671712 0.554526985 0.396880478
0.276409984 0.763443828 0.364112020
0.393693507 0.764485776 0.365888000
0.565367222 0.769215286 0.364402533
0.782356739 0.773775697 0.364131778
0.985047936 0.780366540 0.431412995
0.457404733 0.945568025 0.445988744
0.532431483 0.943861485 0.457745999
0.641897559 0.943890452 0.446759999
0.800824225 0.939758241 0.436678261
0.966463983 0.926985502 0.429057240
0.013799999 0.052335501 0.321400523
0.200578749 0.052334003 0.394384265
0.451786041 0.001971499 0.458844513
0.701467276 0.032725755 0.480337262
0.942034483 0.188598499 0.519278526
0.105627753 0.232593000 0.464050293
0.282228261 0.237693757 0.476125747
0.502469540 0.238721013 0.494852781
0.737199783 0.270583510 0.504399240
0.963136792 0.342186749 0.534046054
0.144045502 0.510318518 0.509923458
0.322526485 0.513026476 0.512313724
0.531437516 0.517515481 0.516906977
0.769331276 0.526296854 0.527556300
0.993316531 0.551556528 0.547597528
0.284186006 0.767610550 0.543196023
0.400067270 0.768323541 0.544885039
0.570737243 0.770058513 0.548549294
0.782618225 0.775587797 0.548738718
0.976590276 0.783890486 0.599092782
0.460689992 0.947040498 0.589386463
0.533509493 0.944801807 0.594780743
0.691245556 0.933680534 0.649496973
0.820768237 0.930986762 0.662448049
0.954684019 0.923916519 0.674759030
0.065598004 0.097921751 0.526491046
0.227639765 0.099314004 0.578472733
0.446622759 0.075272009 0.647434711
0.720513999 0.032923006 0.705786049
0.949573278 0.204662994 0.718929291
0.177163005 0.250781238 0.653106034
0.309511989 0.258498996 0.669767201
0.501404762 0.268042743 0.698325992
0.747699261 0.279923260 0.728108227
0.965698242 0.353244007 0.734038234
0.240363255 0.514383018 0.727058768
0.365268499 0.518025756 0.731245756
0.545754969 0.524622798 0.738756716
0.772215009 0.532206535 0.750601292
0.987821519 0.559008539 0.755903482
0.307927489 0.772842288 0.755851984
0.415913761 0.773652256 0.757121503
0.580430746 0.775146723 0.759582520
0.784619570 0.778385282 0.763781190
0.978608727 0.784140050 0.769458055
0.470729232 0.948912024 0.770304799
0.536146998 0.947134018 0.770626307
0.699116945 0.934267998 0.790053487
0.812646985 0.932179987 0.785156727
0.950262487 0.923514009 0.787075996
0.197357997 0.154133007 0.731444001
0.303106755 0.159654737 0.765376747
0.477140516 0.168673992 0.819329977
0.714758992 0.184316009 0.877244473
0.965572000 0.226219997 0.919493020
0.284058005 0.290856004 0.823692739
0.374384761 0.299610734 0.839190960
0.528997481 0.314627230 0.867293715
0.744843483 0.335225999 0.901986241
0.976189017 0.369443506 0.930477738
0.363924503 0.526125550 0.900769472
0.445081264 0.530585051 0.905642986
0.584659040 0.534805059 0.940551519
0.787156463 0.545113266 0.945091248
0.987446487 0.572489023 0.946722984
0.428723246 0.773992479 0.938467741
0.500950217 0.775354505 0.940056741
0.631737709 0.777714729 0.940275252
0.799659014 0.782944977 0.947919011
0.976389527 0.788223267 0.947681785
0.506744981 0.948538005 0.943543017
0.561445713 0.947069049 0.942774475
0.717771530 0.934149981 0.932680011
0.819525242 0.931119502 0.930957258
0.947184980 0.921079993 0.921976984
