public/lut/66.cube
TITLE "17x17x17 Adobe/IRIDAS cube 3D LUT exported with GrossGrade v0.2.2 (beta) 64 bit"
DOMAIN_MIN 0 0 0
DOMAIN_MAX 1 1 1
LUT_3D_SIZE 17
0.000000000 0.000000000 0.000000000
0.058220062 0.003104750 0.004632438
0.116046377 0.007787375 0.015376750
0.154305503 0.010103251 0.024642628
0.195798263 0.013208751 0.035485502
0.244641379 0.014194000 0.049045812
0.299334407 0.013208374 0.064711377
0.358763844 0.011385186 0.081016384
0.421568513 0.007097000 0.099100009
0.486129433 0.006061875 0.117907934
0.551821589 0.008477375 0.138210997
0.618044674 0.008378812 0.159665495
0.683971286 0.028192004 0.181657001
0.749463916 0.046753779 0.204552963
0.814069688 0.087009415 0.228334144
0.876622379 0.131924421 0.252111107
0.935441017 0.175810993 0.275539994
0.017003998 0.068481319 0.010053875
0.082562372 0.070503443 0.010793563
0.142541006 0.071030870 0.021587189
0.182439506 0.071634375 0.031789813
0.223493129 0.071673065 0.043154437
0.271474123 0.071148753 0.056334749
0.324296206 0.069266438 0.071137190
0.381265402 0.066778496 0.087133132
0.441521913 0.062601186 0.104446813
0.503684163 0.060832627 0.122948244
0.566976547 0.061146438 0.142688006
0.630800486 0.071302876 0.163526937
0.695040047 0.088200949 0.185100377
0.758962750 0.113463089 0.207504272
0.822073996 0.144700661 0.230812147
0.883415997 0.180211470 0.254187107
0.941233277 0.214494258 0.277540267
0.045435503 0.130477875 0.029374501
0.102272689 0.132460058 0.029374501
0.161083758 0.133083001 0.029374501
0.202759624 0.132480755 0.037309751
0.245577261 0.131613865 0.048796128
0.294747382 0.131061941 0.062133122
0.347747147 0.129855633 0.076705880
0.404248208 0.129387259 0.092956692
0.462931037 0.129652381 0.109868377
0.523146689 0.132057816 0.127841562
0.584453225 0.137319744 0.147299126
0.646082819 0.147534937 0.167563125
0.708253920 0.161801755 0.188791379
0.770609736 0.182019457 0.210813761
0.831973076 0.205237150 0.233609542
0.891754329 0.231709033 0.256973833
0.948181510 0.259858012 0.280176491
0.064785376 0.172337696 0.044036001
0.115931436 0.174138308 0.042692691
0.172419682 0.175258443 0.042692691
0.213869438 0.175484449 0.042692691
0.258029759 0.175031453 0.051376939
0.308046937 0.174788147 0.064959809
0.361678421 0.174442887 0.079564005
0.418186605 0.174932063 0.095577948
0.476381481 0.176558644 0.112653501
0.535772085 0.180333018 0.130752742
0.595822394 0.186635062 0.149848759
0.656480372 0.196447819 0.169901252
0.717709005 0.209669888 0.191058695
0.778792083 0.226500213 0.213006273
0.839183807 0.246584162 0.235730395
0.897934794 0.269356877 0.258995593
0.953441739 0.294056326 0.282155633
0.081345499 0.222981498 0.059397001
0.129856065 0.224849448 0.058223374
0.185028762 0.226906493 0.056572501
0.225208074 0.227745444 0.056492001
0.268996775 0.228535756 0.056027755
0.319623291 0.228818893 0.065140754
0.374164164 0.229472890 0.080810256
0.430785030 0.230773002 0.097256385
0.489124507 0.233312756 0.114639506
0.548209190 0.237465739 0.132911250
0.607689202 0.243687749 0.152288631
0.667587578 0.252311707 0.172407061
0.727785707 0.263703257 0.193727016
0.787962079 0.277803212 0.215650022
0.847403705 0.294683039 0.238372773
0.905169010 0.313759834 0.261686951
0.959737480 0.335094512 0.284857005
0.093056314 0.285243571 0.074897312
0.141275242 0.287191361 0.073570505
0.195847258 0.289718628 0.071991064
0.235717207 0.291317314 0.070417747
0.278692842 0.292533368 0.069886565
0.328804731 0.293995827 0.068621881
0.384050399 0.294914097 0.079206385
0.441693664 0.296619385 0.096852072
0.500183046 0.299011320 0.115096003
0.559333503 0.302834302 0.134088755
0.618822932 0.308097988 0.154078007
0.678260326 0.315177709 0.174786508
0.737916589 0.324257374 0.196268305
0.797512591 0.335721880 0.218444526
0.856013656 0.349425435 0.241309717
0.912830293 0.365382850 0.264766842
0.966270626 0.383351684 0.287859887
0.101135381 0.355371416 0.091241002
0.150273442 0.356919795 0.090146631
0.204998001 0.359390140 0.088265248
0.244667768 0.361141235 0.086693875
0.287377626 0.363013893 0.084642753
0.336884320 0.364661276 0.083326876
0.391540766 0.366240382 0.082399376
0.449679077 0.367610902 0.093616761
0.509034991 0.369607627 0.113728508
0.568618298 0.372466326 0.134437740
0.628235340 0.376395136 0.155460507
0.687869430 0.381844133 0.176840365
0.747350395 0.388918132 0.198750138
0.806372404 0.397915065 0.221485198
0.864356220 0.408889651 0.244636908
0.920232475 0.422034711 0.268121958
0.972467005 0.437034011 0.291481137
0.112067759 0.428109348 0.109639570
0.161219507 0.429489851 0.108937822
0.215414435 0.431545794 0.107378818
0.254637986 0.433225840 0.105942443
0.296626687 0.434999138 0.103900194
0.345404178 0.436892211 0.101746134
0.399146080 0.438574553 0.100186259
0.456366658 0.440125853 0.099792816
0.516086936 0.441505611 0.111052819
0.576175094 0.443592578 0.133671820
0.636213899 0.446445465 0.156065747
0.696024477 0.450387657 0.178400069
0.755511045 0.455695212 0.201221809
0.814318001 0.462653726 0.224456474
0.871705830 0.471336722 0.248105645
0.926850677 0.481920660 0.271783918
0.978026986 0.494286954 0.295395434
0.131161004 0.500235498 0.131161004
0.177268639 0.501165271 0.130706996
0.229409888 0.502935886 0.129399866
0.267567158 0.504411936 0.127987817
0.308362752 0.506105542 0.126123518
0.355600119 0.507904232 0.124231502
0.407896519 0.509716153 0.122311264
0.463731229 0.511403620 0.121043012
0.522240996 0.513008475 0.120552003
0.582371831 0.514269471 0.132131249
0.642786503 0.516221523 0.156159118
0.702775121 0.519100308 0.179887176
0.762275815 0.523025751 0.203637764
0.820808053 0.528225422 0.227468848
0.877845049 0.534992099 0.251612902
0.932322621 0.543393016 0.275729477
0.983452499 0.553428054 0.299636006
0.158414006 0.570585847 0.155223995
0.199582502 0.571324944 0.154983193
0.248113185 0.572713852 0.154000372
0.284045398 0.573941648 0.152833253
0.322794497 0.575464964 0.151426867
0.368090063 0.577130139 0.149702311
0.418326199 0.578928649 0.147674128
0.472420901 0.580649793 0.146078318
0.529209793 0.582225800 0.144758195
0.588061929 0.583554029 0.144499555
0.648387730 0.584941149 0.156345502
0.708411396 0.586822093 0.181372628
0.767743111 0.589559913 0.206174940
0.826122701 0.593447924 0.230814159
0.882658601 0.598559201 0.255539715
0.936531723 0.605098486 0.280053616
0.986866832 0.613127470 0.304314137
0.191958249 0.638109267 0.181452498
0.227419257 0.638725221 0.181109995
0.271076143 0.639851153 0.180495873
0.304380953 0.640897870 0.179742739
0.340678632 0.642127514 0.178428113
0.383458704 0.643607497 0.176968008
0.431309134 0.645238876 0.175268754
0.483092338 0.646964908 0.173497498
0.537847877 0.648525476 0.171930119
0.594992042 0.649942517 0.171034366
0.653697371 0.651144207 0.171351001
0.713397622 0.652329206 0.183224440
0.772524774 0.654155731 0.209188759
0.830438554 0.656811714 0.234718844
0.886452198 0.660581529 0.260036051
0.939610660 0.665576339 0.285161197
0.988332868 0.671791017 0.309903860
0.229848877 0.701955557 0.208917066
0.259968579 0.702515602 0.208787128
0.298704892 0.703433037 0.208192438
0.328867257 0.704267561 0.207641006
0.362413585 0.705271721 0.206768185
0.402339399 0.706500888 0.205585301
0.447433621 0.707973182 0.204070181
0.496621907 0.709444225 0.202520818
0.548986435 0.710932314 0.201002687
0.603837609 0.712282836 0.199842438
0.660575986 0.713489413 0.199362382
0.718470216 0.714475274 0.200181872
0.777059376 0.715599775 0.213378191
0.834334373 0.717248976 0.239644468
0.889640927 0.719860017 0.265531421
0.941867471 0.723433614 0.291091025
0.988591015 0.728154600 0.316130430
0.271229744 0.761440277 0.237773001
0.296672136 0.761927247 0.237572014
0.330747128 0.762629688 0.237106875
0.357786596 0.763293326 0.236670017
0.388299227 0.764084458 0.236029997
0.425121933 0.765128493 0.235112891
0.467174143 0.766284168 0.233922511
0.513425827 0.767604113 0.232613325
0.562975287 0.768845797 0.231377274
0.615341365 0.770084143 0.230271637
0.669613838 0.771116793 0.229558378
0.725359201 0.772026360 0.229715630
0.781882763 0.772815228 0.230958015
0.838270783 0.773728967 0.246081725
0.892609060 0.775237739 0.272283405
0.943190992 0.776952147 0.297801971
0.987576246 0.778979063 0.322171986
0.316012323 0.815926731 0.267385840
0.337444842 0.816281557 0.267244756
0.367022097 0.816803098 0.266980231
0.391033173 0.817337096 0.266820431
0.418450266 0.817949712 0.266174316
0.451975852 0.818742812 0.265517473
0.490885198 0.819655240 0.264743149
0.533860505 0.820650101 0.263696909
0.580440938 0.821703136 0.262636781
0.629743576 0.822647870 0.261716694
0.681275487 0.823502839 0.261091083
0.734352946 0.824188709 0.261065781
0.788131356 0.824333131 0.261491895
0.841309428 0.823819578 0.262511760
0.893417001 0.823562443 0.279298961
0.942558527 0.823894143 0.304413348
0.986315250 0.824648559 0.328710556
0.363511920 0.865144551 0.298182279
0.381684035 0.865461648 0.298028529
0.407211661 0.865798831 0.297780037
0.428359568 0.866204858 0.297586203
0.452737510 0.866589963 0.297142655
0.483176708 0.867383242 0.296745777
0.518337846 0.867785931 0.296035051
0.557537913 0.868076861 0.294951767
0.600214243 0.868364155 0.293833286
0.645810485 0.868592620 0.292796403
0.693563759 0.868610442 0.291851044
0.743067265 0.868469357 0.291365415
0.793537259 0.868138075 0.291293025
0.844147086 0.867513418 0.291842490
0.893920660 0.866637170 0.292900413
0.941232443 0.865629852 0.311700463
0.983815789 0.864625454 0.334866881
0.409834206 0.907414973 0.327825844
0.425236762 0.907527447 0.327507079
0.447130352 0.907687902 0.327382535
0.465424478 0.907861114 0.327069908
0.486851335 0.908001721 0.326742738
0.513748169 0.908190429 0.326122582
0.545333266 0.908442259 0.325458944
0.581104577 0.908615172 0.324639738
0.620303690 0.908773601 0.323740453
0.662366450 0.908764184 0.322810650
0.706586242 0.908509433 0.321848720
0.752467632 0.907848179 0.320961297
0.799320459 0.906965375 0.320249975
0.846218348 0.905545354 0.320100099
0.892495632 0.903651059 0.320201218
0.937155485 0.901321769 0.319851667
0.978509903 0.898566604 0.339372128
0.454573005 0.945568025 0.356858999
0.467688382 0.945620596 0.356552690
0.486378878 0.945542634 0.356169641
0.502226114 0.945562601 0.355893672
0.520991266 0.945568025 0.355479240
0.544547439 0.945482016 0.354982257
0.572578728 0.945347905 0.354155630
0.604523420 0.945102394 0.353219807
0.639739037 0.944744468 0.352114975
0.677690744 0.944074869 0.350917071
0.717837870 0.943115234 0.349508852
0.759440899 0.941770852 0.348093241
0.802179754 0.939954996 0.346567243
0.845187247 0.937615931 0.345241785
0.887807906 0.934597850 0.343922764
0.929188132 0.931060016 0.342781752
0.968741000 0.927127004 0.341226995
0.002316688 0.001577000 0.038591128
0.062439002 0.003844438 0.064078756
0.119716622 0.007787375 0.070450872
0.158168465 0.010201750 0.076533630
0.199232012 0.013208751 0.084284566
0.248215497 0.013406000 0.093895622
0.302671820 0.012173812 0.105336629
0.361757100 0.010596185 0.118830502
0.424185485 0.006703001 0.133732557
0.488373309 0.005273875 0.150165305
0.553611159 0.008477375 0.168021172
0.619376361 0.008329500 0.186956882
0.685119927 0.028241254 0.207140625
0.750443995 0.047415093 0.228365704
0.814889908 0.087453790 0.250225574
0.877271473 0.132773593 0.272368520
0.936070383 0.176680937 0.294441134
0.017792001 0.070990942 0.078349873
0.084760316 0.070990935 0.081117682
0.145421758 0.071070500 0.085262939
0.185146198 0.071530625 0.090021752
0.226507246 0.071245871 0.095724434
0.274176896 0.070661254 0.103948250
0.327202171 0.068728067 0.114252627
0.383776248 0.066225126 0.126454622
0.443649232 0.061521877 0.140439272
0.505497038 0.060529500 0.156126440
0.568551838 0.060769498 0.173261940
0.632191777 0.071344189 0.191569448
0.696123183 0.088607438 0.211158440
0.759807885 0.114074834 0.231622964
0.822839737 0.145475030 0.252891898
0.883988380 0.180855781 0.274677217
0.941694796 0.215025321 0.296527058
0.046770751 0.131897002 0.092102312
0.104133621 0.133083001 0.093696497
0.163294256 0.133382127 0.094139874
0.205392450 0.132519946 0.098174185
0.248413682 0.131613865 0.104161128
0.297329426 0.130756691 0.112277120
0.350379199 0.129855633 0.122082569
0.406453967 0.129099056 0.134055436
0.464758188 0.129761755 0.147609383
0.524792075 0.132057816 0.162531048
0.585812509 0.137425870 0.178897619
0.647289634 0.147786438 0.196529746
0.709244907 0.162107006 0.215331435
0.771415293 0.182414770 0.235218272
0.832729399 0.205653593 0.256121576
0.892323732 0.232330844 0.277606517
0.948552072 0.260177374 0.299207062
0.065906823 0.173271194 0.102058686
0.117545076 0.174548194 0.103109062
0.174809948 0.175694704 0.103491381
0.216461271 0.175875887 0.103920504
0.260692984 0.175257370 0.108573809
0.310697436 0.174715266 0.116746560
0.364251196 0.174442887 0.126534000
0.420315653 0.174932063 0.138269186
0.478261530 0.176562518 0.151347756
0.537411988 0.180456325 0.166128561
0.597233295 0.186845958 0.182262257
0.657681406 0.196708634 0.199536756
0.718575239 0.210029259 0.218144193
0.779637575 0.226776779 0.237908706
0.839921236 0.246999338 0.258490741
0.898494363 0.269636780 0.279875070
0.953868330 0.294308990 0.301408440
0.083180875 0.223987252 0.114051133
0.132230997 0.225308388 0.114722252
0.186965257 0.227314323 0.114092186
0.227509946 0.228502184 0.114374384
0.271285236 0.229154870 0.114415251
0.322116464 0.229121506 0.120288059
0.376592278 0.229673877 0.130105004
0.433040082 0.230912998 0.141813204
0.491128355 0.233397007 0.155053183
0.549782157 0.237455070 0.169601753
0.609066725 0.243776262 0.185587317
0.668751895 0.252491564 0.202857316
0.728830636 0.263908029 0.221320570
0.788790703 0.278013408 0.240861833
0.848142743 0.294856668 0.261440843
0.905729473 0.314103335 0.282684267
0.960112810 0.335303545 0.304128915
0.095133312 0.286150336 0.126820251
0.143759131 0.287546873 0.127214313
0.197815195 0.290034443 0.126607120
0.237634137 0.291750163 0.125737369
0.280460119 0.293082446 0.125654921
0.330663532 0.294399261 0.125714943
0.386079580 0.295409411 0.132232994
0.443553150 0.296902001 0.144324496
0.501957417 0.299166113 0.157756373
0.560879469 0.302916378 0.172468632
0.620184302 0.308160752 0.188678205
0.679467618 0.315337002 0.206010252
0.738946259 0.324445367 0.224628001
0.798361301 0.335896939 0.244147152
0.856740355 0.349574387 0.264801025
0.913354516 0.365571290 0.285998970
0.966705263 0.383591831 0.307375044
0.103277750 0.356285363 0.140661567
0.153033763 0.357461542 0.141208813
0.207119256 0.359566957 0.140465498
0.246572390 0.361469209 0.139712438
0.289095074 0.363380641 0.138638616
0.338548869 0.365076810 0.137862936
0.393057048 0.366691560 0.137684196
0.451355636 0.368171960 0.144977942
0.510521948 0.369965881 0.159230486
0.569931626 0.372761518 0.174693242
0.629456639 0.376737833 0.191243812
0.688920498 0.382056713 0.208960861
0.748270094 0.389094651 0.227862448
0.807204723 0.398106217 0.247632205
0.864988267 0.409111261 0.268417895
0.920765877 0.422182381 0.289655209
0.972839594 0.437280893 0.311216116
0.114345074 0.428982049 0.156165197
0.163888365 0.429857910 0.156797945
0.217909679 0.431663364 0.156385213
0.256607831 0.433340281 0.155521825
0.298313946 0.435186267 0.154331759
0.346833348 0.437151611 0.152857333
0.400459319 0.439007699 0.151925519
0.457565695 0.440545410 0.151842713
0.517210007 0.441895604 0.159756824
0.577351689 0.443950117 0.176172063
0.637222707 0.446710646 0.193436891
0.696979284 0.450694680 0.211796373
0.756328344 0.455939919 0.231034070
0.815007210 0.462880552 0.251167476
0.872266352 0.471567392 0.272083580
0.927325666 0.482092023 0.293661088
0.978347659 0.494442314 0.315263808
0.133402318 0.501044869 0.173960939
0.179883257 0.501630008 0.174501330
0.232028514 0.503066897 0.174288496
0.269523770 0.504508972 0.173730835
0.309940606 0.506105781 0.172643825
0.356946617 0.508061051 0.171114773
0.408997476 0.510046542 0.169602633
0.464694530 0.511746943 0.168573320
0.523036182 0.513288796 0.168573320
0.583258748 0.514616311 0.176995426
0.643623412 0.516586185 0.195253313
0.703513205 0.519416988 0.214225441
0.762910903 0.523267508 0.234124571
0.821400464 0.528479040 0.254737914
0.878296793 0.535219431 0.276135474
0.932725430 0.543657005 0.297922403
0.983692169 0.553601027 0.319743425
0.160275742 0.571240366 0.194240928
0.201874614 0.571627617 0.194733739
0.250303447 0.572795272 0.194531560
0.285927296 0.573979437 0.193948314
0.324503273 0.575378418 0.193112060
0.369377494 0.577150285 0.191732198
0.419378787 0.579075336 0.190210506
0.473220110 0.580935299 0.188656300
0.529968500 0.582543790 0.187645748
0.588768065 0.583852708 0.187735870
0.648952484 0.585262060 0.196715876
0.708952129 0.587107241 0.216658309
0.768324792 0.589846790 0.237312511
0.826577485 0.593675554 0.258517683
0.883001268 0.598805845 0.280367762
0.936774492 0.605334818 0.302463710
0.987054408 0.613353670 0.324787766
0.193564638 0.638606906 0.216397122
0.229318500 0.639011383 0.216821820
0.272985369 0.639881313 0.216678321
0.306146681 0.640880227 0.216228113
0.342216045 0.642082632 0.215519056
0.384661138 0.643563271 0.214321196
0.432254374 0.645297348 0.212987497
0.483885050 0.647056758 0.211373433
0.538509905 0.648699999 0.210089251
0.595584154 0.650188148 0.209380761
0.654141963 0.651345134 0.209727809
0.713756025 0.652593553 0.219546944
0.772840142 0.654380858 0.240899876
0.830723703 0.657041311 0.262802660
0.886688352 0.660821080 0.285083652
0.939778209 0.665813744 0.307667464
0.988363206 0.672013938 0.330221534
0.231215999 0.702331722 0.240298927
0.261537701 0.702737749 0.240558743
0.300364673 0.703493595 0.240547866
0.330437243 0.704310596 0.240238741
0.363695323 0.705253243 0.239570871
0.403516233 0.706461191 0.238707572
0.448352039 0.707931101 0.237499490
0.497290343 0.709494174 0.236119196
0.549512804 0.711031556 0.234802812
0.604278922 0.712470949 0.233816937
0.660924435 0.713667035 0.233414426
0.718715549 0.714713275 0.234052569
0.777234674 0.715778947 0.245293871
0.834496140 0.717487395 0.267712146
0.889731050 0.720068932 0.290623218
0.941925466 0.723672032 0.313515097
0.988553882 0.728367925 0.336452127
0.272596329 0.761751950 0.265995860
0.298250645 0.762054324 0.266111940
0.332141966 0.762658000 0.266004771
0.359131306 0.763314188 0.265775055
0.389409393 0.764082074 0.265285879
0.426114827 0.765075982 0.264608175
0.467976689 0.766293705 0.263614058
0.514051855 0.767604113 0.262491316
0.563443363 0.768893063 0.261353761
0.615651727 0.770195961 0.260355562
0.669886649 0.771278024 0.259734482
0.725522697 0.772231340 0.259833515
0.782022536 0.773023248 0.260987908
0.838336229 0.773916960 0.274134934
0.892612815 0.775444686 0.297290385
0.943120420 0.777183712 0.320115834
0.987480760 0.779091239 0.342218578
0.317147106 0.816015899 0.292960048
0.338767976 0.816386223 0.292983294
0.368199199 0.816857576 0.292738050
0.392144948 0.817339242 0.292619199
0.419452906 0.817930400 0.292349756
0.452868700 0.818668902 0.291776389
0.491576374 0.819646239 0.291082919
0.534403443 0.820641398 0.290178508
0.580829203 0.821724951 0.289254963
0.630023658 0.822734714 0.288409323
0.681514919 0.823647857 0.287802339
0.734459221 0.824292421 0.287690580
0.788099051 0.824389279 0.287957907
0.841210067 0.823978066 0.288966149
0.893303990 0.823722839 0.303840220
0.942293227 0.823989987 0.326410711
0.986190021 0.824795604 0.348592043
0.364556283 0.865286231 0.321127087
0.382691503 0.865440845 0.321127087
0.408142716 0.865818918 0.320879221
0.429198891 0.866160154 0.320744097
0.453558743 0.866559982 0.320510089
0.483847290 0.867281795 0.320211917
0.518845141 0.867692709 0.319462299
0.557893336 0.868042529 0.318502784
0.600495279 0.868295252 0.317488015
0.645917177 0.868566334 0.316427290
0.693645597 0.868626595 0.315455914
0.743059874 0.868558407 0.314802021
0.793487132 0.868206918 0.314729095
0.843977571 0.867596984 0.315296143
0.893726408 0.866736948 0.316203475
0.940996051 0.865747571 0.333129168
0.983587623 0.864712298 0.354139626
0.410667628 0.907416821 0.348290503
0.426033139 0.907445073 0.348187834
0.447864473 0.907649398 0.347897857
0.466059655 0.907723546 0.347691029
0.487460703 0.907942772 0.347477555
0.514281750 0.908141255 0.346999109
0.545798123 0.908356071 0.346390128
0.581418335 0.908613801 0.345610589
0.620494008 0.908697248 0.344744474
0.662447929 0.908718705 0.343724638
0.706607223 0.908490062 0.342780143
0.752391696 0.907905400 0.341865778
0.799176157 0.906959832 0.341146827
0.846088886 0.905623078 0.340796381
0.892193019 0.903656900 0.340691447
0.936806560 0.901352644 0.340460181
0.978102744 0.898566604 0.357961297
0.455232680 0.945566237 0.375162750
0.468186200 0.945483744 0.375062615
0.486843705 0.945458412 0.374697119
0.502795458 0.945456564 0.374413937
0.521374583 0.945402265 0.374048144
0.544895232 0.945367813 0.373491675
0.572822273 0.945196271 0.372715175
0.604650021 0.944979131 0.371894896
0.639807999 0.944575906 0.370750576
0.677671075 0.943949819 0.369487256
0.717659235 0.943062723 0.368116319
0.759304225 0.941749096 0.366612375
0.801930249 0.939878643 0.365046024
0.844856381 0.937598765 0.363593251
0.887446284 0.934610665 0.362318575
0.928803563 0.931032836 0.361068696
0.968329787 0.927070737 0.359237313
0.007688875 0.006111750 0.082597375
0.059563436 0.009265875 0.110698685
0.123516999 0.007886000 0.128949001
0.162082389 0.010103251 0.132058129
0.203990504 0.012617000 0.137890011
0.252781689 0.012617000 0.145300001
0.307182491 0.010645500 0.154443502
0.365698665 0.009807747 0.165246248
0.427596629 0.005914501 0.177870497
0.491329998 0.004830062 0.191866130
0.556315780 0.008477375 0.207315117
0.621491253 0.007836375 0.223834813
0.686987638 0.028980004 0.241838381
0.752081394 0.047702406 0.260657459
0.815972567 0.088385671 0.280287892
0.878068268 0.133446112 0.300383717
0.936678112 0.177769378 0.320558876
0.023213437 0.071102880 0.137498870
0.084864743 0.072565183 0.142704815
0.146008432 0.071627557 0.147781879
0.186971769 0.072085001 0.150053740
0.229187638 0.071634375 0.153201699
0.277357757 0.070301004 0.158353999
0.330165088 0.068521567 0.165632129
0.386848956 0.065666750 0.174967572
0.446621925 0.060841937 0.186068818
0.508292317 0.059978500 0.198988244
0.570776224 0.060506187 0.213365138
0.634030461 0.071501687 0.229160696
0.697645426 0.089148380 0.246244267
0.761156857 0.114871845 0.264293760
0.823889256 0.146279961 0.283288896
0.884761393 0.181549981 0.302915275
0.942241311 0.215747625 0.322876304
0.043975748 0.133382127 0.154728368
0.104157999 0.133980259 0.156724676
0.164441243 0.133682132 0.159161627
0.207236946 0.132540569 0.161369070
0.250758410 0.131651372 0.164664492
0.299741715 0.130756691 0.169406503
0.352813870 0.129779637 0.175884739
0.408704281 0.129120365 0.184085444
0.467081279 0.129718885 0.194528624
0.526888013 0.132057816 0.206379876
0.587510228 0.137819886 0.219914243
0.648797929 0.148307636 0.234813511
0.710555136 0.162774891 0.251034617
0.772440314 0.182886571 0.268427908
0.833685696 0.206374526 0.286870033
0.893077850 0.232971892 0.306229025
0.949145377 0.260876238 0.325844258
0.064255320 0.175001577 0.163278177
0.118536189 0.175905704 0.164507359
0.176553562 0.176490635 0.166347012
0.218877703 0.176086083 0.167285189
0.263459623 0.175379708 0.170245066
0.313237071 0.174685135 0.175276741
0.366571873 0.174397513 0.181695625
0.422600865 0.174876317 0.189885259
0.480391622 0.176673010 0.199694365
0.539218903 0.180689812 0.211132303
0.598950386 0.187226072 0.224233747
0.659227908 0.197145447 0.238707259
0.719894528 0.210492134 0.254432946
0.780673802 0.227276340 0.271506816
0.840847671 0.247511461 0.289752901
0.899297059 0.270298839 0.308802724
0.954367042 0.294922262 0.328236341
0.082342751 0.225629121 0.173104003
0.133397877 0.226484939 0.174031496
0.188925117 0.228050366 0.175346628
0.229513094 0.228896245 0.175753623
0.273963988 0.229481012 0.176276863
0.324913412 0.229582503 0.180078745
0.379246771 0.229808629 0.186701491
0.435568035 0.230988249 0.194690883
0.493362784 0.233481258 0.204544142
0.551750124 0.237698644 0.215723991
0.610859871 0.244038373 0.228456885
0.670268953 0.252784103 0.242577881
0.730082214 0.264290631 0.258126855
0.789889514 0.278349698 0.274919093
0.848996460 0.295312166 0.292933404
0.906365752 0.314561486 0.311799973
