public/lut/67.cube
TITLE "17x17x17 Adobe/IRIDAS cube 3D LUT exported with GrossGrade v0.2.2 (beta) 64 bit"
DOMAIN_MIN 0 0 0
DOMAIN_MAX 1 1 1
LUT_3D_SIZE 17
0.000000000 0.000000000 0.000000000
0.068274878 0.004632438 0.004632438
0.130045637 0.011730375 0.014588751
0.172519952 0.016412064 0.022425376
0.217549503 0.021685751 0.032528501
0.271204501 0.026318876 0.045035690
0.328727901 0.032824498 0.060066506
0.388979733 0.039619382 0.074894503
0.450229526 0.053310003 0.091079004
0.511533797 0.069631189 0.108329505
0.573093474 0.091231629 0.126842991
0.634982407 0.115640938 0.146755502
0.696848035 0.140782014 0.167891264
0.758599043 0.167381287 0.190299764
0.819342911 0.194663033 0.213557154
0.878230333 0.223058969 0.237409279
0.933620989 0.251888990 0.260922015
0.012419876 0.086186685 0.008526187
0.088308372 0.089184247 0.007738125
0.155312508 0.091710374 0.017003937
0.199406326 0.093822815 0.025678003
0.244660690 0.096241251 0.035682753
0.296296060 0.099965945 0.048063874
0.351340592 0.104499377 0.062064253
0.408169717 0.111723751 0.076857068
0.466745764 0.121627808 0.092963189
0.525672376 0.133695185 0.110091314
0.585193634 0.149003059 0.128697693
0.645495534 0.166144684 0.148800001
0.705903232 0.185329124 0.169856250
0.766280949 0.206504211 0.192163229
0.825921655 0.229465902 0.215517402
0.883770227 0.254287213 0.239160717
0.938314736 0.279902101 0.262629986
0.024248874 0.161603883 0.020996250
0.098555572 0.165299252 0.018679563
0.167794377 0.168161631 0.015573874
0.214776456 0.169057503 0.022622501
0.262267143 0.170619249 0.033218876
0.314486057 0.172871068 0.046565436
0.369290143 0.176471487 0.061040882
0.425269753 0.181701928 0.076888695
0.482246250 0.188671261 0.093773253
0.539962292 0.197724506 0.111325443
0.598337710 0.208490998 0.130637884
0.657134354 0.221383944 0.150976509
0.716225624 0.236065015 0.172377512
0.775439322 0.253024161 0.194753140
0.833747566 0.272024304 0.217992768
0.890442848 0.292815894 0.241652220
0.944002509 0.315274745 0.265021622
0.028241063 0.213031515 0.028733563
0.104283936 0.216150939 0.025036877
0.173723683 0.219220638 0.021094751
0.221578002 0.220772758 0.018778063
0.270485282 0.221593082 0.027107187
0.323347121 0.223430455 0.042359002
0.378439307 0.226053447 0.058114629
0.434788913 0.230019137 0.075268380
0.491548061 0.235226139 0.092990004
0.548935533 0.242217079 0.111878499
0.606644928 0.250753671 0.131590500
0.664981663 0.261242986 0.152338311
0.723520458 0.273579866 0.174080312
0.781885803 0.288039893 0.196721211
0.839503348 0.304549873 0.219930276
0.895472705 0.323110491 0.243545398
0.948155224 0.343265414 0.266716480
0.033120252 0.270666003 0.036471501
0.111894563 0.273039937 0.033366814
0.181508750 0.276107371 0.027994625
0.228500023 0.277868927 0.024790501
0.276982248 0.278928995 0.021883002
0.330943167 0.280166060 0.033268310
0.386707246 0.281846255 0.051662754
0.443323523 0.284459233 0.071853444
0.500524521 0.288217485 0.091396503
0.557975829 0.293297052 0.111765370
0.615690887 0.299901128 0.132531121
0.673505962 0.308122694 0.153867871
0.731404543 0.318059504 0.176015496
0.789142370 0.330076367 0.198864967
0.846052349 0.344202787 0.222176284
0.901171088 0.360087395 0.245820343
0.953177512 0.377920747 0.269152999
0.051976938 0.332656443 0.048579000
0.124927185 0.334685355 0.045546815
0.191992253 0.337495357 0.039675061
0.237391010 0.339184016 0.035584062
0.284454405 0.340643883 0.031197876
0.337338269 0.341991335 0.027353751
0.393791407 0.342990309 0.041111946
0.451099426 0.344634980 0.066107944
0.508774996 0.347169906 0.088452883
0.566559136 0.350799173 0.110870622
0.624319971 0.355591565 0.132827371
0.681985974 0.361801624 0.155281559
0.739566922 0.369635761 0.178053945
0.796835124 0.379289299 0.201250032
0.852927566 0.390928209 0.224805295
0.907254219 0.404427558 0.248514026
0.958424628 0.419755697 0.271892756
0.080277383 0.397098631 0.064272255
0.143208385 0.398600698 0.061612010
0.205421627 0.400918782 0.057079256
0.248498127 0.402715832 0.053483192
0.293325633 0.404395431 0.049025007
0.344518065 0.406010926 0.044919319
0.399753392 0.407184154 0.041993134
0.457537085 0.408217847 0.056245822
0.515745342 0.409680009 0.083348766
0.573852062 0.412071437 0.109021433
0.631898999 0.415446281 0.132860377
0.689682066 0.420097589 0.156447306
0.747054756 0.426069498 0.179848388
0.803909302 0.433695763 0.203653604
0.859558582 0.443144262 0.227485776
0.913172185 0.454350322 0.251382411
0.963485539 0.467115402 0.274959892
0.111928955 0.462399036 0.085967071
0.164457142 0.463723540 0.083931640
0.221240342 0.465643793 0.079866953
0.261481702 0.467195213 0.076588333
0.303970873 0.468777478 0.072424389
0.352882743 0.470541149 0.067533642
0.406313509 0.472018421 0.063080579
0.462878138 0.473219424 0.059588447
0.521392047 0.474143416 0.076229692
0.579934776 0.475601107 0.105693936
0.638231635 0.477926731 0.132276803
0.696043372 0.481154889 0.157193244
0.753513277 0.485656410 0.181676447
0.810057998 0.491438895 0.206049085
0.865297318 0.498867214 0.230486646
0.918258309 0.507936656 0.254652739
0.967927277 0.518561542 0.278433502
0.144180506 0.527237058 0.111094013
0.188247010 0.528324008 0.109504268
0.239290640 0.530010700 0.106869251
0.276770681 0.531371832 0.104442067
0.316815019 0.532886028 0.101424262
0.363114387 0.534541130 0.097519815
0.414351374 0.536142647 0.093268126
0.469092369 0.537668109 0.089681134
0.526316047 0.538910508 0.086687505
0.584871054 0.539683700 0.101476125
0.643330634 0.540998936 0.131000131
0.701320767 0.543235898 0.157836556
0.758625269 0.546449959 0.183543265
0.814984679 0.550795436 0.208623663
0.869789720 0.556517363 0.233483657
0.922247171 0.563678145 0.258104920
0.971771002 0.572248995 0.282254994
0.177114129 0.591225386 0.138241693
0.214498878 0.592061222 0.137100011
0.260256231 0.593404830 0.135226697
0.294563204 0.594485402 0.133353427
0.331887066 0.595885098 0.130896240
0.375593066 0.597393036 0.127929002
0.424353778 0.599052668 0.124355182
0.476821512 0.600634634 0.120915502
0.532049656 0.601941168 0.117661439
0.589317083 0.603013813 0.115658432
0.647652864 0.603846669 0.129709437
0.705451727 0.605142832 0.158301756
0.762647450 0.607260406 0.185383946
0.818782747 0.610441506 0.211395398
0.873189330 0.614711165 0.236956030
0.925188959 0.620268822 0.262109965
0.974372268 0.627021492 0.286505193
0.211711377 0.652869642 0.166889623
0.243567497 0.653643727 0.165949747
0.284061372 0.654707074 0.164762750
0.315414906 0.655687511 0.163369820
0.349888772 0.656818628 0.161441118
0.390744507 0.658209145 0.159237936
0.436756015 0.659701467 0.156336129
0.486616522 0.661294937 0.153200120
0.539543092 0.662671030 0.150059879
0.594768107 0.663898468 0.147324637
0.651598155 0.664841235 0.146079883
0.709152997 0.665562510 0.159364372
0.765995145 0.666808665 0.187888265
0.821697891 0.668857396 0.214918405
0.875600815 0.671977758 0.241066292
0.927227020 0.676166296 0.266735315
0.975742400 0.681304991 0.291624367
0.248291314 0.711759746 0.195701450
0.275519371 0.712317824 0.195172250
0.311229229 0.713152528 0.194139928
0.339512199 0.713960230 0.193150565
0.371039212 0.714949012 0.191899121
0.408905178 0.716099560 0.189915746
0.451902986 0.717501879 0.187646434
0.499039501 0.718867600 0.185015008
0.549369097 0.720258057 0.182261005
0.602171957 0.721483350 0.179681122
0.656904042 0.722550929 0.177826509
0.712794125 0.723318398 0.177238807
0.769082069 0.723940015 0.191515818
0.824190736 0.725150466 0.219363719
0.877586842 0.727148473 0.246148780
0.928716242 0.730048954 0.272307962
0.976886690 0.733805060 0.297450066
0.287133515 0.766845226 0.225421011
0.310251504 0.767337084 0.224916831
0.341713727 0.768023670 0.224176258
0.366894811 0.768631220 0.223342821
0.395471752 0.769437075 0.222397268
0.430364013 0.770424128 0.220901251
0.470292509 0.771578968 0.219061643
0.514344215 0.772823453 0.216947392
0.561775267 0.774032235 0.214582264
0.612024307 0.775225163 0.212429762
0.664188862 0.776251614 0.210460752
0.717882752 0.777061641 0.209240243
0.772444010 0.777697027 0.209297255
0.826750278 0.778259158 0.225227475
0.879444838 0.779349387 0.252551556
0.929493487 0.780588984 0.278577656
0.976327240 0.781929016 0.303038508
0.327662826 0.817861319 0.255578846
0.347514093 0.818294644 0.255141854
0.374926656 0.818814516 0.254600197
0.397378713 0.819353759 0.254115343
0.423129648 0.819929183 0.253139824
0.454812467 0.820754409 0.252076924
0.491562694 0.821706772 0.250760227
0.532488346 0.822751164 0.248957843
0.576898813 0.823874116 0.247072339
0.624100983 0.824949384 0.245054543
0.673548520 0.825893164 0.243361458
0.724547982 0.826692641 0.242100716
0.776387155 0.826951504 0.241299972
0.828015566 0.826541364 0.241179973
0.879035056 0.826086521 0.258544266
0.928066075 0.826067388 0.284275085
0.974469125 0.826473355 0.308685184
0.368904769 0.865392089 0.286019295
0.385953069 0.865739942 0.285620213
0.409860402 0.866155922 0.285204142
0.429782987 0.866570055 0.284778386
0.452780515 0.867035925 0.284057289
0.481574833 0.867836356 0.283325911
0.514943540 0.868368268 0.281995147
0.552256882 0.868881226 0.280365407
0.592970908 0.869361341 0.278387785
0.636583030 0.869841278 0.276436865
0.682452619 0.870184183 0.274434775
0.730080068 0.870359778 0.272657901
0.778855741 0.870321751 0.271439284
0.828335881 0.869991541 0.270657897
0.877768695 0.869221330 0.270780385
0.925641656 0.868023634 0.290228903
0.970449865 0.866791844 0.313702375
0.407228768 0.907767594 0.314717948
0.421873152 0.907944679 0.314375639
0.442687899 0.908214867 0.314032793
0.460118413 0.908419073 0.313572824
0.480555713 0.908629894 0.312913954
0.506206870 0.908999920 0.312106401
0.536416590 0.909391701 0.310935318
0.570655525 0.909769773 0.309520602
0.608180523 0.910225809 0.307927519
0.648562849 0.910541296 0.306053519
0.691162825 0.910689592 0.304142952
0.735482156 0.910471499 0.302141786
0.781130314 0.909939587 0.300247610
0.827572167 0.908961177 0.298743099
0.874187648 0.907347322 0.297509164
0.920057178 0.904940903 0.296636641
0.963106871 0.901927650 0.316840410
0.443250000 0.947386026 0.342597991
0.455829203 0.947469354 0.342275441
0.473932505 0.947494745 0.341768265
0.489266455 0.947558999 0.341352880
0.507337272 0.947609782 0.340645760
0.530051172 0.947656870 0.339916259
0.557181001 0.947760999 0.338732749
0.587987125 0.947748303 0.337322861
0.622043014 0.947703004 0.335622996
0.658710301 0.947361052 0.333709449
0.697697401 0.946849227 0.331453860
0.738295317 0.945902646 0.328924805
0.780426741 0.944454730 0.326191485
0.823682189 0.942518771 0.323746234
0.867186189 0.939725637 0.321080357
0.910164893 0.936288536 0.318747103
0.951610982 0.932120979 0.316594988
0.003104750 0.002316688 0.040972624
0.073074371 0.004632438 0.067897312
0.134217069 0.011681062 0.072539315
0.176323265 0.015721751 0.077973194
0.222280502 0.020946812 0.085130185
0.274704337 0.025776438 0.093270756
0.332012475 0.031296439 0.103824630
0.391696930 0.038886443 0.115586385
0.452328265 0.052335504 0.128850937
0.513276815 0.069596879 0.143386438
0.574503660 0.090831123 0.159479499
0.636109889 0.115296565 0.176972240
0.697820485 0.140566006 0.195861012
0.759240448 0.167517602 0.216036826
0.819935739 0.194663033 0.237136394
0.878660798 0.223211214 0.258981764
0.934108138 0.252181560 0.280706525
0.014687250 0.087866813 0.079318509
0.091244370 0.090019874 0.081662312
0.159210801 0.091678001 0.084414624
0.203398705 0.093373500 0.088397630
0.248422250 0.095756434 0.093686812
0.299821287 0.099204309 0.100629315
0.354396164 0.104001567 0.109494627
0.410725951 0.111234196 0.120174825
0.468703538 0.121017441 0.132715747
0.527404428 0.133546188 0.146869883
0.586709380 0.148752928 0.162471429
0.646609068 0.165994063 0.179700568
0.706758142 0.185314804 0.198431820
0.766927838 0.206469700 0.218303204
0.826575577 0.229581922 0.239339814
0.884208798 0.254156679 0.260857224
0.938690066 0.279902101 0.282532394
0.027353562 0.163218379 0.089614943
0.102391124 0.165539950 0.090818062
0.170748249 0.168584809 0.089637004
0.218070209 0.169134885 0.092584006
0.265640169 0.170635253 0.097350433
0.317608625 0.172672436 0.104446754
0.371891260 0.176231563 0.112858072
0.427609295 0.181295827 0.123628572
0.484262139 0.188341498 0.136073694
0.541705728 0.197340310 0.150143176
0.599813938 0.208198205 0.165890068
0.658271372 0.221185684 0.182901114
0.717203379 0.235800505 0.201370820
0.776218891 0.252873719 0.221268088
0.834401190 0.271902800 0.242016017
0.890897930 0.292943150 0.263401717
0.944266260 0.315180689 0.284869432
0.032134749 0.214391947 0.095744751
0.108638376 0.216151014 0.096611246
0.176976755 0.219492435 0.094999552
0.224472880 0.220913336 0.093781121
0.273044139 0.221952647 0.097798944
0.325997710 0.223546654 0.105197988
0.380934685 0.226064757 0.114208877
0.436929673 0.230019137 0.125067621
0.493502676 0.235124141 0.137783945
0.550572872 0.242059261 0.152182624
0.608110726 0.250581503 0.168088689
0.666196704 0.261007249 0.185136557
0.724420190 0.273442805 0.203677937
0.782671452 0.287870586 0.223510131
0.840147495 0.304510802 0.244063064
0.895920634 0.322997779 0.265518665
0.948593915 0.343160868 0.286915332
0.038541690 0.271610945 0.103369005
0.117007568 0.272938699 0.103794634
0.184729114 0.275907129 0.101926938
0.231131256 0.277986437 0.099974185
0.279445946 0.279314131 0.098806560
0.333072394 0.280307800 0.104412317
0.388708144 0.281907231 0.114417441
0.445167542 0.284471422 0.126049936
0.502187967 0.288257986 0.139309317
0.559460163 0.293209374 0.154067382
0.616907358 0.299777389 0.170038685
0.674558818 0.307937205 0.187608063
0.732306361 0.317916512 0.206263065
0.789932013 0.329944938 0.226016015
0.846671522 0.344020128 0.246632770
0.901625156 0.360112876 0.267975658
0.953545213 0.377891004 0.289307296
0.058004688 0.333548814 0.112815946
0.129831433 0.334706545 0.113256186
0.195229009 0.337063938 0.111536190
0.239921808 0.339040339 0.109421380
0.286424160 0.340791017 0.107201874
0.339083433 0.342158079 0.105737187
0.395400465 0.343128860 0.113008447
0.452602148 0.344739437 0.126005188
0.510160685 0.347214878 0.140090004
0.567736149 0.350784570 0.155527577
0.625525832 0.355517000 0.172208741
0.682918668 0.361677557 0.189977884
0.740389109 0.369556546 0.209021568
0.797515631 0.379300386 0.228953376
0.853486121 0.390783757 0.249621660
0.907666266 0.404405326 0.270868778
0.958685279 0.419724196 0.292280614
0.084869511 0.397625774 0.125565007
0.147613704 0.398566961 0.126054376
0.208443254 0.400588155 0.124303818
0.250770062 0.402403653 0.122579440
0.295185566 0.404212058 0.120387442
0.345829636 0.405883968 0.117793627
0.400977254 0.407302618 0.116180316
0.458686918 0.408297181 0.124423072
0.516734242 0.409806013 0.139960319
0.574830174 0.412196696 0.156514809
0.632797360 0.415565461 0.173867181
0.690414488 0.420071006 0.192306250
0.747765839 0.426054090 0.211661234
0.804470539 0.433658332 0.231796443
0.859992325 0.443052351 0.252747834
0.913499475 0.454309255 0.274170935
0.963730693 0.467182577 0.295586944
0.115569517 0.462780893 0.141691014
0.168239325 0.463590682 0.141952768
0.224086508 0.465271026 0.140556142
0.263698578 0.466863722 0.138910085
0.305731773 0.468495548 0.136719957
0.354148537 0.470403105 0.133919895
0.407241374 0.472072840 0.131261840
0.463752270 0.473375231 0.129653201
0.522135496 0.474206835 0.138732880
0.580675542 0.475684136 0.156825691
0.638916075 0.478013575 0.175267577
0.696669340 0.481259674 0.194490567
0.754030049 0.485699207 0.214332014
0.810500681 0.491494954 0.234868452
0.865648746 0.498887479 0.255998343
0.918519080 0.507915854 0.277639091
0.968088269 0.518487811 0.299136817
0.146889001 0.527658284 0.160505384
0.191395268 0.528298855 0.160598129
0.241928637 0.529673815 0.159401491
0.278652698 0.531021059 0.158161432
0.318293095 0.532548964 0.156354755
0.364288449 0.534287453 0.153958827
0.415203393 0.536124766 0.151155263
0.469699711 0.537653983 0.148539826
0.526862681 0.538936198 0.147103518
0.585382044 0.539739847 0.156282485
0.643779039 0.541128278 0.176163495
0.701691687 0.543343484 0.196268648
0.758986175 0.546482742 0.216808021
0.815299094 0.550831378 0.237862825
0.870069742 0.556633055 0.259566039
0.922449529 0.563783944 0.281348109
0.971921027 0.572280109 0.303307801
0.179213002 0.591408372 0.181767315
0.217052504 0.591911495 0.181659818
0.262258708 0.593129516 0.180880561
0.296359956 0.594184041 0.179728195
0.333410740 0.595535040 0.178183317
0.376668245 0.597090006 0.176032811
0.425116092 0.598907709 0.173465118
0.477342695 0.600588262 0.170702815
0.532498181 0.602061093 0.168300927
0.589685917 0.603114665 0.167009324
0.647932231 0.603928566 0.176679939
0.705714881 0.605204463 0.198007122
0.762891471 0.607324481 0.219462946
0.818992734 0.610523701 0.241134271
0.873339832 0.614812851 0.263383597
0.925257802 0.620312214 0.285605431
0.974396765 0.627067506 0.307740629
0.213337258 0.653027356 0.204663247
0.245356739 0.653543651 0.204663247
0.285756290 0.654452324 0.203909814
0.316984385 0.655378699 0.203069180
0.351206958 0.656492054 0.201848313
0.391791880 0.657899201 0.199984685
0.437424272 0.659469366 0.197777823
0.487117022 0.661148369 0.195183069
0.539902747 0.662645459 0.192788303
0.595063865 0.663975775 0.190801427
0.651792645 0.664903760 0.189805567
0.709263623 0.665625632 0.200021625
0.766088247 0.666848540 0.222475693
0.821726322 0.668936193 0.244853392
0.875678778 0.672062278 0.267623127
0.927219629 0.676205337 0.290374279
0.975721776 0.681321502 0.312738508
0.249748066 0.711861849 0.229209632
0.276987493 0.712220907 0.228990361
0.312685549 0.712993741 0.228483379
0.340765744 0.713761270 0.227868691
0.372140676 0.714638889 0.226819053
0.409873188 0.715812981 0.225429296
0.452619076 0.717201173 0.223404437
0.499473453 0.718724668 0.221249372
0.549633443 0.720118642 0.218925312
0.602325082 0.721439064 0.216705814
0.657008350 0.722535551 0.215119749
0.712851107 0.723349214 0.214643121
0.769082069 0.723993897 0.226200253
0.824145198 0.725201190 0.249398172
0.877463043 0.727234781 0.272725761
0.928649187 0.730127752 0.295947403
0.976794958 0.733871043 0.318633378
0.288282454 0.766866386 0.254887879
0.311631441 0.767239213 0.254851371
0.342851490 0.767835855 0.254345328
0.367964268 0.768436551 0.253823370
0.396424890 0.769190550 0.253081948
0.431143433 0.770182550 0.251820445
0.470852852 0.771357000 0.250358760
0.514769971 0.772641897 0.248514429
0.562024474 0.773896039 0.246499747
0.612075627 0.775134087 0.244358629
0.664218366 0.776188612 0.242766261
0.717814744 0.777106166 0.241698563
0.772385478 0.777736366 0.241647869
0.826582193 0.778317750 0.255157143
0.879228294 0.779388547 0.278941154
0.929262280 0.780665994 0.301974714
0.976056933 0.781931341 0.323973954
0.328645766 0.817824125 0.281875044
0.348592043 0.818182945 0.281766713
0.375897855 0.818685830 0.281252146
0.398255706 0.819167912 0.280852467
0.423911214 0.819742024 0.280252159
0.455484033 0.820514560 0.279331595
0.492068082 0.821485221 0.278114229
0.532861471 0.822555363 0.276593089
0.577128291 0.823750675 0.274917513
0.624138355 0.824843228 0.273160666
0.673548579 0.825847805 0.271459401
0.724456429 0.826677740 0.270201176
0.776194870 0.826925099 0.269373327
0.827768087 0.826506555 0.269267350
0.878760517 0.826084375 0.284533530
0.927743316 0.826071680 0.307487845
0.974169135 0.826486111 0.329458565
0.369655341 0.865372002 0.309561014
0.386680156 0.865607500 0.309331149
0.410588145 0.865967393 0.308863252
0.430420101 0.866338730 0.308588535
0.453373253 0.866817117 0.308104098
0.482011348 0.867613971 0.307462215
0.515252948 0.868111491 0.306254327
0.552446365 0.868636787 0.304761350
0.593106866 0.869119227 0.302985430
0.636537671 0.869631708 0.301081955
0.682289243 0.870010853 0.299218446
0.729902923 0.870245099 0.297427118
0.778650582 0.870271206 0.296123892
0.828026116 0.869902909 0.295482069
0.877451599 0.869168460 0.295388281
0.925264180 0.868019581 0.312733710
0.970153153 0.866738975 0.334118694
0.407819271 0.907699108 0.335721910
0.422428250 0.907767534 0.335506201
0.443210840 0.908005714 0.335087955
0.460552424 0.908167124 0.334669262
0.480984211 0.908431888 0.334330976
0.506539822 0.908730924 0.333510578
0.536706269 0.909157395 0.332537979
0.570763290 0.909583211 0.331219643
0.608205855 0.909998059 0.329709172
0.648459613 0.910341561 0.327913702
0.690942407 0.910505295 0.326001585
0.735192895 0.910366952 0.324111044
0.780819237 0.909886599 0.322228014
0.827253580 0.908894658 0.320617467
0.873756528 0.907210588 0.319282889
0.919586957 0.904854715 0.318359017
0.962609351 0.901803851 0.336232871
0.443629205 0.947270989 0.361389577
0.456264138 0.947269201 0.361099511
0.474271685 0.947272778 0.360705048
0.489600718 0.947332561 0.360228986
0.507604420 0.947411418 0.359826326
0.530329645 0.947447658 0.358976126
0.557260513 0.947504938 0.357862085
0.588014126 0.947521329 0.356649548
0.621993542 0.947393298 0.354953945
0.658617616 0.947108805 0.353077680
0.697393596 0.946636379 0.350786269
0.738033414 0.945757985 0.348303378
0.780115485 0.944294155 0.345661730
0.823246777 0.942390025 0.343054503
0.866687536 0.939667523 0.340476811
0.909713984 0.936147988 0.337975264
0.951130211 0.931951404 0.335876435
0.010744250 0.008378375 0.088236623
0.070495687 0.012370563 0.115766376
0.139751881 0.011631751 0.133175761
0.181457013 0.015623250 0.135537624
0.227287009 0.020305749 0.140715748
0.279461235 0.024199437 0.146967754
0.336481541 0.030261252 0.155181125
0.395048320 0.038048696 0.164532438
0.455054164 0.051999502 0.175546616
0.515415430 0.069322377 0.187717378
0.576421380 0.091177128 0.201459005
0.637579739 0.115493439 0.216425881
0.699041903 0.140746012 0.232796758
0.760334790 0.167618409 0.250417948
0.820676327 0.194865033 0.269023418
0.879143834 0.223232597 0.288391948
0.934381366 0.252323121 0.307959497
0.024790501 0.088780187 0.140524194
0.093785755 0.091283247 0.145166010
0.161593050 0.091736689 0.150158688
0.206467077 0.093708247 0.151641071
0.251980424 0.095756434 0.153740555
0.303183824 0.098777443 0.157914549
0.357408136 0.103593253 0.163854182
0.413533032 0.111010633 0.171868131
0.471093446 0.120825566 0.181545258
0.529378533 0.133695185 0.192814693
0.588455617 0.148635939 0.205713570
0.647927821 0.165994063 0.220056564
0.708035111 0.185314804 0.236004248
0.767990232 0.206634820 0.253202915
0.827220142 0.229445398 0.271383226
0.884733200 0.254306346 0.290544540
0.939031065 0.280027121 0.310041189
0.027402874 0.165299386 0.154986382
0.104601689 0.166769683 0.156285435
0.174043253 0.168804124 0.158156261
0.221671328 0.169494882 0.159400254
0.269329607 0.170558378 0.161592752
0.321050704 0.172598183 0.165350378
0.375116408 0.176021636 0.170771241
0.430265158 0.180956870 0.177782178
0.486569017 0.188014865 0.186948881
0.543658137 0.197040871 0.197737068
0.601324618 0.207928881 0.210176498
0.659741342 0.220911995 0.224086761
0.718343973 0.235739261 0.239622861
0.777046740 0.252722591 0.256545424
0.835109770 0.271781296 0.274453372
0.891523242 0.292927712 0.293390840
0.944769263 0.315274775 0.312693894
0.033613317 0.216139138 0.160652503
0.111742377 0.217620254 0.161689430
0.180592120 0.219810262 0.163075745
0.227303818 0.221381456 0.162782818
0.276347429 0.222209930 0.164682880
0.329200059 0.223675638 0.168574378
0.383813560 0.225987822 0.174134508
0.439487487 0.229549021 0.181224748
0.495770514 0.234786138 0.190213189
0.552493215 0.241635770 0.200869620
0.609846354 0.250241190 0.213167816
0.667621195 0.260763079 0.227096006
0.725620091 0.273253590 0.242376179
0.783627987 0.287653327 0.259113282
0.840896130 0.304382354 0.276972622
0.896572113 0.322905779 0.295619786
0.948896348 0.343174249 0.314754456
0.042403750 0.273252249 0.167628378
0.120610818 0.274249732 0.168570876
0.188646376 0.275971144 0.169716626
0.234069020 0.278013021 0.168821126
0.281954378 0.279645622 0.168190241
0.335565507 0.280682713 0.171428993
0.391112268 0.282112867 0.176949635
0.447542906 0.284576803 0.184297368
0.504310489 0.288120270 0.193386123
0.561279595 0.293028116 0.204116806
0.618615985 0.299589366 0.216534257
0.675992906 0.307706177 0.230184495
0.733500123 0.317771494 0.245442510
0.790952325 0.329813480 0.261973470
0.847414732 0.343953997 0.279698044
0.902190387 0.360013962 0.298286021
