public/lut/67.cube
TITLE "17x17x17 Adobe/IRIDAS cube 3D LUT exported with GrossGrade v0.2.2 (beta) 64 bit"
DOMAIN_MIN 0 0 0
DOMAIN_MAX 1 1 1
LUT_3D_SIZE 5
0.000000000 0.000000000 0.000000000
0.217549503 0.021685751 0.032528501
0.450229526 0.053310003 0.091079004
0.696848035 0.140782014 0.167891264
0.933620989 0.251888990 0.260922015
0.033120252 0.270666003 0.036471501
0.276982248 0.278928995 0.021883002
0.500524521 0.288217485 0.091396503
0.731404543 0.318059504 0.176015496
0.953177512 0.377920747 0.269152999
0.144180506 0.527237058 0.111094013
0.316815019 0.532886028 0.101424262
0.526316047 0.538910508 0.086687505
0.758625269 0.546449959 0.183543265
0.971771002 0.572248995 0.282254994
0.287133515 0.766845226 0.225421011
0.395471752 0.769437075 0.222397268
0.561775267 0.774032235 0.214582264
0.772444010 0.777697027 0.209297255
0.976327240 0.781929016 0.303038508
0.443250000 0.947386026 0.342597991
0.507337272 0.947609782 0.340645760
0.622043014 0.947703004 0.335622996
0.780426741 0.944454730 0.326191485
0.951610982 0.932120979 0.316594988
0.022474751 0.021685751 0.151157007
0.234953761 0.017940000 0.227287740
0.459488004 0.050666004 0.250416994
0.700992525 0.141276255 0.294479519
0.934942007 0.253057510 0.356266499
0.042108003 0.275444746 0.259527981
0.284872979 0.279930741 0.263756990
0.506974459 0.287828982 0.275329262
0.735287011 0.317512512 0.310017258
0.954384208 0.377920747 0.366660237
0.151930749 0.529849827 0.294487506
0.323716760 0.532036543 0.296836019
0.528627217 0.539195299 0.292842746
0.760369301 0.546846807 0.326170743
0.972286463 0.572414994 0.382607520
0.290868759 0.767814755 0.354933739
0.399945021 0.768773794 0.356139749
0.563040972 0.773355544 0.352959991
0.771738052 0.777837038 0.349229991
0.972383499 0.782503486 0.415731013
0.444589734 0.947033048 0.433144003
0.517587543 0.945286214 0.444868237
0.623411298 0.946052015 0.432919502
0.778452516 0.943600714 0.420115262
0.949012995 0.931399703 0.408800751
0.044363502 0.066186503 0.325840533
0.229866013 0.072861254 0.397844017
0.473464519 0.045800507 0.459912479
0.707784474 0.144967258 0.476679504
0.936085522 0.256895483 0.511054516
0.114709750 0.278864980 0.462437510
0.294382751 0.285587758 0.473753273
0.509897768 0.290084481 0.491179764
0.737225056 0.319549739 0.497807741
0.953734756 0.380178005 0.524348974
0.157779515 0.534086049 0.503736496
0.328488469 0.536052763 0.505772293
0.530990005 0.539779067 0.509248972
0.762234032 0.546788037 0.517562985
0.980043054 0.567745566 0.535588503
0.294233769 0.770752311 0.534484982
0.403129280 0.771139503 0.535996497
0.566135824 0.772310019 0.539153457
0.769480705 0.778098226 0.537064791
0.961548805 0.784529984 0.586170256
0.444207489 0.947933495 0.577571988
0.515781522 0.945741296 0.582915246
0.669910491 0.934179485 0.637984514
0.797133803 0.932364285 0.650277257
0.936100006 0.926162004 0.660470009
0.120557256 0.125033244 0.527868748
0.258427501 0.136692762 0.578637242
0.460810006 0.146893770 0.646261275
0.719911814 0.150826007 0.702725053
0.938051760 0.266406983 0.712777495
0.193510503 0.296306252 0.650439024
0.319633752 0.304548502 0.666467249
0.503904760 0.315082788 0.694140196
0.741536021 0.325514495 0.723118484
0.951596498 0.387393236 0.726870298
0.244867265 0.535511553 0.721009254
0.365760475 0.538523793 0.724944055
0.540867269 0.543936253 0.731953561
0.760006547 0.549386740 0.743265033
0.971687555 0.571492493 0.747012258
0.307910770 0.774192035 0.747816205
0.411599010 0.774756014 0.748916984
0.570286930 0.775825799 0.751013041
0.766969562 0.778444052 0.754837036
0.963263750 0.782754540 0.758866727
0.447026491 0.948970020 0.760104239
0.512121260 0.947364509 0.760267556
0.673775494 0.934444010 0.779948056
0.788048506 0.932430267 0.774957776
0.930949748 0.924653769 0.775374055
0.225364000 0.200314999 0.730188012
0.319221497 0.212013006 0.763207018
0.480627537 0.229606003 0.816689014
0.705932498 0.248844996 0.875990987
0.946866989 0.280393988 0.920062006
0.288588226 0.332821995 0.820974708
0.375524521 0.341135740 0.836224973
0.524078488 0.354788750 0.864583790
0.731184483 0.371741235 0.901101470
0.955774486 0.398761749 0.931318283
0.354390502 0.544170499 0.899397016
0.434199244 0.548062563 0.904586792
0.568681479 0.551300049 0.942077994
0.765759528 0.559928060 0.946542740
0.966063976 0.581514001 0.948667526
0.409339488 0.773685038 0.940056503
0.480911255 0.774784803 0.941707253
0.609831035 0.776829541 0.941772461
0.774537027 0.781417489 0.949853480
0.957013011 0.784337521 0.949903488
0.467855990 0.947991014 0.945510030
0.524080276 0.946636736 0.944599509
0.685048997 0.933812022 0.933092475
0.790213287 0.931052983 0.930876017
0.924987972 0.920960009 0.920960009
