public/lut/68.cube
TITLE "17x17x17 Adobe/IRIDAS cube 3D LUT exported with GrossGrade v0.2.2 (beta) 64 bit"
DOMAIN_MIN 0 0 0
DOMAIN_MAX 1 1 1
LUT_3D_SIZE 17
0.000000000 0.000000000 0.000000000
0.044011876 0.003104750 0.003104750
0.099544875 0.009265875 0.010053875
0.140208647 0.013258063 0.017053125
0.179578245 0.016954500 0.024642751
0.228494942 0.019467751 0.033711374
0.282728016 0.023065627 0.046249378
0.341781139 0.025677815 0.059473570
0.402989507 0.036668502 0.074888505
0.466251314 0.049093999 0.091882624
0.532133281 0.071606755 0.110627748
0.600126505 0.096923187 0.131968439
0.671160996 0.126825511 0.155971766
0.744369805 0.158866286 0.182491288
0.818031669 0.192625523 0.211168155
0.889086723 0.227972597 0.240546972
0.953298986 0.262944996 0.268768013
0.006210375 0.069355063 0.006949125
0.061766941 0.073430873 0.005421438
0.123153940 0.076825000 0.013060938
0.167059392 0.079680815 0.020158002
0.207948998 0.081992812 0.027156439
0.255057305 0.085581064 0.036866061
0.307704955 0.090014502 0.048583191
0.363599181 0.095964819 0.062165819
0.421915770 0.105127126 0.076883003
0.482566118 0.117315188 0.093717754
0.545847833 0.132903755 0.112737685
0.612071633 0.151656240 0.134212688
0.681370735 0.174041823 0.158502385
0.753053427 0.199180588 0.185189530
0.825195909 0.227582082 0.213505834
0.894823551 0.258413613 0.242726713
0.957843959 0.289867640 0.270835936
0.005618625 0.145252258 0.015573875
0.067357190 0.148423135 0.014835126
0.133655503 0.152540758 0.011829000
0.182976186 0.154846996 0.016461439
0.226307258 0.156863123 0.024741251
0.275240004 0.159772694 0.034845248
0.327996403 0.163839877 0.047754005
0.382935733 0.168944642 0.061656818
0.440116525 0.176179379 0.077864498
0.499373078 0.185484320 0.095345937
0.561039507 0.197046623 0.115112625
0.625706136 0.210992068 0.136916190
0.693449378 0.227938250 0.161672384
0.763448477 0.248070389 0.188169852
0.834088326 0.271530032 0.216669768
0.902246237 0.297958553 0.245808721
0.963707745 0.325560510 0.273693353
0.001872687 0.198517144 0.020207312
0.066757999 0.201055452 0.019467624
0.137959242 0.205688015 0.015672438
0.189099833 0.208143324 0.013258063
0.234647393 0.209900886 0.017989123
0.284916878 0.212157637 0.029423811
0.338399827 0.215262756 0.043619379
0.393651396 0.219658136 0.059318818
0.450788438 0.225411385 0.076724879
0.509675622 0.232808381 0.095573187
0.570996404 0.242000207 0.116480753
0.635172844 0.253545254 0.139048815
0.701943755 0.267612815 0.163915008
0.771075308 0.284823209 0.190652341
0.840592682 0.305384398 0.219074279
0.907678306 0.328762531 0.248233601
0.968229771 0.353857458 0.275956511
0.001577000 0.256352752 0.024839751
0.066350125 0.258624643 0.024101000
0.142914131 0.262591869 0.019516876
0.194930762 0.265410542 0.016165750
0.240952000 0.267575979 0.013208751
0.292982310 0.269133449 0.019862311
0.347310126 0.271490008 0.035387002
0.403208196 0.274826318 0.054614261
0.460674256 0.279062748 0.074887760
0.519936144 0.284784973 0.095338061
0.581125498 0.292004764 0.117414877
0.644733310 0.301145315 0.141027063
0.711003244 0.312652737 0.166335255
0.779218078 0.327203035 0.193581223
0.847735643 0.344761014 0.222083151
0.913815379 0.365387797 0.250991702
0.973420262 0.387642741 0.278887749
0.000542437 0.320309997 0.033711374
0.071502998 0.321730614 0.033169627
0.151268259 0.325243682 0.027994687
0.203350961 0.327704757 0.024100937
0.248787001 0.329865873 0.020256437
0.300059676 0.331932306 0.017348999
0.355128527 0.333608061 0.022819195
0.411902845 0.335713387 0.047233947
0.470075220 0.338882834 0.070730060
0.529660463 0.343051940 0.094450936
0.591097236 0.348539919 0.118191935
0.654693902 0.355748117 0.143147126
0.720422745 0.365065038 0.169011191
0.788022161 0.376965076 0.196937099
0.855653226 0.391704172 0.225508153
0.920406103 0.409217536 0.254472971
0.978884637 0.428666562 0.282271564
0.015081380 0.386258870 0.048244257
0.088814132 0.387567848 0.047819883
0.163928628 0.390343130 0.043395884
0.214092895 0.392620713 0.039076257
0.258207500 0.394798368 0.035782006
0.307949513 0.396888494 0.032577757
0.362178266 0.398931384 0.029966131
0.419431537 0.400614858 0.037161633
0.478298634 0.402624786 0.063700631
0.538466811 0.405560613 0.092196442
0.600169480 0.409679770 0.118543252
0.663766861 0.415126771 0.145047247
0.729474187 0.422480524 0.172048509
0.796469927 0.431924641 0.200338349
0.863169670 0.444088131 0.229316905
0.927004457 0.458854228 0.258515894
0.983555257 0.475558281 0.286537498
0.037204392 0.453641534 0.071636260
0.112587266 0.454667926 0.071433015
0.180289209 0.457057834 0.067497641
0.227667019 0.459105074 0.063542642
0.269788504 0.460995704 0.060224891
0.317758918 0.463050365 0.055678703
0.370356768 0.465282649 0.051885076
0.426459163 0.467190832 0.048588824
0.485504568 0.468702078 0.054145072
0.546071470 0.470562309 0.088995054
0.608163059 0.473458469 0.118328877
0.671988785 0.477560282 0.147008821
0.737487316 0.483091205 0.175084710
0.804163992 0.490588039 0.204026401
0.870142698 0.500311613 0.233457282
0.932912529 0.512467146 0.262972593
0.986765623 0.526428878 0.291105866
0.082942009 0.520893037 0.099655509
0.141846061 0.521782577 0.099641509
0.200758368 0.523639083 0.097154886
0.244498700 0.525463283 0.094596006
0.284352005 0.527185082 0.091658011
0.330029845 0.529157639 0.088482127
0.380517155 0.531198204 0.084968761
0.434843600 0.533344328 0.081572503
0.492530048 0.535140991 0.079003505
0.552888155 0.536564171 0.084504001
0.615201116 0.538380921 0.117976502
0.679085732 0.541259527 0.149105579
0.744436264 0.545309782 0.178397506
0.810670972 0.550990820 0.208076417
0.875976205 0.558717966 0.238081276
0.937819421 0.568559408 0.267959416
0.989449024 0.580151498 0.296405017
0.129679695 0.587363899 0.130594805
0.174369544 0.588144481 0.130622312
0.225402877 0.589644194 0.129005134
0.265530616 0.591189384 0.127306879
0.302424520 0.592692375 0.125101745
0.345549911 0.594459474 0.122460753
0.393522382 0.596422315 0.119601935
0.445586562 0.598357320 0.116588064
0.501114786 0.600256443 0.114027441
0.559826553 0.601921558 0.112465121
0.621661305 0.603281498 0.117800809
0.685367465 0.604989052 0.151323244
0.750512123 0.607899487 0.182093516
0.816236079 0.612105370 0.212680772
0.880776107 0.617963016 0.243382528
0.941540360 0.625734210 0.273795485
0.992581904 0.635109663 0.302366942
0.177414507 0.652070880 0.163475633
0.211629301 0.652725279 0.163387507
0.255397379 0.653918266 0.162441626
0.291303873 0.655139387 0.161316991
0.325130731 0.656381130 0.159659132
0.364978880 0.657942414 0.157762632
0.410021007 0.659718275 0.155521497
0.459347159 0.661554694 0.153085500
0.512398243 0.663372755 0.150800243
0.568824589 0.665033579 0.148873881
0.628651142 0.666488111 0.147831634
0.691466033 0.667729080 0.154574811
0.756062806 0.669375598 0.186740384
0.821084619 0.672267795 0.218202040
0.884698927 0.676607132 0.249759540
0.944272876 0.682548106 0.280366272
0.995586991 0.689982772 0.309562117
0.226208568 0.714090109 0.196925253
0.253411949 0.714619994 0.196738690
0.290708691 0.715571284 0.196177199
0.322258800 0.716538548 0.195138320
0.352649391 0.717528582 0.194215134
0.389133602 0.718867898 0.192883626
0.430894375 0.720376909 0.191078067
0.477021575 0.722005486 0.189045504
0.527040660 0.723620057 0.186882183
0.580654979 0.725205123 0.184999004
0.637902021 0.726634085 0.183833882
0.698454559 0.727852881 0.183833882
0.761816561 0.728921771 0.193143874
0.825789511 0.730534136 0.225387409
0.888228357 0.733454883 0.257322907
0.946298122 0.737816691 0.288437903
0.995386183 0.743398607 0.317775130
0.277769029 0.772540987 0.231659770
0.299970448 0.772939086 0.231378019
0.331319898 0.773666143 0.230888128
0.358767211 0.774489045 0.230356693
0.385661274 0.775296509 0.229654253
0.418583244 0.776320279 0.228494376
0.456693769 0.777534127 0.227224514
0.499247760 0.778920531 0.225699186
0.545894980 0.780302823 0.224033013
0.596279562 0.781666994 0.222406060
0.650342286 0.782878935 0.221205264
0.707953453 0.783999026 0.220632493
0.768637538 0.784862757 0.221509755
0.830969214 0.785624623 0.234868288
0.891820192 0.787305236 0.266996562
0.948051333 0.790111065 0.298269928
0.993749738 0.792930484 0.326775014
0.332657665 0.826480269 0.267552823
0.350819916 0.826799512 0.267254114
0.377153903 0.827368140 0.266890347
0.400698721 0.827932298 0.266590774
0.424206525 0.828558028 0.266067952
0.453503579 0.829342484 0.265330404
0.487808824 0.830256224 0.264340401
0.526604235 0.831329703 0.263266087
0.569456398 0.832379818 0.261968106
0.616177738 0.833487868 0.260672092
0.666725278 0.834492087 0.259635478
0.720861197 0.835311353 0.259105146
0.778111219 0.835882187 0.259477407
0.836986482 0.836054802 0.261210144
0.894497335 0.835540056 0.278154731
0.947805345 0.835984111 0.308300912
0.992199063 0.837318420 0.336462379
0.390826672 0.875022054 0.304764032
0.405683994 0.875327528 0.304643512
0.427760184 0.875697792 0.304280639
0.447890192 0.876113057 0.304060161
0.468304694 0.876520932 0.303763926
0.493858963 0.877063572 0.303141028
0.524293065 0.877686441 0.302517027
0.559277952 0.878531396 0.301808476
0.597752750 0.879009187 0.300604433
0.639889240 0.879303694 0.299271315
0.685756564 0.879490316 0.297977298
0.735160410 0.879494429 0.297035664
0.787702084 0.879216194 0.296714902
0.842255771 0.878731668 0.297222197
0.896604300 0.877795815 0.298967928
0.947533607 0.877018869 0.319673300
0.990377247 0.876353204 0.346163630
0.447404176 0.916267335 0.340941906
0.459540129 0.916300118 0.340636641
0.478009254 0.916523933 0.340498060
0.494881243 0.916673958 0.340213776
0.512249172 0.916839838 0.339795440
0.534325838 0.917086303 0.339376986
0.560757458 0.917353332 0.338677853
0.591340542 0.917612910 0.337836742
0.625650108 0.917885661 0.336886019
0.663765192 0.918007493 0.335810065
0.705367804 0.917970181 0.334669888
0.750254512 0.917688251 0.333565831
0.798119247 0.916914284 0.332655102
0.847824872 0.915783167 0.332389534
0.897395134 0.914019465 0.332492173
0.944626212 0.911609471 0.332990348
0.986333430 0.909129441 0.354035556
0.499745995 0.951582015 0.375301003
0.509852469 0.951668024 0.375106126
0.525261641 0.951668024 0.374830008
0.539492130 0.951714337 0.374280810
0.554329991 0.951725006 0.373979509
0.573201597 0.951725006 0.373471081
0.596087575 0.951668024 0.372724265
0.622665763 0.951562583 0.371814251
0.652696013 0.951381505 0.370651484
0.686218619 0.951060414 0.369567990
0.722950399 0.950427532 0.367854238
0.762879193 0.949465513 0.366330117
0.805453002 0.947941005 0.364567518
0.849977612 0.945848286 0.362910122
0.894840181 0.943017364 0.361293972
0.938034892 0.939561725 0.360126436
0.977779984 0.935645998 0.358357012
0.003844438 0.003104750 0.043324687
0.046839125 0.005421438 0.067391060
0.106005311 0.010004625 0.076404877
0.147267640 0.013996937 0.081499629
0.186572626 0.016362749 0.086552002
0.234607875 0.018926000 0.094060935
0.288954228 0.022277625 0.103374131
0.346775740 0.025677815 0.113813639
0.407446206 0.036717813 0.126311570
0.469855607 0.049385376 0.140662745
0.534836054 0.072094440 0.156773299
0.602610707 0.097703934 0.175113678
0.673010290 0.127508625 0.196071148
0.746003091 0.159616396 0.219256520
0.819307089 0.193199590 0.244583577
0.890010417 0.228627592 0.270742297
0.954003274 0.263662994 0.296188444
0.008575438 0.072479308 0.085215375
0.066160001 0.075421877 0.087798759
0.128374428 0.077839375 0.091191553
0.173005626 0.079812996 0.094093941
0.214109823 0.082460254 0.097947247
0.261056125 0.085547186 0.103564188
0.313120872 0.090014502 0.111366816
0.368295968 0.096312135 0.120644942
0.425907969 0.105127126 0.132012501
0.485916257 0.117485188 0.145532757
0.548735797 0.133204430 0.160916135
0.614475727 0.152016371 0.178744689
0.683350563 0.174309269 0.199413240
0.754512846 0.199721277 0.222216576
0.826366067 0.228068158 0.247174785
0.895852804 0.258971900 0.273067355
0.958667576 0.290492386 0.298375756
0.006506125 0.148191437 0.096448816
0.073010564 0.150524452 0.098005012
0.138816640 0.154067308 0.098799378
0.188194320 0.156129807 0.100779876
0.231960192 0.157824248 0.104456753
0.280897498 0.160467371 0.109789938
0.333155811 0.164351001 0.117123075
0.387506843 0.169527441 0.126170307
0.443875700 0.176488012 0.137088448
0.502632201 0.185774937 0.150366008
0.563953161 0.197232246 0.165646240
0.628167868 0.211245328 0.183284685
0.695380569 0.228171512 0.203409135
0.765021265 0.248377457 0.226098523
0.835371554 0.271945894 0.250526845
0.903170288 0.298315197 0.276270509
0.964465976 0.325895995 0.301388890
0.002760187 0.201237395 0.103055693
0.073367625 0.203123078 0.104475126
0.143762320 0.206471443 0.104895376
0.194113567 0.209290206 0.104114123
0.239544004 0.211098269 0.106948063
0.289845347 0.213037387 0.112264499
0.342939168 0.216149896 0.119717561
0.397798330 0.220352218 0.129114449
0.454360038 0.225810185 0.140144378
0.512918591 0.233129203 0.153352991
0.573852301 0.242248386 0.168791637
0.637408316 0.253574699 0.186418757
0.703976512 0.267911494 0.206590697
0.772617579 0.285085142 0.228971839
0.841818869 0.305573225 0.253369540
0.908693552 0.329108089 0.278913587
0.968956232 0.354173630 0.303829759
0.003154000 0.259025753 0.110812001
0.074584879 0.260476440 0.111856066
0.149396449 0.263177454 0.112250939
0.200018957 0.266235352 0.111397438
0.245457008 0.268552244 0.110173061
0.296951324 0.270242006 0.113432810
0.351124883 0.272526383 0.121546432
0.406765252 0.275587976 0.131194621
0.463945597 0.279658496 0.142974928
0.522830725 0.285097510 0.156512052
0.583653867 0.292251021 0.172117606
0.647029042 0.301436037 0.189934254
0.712844133 0.312938631 0.209890127
0.780844569 0.327537954 0.232437089
0.849067211 0.345179588 0.256573290
0.914804995 0.365636230 0.282031834
0.974165559 0.388071507 0.306937248
0.001084188 0.322351724 0.120878309
0.080585629 0.323380888 0.121841066
0.158043936 0.325572073 0.122470066
0.208389506 0.328155488 0.121217124
0.252771944 0.330646247 0.119872183
0.303344011 0.332791954 0.118327305
0.358222485 0.334510565 0.122014940
0.414772600 0.336615235 0.132828504
0.472878009 0.339720488 0.145304576
0.532226443 0.343718290 0.159360930
0.593433917 0.349003673 0.175489008
0.656744897 0.356130630 0.193545863
0.722236872 0.365344793 0.213965058
0.789452314 0.377181202 0.236261919
0.856769383 0.391953349 0.260505289
0.921358764 0.409493864 0.285747409
0.979572594 0.429084361 0.310547799
0.020700382 0.388087332 0.133719385
0.096507758 0.389008224 0.134592444
0.170399368 0.390618205 0.135344177
0.219014078 0.392726839 0.134250566
0.261861980 0.395038694 0.132749632
0.310906768 0.397540510 0.130990818
0.364649892 0.399612695 0.129281938
0.421835840 0.401399463 0.132943302
0.480505526 0.403388768 0.147031441
0.540485859 0.406330019 0.162059382
0.602177501 0.410311162 0.178644612
0.665563285 0.415647328 0.197275251
0.730994463 0.422800779 0.217865944
0.797791064 0.432241142 0.240437463
0.864265263 0.444389313 0.264770567
0.927821875 0.459183633 0.290025413
0.984125733 0.475857019 0.314860523
0.045341827 0.455183089 0.149983823
0.118765451 0.455833405 0.150907025
0.185983583 0.457203031 0.151516527
0.232411444 0.459003419 0.150656953
0.273441076 0.460984081 0.149423957
0.320541978 0.463367075 0.147590891
0.372575551 0.465708733 0.145648450
0.428346843 0.467783749 0.144027397
0.487315714 0.469372690 0.147458762
0.547737658 0.471264720 0.164074823
0.609751046 0.474122971 0.181762621
0.673361897 0.478113323 0.200926870
0.738803029 0.483581126 0.222039506
0.805226564 0.490992665 0.244872466
0.871032476 0.500669599 0.269431263
0.933559358 0.512761652 0.294757873
0.987127304 0.526854157 0.319682479
0.088484012 0.522281110 0.169448882
0.146188766 0.522791684 0.170351446
0.205676571 0.523833513 0.170729324
0.248918712 0.525377333 0.170261577
0.287750870 0.527047276 0.169164762
0.332746863 0.529116631 0.167586565
0.382537335 0.531433344 0.165306330
0.436429203 0.533567905 0.163397431
0.493913800 0.535551965 0.162189633
0.554225922 0.537159503 0.165382817
0.616447449 0.538973808 0.184427321
0.680180252 0.541788697 0.204611376
0.745442092 0.545762777 0.226264581
0.811599314 0.551504314 0.249561027
0.876769245 0.559089303 0.274367571
0.938351035 0.568920434 0.299995720
0.989712477 0.580476463 0.325134248
0.133569315 0.588574290 0.191663817
0.178416118 0.588989198 0.192380428
0.229695246 0.589832127 0.192863569
0.269356668 0.591030538 0.192481369
0.305626303 0.592470527 0.191507757
0.348057508 0.594336629 0.190088943
0.395462900 0.596355855 0.188328996
0.447016835 0.598508418 0.186253995
0.502284408 0.600542784 0.184405118
0.560901165 0.602335095 0.183434814
0.622635722 0.603771567 0.186912820
0.686223745 0.605519831 0.208237380
0.751220584 0.608332157 0.230799705
0.816871762 0.612554312 0.254757106
0.881337762 0.618399262 0.279947221
0.941943288 0.626164496 0.305852354
0.992771506 0.635471582 0.331328690
0.180108994 0.653048217 0.216329440
0.214855820 0.653235376 0.216932938
0.258926809 0.654073238 0.217213750
0.294537246 0.655046284 0.216843367
0.327896357 0.656259000 0.216224939
0.367391884 0.657791972 0.215064570
0.411881208 0.659599543 0.213476688
0.460764915 0.661586165 0.211541757
0.513471723 0.663559139 0.209714070
0.569687366 0.665362000 0.208149061
0.629390180 0.666898966 0.207477808
0.692126989 0.668122411 0.212332696
0.756581962 0.669858754 0.235918075
0.821538806 0.672710955 0.260570049
0.885018289 0.677077591 0.286385655
0.944431841 0.683005154 0.312673390
0.995620728 0.690351307 0.338249445
0.228595436 0.714839220 0.243152127
0.256059557 0.715024710 0.243613750
0.293530583 0.715719342 0.243702635
0.324956298 0.716577649 0.243446186
0.355153054 0.717499733 0.242886260
0.391277909 0.718712330 0.241995424
0.432590216 0.720252872 0.240855694
0.478358477 0.721941650 0.239237756
0.528076410 0.723737180 0.237647429
0.581410766 0.725404918 0.236066252
0.638524413 0.726914406 0.234964445
0.698933125 0.728129983 0.234768391
0.762163997 0.729223728 0.242081061
0.826016247 0.730926216 0.267528683
0.888335764 0.733870864 0.293907523
0.946258664 0.738179266 0.320569903
0.995256245 0.743775129 0.346304834
0.279885054 0.773026764 0.272229344
0.302270949 0.773290336 0.272367775
0.333703578 0.773793280 0.272376388
0.360990107 0.774500549 0.272237599
0.387669861 0.775195420 0.271857500
0.420365572 0.776229322 0.271181524
0.458140880 0.777424395 0.270277709
0.500427842 0.778829515 0.269081056
0.546720982 0.780284524 0.267631203
0.596871614 0.781747937 0.266163528
0.650757670 0.783113182 0.265034735
0.708313107 0.784239411 0.264472395
0.768806815 0.785125613 0.265254825
0.831107199 0.786011159 0.276316285
0.891750515 0.787659347 0.303081870
0.947851717 0.790481389 0.329899102
0.993510842 0.793231010 0.355036616
0.334647864 0.826762557 0.303293973
0.352682769 0.827002227 0.303499073
0.379008055 0.827458858 0.303385168
0.402539879 0.827936649 0.303263098
0.425989598 0.828481197 0.302935064
0.454972893 0.829237163 0.302516282
0.489057362 0.830172718 0.301706612
0.527621865 0.831233263 0.300755084
0.570242643 0.832375765 0.299762219
0.616733730 0.833498657 0.298548281
0.667082906 0.834570467 0.297608584
0.721005380 0.835485816 0.297007620
0.778142512 0.836100698 0.297327548
0.836854577 0.836167097 0.298650026
0.894246399 0.835790992 0.313101739
0.947477102 0.836211801 0.339120954
0.991863787 0.837485731 0.363778323
0.392407507 0.875225961 0.336426765
0.407268882 0.875383556 0.336439908
0.429245174 0.875671923 0.336325824
0.449324340 0.876078546 0.336257100
0.469586641 0.876453042 0.336007953
0.495088130 0.876988411 0.335645288
0.525282323 0.877568841 0.335100383
0.560010910 0.878408074 0.334499300
0.598288357 0.878947556 0.333462566
0.640190065 0.879231751 0.332189351
0.685897052 0.879466295 0.331006289
0.735127330 0.879577756 0.329859406
0.787603915 0.879345179 0.329480708
0.842011809 0.878864527 0.329927832
0.896176279 0.878009439 0.331341803
0.946971536 0.877128541 0.349223346
0.989899993 0.876533091 0.372652858
0.448591828 0.916183054 0.368949234
0.460761279 0.916265488 0.368780345
0.479059219 0.916414440 0.368654400
0.495873749 0.916544676 0.368383288
0.513195634 0.916723728 0.368106157
0.535155058 0.916941643 0.367659897
0.561466336 0.917191803 0.367201209
0.591886759 0.917465806 0.366498917
0.626105249 0.917779803 0.365589082
0.663926363 0.917925060 0.364456773
0.705354691 0.917972088 0.363412052
0.750109911 0.917669475 0.362314343
0.797859907 0.917026758 0.361354977
0.847390652 0.915850759 0.360788107
0.896849871 0.914058924 0.360689521
0.944102168 0.911754966 0.360938072
0.985740900 0.909196019 0.379527867
0.500532866 0.951530337 0.400020063
0.510739744 0.951526701 0.399927378
0.525888324 0.951532125 0.399512857
0.540172577 0.951530337 0.399327695
0.554965675 0.951556623 0.398989171
0.573800325 0.951556623 0.398491740
0.596482396 0.951529741 0.397862703
0.622964442 0.951434910 0.397045106
0.652858019 0.951266527 0.395939052
0.686218619 0.950933278 0.394718558
0.722884119 0.950334668 0.393221021
0.762582362 0.949426293 0.391588807
0.805069447 0.947883010 0.389677495
0.849475026 0.945901930 0.387789249
0.894251347 0.943091691 0.386099696
0.937428832 0.939616084 0.384584367
0.977071345 0.935651481 0.382705063
0.008575500 0.009265875 0.088904247
0.046124559 0.013159563 0.113177314
0.105657250 0.014785876 0.134370998
0.152364463 0.013307376 0.143282324
0.193089634 0.016362749 0.147281006
0.241458312 0.018679438 0.153349012
0.294769526 0.022277625 0.160613239
0.352260739 0.025333066 0.169739634
0.411496490 0.037063003 0.180030882
0.473508239 0.050353751 0.192277640
0.537892103 0.073422752 0.206181124
0.605079234 0.098944999 0.221847370
0.675124109 0.128538504 0.239826128
0.747662365 0.160707146 0.259926468
0.820644915 0.194226027 0.281964779
0.891058445 0.229333088 0.304956973
0.954837859 0.264629245 0.327947766
0.012567750 0.075436868 0.145333946
0.066757999 0.078738123 0.150828809
0.128396869 0.080694750 0.157928824
0.176306754 0.081610754 0.161867306
0.217796057 0.083474308 0.163794443
0.265617043 0.086530440 0.167420000
0.317339092 0.090816751 0.172473937
0.372058719 0.097099192 0.179247871
0.429442823 0.106405511 0.188244626
0.489048541 0.118431494 0.198819071
0.551294148 0.134229928 0.211740494
0.616860688 0.153010309 0.226651251
0.685305238 0.175344124 0.243929312
0.756187797 0.200344905 0.263386369
0.827755809 0.228922784 0.284920454
0.896722734 0.259702265 0.307630777
0.959326804 0.291227698 0.330298990
0.006309000 0.151073128 0.166564137
0.073594190 0.153342366 0.168226674
0.141871393 0.156125486 0.170972884
0.192062080 0.157311440 0.173371375
0.236411750 0.158844873 0.174982518
0.285179317 0.161205068 0.177803621
0.337004989 0.164801374 0.182052240
0.391318798 0.169946820 0.188100442
0.447420180 0.177015245 0.196087137
0.505790412 0.186184689 0.205977827
0.566741228 0.197788373 0.218052745
0.630564630 0.211623877 0.232173949
0.697448254 0.228761241 0.248684749
0.766860962 0.248971581 0.267747104
0.836618304 0.272480547 0.288694888
0.904142320 0.298834145 0.311112672
0.965128958 0.326468587 0.333419144
0.001183187 0.204391271 0.173914135
0.074420623 0.205953643 0.174837813
0.147494122 0.208517641 0.177042887
0.198000565 0.210578501 0.178513825
0.243586123 0.212325692 0.179635704
0.294202626 0.214351386 0.182512581
0.346929252 0.216856390 0.186880887
0.401526213 0.220887959 0.192956686
0.458010554 0.226255953 0.200758994
0.516093493 0.233470514 0.210438251
0.576702833 0.242632955 0.222162753
0.639859974 0.254005104 0.236036196
0.705994844 0.268164724 0.252308071
0.774384677 0.285436988 0.270956069
0.843267798 0.306091845 0.291741163
0.909708977 0.329487860 0.313800544
0.969674706 0.354571253 0.335962057
0.003745750 0.261744380 0.181589007
0.077056877 0.263215244 0.182512373
0.153924376 0.265363485 0.184335738
0.204348251 0.267208248 0.185433134
0.249083623 0.269645512 0.185375139
0.300482303 0.271430373 0.187034309
0.354617655 0.273645282 0.191524357
0.410186440 0.276429176 0.197592109
0.467472017 0.280402005 0.205330998
0.525938213 0.285651505 0.214977384
0.586472869 0.292654157 0.226567626
0.649462104 0.301780075 0.240273625
0.714942038 0.313312352 0.256259650
0.782559156 0.327826530 0.274795473
0.850466907 0.345516771 0.295266062
0.915781617 0.366115659 0.317167550
