public/lut/68.cube
TITLE "17x17x17 Adobe/IRIDAS cube 3D LUT exported with GrossGrade v0.2.2 (beta) 64 bit"
DOMAIN_MIN 0 0 0
DOMAIN_MAX 1 1 1
LUT_3D_SIZE 5
0.000000000 0.000000000 0.000000000
0.179578245 0.016954500 0.024642751
0.402989507 0.036668502 0.074888505
0.671160996 0.126825511 0.155971766
0.953298986 0.262944996 0.268768013
0.001577000 0.256352752 0.024839751
0.240952000 0.267575979 0.013208751
0.460674256 0.279062748 0.074887760
0.711003244 0.312652737 0.166335255
0.973420262 0.387642741 0.278887749
0.082942009 0.520893037 0.099655509
0.284352005 0.527185082 0.091658011
0.492530048 0.535140991 0.079003505
0.744436264 0.545309782 0.178397506
0.989449024 0.580151498 0.296405017
0.277769029 0.772540987 0.231659770
0.385661274 0.775296509 0.229654253
0.545894980 0.780302823 0.224033013
0.768637538 0.784862757 0.221509755
0.993749738 0.792930484 0.326775014
0.499745995 0.951582015 0.375301003
0.554329991 0.951725006 0.373979509
0.652696013 0.951381505 0.370651484
0.805453002 0.947941005 0.364567518
0.977779984 0.935645998 0.358357012
0.010251000 0.024642751 0.166236252
0.194079503 0.026417501 0.245501995
0.419318259 0.038640004 0.275949746
0.679336250 0.131459013 0.319661021
0.956045270 0.266689986 0.389738500
0.003548250 0.265876770 0.293111503
0.253943741 0.272591978 0.299548030
0.471671492 0.281498253 0.308917999
0.718200564 0.314259499 0.339613736
0.975987732 0.389559001 0.402056992
0.100172013 0.526968777 0.330111027
0.296485782 0.529447317 0.333442509
0.498103499 0.537508249 0.333494008
0.748821259 0.547533751 0.361107767
0.990468740 0.581731200 0.421832740
0.285179287 0.775671244 0.393459022
0.393709004 0.776327729 0.395716250
0.550051212 0.780470967 0.395626515
0.769227266 0.786292255 0.393587053
0.988039255 0.795846283 0.477743506
0.503260493 0.951768517 0.485038757
0.558200955 0.951130748 0.486141980
0.669903278 0.947883248 0.516425252
0.804685712 0.947314441 0.484323740
0.974157214 0.935850978 0.467083007
0.016954001 0.078845501 0.384136021
0.200282753 0.089899004 0.447591007
0.426146507 0.085790507 0.516514540
0.693710566 0.143014759 0.550579309
0.959532499 0.276964992 0.584742010
0.098631263 0.278597474 0.525136530
0.272333026 0.287276238 0.539297223
0.473335266 0.296383768 0.561847806
0.724661708 0.322160751 0.575280786
0.976548791 0.397027522 0.599666536
0.146715999 0.534747005 0.583652496
0.314574778 0.537598014 0.586648822
0.508046508 0.542665601 0.592290521
0.753661215 0.550723553 0.599705338
0.996975482 0.579239488 0.616423011
0.297769785 0.782020748 0.614473224
0.403072000 0.782586813 0.616144300
0.558713496 0.783568501 0.619830847
0.769354284 0.789039254 0.621831775
0.982670009 0.798776507 0.656022727
0.507489502 0.954555988 0.659203529
0.561076522 0.953199267 0.659667015
0.707341552 0.941685975 0.707541943
0.821638525 0.940304279 0.711525023
0.958653510 0.933753967 0.729042053
0.113232508 0.145604998 0.590861976
0.246096507 0.159267262 0.633935034
0.431690007 0.176579505 0.696537256
0.699462235 0.192141503 0.762193501
0.965860486 0.293639749 0.787049055
0.199590996 0.307266742 0.707237542
0.314496994 0.316532493 0.723220050
0.483243734 0.330260515 0.750874817
0.727478981 0.345864505 0.787006795
0.977482975 0.410396755 0.800302029
0.271685511 0.541706026 0.784786761
0.376542002 0.545429230 0.789293528
0.533938527 0.552429020 0.797457218
0.755604267 0.561476231 0.812565446
0.993580461 0.589534223 0.820918739
0.351288766 0.787045300 0.818772972
0.439828008 0.787790537 0.820064247
0.579721987 0.789277017 0.822586417
0.775597811 0.792568326 0.826986253
0.981611967 0.799687505 0.830131292
0.523244739 0.956856489 0.830562532
0.573034525 0.955546796 0.830382824
0.717781246 0.943470538 0.841038525
0.818851292 0.941046000 0.838961780
0.953942239 0.933790505 0.832894444
0.213705003 0.208912000 0.743776023
0.308087766 0.221640497 0.773457766
0.462933004 0.240722001 0.821977019
0.701300502 0.264841735 0.881235719
0.978277028 0.309920013 0.927186012
0.290353477 0.341588497 0.830947042
0.374228001 0.350369513 0.844505489
0.514887810 0.364996254 0.869444013
0.731951773 0.385437727 0.905016482
0.985068500 0.423776746 0.936297715
0.375667512 0.552991033 0.902860999
0.449139744 0.557179749 0.907399952
0.575158954 0.560750008 0.942106962
0.777381778 0.570619464 0.947609782
0.993870974 0.601121008 0.950262547
0.455269754 0.788507223 0.938591778
0.517793775 0.789681017 0.940071225
0.630097032 0.791794240 0.941176951
0.793941736 0.797254026 0.948674738
0.979250491 0.804185510 0.950448990
0.556181014 0.956977010 0.945308030
0.599993527 0.955653250 0.944910288
0.735272527 0.943919003 0.936187983
0.825990260 0.941380501 0.935308993
0.951783001 0.932357013 0.927363992
