public/lut/69.cube
TITLE "17x17x17 Adobe/IRIDAS cube 3D LUT exported with GrossGrade v0.2.2 (beta) 64 bit"
DOMAIN_MIN 0 0 0
DOMAIN_MAX 1 1 1
LUT_3D_SIZE 5
0.000000000 0.000000000 0.000000000
0.210101262 0.000000000 0.000000000
0.450155020 0.000000000 0.000000000
0.627589762 0.000000000 0.000000000
0.865221024 0.000000000 0.000000000
0.000000000 0.223301500 0.000000000
0.108072251 0.199777007 0.000000000
0.375798732 0.162501752 0.000000000
0.606261492 0.117573000 0.000000000
0.884227753 0.085158005 0.000000000
0.000000000 0.402671009 0.000000000
0.001182748 0.400281012 0.000000000
0.267350495 0.386410505 0.000000000
0.550121546 0.366753012 0.000000000
0.855778515 0.340008020 0.000000000
0.000000000 0.611864507 0.000000000
0.000000000 0.626806974 0.000000000
0.188739032 0.620805502 0.000000000
0.480513513 0.596626818 0.000000000
0.773384988 0.562495530 0.000000000
0.000000000 0.806373000 0.000000000
0.000000000 0.824286520 0.000000000
0.114911012 0.804230511 0.000000000
0.392289042 0.773100019 0.000000000
0.669670999 0.732859015 0.000000000
0.000000000 0.000000000 0.218850002
0.208982006 0.000000000 0.214604512
0.459028274 0.000000000 0.209594518
0.655788481 0.000000000 0.187422499
0.918959737 0.000000000 0.190179259
0.000000000 0.254212022 0.199302509
0.108170502 0.239911020 0.227384239
0.382375479 0.206148759 0.230448499
0.645212471 0.170388505 0.232808247
0.952132225 0.141591251 0.247593760
0.000000000 0.462604016 0.177781999
0.006111749 0.468879998 0.215063751
0.292313516 0.460868776 0.237494007
0.598522723 0.445752531 0.258963764
0.909271777 0.411990494 0.271101236
0.000000000 0.696433783 0.181783751
0.000000000 0.721291065 0.227980494
0.214120016 0.704565048 0.247690499
0.511866510 0.670702696 0.259034246
0.807824254 0.627453089 0.264040023
0.000000000 0.910071015 0.180193514
0.000000000 0.909929216 0.221773744
0.131893516 0.878176987 0.233826756
0.412552744 0.838975251 0.240072489
0.691887498 0.789599001 0.241033003
0.000000000 0.000000000 0.439469993
0.216025263 0.000000000 0.466461778
0.454334527 0.000000000 0.438152999
0.675602019 0.000000000 0.417176038
0.953855038 0.000000000 0.428414524
0.000000000 0.270263255 0.422454298
0.099422500 0.260075748 0.464798510
0.378633499 0.234086245 0.477021992
0.670264482 0.209097505 0.495075762
0.987793803 0.197447762 0.519606471
0.000000000 0.506347537 0.418909013
0.007097250 0.518599033 0.475329250
0.304624021 0.515102506 0.511502504
0.620159268 0.496087253 0.538114071
0.926661015 0.459780514 0.546471000
0.000000000 0.756994486 0.438258290
0.000000000 0.785498559 0.501448750
0.225187004 0.753694534 0.518534064
0.522400498 0.715043306 0.525862575
0.821996987 0.665012240 0.525045753
0.000000000 0.978330970 0.439931512
0.000000000 0.960055947 0.479071736
0.136261523 0.921782494 0.488798499
0.417331517 0.877076983 0.491070032
0.697106004 0.823401988 0.486221015
0.000000000 0.000000000 0.641861260
0.205331236 0.000000000 0.653110743
0.444638252 0.000000000 0.619082510
0.692487061 0.000000000 0.616168499
0.980180979 0.000000000 0.634483814
0.000000000 0.283488989 0.599166989
0.091391005 0.277271986 0.654117227
0.380230278 0.261746258 0.689148486
0.686165512 0.242267489 0.723184526
1.000000000 0.239216506 0.753538489
0.000000000 0.544064760 0.628241777
0.005519998 0.560499251 0.701958299
0.314010739 0.560531855 0.752359271
0.629800498 0.531102717 0.772338510
0.937139750 0.491235018 0.770757735
0.000000000 0.808690548 0.661734045
0.000000000 0.826755285 0.731552780
0.226734266 0.788880825 0.745359004
0.528512716 0.744037330 0.749366283
0.822771251 0.692134023 0.742841005
0.099225000 1.000000000 0.662111998
0.000000000 0.993836761 0.695223272
0.136455506 0.951366544 0.701940298
0.416952491 0.902832508 0.700102746
0.697428763 0.844869494 0.691758513
0.000000000 0.000000000 0.762825012
0.192728996 0.000000000 0.779198229
0.438185513 0.000000000 0.759462476
0.703079224 0.000000000 0.776816726
1.000000000 0.008674000 0.802295983
0.000000000 0.298942268 0.743954241
0.087012753 0.297687769 0.815926790
0.383541495 0.285893023 0.865692496
0.696546495 0.269194007 0.909631729
1.000000000 0.263680756 0.944567263
0.000000000 0.573688030 0.798425496
0.003154498 0.594283819 0.887625992
0.315971524 0.593556046 0.944655001
0.632856965 0.557433248 0.950994253
0.943776488 0.511382997 0.949990034
0.000000000 0.847454309 0.843955219
0.000000000 0.853490770 0.913628519
0.227951512 0.811706483 0.925061762
0.531032741 0.764451027 0.922110498
0.822091222 0.709712982 0.911347985
0.100699998 1.000000000 0.831824005
0.100991748 1.000000000 0.866276503
0.133288026 0.970779538 0.870431006
0.414115250 0.919026971 0.865139723
0.695617020 0.858264983 0.850036979
