public/lut/69.cube
TITLE "17x17x17 Adobe/IRIDAS cube 3D LUT exported with GrossGrade v0.2.2 (beta) 64 bit"
DOMAIN_MIN 0 0 0
DOMAIN_MAX 1 1 1
LUT_3D_SIZE 17
0.000000000 0.000000000 0.000000000
0.014293000 0.000000000 0.000000000
0.086071245 0.000000000 0.000000000
0.149146199 0.000000000 0.000000000
0.210101262 0.000000000 0.000000000
0.275402635 0.000000000 0.000000000
0.343839139 0.000000000 0.000000000
0.401240349 0.000000000 0.000000000
0.450155020 0.000000000 0.000000000
0.494578421 0.000000000 0.000000000
0.536630154 0.000000000 0.000000000
0.579995930 0.000000000 0.000000000
0.627589762 0.000000000 0.000000000
0.682906270 0.000000000 0.000000000
0.744607270 0.000000000 0.000000000
0.806470931 0.000000000 0.000000000
0.865221024 0.000000000 0.000000000
0.000000000 0.039811876 0.000000000
0.000000000 0.025875563 0.000000000
0.047452502 0.013110250 0.000000000
0.115965702 0.000394250 0.000000000
0.180513680 0.000000000 0.000000000
0.245050997 0.000000000 0.000000000
0.319400698 0.000000000 0.000000000
0.384521306 0.000000000 0.000000000
0.437881470 0.000000000 0.000000000
0.485685140 0.000000000 0.000000000
0.530783772 0.000000000 0.000000000
0.577315569 0.000000000 0.000000000
0.627019525 0.000000000 0.000000000
0.685681581 0.000000000 0.000000000
0.752282202 0.000000000 0.000000000
0.815423071 0.000000000 0.000000000
0.877891421 0.000000000 0.000000000
0.000000000 0.100059748 0.000000000
0.000000000 0.089578256 0.000000000
0.008280125 0.082144253 0.000000000
0.086005069 0.072676748 0.000000000
0.152981371 0.063687630 0.000000000
0.222144499 0.056148250 0.000000000
0.298054785 0.049659375 0.000000000
0.365378469 0.040032931 0.000000000
0.423988253 0.027797248 0.000000000
0.476199210 0.016215062 0.000000000
0.524847031 0.007392875 0.000000000
0.573247015 0.000000000 0.000000000
0.625753582 0.000000000 0.000000000
0.687550426 0.000000000 0.000000000
0.754620314 0.000000000 0.000000000
0.822354794 0.000000000 0.000000000
0.887902975 0.000000000 0.000000000
0.000000000 0.164152205 0.000000000
0.000000000 0.154340640 0.000000000
0.000000000 0.147174954 0.000000000
0.059872381 0.138355821 0.000000000
0.131240264 0.131931946 0.000000000
0.204487443 0.125515133 0.000000000
0.274614900 0.119157389 0.000000000
0.342080146 0.109424382 0.000000000
0.402283520 0.098571070 0.000000000
0.456536621 0.087666705 0.000000000
0.509149075 0.075950578 0.000000000
0.560655057 0.065534137 0.000000000
0.617212176 0.055654697 0.000000000
0.680199325 0.046749689 0.000000000
0.748639762 0.038369317 0.000000000
0.819105387 0.029867128 0.000000000
0.886119545 0.022129012 0.000000000
0.000000000 0.223301500 0.000000000
0.000000000 0.217243642 0.000000000
0.000000000 0.213473499 0.000000000
0.030111888 0.206964687 0.000000000
0.108072251 0.199777007 0.000000000
0.179378197 0.192307174 0.000000000
0.248464644 0.183407366 0.000000000
0.314585984 0.173344046 0.000000000
0.375798732 0.162501752 0.000000000
0.434624732 0.150672376 0.000000000
0.490290344 0.139136001 0.000000000
0.546154976 0.128266066 0.000000000
0.606261492 0.117573000 0.000000000
0.671846390 0.109037116 0.000000000
0.743081331 0.101087004 0.000000000
0.815539122 0.092691183 0.000000000
0.884227753 0.085158005 0.000000000
0.000000000 0.269594073 0.000000000
0.000000000 0.266100198 0.000000000
0.000000000 0.263946474 0.000000000
0.000690016 0.260214567 0.000000000
0.078740686 0.254407614 0.000000000
0.148463428 0.248042941 0.000000000
0.217027202 0.240373939 0.000000000
0.283418655 0.231087178 0.000000000
0.346669972 0.221325502 0.000000000
0.408604056 0.210359558 0.000000000
0.467127174 0.200204059 0.000000000
0.528652906 0.188694313 0.000000000
0.592156649 0.179590181 0.000000000
0.662694395 0.171630040 0.000000000
0.735827267 0.164024860 0.000000000
0.809646308 0.155883640 0.000000000
0.880757570 0.148559377 0.000000000
0.000000000 0.311199546 0.000000000
0.000000000 0.309081405 0.000000000
0.000000000 0.307842016 0.000000000
0.000000000 0.305711091 0.000000000
0.049690746 0.301609248 0.000000000
0.117984869 0.296953231 0.000000000
0.185744137 0.291185677 0.000000000
0.252516955 0.283753961 0.000000000
0.317023277 0.275610626 0.000000000
0.380002856 0.266919822 0.000000000
0.443945020 0.257648885 0.000000000
0.509499252 0.248905405 0.000000000
0.578771353 0.241626903 0.000000000
0.651726127 0.234575137 0.000000000
0.728538275 0.226695642 0.000000000
0.804350555 0.219049007 0.000000000
0.876834512 0.211856768 0.000000000
0.000000000 0.354054421 0.000000000
0.000000000 0.353391200 0.000000000
0.000000000 0.352589965 0.000000000
0.000000000 0.351478964 0.000000000
0.021439679 0.348305315 0.000000000
0.090852864 0.344256908 0.000000000
0.157571688 0.339820236 0.000000000
0.223495886 0.334520280 0.000000000
0.289778411 0.328444719 0.000000000
0.354881793 0.322501540 0.000000000
0.423075408 0.316153109 0.000000000
0.494577378 0.309669137 0.000000000
0.565233052 0.304012716 0.000000000
0.640668452 0.297243416 0.000000000
0.719279766 0.289878845 0.000000000
0.795512259 0.283045650 0.000000000
0.870631337 0.275467396 0.000000000
0.000000000 0.402671009 0.000000000
0.000000000 0.402803540 0.000000000
0.000000000 0.402935505 0.000000000
0.000000000 0.402935207 0.000000000
0.001182748 0.400281012 0.000000000
0.067786306 0.396810323 0.000000000
0.133168519 0.393972993 0.000000000
0.200400904 0.390228629 0.000000000
0.267350495 0.386410505 0.000000000
0.335632384 0.381760478 0.000000000
0.405389994 0.377135396 0.000000000
0.475238025 0.372725487 0.000000000
0.550121546 0.366753012 0.000000000
0.628758311 0.359896123 0.000000000
0.706311703 0.353870630 0.000000000
0.783868849 0.347018719 0.000000000
0.855778515 0.340008020 0.000000000
0.000000000 0.454823315 0.000000000
0.000000000 0.456432253 0.000000000
0.000000000 0.457539856 0.000000000
0.000000000 0.458455712 0.000000000
0.000000000 0.456992567 0.000000000
0.045876998 0.454332322 0.000000000
0.113359831 0.451454371 0.000000000
0.180185661 0.448913813 0.000000000
0.248136401 0.445600063 0.000000000
0.316485256 0.442187905 0.000000000
0.386728555 0.438331366 0.000000000
0.459340066 0.434012949 0.000000000
0.535476744 0.428664953 0.000000000
0.613169551 0.422686398 0.000000000
0.689460278 0.416387558 0.000000000
0.767006397 0.408547521 0.000000000
0.839335978 0.400243312 0.000000000
0.000000000 0.507350385 0.000000000
0.000000000 0.510540485 0.000000000
0.000000000 0.512272894 0.000000000
0.000000000 0.514197528 0.000000000
0.000000000 0.513740003 0.000000000
0.023509312 0.511882901 0.000000000
0.092394143 0.509705782 0.000000000
0.160125718 0.507678509 0.000000000
0.228360265 0.505121648 0.000000000
0.298810631 0.501881182 0.000000000
0.369271636 0.498610973 0.000000000
0.443816513 0.493946314 0.000000000
0.519498050 0.488449633 0.000000000
0.594843388 0.481867373 0.000000000
0.670727670 0.474713266 0.000000000
0.747485161 0.466273814 0.000000000
0.818205118 0.457939625 0.000000000
0.000000000 0.559742510 0.000000000
0.000000000 0.564139724 0.000000000
0.000000000 0.567304313 0.000000000
0.000000000 0.569959581 0.000000000
0.000000000 0.570392191 0.000000000
0.005027062 0.568821490 0.000000000
0.070909835 0.567909420 0.000000000
0.138121784 0.566736579 0.000000000
0.207619965 0.564551175 0.000000000
0.278653085 0.561357677 0.000000000
0.350644618 0.557070494 0.000000000
0.424764067 0.551304579 0.000000000
0.498839825 0.544773996 0.000000000
0.576209664 0.537211955 0.000000000
0.652745187 0.529065073 0.000000000
0.727538884 0.520122468 0.000000000
0.798034549 0.511364222 0.000000000
0.000000000 0.611864507 0.000000000
0.000000000 0.617249370 0.000000000
0.000000000 0.621064007 0.000000000
0.000000000 0.624475718 0.000000000
0.000000000 0.626806974 0.000000000
0.000000000 0.625654519 0.000000000
0.049938016 0.624855995 0.000000000
0.119012401 0.623628974 0.000000000
0.188739032 0.620805502 0.000000000
0.260804594 0.616077363 0.000000000
0.332562089 0.610767782 0.000000000
0.406775177 0.603650153 0.000000000
0.480513513 0.596626818 0.000000000
0.555608153 0.589151978 0.000000000
0.632296085 0.579997182 0.000000000
0.704597831 0.571282983 0.000000000
0.773384988 0.562495530 0.000000000
0.000000000 0.663024902 0.000000000
0.000000000 0.670153499 0.000000000
0.000000000 0.674590588 0.000000000
0.000000000 0.678356290 0.000000000
0.000000000 0.681787729 0.000000000
0.000000000 0.682322383 0.000000000
0.026220005 0.681221962 0.000000000
0.097440526 0.677709043 0.000000000
0.170266241 0.672807753 0.000000000
0.243335038 0.666427672 0.000000000
0.314476341 0.660092235 0.000000000
0.385818988 0.653820872 0.000000000
0.459538370 0.646169841 0.000000000
0.534512043 0.637494028 0.000000000
0.605799437 0.629442036 0.000000000
0.680366993 0.619107842 0.000000000
0.747185409 0.610323608 0.000000000
0.000000000 0.713060915 0.000000000
0.000000000 0.720761120 0.000000000
0.000000000 0.726385653 0.000000000
0.000000000 0.730773449 0.000000000
0.000000000 0.734998107 0.000000000
0.000000000 0.734993577 0.000000000
0.010251636 0.730002701 0.000000000
0.082408026 0.725158274 0.000000000
0.154613376 0.719397306 0.000000000
0.221010610 0.714477062 0.000000000
0.293893099 0.707038224 0.000000000
0.362654477 0.701032341 0.000000000
0.437571615 0.691840768 0.000000000
0.510690868 0.683055162 0.000000000
0.582324266 0.674245477 0.000000000
0.653460801 0.664469302 0.000000000
0.723068595 0.653584957 0.000000000
0.000000000 0.760149121 0.000000000
0.000000000 0.769959509 0.000000000
0.000000000 0.775725484 0.000000000
0.000000000 0.781112134 0.000000000
0.000000000 0.783995330 0.000000000
0.000000000 0.780275106 0.000000000
0.000000015 0.775462866 0.000000000
0.065166518 0.769227505 0.000000000
0.133765623 0.763571918 0.000000000
0.204846665 0.756760895 0.000000000
0.273221076 0.750264525 0.000000000
0.343466282 0.742684245 0.000000000
0.415635616 0.733661890 0.000000000
0.485893905 0.725490928 0.000000000
0.557698011 0.715959489 0.000000000
0.629106343 0.705327272 0.000000000
0.695371628 0.695120454 0.000000000
0.000000000 0.806373000 0.000000000
0.000000000 0.816282392 0.000000000
0.000000000 0.822821617 0.000000000
0.000000000 0.825876713 0.000000000
0.000000000 0.824286520 0.000000000
0.000000000 0.820474565 0.000000000
0.000000001 0.816227019 0.000000000
0.047817282 0.810158014 0.000000000
0.114911012 0.804230511 0.000000000
0.186484128 0.796225369 0.000000000
0.252029359 0.790097892 0.000000000
0.323251188 0.781367660 0.000000000
0.392289042 0.773100019 0.000000000
0.462047517 0.764140844 0.000000000
0.532249928 0.754730403 0.000000000
0.602882922 0.743312716 0.000000000
0.669670999 0.732859015 0.000000000
0.000000000 0.000000000 0.031739999
0.013651874 0.000000000 0.022572748
0.083726004 0.000000000 0.012666688
0.147838578 0.000000000 0.007491624
0.209927812 0.000000000 0.002513812
0.277528495 0.000000000 0.000000000
0.347894520 0.000000000 0.000000000
0.406098634 0.000000000 0.000000000
0.455396712 0.000000000 0.000000000
0.500588775 0.000000000 0.000000000
0.544109225 0.000000000 0.000000000
0.588970065 0.000000000 0.000000000
0.638745189 0.000000000 0.000000000
0.697179675 0.000000000 0.000000000
0.762156785 0.000000000 0.000000000
0.825177372 0.000000000 0.000000000
0.886057854 0.000000000 0.000000000
0.000000000 0.047697753 0.006653438
0.000000000 0.035091192 0.008131876
0.044154130 0.024494749 0.006702750
0.115840450 0.012321249 0.005174999
0.181812644 0.001922062 0.003844312
0.250169426 0.000000000 0.003154125
0.326594293 0.000000000 0.002464375
0.392277747 0.000000000 0.001478437
0.446443886 0.000000000 0.000739688
0.494467556 0.000000000 0.000000000
0.540919542 0.000000000 0.000295875
0.588481963 0.000000000 0.000739688
0.640968263 0.000000000 0.001478438
0.703948438 0.000000000 0.002218125
0.772040069 0.000000000 0.002956875
0.837883592 0.000000000 0.003696562
0.903390229 0.000000000 0.004435312
0.000000000 0.109889999 0.000000000
0.000000000 0.100733504 0.000000000
0.006900251 0.094015256 0.000000000
0.086717635 0.085599937 0.000000000
0.155788004 0.077734500 0.000000000
0.228846058 0.071712308 0.000000000
0.304212004 0.065982118 0.000000000
0.371661097 0.057005245 0.000000000
0.430025250 0.046029937 0.000049312
0.482306391 0.034746755 0.001478438
0.532526433 0.023657253 0.003252750
0.583131254 0.014441002 0.004681875
0.638756990 0.007195499 0.006653438
0.704035044 0.000542435 0.008279816
0.773564458 0.000000000 0.010399316
0.843530297 0.000000000 0.011828503
0.911996841 0.000000000 0.013948001
0.000000000 0.178367823 0.000000000
0.000000000 0.170048699 0.000000000
0.000000000 0.164385393 0.000000000
0.063111134 0.156747833 0.000000000
0.136610076 0.150237873 0.000000000
0.210602760 0.143378705 0.000000000
0.281296521 0.136203632 0.000000000
0.347268492 0.126407579 0.000000000
0.407860339 0.115480065 0.000000000
0.463473678 0.104004756 0.001823625
0.516928554 0.092760764 0.003992063
0.571319818 0.082080446 0.006062312
0.630543768 0.072936319 0.008033376
0.698788285 0.064681441 0.010251377
0.769532919 0.056888379 0.011927066
0.842227817 0.048325319 0.013997192
0.912360907 0.039982077 0.016166063
0.000000000 0.236085445 0.000000000
0.000000000 0.231741741 0.000000000
0.000000000 0.228849128 0.000000000
0.032420203 0.223362252 0.000000000
0.110419251 0.216693312 0.000000000
0.182710245 0.209090933 0.000000000
0.252627403 0.200321943 0.000000000
0.318895519 0.190470010 0.000000000
0.381075740 0.179640993 0.000394501
0.440276951 0.168335065 0.003154313
0.498666048 0.156896561 0.005470875
0.557718217 0.146502882 0.007639375
0.621207654 0.137019366 0.009807562
0.691066861 0.129361048 0.011828628
0.764979839 0.121421933 0.014145065
0.839067340 0.113581255 0.016905004
0.909514666 0.106448121 0.019073624
0.000000000 0.282311171 0.000000000
0.000000000 0.279897273 0.000000000
0.000000000 0.278403521 0.000000000
0.001626706 0.275277376 0.000000000
0.079896130 0.270218641 0.000000000
0.150743052 0.264214009 0.000000000
0.220667645 0.256740510 0.000000000
0.286654204 0.248627514 0.000000000
0.350989163 0.239484191 0.001872938
0.414507002 0.229160994 0.004583500
0.476141125 0.219259739 0.006949312
0.539758444 0.209829390 0.009117813
0.608093977 0.201876506 0.011631439
0.682400823 0.194192067 0.014194314
0.759253085 0.186094016 0.016905066
0.834132910 0.179253042 0.019813253
0.906424344 0.172303617 0.022030750
0.000000000 0.325441748 0.000000000
0.000000000 0.324109554 0.000000000
0.000000000 0.323740214 0.000000000
0.000000000 0.321744680 0.000000000
0.051049497 0.318589389 0.000000000
0.120857492 0.314126015 0.000000000
0.189191133 0.309025347 0.000000000
0.256326407 0.302582383 0.000936376
0.322248012 0.295261085 0.003351376
0.387312621 0.287609369 0.005668126
0.453719854 0.279830277 0.008427752
0.523813903 0.272783935 0.011089376
0.596735835 0.266279131 0.013997002
0.672345102 0.259458691 0.016905131
0.750769377 0.252209663 0.019813193
0.828612089 0.245047763 0.022770129
0.904366314 0.237623647 0.025875188
0.000000000 0.372166216 0.000000000
0.000000000 0.371943116 0.000000000
0.000000000 0.372280896 0.000000000
0.000000000 0.371293724 0.000000000
0.024988180 0.368522018 0.000000000
0.095207371 0.364889026 0.000000000
0.162641764 0.361118793 0.000000001
0.229981333 0.356908143 0.001922252
0.298548400 0.351790071 0.004829814
0.365698129 0.347387046 0.007442001
0.436995566 0.342027366 0.010350002
0.508125365 0.336975038 0.013257939
0.583514154 0.330974221 0.016165815
0.660887182 0.324867457 0.019221382
0.741583645 0.317793906 0.022770066
0.821026623 0.311015546 0.025875255
0.895902157 0.304041773 0.029423755
0.000000000 0.425034314 0.000000000
0.000000000 0.426138133 0.000000000
0.000000000 0.427215487 0.000000000
0.000000000 0.427835941 0.000000000
0.004337248 0.425406575 0.000000000
0.073097490 0.422721267 0.000000000
0.141885832 0.419708878 0.000493126
0.209528655 0.416908085 0.003400689
0.278352529 0.413501620 0.006308688
0.349163622 0.409226149 0.009610751
0.419515938 0.405492723 0.012518439
0.492056847 0.401154250 0.015426376
0.569156229 0.395763129 0.019073626
0.649719179 0.389518410 0.021981630
0.729197204 0.382795215 0.025875319
0.808005095 0.375025183 0.029719256
0.879259527 0.367266119 0.032873690
0.000000000 0.479303807 0.000000000
0.000000000 0.482127190 0.000000000
0.000000000 0.484155893 0.000000000
0.000000000 0.485730559 0.000000000
0.000000000 0.484411329 0.000000000
0.051139690 0.482509017 0.000000000
0.120474458 0.480096608 0.001971564
0.189834207 0.477898479 0.004879126
0.259296089 0.475039244 0.008132313
0.329054981 0.472309649 0.011039938
0.400882542 0.469040871 0.014637938
0.476100743 0.464735806 0.017594876
0.554152071 0.459393203 0.021242188
0.634018004 0.451643318 0.025234569
0.710314572 0.444598913 0.028980069
0.788391232 0.435497135 0.032528941
0.859098554 0.427827001 0.035189938
0.000000000 0.534090579 0.000000000
0.000000000 0.538452268 0.000000000
0.000000000 0.541347265 0.000000000
0.000000000 0.543829560 0.000000000
0.000000000 0.543251455 0.000000000
0.028240688 0.542577267 0.000000000
0.098933704 0.541000366 0.003006502
0.168460295 0.539253712 0.006357939
0.239498630 0.536768436 0.009561438
0.309657335 0.535132229 0.013208751
0.383129835 0.530975580 0.016856061
0.457371235 0.526216805 0.019763688
0.536840439 0.518196046 0.023509439
0.611155927 0.511460662 0.027403127
0.690669000 0.502367079 0.031001192
0.766539037 0.493155748 0.034105942
0.836726010 0.484997511 0.036422689
0.000000000 0.588492811 0.000000000
0.000000000 0.594602704 0.000000000
0.000000000 0.598567367 0.000000000
0.000000000 0.602057040 0.000000000
0.000000000 0.602168858 0.000000000
0.007195750 0.602401793 0.000788687
0.076398522 0.601494372 0.004189064
0.149436727 0.599230886 0.007836377
0.218374714 0.598331094 0.010990751
0.289112240 0.594896793 0.014637874
0.364426285 0.588376522 0.018334500
0.438752204 0.581771135 0.021932501
0.514074326 0.574163437 0.025579689
0.592143655 0.565421999 0.028684443
0.668737948 0.556497216 0.031789318
0.742995024 0.547390819 0.034155257
0.815510690 0.536995828 0.036471941
0.000000000 0.642767608 0.000000000
0.000000000 0.649954617 0.000000000
0.000000000 0.654198468 0.000000000
0.000000000 0.658585429 0.000000000
0.000000000 0.660759985 0.000000000
0.000000000 0.660625219 0.002020875
0.053446893 0.661310732 0.005125688
0.125705093 0.658585727 0.009018940
0.200590998 0.652995586 0.012962126
0.272671372 0.647514105 0.016609438
0.345231801 0.640784204 0.019517438
0.418610036 0.633754730 0.022769812
0.492047876 0.626076162 0.026170690
0.569527090 0.616866171 0.028733755
0.646185875 0.606955290 0.031690687
0.718908668 0.597432613 0.033958063
0.788985848 0.587022841 0.035682999
0.000000000 0.695411325 0.000000000
0.000000000 0.703734815 0.000000000
0.000000000 0.708887339 0.000000000
0.000000000 0.713749170 0.000000000
0.000000000 0.717983782 0.000000000
0.000000000 0.718252122 0.002168627
0.034995135 0.714862227 0.006407190
0.109090962 0.709105313 0.010202066
0.181854367 0.703095138 0.013701376
0.252068013 0.697519541 0.016806686
0.326091975 0.689545155 0.020256748
0.395220697 0.683220744 0.022523561
0.469830632 0.674415410 0.025481189
0.548170269 0.663849175 0.028586000
0.621614158 0.654302835 0.030310880
0.694166183 0.644280553 0.032430373
0.762008667 0.633719385 0.034007311
0.000000000 0.745976746 0.000000000
0.000000000 0.756050348 0.000000000
0.000000000 0.762857080 0.000000000
0.000000000 0.767674983 0.000000000
0.000000000 0.771078408 0.000000000
0.000000000 0.768147230 0.002858502
0.018285129 0.762055099 0.007146563
0.091158397 0.756011724 0.010497939
0.162899256 0.749855876 0.013701376
0.235033855 0.742354333 0.016609438
0.304249316 0.735499263 0.019418810
0.374588579 0.727979004 0.021784499
0.447549373 0.718846321 0.024642996
0.522608101 0.708571315 0.027008999
0.596363246 0.698351502 0.028635250
0.667528927 0.687815785 0.030212251
0.734711111 0.677116752 0.031690806
0.000000000 0.795652032 0.000000000
0.000000000 0.806371689 0.000000000
0.000000000 0.812597930 0.000000000
0.000000000 0.818214774 0.000000000
0.000000000 0.816573858 0.000000000
0.000000000 0.811408460 0.003499313
0.005618636 0.805207133 0.007097249
0.072900146 0.799368680 0.010054125
0.144999698 0.792086840 0.012962125
0.212462485 0.785447061 0.015820872
0.282568425 0.777879477 0.017989373
0.352467120 0.769708514 0.020158246
0.427539051 0.758956909 0.023065997
0.496015728 0.750385046 0.024692250
0.570267797 0.739213943 0.026318626
0.642218769 0.727591693 0.027895566
0.707780898 0.717009425 0.029374059
0.000000000 0.843005240 0.000000000
0.000000000 0.855139971 0.000000000
0.000000000 0.859863400 0.000000000
0.000000000 0.858909845 0.000000000
0.000000000 0.857541382 0.000000000
0.000000000 0.851692080 0.002759875
0.000000011 0.845712781 0.006160626
0.057300281 0.838057756 0.009314813
0.122972459 0.832306027 0.011483689
0.191165119 0.825104177 0.013652062
0.261106759 0.816570282 0.016264686
0.330381304 0.807924211 0.017989377
0.401754469 0.798028529 0.020207563
0.471770883 0.788209915 0.022326313
0.543638468 0.777084827 0.023263067
0.613327086 0.765720308 0.024741564
0.679893374 0.754035711 0.026318563
0.000000000 0.000000000 0.093619876
0.007688812 0.000000000 0.092720680
0.079501629 0.000000000 0.089797750
0.145470262 0.000000000 0.086732313
0.209531367 0.000000000 0.084052756
0.279231191 0.000000000 0.084476188
0.349230260 0.000000000 0.084365502
0.407610536 0.000000000 0.080944628
0.457753360 0.000000000 0.075863123
0.503172159 0.000000000 0.070712939
0.547511518 0.000000000 0.066289000
0.593326867 0.000000000 0.062545128
0.645044386 0.000000000 0.059894878
0.705450654 0.000000000 0.058924623
0.771077812 0.000000000 0.059438251
0.835887849 0.000000000 0.058832001
0.898676455 0.000000000 0.058832001
0.000000000 0.052237064 0.084942758
0.000000000 0.041796692 0.087224752
0.041256748 0.030508000 0.086842380
0.113370329 0.019073373 0.087477058
0.182274058 0.008624813 0.087672003
0.252129674 0.000147938 0.089016996
0.329568863 0.000000000 0.093427315
0.395048141 0.000000000 0.092788309
0.449127287 0.000000000 0.089201875
0.498340786 0.000000000 0.084767938
0.545220494 0.000000000 0.080975063
0.594238281 0.000000000 0.077951193
0.648889244 0.000000000 0.076537818
0.714255989 0.000000000 0.077078566
0.783821881 0.000000000 0.078024566
0.851422071 0.000000000 0.078542754
0.916449547 0.000000000 0.079409376
0.000000000 0.115564622 0.076642379
0.000000000 0.107597813 0.080354504
0.004830001 0.100678004 0.082676619
0.085817389 0.092061691 0.083005250
0.157266751 0.085331626 0.084464252
0.232451990 0.080544502 0.088479437
0.307051659 0.074317746 0.091217130
0.373649269 0.065296374 0.091150433
0.432317138 0.054630503 0.089141622
0.485062808 0.044074439 0.086387374
0.535728753 0.033317126 0.084018499
0.588019073 0.023411127 0.082402632
0.645765722 0.015475623 0.082048126
0.714151680 0.008673933 0.083810121
0.784911931 0.001774493 0.085993126
0.856432319 0.000000000 0.087687433
0.925190747 0.000000000 0.089660004
0.000000000 0.186373696 0.074040629
0.000000000 0.179499507 0.079622120
0.000000000 0.174454570 0.083588243
0.063686073 0.167200506 0.085227385
0.137697116 0.160436764 0.086867630
0.212124810 0.153782874 0.088733256
0.282234222 0.145645007 0.089751132
0.348200291 0.135861903 0.089513190
0.409493446 0.124568515 0.088290691
0.465738624 0.113407448 0.086769752
0.520342112 0.102333128 0.085225508
0.576575577 0.092102639 0.084548064
0.637929797 0.083316751 0.085157126
0.708254576 0.075278006 0.087257750
0.781356096 0.067324691 0.089633003
0.854884684 0.059214823 0.092059061
0.927132428 0.051435385 0.094491877
0.000000000 0.242956519 0.065540001
0.000000000 0.239344254 0.072821938
0.000000000 0.236794382 0.078540497
0.031489704 0.231819943 0.081605814
0.109843507 0.225592762 0.083431631
0.182780311 0.218148172 0.085142374
0.252240539 0.209873244 0.086430505
0.319373876 0.200050130 0.086878121
0.382111639 0.189487636 0.086824127
0.442584991 0.178323999 0.086703129
0.501664698 0.167715758 0.086485133
0.562460065 0.158048764 0.087176494
0.628951490 0.149136752 0.088518754
0.702166080 0.141290128 0.090943813
0.777302086 0.133670241 0.093682244
0.852589965 0.126192749 0.096462503
