public/lut/70.cube
TITLE "17x17x17 Adobe/IRIDAS cube 3D LUT exported with GrossGrade v0.2.2 (beta) 64 bit"
DOMAIN_MIN 0 0 0
DOMAIN_MAX 1 1 1
LUT_3D_SIZE 5
0.000000000 0.000000000 0.000000000
0.138846010 0.000000000 0.000000000
0.365176499 0.000000000 0.000000000
0.538067281 0.000000000 0.000000000
0.722425997 0.000000000 0.000000000
0.000000000 0.230430752 0.000000000
0.159926012 0.239000246 0.000000000
0.370190769 0.232767507 0.000000000
0.575433791 0.227155000 0.000000000
0.812839031 0.229516745 0.000000000
0.000000000 0.429533511 0.000000000
0.146573007 0.455028772 0.000000000
0.372367501 0.471934021 0.001577502
0.608836293 0.484677255 0.013997003
0.857146502 0.491637528 0.032725506
0.000000000 0.649643242 0.000000001
0.144382015 0.687193751 0.014391251
0.379197538 0.710048556 0.030557003
0.607202768 0.709321499 0.058636006
0.819724023 0.701655030 0.084482253
0.000000000 0.847971976 0.018926000
0.138065502 0.880340695 0.044182502
0.370054007 0.874704480 0.072360501
0.578610301 0.862673998 0.096718751
0.770174980 0.845699012 0.117404997
0.000000000 0.000000000 0.227747753
0.166572750 0.000000000 0.251570493
0.395631999 0.000000000 0.277030289
0.568745553 0.000000000 0.264207512
0.778768718 0.000000000 0.271900505
0.000000000 0.258061975 0.283064991
0.180754513 0.267166793 0.303887993
0.396978498 0.266002506 0.311536759
0.628545284 0.272122264 0.329360247
0.881814778 0.277509272 0.347909033
0.000000000 0.479916036 0.299791008
0.178659767 0.510768771 0.332953751
0.417488039 0.531698287 0.358109504
0.668532312 0.547749519 0.381427497
0.901648760 0.546670437 0.400022000
0.000000000 0.716343284 0.334054738
0.176208258 0.760298014 0.369966507
0.422532022 0.767126024 0.394977033
0.646960020 0.757513821 0.412951499
0.853045702 0.742388248 0.424161017
0.000000000 0.926635027 0.354474515
0.179734498 0.930396020 0.388103724
0.408070982 0.916908979 0.407324016
0.609974980 0.898580551 0.419931740
0.795440972 0.874183714 0.426618516
0.000000000 0.000000000 0.462352008
0.193255752 0.000000000 0.513039529
0.401521027 0.000000000 0.508676529
0.586196542 0.000000000 0.493850768
0.815866947 0.000000000 0.512632966
0.000000000 0.269945234 0.508298755
0.190873250 0.282416254 0.539601266
0.419459224 0.292096496 0.564892530
0.662979543 0.302560270 0.594843268
0.927600026 0.309390008 0.621390104
0.000000000 0.514286518 0.548324466
0.199138254 0.548922300 0.597743034
0.446605980 0.572455049 0.634451032
0.697154045 0.583379984 0.660628080
0.918817520 0.578687012 0.667899966
0.000000000 0.760801792 0.595293999
0.197862506 0.805494785 0.645807266
0.446729273 0.796455741 0.662532806
0.666490674 0.782250762 0.670149505
0.867619455 0.762310505 0.671630502
0.000000000 0.972717524 0.616856992
0.202302992 0.956550479 0.641299486
0.438471496 0.935909986 0.655048013
0.631081820 0.913046241 0.658047497
0.807476044 0.886024475 0.654288530
0.000000000 0.000000000 0.668544054
0.196355507 0.000000000 0.697456539
0.399626255 0.000000000 0.687812030
0.606550455 0.000000000 0.695887506
0.843888998 0.000000000 0.722567797
0.000000000 0.280064762 0.693146765
0.201968506 0.299715519 0.745655477
0.440371245 0.315614998 0.790005505
0.689505219 0.326698005 0.827747226
0.958965003 0.342845738 0.858737767
0.000000000 0.541802049 0.765938520
0.213889509 0.579430044 0.830547810
0.469298482 0.605431020 0.879023790
0.711766005 0.606997311 0.888522804
0.931191206 0.598202288 0.885823846
0.000000000 0.796455741 0.824769497
0.216844022 0.828175306 0.876890719
0.462987483 0.814129293 0.884140015
0.681673050 0.795747042 0.880471051
0.874679267 0.773755491 0.869670272
0.000000000 0.994493484 0.836659014
0.220380008 0.971729279 0.851030767
0.452415019 0.946939290 0.852956772
0.640118957 0.921184778 0.846889973
0.812506974 0.891231775 0.833356500
0.000000000 0.000000000 0.792823970
0.193843007 0.000000000 0.823896289
0.400249004 0.000000000 0.829046011
0.621907771 0.000000000 0.860811770
0.865513980 0.000000000 0.894644022
0.000000000 0.293339014 0.851906478
0.212647498 0.316864997 0.922034264
0.454816043 0.337733269 0.960677981
0.703310251 0.353902757 0.998448789
0.981577218 0.364505500 1.000000000
0.000000000 0.562504530 0.944160998
0.246814758 0.601677775 0.997782946
0.488650024 0.626837015 1.000000000
0.723144770 0.621189773 1.000000000
0.938158512 0.609730482 1.000000000
0.067766242 0.821751237 1.000000000
0.254106253 0.839578271 1.000000000
0.481750757 0.823433280 1.000000000
0.688333809 0.803639710 1.000000000
0.878597736 0.779298007 0.999906003
0.000000000 0.995911002 0.996531010
0.256490767 0.978774250 0.998099744
0.461256027 0.951696038 0.998012006
0.646576762 0.923669994 0.992321014
0.815428972 0.892153025 0.974178016
