public/lut/70.cube
TITLE "17x17x17 Adobe/IRIDAS cube 3D LUT exported with GrossGrade v0.2.2 (beta) 64 bit"
DOMAIN_MIN 0 0 0
DOMAIN_MAX 1 1 1
LUT_3D_SIZE 17
0.000000000 0.000000000 0.000000000
0.000000000 0.000000000 0.000000000
0.024150126 0.000000000 0.000000000
0.085830450 0.000000000 0.000000000
0.138846010 0.000000000 0.000000000
0.193025932 0.000000000 0.000000000
0.246775016 0.000000000 0.000000000
0.307687223 0.000000000 0.000000000
0.365176499 0.000000000 0.000000000
0.413564563 0.000000000 0.000000000
0.456899643 0.000000000 0.000000000
0.497925818 0.000000000 0.000000000
0.538067281 0.000000000 0.000000000
0.579724252 0.000000000 0.000000000
0.624419451 0.000000000 0.000000000
0.672330439 0.000000000 0.000000000
0.722425997 0.000000000 0.000000000
0.000000000 0.018137438 0.000000000
0.000000000 0.020355562 0.000000000
0.026811250 0.020404812 0.000000000
0.090191074 0.021833938 0.000000000
0.146461949 0.022720562 0.000000000
0.201706871 0.023509562 0.000000000
0.261581838 0.025481127 0.000000000
0.325168461 0.028043438 0.000000000
0.379944712 0.028832439 0.000000000
0.427289754 0.028092751 0.000000000
0.470923126 0.027008813 0.000000000
0.512809575 0.025826249 0.000000000
0.554656684 0.025086563 0.000000000
0.599235535 0.024297563 0.000000000
0.649301112 0.023657314 0.000000000
0.701706827 0.024248309 0.000000000
0.755090892 0.023558812 0.000000000
0.000000000 0.092485875 0.000000000
0.000000000 0.094872996 0.000000000
0.029078752 0.095755748 0.000000000
0.093415514 0.097670257 0.000000000
0.153277755 0.101095006 0.000000000
0.215678483 0.105264753 0.000000000
0.276651382 0.108213872 0.000000000
0.332516044 0.108627439 0.000000000
0.382590890 0.107285127 0.000000000
0.429197371 0.104637310 0.000000000
0.473253369 0.101728253 0.000000000
0.516640186 0.099083312 0.000000000
0.561588168 0.096780002 0.000000000
0.610926867 0.094992749 0.000000000
0.664053679 0.094518624 0.000000000
0.721389949 0.094493248 0.000000000
0.776712298 0.094103001 0.000000000
0.000000000 0.164860889 0.000000000
0.000000000 0.169304341 0.000000000
0.033366255 0.172647268 0.000000000
0.102024265 0.175822005 0.000000000
0.163600266 0.178043202 0.000000000
0.222132236 0.178787008 0.000000000
0.277027458 0.178298131 0.000000000
0.329612702 0.176188946 0.000000000
0.378734201 0.173260391 0.000000000
0.424842328 0.170359269 0.000000000
0.471018374 0.167065769 0.000000000
0.517392635 0.164469883 0.000000000
0.567237854 0.162686318 0.000000000
0.621605694 0.161960259 0.000000000
0.679903984 0.162104636 0.000000000
0.738739908 0.162366003 0.000000000
0.795246482 0.162351072 0.000000000
0.000000000 0.230430752 0.000000000
0.000000000 0.234684139 0.000000000
0.033711255 0.237259880 0.000000000
0.100436322 0.238454431 0.000000000
0.159926012 0.239000246 0.000000000
0.216157064 0.238579988 0.000000000
0.269466132 0.237328127 0.000000000
0.321322948 0.234880567 0.000000000
0.370190769 0.232767507 0.000000000
0.419084072 0.230170622 0.000000000
0.468565881 0.228321761 0.000000000
0.519983947 0.227220938 0.000000000
0.575433791 0.227155000 0.000000000
0.633758664 0.227962509 0.000000000
0.693775356 0.228784248 0.000000000
0.755036294 0.229011759 0.000000000
0.812839031 0.229516745 0.000000000
0.000000000 0.280307263 0.000000000
0.000000000 0.285043120 0.000000000
0.031691000 0.287519127 0.000000000
0.095105387 0.289331615 0.000000000
0.152757555 0.290007383 0.000000000
0.207703948 0.290222198 0.000000000
0.260851264 0.289927751 0.000000000
0.312822104 0.289333433 0.000000000
0.364610076 0.288908571 0.000000000
0.416827261 0.288882852 0.000000000
0.469778806 0.289789468 0.000000000
0.527063429 0.290533066 0.000000000
0.584837198 0.291977614 0.000000000
0.645257473 0.293379694 0.000000000
0.706926107 0.294694513 0.000000000
0.769240916 0.295392692 0.000542438
0.828685045 0.296089321 0.002661188
0.000000000 0.325673014 0.000000000
0.000000000 0.331220448 0.000000000
0.028881252 0.334572911 0.000000000
0.090649635 0.337368011 0.000000000
0.148101375 0.339456379 0.000000000
0.202519134 0.341812521 0.000000000
0.257477492 0.343820781 0.000000000
0.311451793 0.345883518 0.000000000
0.365634382 0.348171264 0.000000000
0.420585662 0.350435853 0.000000000
0.476082116 0.352729261 0.000000000
0.535020053 0.354323596 0.000000000
0.593636394 0.356499493 0.000000002
0.655672669 0.358368635 0.001922379
0.719169796 0.359900385 0.004731381
0.782672882 0.361239016 0.007836443
0.844066858 0.362009764 0.010941753
0.000000000 0.374368101 0.000000000
0.000000000 0.382020593 0.000000000
0.028240750 0.387081176 0.000000000
0.089879513 0.391457081 0.000000000
0.146646500 0.395903975 0.000000000
0.203056186 0.399783403 0.000000000
0.258626074 0.403345138 0.000000000
0.313740849 0.406847477 0.000000000
0.370022237 0.409613729 0.000000000
0.424917817 0.412871778 0.000000000
0.482343227 0.415743977 0.000739315
0.541279554 0.418257087 0.002365879
0.601630688 0.420695424 0.005815630
0.665354371 0.422770679 0.009364258
0.730075955 0.424888134 0.012814569
0.795190573 0.426247418 0.016363133
0.856862545 0.427468151 0.019467879
0.000000000 0.429533511 0.000000000
0.000000000 0.438339531 0.000000000
0.027896002 0.444378257 0.000000000
0.088703945 0.449948967 0.000000000
0.146573007 0.455028772 0.000000000
0.204163313 0.459374219 0.000000000
0.259815037 0.463966489 0.000000000
0.315979719 0.468040943 0.000000000
0.372367501 0.471934021 0.001577502
0.429221630 0.475196093 0.003893690
0.487398863 0.478585154 0.006998503
0.546846390 0.481938004 0.010498064
0.608836293 0.484677255 0.013997003
0.674404502 0.487069666 0.017101943
0.738334537 0.489877403 0.020700131
0.801296830 0.491168261 0.026121572
0.857146502 0.491637528 0.032725506
0.000000000 0.485134870 0.000000000
0.000000000 0.495187879 0.000000000
0.026762249 0.501995385 0.000000000
0.088037699 0.508384347 0.000000000
0.146762431 0.514110267 0.000000000
0.204744384 0.519083500 0.000345187
0.261706173 0.523955524 0.001478938
0.318588376 0.528755426 0.004632939
0.375350595 0.533236980 0.008181438
0.432954371 0.537029564 0.011286126
0.491699874 0.541036785 0.014736562
0.551736653 0.544867635 0.017841375
0.615636766 0.547733307 0.021735126
0.677980363 0.550466061 0.026121570
0.738901317 0.551267028 0.033563823
0.797128916 0.551269352 0.041198947
0.849212050 0.551184654 0.047707003
0.000000000 0.540569127 0.000000000
0.000000000 0.551719010 0.000000000
0.024544625 0.559307337 0.000000000
0.087433569 0.566200495 0.000000000
0.146845251 0.572497010 0.001971375
0.204541683 0.578530073 0.004829937
0.262902021 0.583655596 0.008477001
0.319641173 0.589318752 0.012075190
0.377254128 0.593981624 0.015179876
0.436614573 0.598112524 0.018285125
0.494533122 0.602964520 0.021685749
0.555538774 0.605988026 0.026121562
0.616874099 0.607467890 0.032528378
0.675348341 0.607586563 0.040372696
0.732957184 0.607737303 0.047741134
0.789083123 0.606942892 0.054954510
0.840846658 0.605909765 0.061558250
0.000000000 0.595548689 0.000000000
0.000000000 0.607818961 0.000000000
0.023016376 0.616100848 0.001183188
0.085764639 0.623608828 0.004534438
0.145711631 0.630609751 0.008181563
0.204043448 0.636876166 0.012075250
0.262952894 0.642743886 0.015179939
0.319970399 0.648734927 0.018728878
0.378516763 0.653989673 0.022178814
0.437889338 0.658237219 0.025875313
0.495322883 0.660752535 0.031789564
0.554906487 0.660876215 0.038767062
0.612071574 0.660706043 0.046362750
0.670128822 0.660092711 0.053704385
0.727309346 0.658908665 0.061000511
0.781609476 0.657289743 0.067703508
0.831593394 0.655599833 0.073574185
0.000000000 0.649643242 0.000000001
0.000000000 0.662875712 0.003252689
0.020897374 0.671450734 0.007294126
0.083495013 0.680121541 0.011138565
0.144382015 0.687193751 0.014391251
0.203133434 0.694013178 0.018285001
0.262370914 0.700464010 0.021882877
0.319263041 0.707187533 0.024938568
0.379197538 0.710048556 0.030557003
0.437161148 0.710975766 0.037306629
0.493946493 0.711086631 0.044705752
0.551273763 0.710126996 0.051777937
0.607202768 0.709321499 0.058636006
0.663561404 0.708022237 0.065657131
0.718914211 0.706164360 0.072478630
0.772188127 0.703547359 0.078940883
0.819724023 0.701655030 0.084482253
0.000000000 0.702382565 0.002661694
0.000000000 0.716485620 0.008920443
0.016510749 0.726299047 0.012814193
0.081012204 0.734665930 0.016707756
0.141988069 0.742508650 0.020601442
0.199793562 0.750539184 0.024495130
0.259436965 0.756561041 0.028241074
0.319101155 0.758460701 0.034894515
0.378116846 0.758327127 0.042307574
0.434822768 0.757695377 0.049690261
0.491221517 0.756539702 0.056609012
0.545684457 0.755629420 0.063291945
0.601403654 0.753703713 0.069918014
0.656818390 0.751545191 0.076492324
0.708754897 0.749418974 0.083016828
0.760981798 0.746126771 0.088858448
0.807728887 0.743056536 0.094232634
0.000000000 0.753169477 0.008772628
0.000000000 0.768137813 0.014341880
0.014292496 0.778146803 0.018827379
0.077905327 0.787334681 0.022671819
0.138617873 0.795992494 0.026614632
0.198547870 0.802311122 0.031345945
0.259407401 0.802492976 0.038833011
0.319574118 0.801831782 0.046296764
0.376849413 0.801214576 0.053636637
0.432093501 0.799627423 0.060411822
0.486306250 0.798437655 0.067155883
0.539629579 0.796820760 0.073415004
0.594536185 0.793958306 0.080230631
0.647549987 0.791168392 0.086230949
0.699121356 0.788626790 0.092214264
0.748929620 0.784904122 0.097876139
0.795100749 0.780973315 0.102875136
0.000000000 0.801610053 0.013504568
0.000000000 0.817546606 0.019763380
0.010547495 0.828047335 0.023657067
0.074614763 0.837256849 0.028191883
0.135745138 0.843674183 0.033662569
0.199601561 0.842933655 0.041936446
0.259985656 0.842145205 0.049702700
0.318884134 0.840999544 0.056772262
0.373328030 0.839784801 0.063803203
0.428487122 0.837663233 0.070295446
0.480821133 0.835927844 0.076377943
0.533776939 0.833499491 0.082670882
0.587383747 0.829985559 0.088859752
0.637504518 0.827385962 0.094697013
0.688803315 0.823584020 0.100575514
0.738112926 0.819066465 0.105853640
0.782957554 0.814921081 0.110565446
0.000000000 0.847971976 0.018926000
0.000000000 0.864312470 0.024396688
0.006998875 0.875563741 0.028979875
0.073687576 0.880362451 0.035830565
0.138065502 0.880340695 0.044182502
0.200687870 0.879244685 0.051722314
0.259775758 0.877875268 0.059187379
0.316909581 0.876303554 0.066024937
0.370054007 0.874704480 0.072360501
0.423832744 0.872010291 0.078767501
0.475030005 0.869677663 0.084940121
0.527692676 0.866233766 0.090863623
0.578610301 0.862673998 0.096718751
0.627989888 0.859584749 0.102468632
0.678158820 0.854972839 0.107706882
0.725536704 0.850520909 0.112984635
0.770174980 0.845699012 0.117404997
0.000000000 0.000000000 0.031739999
0.000000000 0.000000000 0.031739999
0.035387691 0.000000000 0.040235564
0.093503445 0.000000000 0.042542063
0.150036439 0.000000000 0.046589874
0.204563066 0.000000000 0.050063439
0.260848701 0.000000000 0.053668626
0.323690355 0.000000000 0.059664629
0.378990829 0.000000000 0.062518060
0.426184058 0.000000000 0.063145690
0.469267190 0.000000000 0.063238747
0.510062456 0.000000000 0.063238747
0.550516844 0.000000000 0.062752061
0.593605161 0.000000000 0.063329875
0.640833080 0.000000000 0.064543374
0.692053735 0.000000000 0.066706687
0.743822217 0.000000000 0.068816565
0.000000000 0.030310877 0.045390561
0.000000000 0.032578249 0.051365122
0.037752751 0.033366311 0.054517373
0.100007266 0.035633687 0.058094811
0.157276198 0.036471937 0.061137818
0.215554819 0.038492128 0.065432623
0.279365897 0.042107437 0.071493872
0.340162277 0.044208314 0.076339312
0.392923564 0.043804441 0.078081124
0.438729405 0.042804062 0.078120373
0.482436031 0.041413065 0.078159377
0.524843574 0.039516184 0.077709377
0.567735612 0.038590748 0.077829376
0.615266919 0.037260000 0.078773811
0.667766452 0.037260000 0.081064872
0.723463833 0.037260000 0.083764315
0.778440118 0.036471941 0.086428128
0.000000000 0.103657819 0.055180937
0.000000000 0.106961504 0.061062753
0.041264433 0.108979881 0.064946815
0.105297446 0.112251438 0.069595754
0.168151692 0.116698928 0.074870437
0.230961621 0.120538816 0.080264561
0.290914029 0.122411370 0.084017500
0.344238341 0.121695504 0.085628629
0.393718660 0.119663127 0.086281687
0.439765811 0.116958685 0.086316943
0.484208733 0.114144504 0.086352006
0.528762877 0.111415498 0.086736992
0.575809896 0.109439746 0.087326631
0.628356159 0.108436063 0.089483246
0.685420573 0.108774565 0.092340998
0.743974507 0.108748443 0.095149815
0.800461411 0.108409248 0.097918190
0.000000000 0.180136889 0.068562627
0.000000000 0.185097009 0.074682750
0.047314186 0.187924162 0.079029500
0.113450013 0.190497711 0.083186127
0.174826190 0.191768080 0.086051129
0.232981756 0.191822276 0.088655934
0.287424713 0.190737128 0.090423435
0.339366168 0.188343704 0.091447875
0.388465941 0.185481831 0.092114568
0.435509473 0.182463393 0.092668124
0.482624739 0.179662764 0.093508691
0.531241000 0.177607015 0.094800442
0.584413409 0.176912948 0.096809939
0.642468214 0.177299321 0.099901251
0.702100635 0.177907690 0.103214629
0.762857020 0.178130507 0.106164619
0.820704877 0.178306833 0.109012999
0.000000000 0.242306381 0.074239179
0.000000000 0.246721759 0.079966500
0.045744374 0.249195620 0.083630189
0.109598078 0.250681758 0.087101191
0.169086456 0.250904083 0.089678623
0.224976704 0.250300556 0.092166938
0.279015541 0.249111950 0.093850069
0.330687284 0.247147262 0.095449306
0.380677849 0.245195001 0.096949488
0.430972368 0.243521139 0.098600253
0.482277066 0.242575333 0.100645438
0.537191331 0.242962942 0.103600435
0.595510602 0.244010881 0.106855184
0.655412257 0.245055512 0.110075697
0.717459857 0.246022746 0.113442495
0.779473186 0.246612996 0.116828255
0.838842869 0.247222885 0.120020375
0.000000000 0.291550726 0.075760812
0.000000000 0.296338439 0.081871256
0.041981377 0.298988670 0.085465185
0.103855327 0.301049083 0.088901311
0.161714569 0.302179009 0.092199445
0.217521369 0.302703112 0.094934188
0.271769792 0.302855402 0.097328752
0.324425280 0.303325564 0.100155063
0.377363324 0.304124475 0.102771185
0.431988686 0.305481821 0.106022120
0.488084674 0.307443559 0.109578937
0.545953274 0.309088051 0.112915874
0.605425000 0.310840875 0.116274446
0.667885303 0.312050700 0.120040134
0.732291996 0.313207954 0.123595700
0.794057369 0.315070570 0.126997620
0.855596483 0.315580368 0.130289182
0.000000000 0.338306636 0.078498624
0.000000000 0.344328940 0.084443189
0.039018188 0.348293394 0.088623442
0.099908449 0.351763695 0.092671938
0.157800063 0.354988009 0.096289560
0.214248240 0.357890189 0.100031815
0.269930691 0.361241728 0.104002878
0.325721502 0.364467591 0.107643634
0.381614387 0.367420137 0.111348569
0.437688261 0.369917482 0.114814192
0.494908988 0.372329265 0.118396699
0.554253638 0.374724060 0.122138754
0.615080655 0.377112895 0.125773430
0.678594470 0.378990501 0.129524440
0.743910909 0.380642205 0.133262575
0.808364689 0.382455081 0.136990190
0.872018397 0.383205891 0.140245691
0.000000000 0.391074896 0.083621062
0.000000000 0.399540037 0.090541571
0.038826939 0.405233413 0.095261380
0.100093454 0.410494030 0.099712059
0.157853052 0.415323168 0.104028188
0.215991750 0.419404954 0.108012199
0.272742391 0.423357069 0.112059698
0.329185277 0.427185774 0.115785509
0.386125505 0.430701524 0.119710252
0.442511559 0.434162676 0.123515002
0.501215279 0.437257230 0.127288505
0.561822116 0.440053225 0.131109506
0.624036670 0.442724258 0.134969369
0.688615859 0.445284128 0.138960570
0.755202949 0.447430342 0.142594188
0.820915043 0.449445844 0.146623820
0.881520331 0.450692862 0.150695622
0.000000000 0.448165119 0.090501495
0.000000000 0.457892567 0.097624570
0.038147066 0.464383960 0.102580942
0.099873453 0.470285118 0.107138634
0.158777565 0.475866407 0.111532189
0.217783555 0.480639935 0.115787193
0.275387704 0.485350370 0.120043501
0.331853271 0.489977598 0.124019310
0.389453053 0.494002253 0.128011554
0.447942197 0.497894526 0.131886572
0.507183492 0.501555085 0.135781124
0.568065763 0.505013287 0.139784500
0.631590605 0.508240998 0.143689007
0.698089778 0.511367977 0.147475749
0.761773229 0.513062537 0.152789325
0.822042048 0.513633490 0.158872753
0.874739945 0.513641298 0.164881632
0.000000000 0.505274773 0.097389251
0.000000000 0.516106188 0.104604065
0.037358940 0.523472786 0.109764874
0.099274322 0.530155241 0.114430562
0.159196123 0.536422729 0.119068876
0.218778372 0.541732192 0.123540126
0.276407510 0.547400296 0.127762437
0.334580183 0.552355349 0.131890759
0.393082649 0.556871355 0.135967314
0.451867640 0.561359465 0.140034065
0.511241615 0.565922737 0.144002497
0.573207021 0.569647193 0.148028374
0.637405038 0.572417080 0.152696997
0.698707283 0.572886407 0.159092069
0.757639110 0.573019505 0.165738761
0.814446986 0.572461784 0.171942890
0.866741419 0.571433902 0.177361175
0.000000000 0.562269568 0.103837319
0.000000000 0.574312091 0.111512691
0.035387505 0.582504570 0.116581813
0.098702759 0.589748561 0.121611625
0.159455389 0.596414745 0.126253128
0.218027309 0.603042483 0.130772308
0.276940644 0.608954608 0.135141686
0.336549550 0.614168286 0.139396742
0.395097941 0.619467020 0.143504441
0.454257548 0.625088751 0.147596121
0.514329791 0.628319740 0.152388498
0.574811459 0.630140126 0.157960266
0.633917332 0.629955292 0.164804697
0.692176342 0.629448175 0.171407133
0.750703394 0.628010392 0.177624881
0.805670917 0.626844108 0.183202624
0.856030822 0.625391006 0.188183635
0.000000000 0.618646085 0.110325441
0.000000000 0.632206500 0.117896311
0.033514563 0.640558600 0.123363614
0.096742265 0.648733795 0.128293931
0.158320010 0.656019270 0.133137435
0.217664748 0.663196802 0.137723386
0.277355820 0.669331074 0.142161131
0.337013423 0.675346196 0.146463796
0.395779639 0.680957913 0.150933176
0.454930902 0.683195829 0.156545192
0.513756633 0.683357418 0.163044497
0.571834564 0.682508051 0.169820189
0.628144264 0.681878984 0.175889134
0.686375797 0.680099964 0.182078868
0.743121624 0.678106546 0.187762260
0.795821607 0.676413536 0.193036258
0.845681250 0.673929811 0.197686121
0.000000000 0.674364090 0.116132446
0.000000000 0.688336551 0.123989999
0.031000873 0.697406292 0.129516244
0.095128633 0.706217408 0.134500429
0.156619817 0.714066803 0.139399067
0.216182381 0.721933484 0.144062564
0.276814073 0.728730857 0.148478195
0.336000592 0.733116210 0.153855368
0.395723552 0.733604610 0.160488456
0.453361034 0.733260751 0.167233884
0.510461986 0.732047737 0.173553690
0.567404091 0.730556250 0.179675058
0.622570097 0.729137719 0.185610384
0.679070950 0.726743340 0.191192642
0.733854949 0.724007845 0.196491137
0.785506725 0.721368492 0.201492935
0.833195567 0.718123794 0.205768257
0.000000000 0.727873802 0.121675760
0.000000000 0.742966533 0.129726872
0.027748121 0.752742648 0.135076001
0.092572138 0.762001038 0.140398696
0.153673619 0.770715952 0.145288318
0.214240626 0.778440475 0.149895817
0.275783777 0.780856848 0.156455904
0.336747706 0.779940665 0.163439021
0.394606143 0.779389441 0.170138016
0.451329142 0.777835011 0.176442578
0.507183909 0.776014626 0.182475388
0.560945511 0.774582446 0.188106135
0.616042078 0.772031784 0.193711817
0.671214283 0.768714309 0.199181259
0.723645866 0.765589714 0.204098508
0.774233282 0.762263954 0.208536744
0.820316672 0.758463502 0.212554932
0.000000000 0.779840648 0.126693740
0.000000000 0.795660377 0.134725928
0.024248684 0.806147516 0.140153244
0.088927135 0.815650940 0.145343632
0.151231825 0.823583364 0.150808871
0.214588374 0.824825227 0.157960758
0.276876569 0.823425353 0.165181562
0.335450351 0.822341502 0.172067821
0.392347574 0.820831478 0.178178623
0.448072463 0.818455458 0.184257627
0.501742244 0.816375434 0.189880252
0.554583549 0.813958049 0.195444003
0.608850241 0.810529709 0.200654566
0.661214530 0.806962609 0.205567122
0.713350832 0.803132415 0.210330248
0.761842251 0.799171627 0.214457691
0.807564259 0.794671953 0.217998311
0.000000000 0.829366863 0.130914807
0.000000000 0.845747292 0.138975814
0.021193245 0.856530488 0.144742131
0.087047011 0.864459395 0.150725245
0.152471006 0.864649892 0.158469826
0.216109872 0.863529325 0.165904000
0.276612937 0.861739993 0.172762126
0.333768487 0.860266626 0.179026067
0.389292836 0.858026505 0.185166001
0.442991436 0.855410516 0.190828308
0.495779872 0.852739990 0.196073249
0.547635078 0.849580526 0.201217875
0.601246953 0.845220983 0.206305191
0.650763929 0.841849923 0.210876882
0.702190876 0.836950004 0.215328932
0.749570549 0.832533658 0.219053939
0.794024646 0.827603042 0.222639933
0.000000000 0.876164496 0.134984314
0.000000000 0.893563509 0.142574623
0.018186189 0.902021289 0.149395883
0.089441448 0.901248991 0.157716930
0.154760823 0.900122285 0.165219173
0.216818422 0.898145854 0.172349930
0.275216460 0.896289587 0.179013431
0.332301199 0.893940151 0.184970677
0.385202795 0.891490757 0.190713376
0.437361836 0.889009118 0.196087807
0.488990873 0.885437667 0.201219946
0.540127695 0.881742120 0.206118062
0.590967596 0.877373040 0.210704938
0.640370071 0.873070776 0.215196371
0.690240026 0.867796361 0.219231382
0.737133980 0.862449944 0.222837940
0.779845178 0.857728958 0.226209000
0.000000000 0.000000000 0.103987627
0.000000000 0.000000000 0.108454496
0.040060125 0.000000000 0.110945746
0.100175202 0.000000000 0.115711629
0.155611247 0.000000000 0.119066872
0.210924253 0.000000000 0.122964382
0.270535409 0.000000000 0.129715130
0.332467586 0.000000000 0.136753261
0.386185884 0.000000000 0.139245242
0.432655066 0.000000000 0.138856620
0.475428998 0.000000000 0.137526751
0.516304374 0.000000000 0.135726810
0.557680547 0.000000000 0.134561136
0.601715803 0.000000000 0.134135321
0.650811017 0.000000000 0.135340750
0.704115808 0.000000000 0.137567505
0.756379902 0.000000000 0.140084505
0.000000000 0.037851814 0.118339062
0.000000000 0.040087748 0.122783445
0.044948690 0.042297184 0.127798378
0.106259577 0.043670937 0.132426322
0.164228693 0.045108065 0.136445254
0.225006193 0.048060440 0.143286556
0.290039003 0.051358439 0.152042180
0.348247766 0.052597564 0.156082064
0.398826718 0.051793437 0.156402573
0.444928944 0.050189063 0.155358493
0.488206983 0.048643935 0.153766185
0.530970573 0.046666563 0.152142435
0.575301290 0.045301247 0.151433870
0.624508142 0.044633813 0.152252629
0.679973781 0.044588000 0.154777810
0.737029731 0.044588000 0.157518953
0.791601777 0.044588000 0.160643443
0.000000000 0.111200243 0.128645375
0.000000000 0.114794120 0.136048064
0.048191130 0.117706873 0.141263127
0.113449268 0.121592566 0.147931129
0.177549377 0.126417994 0.155796379
0.239740759 0.129456878 0.161496878
0.297547519 0.129913747 0.164181247
0.350091487 0.128657639 0.164861873
0.399241358 0.126437366 0.164535135
0.445354253 0.123526938 0.163369760
0.490136474 0.120717376 0.162195757
0.535713911 0.118421882 0.161547631
0.584699750 0.116900258 0.162276998
0.639788926 0.116592757 0.164521635
0.698348641 0.117225878 0.167890757
0.758080125 0.117225878 0.171065822
0.815306902 0.117225878 0.174147636
0.000000000 0.188986063 0.146167383
0.000000000 0.193463579 0.153687686
0.053410128 0.196594000 0.158670753
0.119252264 0.198651135 0.162841499
0.180183694 0.199286759 0.165883258
0.238273323 0.198882267 0.167839497
0.292621523 0.197527260 0.168936938
0.343913257 0.195202813 0.169230327
0.393285453 0.192352831 0.169158325
0.440971762 0.189646706 0.169009387
0.488816619 0.187250316 0.169268698
0.539585769 0.185744077 0.170487389
0.594381750 0.185994953 0.173141062
0.654676497 0.186734274 0.176844448
0.715748787 0.187467515 0.180260494
0.776954412 0.187703073 0.183770940
0.836212814 0.188250020 0.187236756
0.000000000 0.248715743 0.149440616
0.000000000 0.253333181 0.156273440
0.050776999 0.255695373 0.160514131
0.114442013 0.256951809 0.164052874
0.173444986 0.257344007 0.166685253
0.230210304 0.256771445 0.168959185
0.283573538 0.255711138 0.170336127
0.335889816 0.254011005 0.171779320
0.386450887 0.252688646 0.173068121
0.437952191 0.251594573 0.174796700
0.491021603 0.251529753 0.177230880
0.547675192 0.253047734 0.180929571
0.606994390 0.254410625 0.184723884
0.668551385 0.255451053 0.188354000
0.731226146 0.256524116 0.192291513
0.794227958 0.257400751 0.195983499
