public/lut/71.cube
TITLE "17x17x17 Adobe/IRIDAS cube 3D LUT exported with GrossGrade v0.2.2 (beta) 64 bit"
DOMAIN_MIN 0 0 0
DOMAIN_MAX 1 1 1
LUT_3D_SIZE 5
0.000000000 0.000000000 0.000000000
0.167442009 0.000000000 0.000000000
0.429943502 0.000000000 0.000000000
0.620640516 0.000000000 0.000000000
0.869786024 0.000000000 0.000000000
0.000000000 0.244029492 0.000000000
0.146193758 0.246638268 0.000000000
0.400551528 0.226712495 0.000000000
0.652381778 0.210154265 0.000000000
0.939422250 0.198923007 0.000000000
0.000000000 0.461156011 0.000000000
0.088513747 0.480939507 0.000000000
0.359749019 0.486603498 0.000000000
0.644538045 0.486348271 0.000000000
0.944406986 0.478852510 0.000000000
0.000000000 0.698928773 0.000000000
0.040071249 0.731219292 0.000000000
0.320781231 0.742425263 0.000000000
0.597758770 0.727929473 0.000000000
0.857142508 0.706827998 0.000000000
0.000000000 0.912714005 0.000000000
0.000000000 0.939292014 0.000000000
0.276562035 0.919537544 0.000000000
0.532101512 0.894239008 0.000000000
0.768203974 0.864212990 0.000000000
0.000000000 0.000000000 0.283773243
0.199053258 0.000000000 0.309017003
0.454181761 0.000000000 0.308519512
0.662658751 0.000000000 0.286604017
0.933928728 0.000000000 0.292760760
0.000000000 0.267909229 0.299488246
0.161035255 0.270980239 0.317708999
0.423465520 0.256835252 0.314856768
0.702950239 0.249542773 0.322307289
0.996802986 0.257816494 0.339637756
0.000000000 0.510021269 0.280965000
0.110187747 0.533043981 0.306571782
0.396106988 0.541745305 0.320538491
0.697827518 0.543850005 0.331880242
0.974610806 0.531955719 0.353341013
0.000000000 0.764663756 0.277909011
0.057371251 0.801419735 0.304243505
0.355198771 0.794392765 0.320082009
0.629817307 0.770696759 0.331524253
0.883085012 0.742146969 0.336554766
0.000000000 0.991288722 0.262432754
0.028191756 0.984411478 0.293479264
0.307824284 0.956457257 0.306953520
0.556905746 0.924757242 0.314682752
0.787259519 0.887691498 0.317126751
0.000000000 0.000000000 0.590535045
0.216275007 0.000000000 0.615241528
0.452613533 0.000000000 0.582769990
0.692554533 0.000000000 0.576403499
0.975162506 0.000000000 0.591146052
0.000000000 0.275071025 0.574007511
0.164738998 0.280879974 0.607119560
0.441050768 0.278896511 0.626326799
0.733682752 0.275100768 0.647063732
1.000000000 0.282510757 0.661323071
0.000000000 0.542437017 0.585743546
0.122248501 0.567846060 0.630048513
0.418058515 0.578437567 0.657528043
0.720207572 0.575141549 0.673573017
0.991033554 0.557281971 0.670864582
0.000000000 0.807649255 0.596788287
0.069496498 0.843606472 0.640177548
0.373610497 0.819418192 0.648621798
0.643627763 0.791195035 0.648302317
0.892318726 0.757976532 0.642419577
0.100308999 1.000000000 0.588039041
0.121259749 1.000000000 0.609472513
0.339844018 0.970878482 0.613118052
0.575460255 0.934684992 0.609860539
0.795133471 0.895265460 0.600111544
0.000000000 0.000000000 0.794220030
0.209053993 0.000000000 0.815228760
0.451656014 0.000000000 0.805017471
0.717161536 0.000000000 0.829968274
1.000000000 0.056440514 0.847955227
0.000000000 0.284435749 0.805642486
0.171431005 0.295575261 0.862373710
0.457175523 0.298307776 0.902158499
0.756773531 0.294966996 0.932663321
1.000000000 0.302504241 0.953022301
0.000000000 0.567880750 0.853072047
0.129531503 0.595299721 0.915156543
0.440347999 0.607929826 0.949267983
0.728995800 0.595401287 0.954445481
0.997179031 0.573224723 0.940084338
0.000000000 0.841593742 0.877542973
0.083618253 0.862270534 0.924484551
0.385539234 0.833003759 0.922273993
0.655343294 0.800632000 0.908715785
0.894701719 0.765933514 0.888377488
0.100601494 1.000000000 0.854923010
0.127754495 1.000000000 0.864242017
0.350405514 0.977848530 0.858060062
0.581128001 0.939109206 0.844372511
0.796674490 0.897049487 0.823397756
0.000000000 0.000000000 0.929908991
0.204954252 0.000000000 0.968482018
0.460889995 0.000000000 0.998373985
0.723746777 0.088729002 1.000000000
1.000000000 0.092168003 1.000000000
0.024248756 0.299057275 1.000000000
0.199568510 0.316755772 1.000000000
0.467856526 0.321057022 1.000000000
0.767144978 0.321869761 1.000000000
1.000000000 0.317697018 1.000000000
0.092379004 0.586592019 1.000000000
0.172449499 0.615214527 1.000000000
0.451713979 0.627574503 1.000000000
0.737765014 0.607745051 1.000000000
0.999060035 0.583031476 1.000000000
0.097729251 0.865180790 1.000000000
0.147064760 0.871461034 1.000000000
0.405899256 0.839960515 1.000000000
0.659461021 0.806479275 1.000000000
0.895817757 0.768986046 1.000000000
0.100699998 1.000000000 1.000000000
0.132862747 1.000000000 1.000000000
0.357261509 0.979711533 1.000000000
0.585660279 0.938670993 1.000000000
0.797145009 0.895141006 0.999624014
