public/lut/71.cube
TITLE "17x17x17 Adobe/IRIDAS cube 3D LUT exported with GrossGrade v0.2.2 (beta) 64 bit"
DOMAIN_MIN 0 0 0
DOMAIN_MAX 1 1 1
LUT_3D_SIZE 17
0.000000000 0.000000000 0.000000000
0.000000000 0.000000000 0.000000000
0.030360002 0.000000000 0.000000000
0.100879073 0.000000000 0.000000000
0.167442009 0.000000000 0.000000000
0.232860625 0.000000000 0.000000000
0.306402504 0.000000000 0.000000000
0.374543846 0.000000000 0.000000000
0.429943502 0.000000000 0.000000000
0.479314327 0.000000000 0.000000000
0.524653733 0.000000000 0.000000000
0.570738077 0.000000000 0.000000000
0.620640516 0.000000000 0.000000000
0.678137481 0.000000000 0.000000000
0.743391812 0.000000000 0.000000000
0.808017731 0.000000000 0.000000000
0.869786024 0.000000000 0.000000000
0.000000000 0.020454124 0.000000000
0.000000000 0.021192875 0.000000000
0.028141877 0.019862313 0.000000000
0.103071392 0.017348500 0.000000000
0.172199190 0.014194313 0.000000000
0.240939260 0.012025689 0.000000000
0.318349421 0.009856873 0.000000000
0.386548340 0.006506060 0.000000000
0.442506552 0.003302062 0.000000000
0.492279917 0.000394500 0.000000000
0.539874971 0.000000000 0.000000000
0.588250756 0.000000000 0.000000000
0.641475916 0.000000000 0.000000000
0.704993784 0.000000000 0.000000000
0.774497449 0.000000000 0.000000000
0.840484023 0.000000000 0.000000000
0.905508697 0.000000000 0.000000000
0.000000000 0.098356247 0.000000000
0.000000000 0.101123877 0.000000000
0.015180375 0.101845369 0.000000000
0.094043888 0.099913254 0.000000000
0.166814119 0.100003123 0.000000000
0.242642686 0.101444624 0.000000000
0.314509511 0.100119002 0.000000000
0.377487034 0.095600627 0.000000000
0.433558255 0.089744747 0.000000000
0.485576600 0.083595879 0.000000000
0.535492897 0.077398628 0.000000000
0.587435424 0.072399810 0.000000000
0.645365238 0.068127252 0.000000000
0.713590384 0.064912066 0.000000000
0.782689929 0.062157501 0.000000000
0.852078497 0.058664247 0.000000000
0.919607878 0.055187751 0.000000000
0.000000000 0.177970946 0.000000000
0.000000000 0.182703331 0.000000000
0.001675624 0.184472010 0.000000000
0.089417323 0.183404446 0.000000000
0.163450941 0.181948274 0.000000000
0.234280884 0.179071441 0.000000000
0.299885333 0.174731642 0.000000000
0.361905843 0.168395519 0.000000000
0.419625998 0.161334455 0.000000000
0.473185807 0.154911324 0.000000000
0.527928233 0.148265690 0.000000000
0.584758878 0.143057317 0.000000000
0.649076641 0.139870256 0.000000000
0.719380021 0.137022316 0.000000000
0.790104330 0.133887321 0.000000000
0.861535490 0.130761385 0.000000000
0.930144548 0.127455264 0.000000000
0.000000000 0.244029492 0.000000000
0.000000000 0.248388559 0.000000000
0.000000000 0.250205994 0.000000000
0.074227199 0.249003142 0.000000000
0.146193758 0.246638268 0.000000000
0.214626193 0.243055075 0.000000000
0.279274791 0.238514379 0.000000000
0.341920972 0.232551813 0.000000000
0.400551528 0.226712495 0.000000000
0.459307253 0.220870942 0.000000000
0.519137979 0.215882272 0.000000000
0.583116770 0.212755114 0.000000000
0.652381778 0.210154265 0.000000000
0.722817361 0.207648262 0.000000000
0.795391202 0.204959393 0.000000000
0.869495630 0.201707810 0.000000000
0.939422250 0.198923007 0.000000000
0.000000000 0.295381069 0.000000000
0.000000000 0.300100803 0.000000000
0.000000000 0.302247316 0.000000000
0.057193134 0.301986694 0.000000000
0.127258882 0.300668806 0.000000000
0.193972185 0.298677117 0.000000000
0.258829206 0.295692921 0.000000000
0.321919650 0.292051822 0.000000000
0.384804934 0.288709074 0.000000000
0.448292911 0.285745829 0.000000000
0.513173103 0.284180880 0.000000000
0.582509398 0.281730741 0.000000000
0.652199686 0.279874563 0.000000000
0.725014389 0.277713895 0.000000000
0.799490511 0.275422424 0.000000000
0.874872625 0.272480875 0.000000000
0.946773291 0.269781500 0.000000000
0.000000000 0.344194263 0.000000000
0.000000000 0.350363135 0.000000000
0.000000000 0.353446394 0.000000000
0.042635009 0.354334146 0.000000000
0.112330996 0.354452014 0.000000000
0.177963749 0.354872137 0.000000000
0.244691283 0.354497522 0.000000000
0.310223103 0.354059905 0.000000000
0.375721991 0.353677750 0.000000000
0.442227691 0.352791667 0.000000000
0.509163857 0.351958275 0.000000000
0.580172300 0.350227505 0.000000000
0.650900483 0.349128753 0.000000000
0.725669503 0.347343028 0.000000000
0.802318692 0.345129013 0.000000000
0.878866732 0.342744261 0.000000000
0.953155994 0.339969754 0.000000000
0.000000000 0.400553465 0.000000000
0.000000000 0.409475863 0.000000000
0.000000000 0.413693398 0.000000000
0.031888194 0.415342927 0.000000000
0.100014627 0.417109549 0.000000000
0.167991698 0.418354362 0.000000000
0.234932765 0.419223160 0.000000000
0.301303208 0.419785082 0.000000000
0.369108409 0.419631094 0.000000000
0.435290515 0.419969171 0.000000000
0.504407763 0.419637442 0.000000000
0.575450122 0.418805212 0.000000000
0.648267806 0.417844146 0.000000000
0.725147188 0.416237712 0.000000000
0.803162694 0.414574474 0.000000000
0.881855905 0.412145853 0.000000000
0.956347466 0.409765303 0.000000000
0.000000000 0.461156011 0.000000000
0.000000000 0.470781922 0.000000000
0.000000000 0.475890279 0.000000000
0.018679325 0.478579819 0.000000000
0.088513747 0.480939507 0.000000000
0.157641619 0.482586503 0.000000000
0.224437654 0.484334022 0.000000000
0.291917771 0.485631526 0.000000000
0.359749019 0.486603498 0.000000000
0.428346694 0.486839831 0.000000000
0.498262763 0.487089038 0.000000000
0.569795609 0.486995876 0.000000000
0.644538045 0.486348271 0.000000000
0.723554969 0.484981954 0.000000000
0.800605297 0.484191358 0.000000000
0.876682818 0.481783509 0.000000000
0.944406986 0.478852510 0.000000000
0.000000000 0.521375299 0.000000000
0.000000000 0.532184124 0.000000000
0.000000000 0.537959993 0.000000000
0.007590140 0.541650116 0.000000000
0.076983631 0.544561505 0.000000000
0.146661565 0.546784878 0.000000000
0.214980647 0.548880339 0.000000000
0.283184022 0.550789416 0.000000000
0.351288319 0.552395463 0.000000000
0.420476377 0.553162694 0.000000000
0.491074175 0.553954184 0.000000000
0.563377261 0.554546893 0.000000000
0.640408397 0.553905308 0.000000000
0.715402007 0.553003907 0.000000000
0.789331198 0.550168991 0.000000000
0.859780729 0.546569347 0.000000000
0.923009157 0.543352902 0.000000000
0.000000000 0.581153870 0.000000000
0.000000000 0.593191385 0.000000000
0.000000000 0.600110114 0.000000000
0.000000012 0.604102135 0.000000000
0.065708004 0.607562721 0.000000000
0.134609193 0.610796571 0.000000000
0.204494387 0.613034785 0.000000000
0.272244215 0.615869164 0.000000000
0.341530979 0.617555976 0.000000000
0.412804902 0.618660629 0.000000000
0.482366145 0.620427489 0.000000000
0.555801153 0.620120645 0.000000000
0.629984796 0.617981255 0.000000000
0.700955033 0.614566326 0.000000000
0.770895720 0.611209869 0.000000000
0.839153290 0.606912732 0.000000000
0.901979089 0.602683008 0.000000000
0.000000000 0.640617311 0.000000000
0.000000000 0.653801382 0.000000000
0.000000000 0.661444783 0.000000000
0.000000002 0.666039228 0.000000000
0.052885756 0.670094907 0.000000000
0.122575566 0.673692524 0.000000000
0.192908838 0.676570773 0.000000000
0.261033952 0.679804385 0.000000000
0.331144005 0.682054400 0.000000000
0.402387708 0.683155656 0.000000000
0.471648991 0.682576895 0.000000000
0.544090271 0.679083109 0.000000000
0.613457739 0.675495207 0.000000000
0.684107125 0.671265900 0.000000000
0.753614783 0.666545033 0.000000000
0.819843411 0.661389887 0.000000000
0.880887508 0.656549573 0.000000000
0.000000000 0.698928773 0.000000000
0.000000000 0.713198125 0.000000000
0.000000000 0.721406996 0.000000000
0.000000000 0.727031708 0.000000000
0.040071249 0.731219292 0.000000000
0.110150188 0.735176146 0.000000000
0.180731386 0.738866270 0.000000000
0.248526722 0.742686450 0.000000000
0.320781231 0.742425263 0.000000000
0.390969068 0.739863992 0.000000000
0.459826887 0.736723006 0.000000000
0.529794097 0.732072473 0.000000000
0.597758770 0.727929473 0.000000000
0.666380823 0.723125219 0.000000000
0.733921289 0.717749238 0.000000000
0.799084127 0.711648107 0.000000000
0.857142508 0.706827998 0.000000000
0.000000000 0.755813897 0.000000000
0.000000000 0.771062374 0.000000000
0.000000000 0.780503213 0.000000000
0.000000000 0.785977542 0.000000000
0.026072178 0.790987849 0.000000000
0.094825111 0.796216726 0.000000000
0.166132644 0.799243033 0.000000000
0.238174468 0.797761023 0.000000000
0.309688807 0.794271767 0.000000000
0.378680170 0.790171683 0.000000000
0.447388887 0.785675406 0.000000000
0.513711810 0.781237423 0.000000000
0.581746936 0.775890052 0.000000000
0.649471402 0.770267129 0.000000000
0.713016510 0.764755189 0.000000000
0.777096629 0.758072078 0.000000000
0.834337831 0.751949847 0.000000000
0.000000000 0.810512304 0.000000000
0.000000000 0.826717973 0.000000000
0.000000000 0.836450934 0.000000000
0.000000000 0.842824996 0.000000000
0.011927118 0.848542809 0.000000000
0.083232179 0.851958573 0.000000000
0.156864628 0.848611414 0.000000000
0.229913443 0.844366074 0.000000000
0.299663752 0.840247452 0.000000000
0.367003500 0.835395217 0.000000000
0.433105648 0.830766916 0.000000000
0.498065174 0.825838864 0.000000000
0.565305948 0.819516540 0.000000000
0.630202889 0.813300610 0.000000000
0.693505287 0.807434678 0.000000000
0.754554749 0.800370872 0.000000000
0.811471343 0.793393850 0.000000000
0.000000000 0.862836301 0.000000000
0.000000000 0.880076647 0.000000000
0.000000000 0.890622675 0.000000000
0.000000000 0.896982253 0.000000000
0.002266933 0.900113463 0.000000000
0.076170363 0.895728409 0.000000000
0.149672449 0.891127765 0.000000000
0.221179575 0.886309922 0.000000000
0.287559956 0.881847620 0.000000000
0.354932934 0.876458049 0.000000000
0.418835759 0.871395826 0.000000000
0.483558506 0.865498245 0.000000000
0.549388289 0.858518302 0.000000000
0.610731959 0.852808535 0.000000000
0.673834503 0.845512211 0.000000000
0.734445155 0.837856889 0.000000000
0.789733410 0.830499172 0.000000000
0.000000000 0.912714005 0.000000000
0.000000000 0.930384636 0.000000000
0.000000000 0.942077637 0.000000000
0.000000000 0.943285227 0.000000000
0.000000000 0.939292014 0.000000000
0.070314504 0.934509337 0.000000000
0.141959757 0.929520726 0.000000000
0.211827457 0.924400091 0.000000000
0.276562035 0.919537544 0.000000000
0.342431456 0.913468003 0.000000000
0.405056745 0.907965899 0.000000000
0.469553441 0.901000738 0.000000000
0.532101512 0.894239008 0.000000000
0.592685819 0.887926757 0.000000000
0.654543340 0.879880250 0.000000000
0.712943971 0.872237325 0.000000000
0.768203974 0.864212990 0.000000000
0.000000000 0.000000000 0.041249998
0.000000000 0.000000000 0.041249998
0.042293750 0.000000000 0.047771126
0.113074198 0.000000000 0.047957752
0.179386497 0.000000000 0.047994003
0.246524632 0.000000000 0.049092561
0.323248029 0.000000000 0.052779503
0.388786912 0.000000000 0.052979186
0.442731380 0.000000000 0.050741874
0.491513968 0.000000000 0.047935687
0.537869036 0.000000000 0.044926748
0.584753394 0.000000000 0.042895686
0.636781454 0.000000000 0.041693561
0.698061347 0.000000000 0.041132569
0.765594482 0.000000000 0.041742876
0.831517220 0.000000000 0.041742876
0.894709527 0.000000000 0.041742876
0.000000000 0.031099813 0.050180629
0.000000000 0.034155250 0.057065625
0.038235437 0.032676812 0.058841310
0.113401204 0.030261626 0.060031876
0.182534754 0.027846375 0.060506374
0.256445557 0.026022876 0.062952064
0.333143800 0.024643125 0.066026248
0.398019552 0.020995872 0.065253936
0.453175545 0.016609436 0.062570184
0.502573490 0.013356625 0.059492372
0.550808549 0.010054125 0.056837250
0.601450920 0.006653437 0.054458939
0.657859027 0.004238312 0.053422749
0.725301266 0.001478437 0.053590938
0.795284152 0.000000000 0.054115750
0.863514304 0.000000000 0.054155000
0.930557668 0.000000000 0.054704502
0.000000000 0.110122003 0.048581250
0.000000000 0.113747314 0.054993752
0.024199815 0.113575816 0.057484940
0.104162775 0.113319062 0.058581933
0.180163130 0.114459246 0.061260685
0.255950630 0.115283191 0.063620754
0.325953811 0.112423822 0.063494377
0.387660265 0.107385136 0.061923377
0.443385571 0.101245813 0.059136499
0.495561153 0.094778940 0.056787752
0.547035098 0.088679567 0.054409377
0.601421952 0.083626755 0.052814376
0.663235724 0.079883747 0.052774437
0.734130502 0.077393062 0.053373501
0.804556310 0.074527681 0.053422749
0.875676155 0.071124680 0.054017127
0.944284022 0.067502938 0.054017127
0.000000000 0.192303270 0.049097378
0.000000000 0.197056264 0.056622066
0.012666183 0.197947696 0.059186250
0.098679505 0.196862832 0.059785441
0.173135251 0.194777086 0.059907127
0.243637756 0.191043898 0.059479497
0.309021890 0.186118841 0.058480624
0.370827466 0.179795325 0.056775250
0.428567529 0.172847450 0.054983750
0.483789831 0.166084841 0.053123876
0.540034235 0.160118386 0.052152626
0.600506425 0.155729830 0.051544815
0.668967605 0.153200820 0.052072126
0.740539193 0.150398269 0.052725125
0.812614739 0.147802830 0.052725125
0.886154056 0.144407585 0.052894250
0.956226766 0.141174003 0.053373501
0.000000000 0.255129814 0.042549811
0.000000000 0.259802759 0.049533624
0.000197125 0.261198878 0.052234374
0.081456579 0.260054052 0.052401438
0.153721437 0.257856429 0.052933753
0.222077504 0.254304022 0.052933753
0.287650347 0.249509379 0.052214123
0.350378901 0.244261503 0.051239125
0.410537004 0.238614500 0.050328813
0.470915258 0.233475506 0.049914625
0.533419549 0.229661554 0.049582563
0.601294458 0.227490455 0.050461877
0.671838939 0.225268260 0.050873876
0.744194448 0.222762749 0.051414374
0.819005728 0.220025122 0.051536065
0.894021451 0.217069805 0.052072130
0.965796709 0.214335069 0.052675873
0.000000000 0.306350112 0.034992814
0.000000000 0.311562747 0.042095438
0.000000000 0.313540459 0.044386938
0.064062633 0.313393295 0.045593187
0.134422377 0.312284172 0.045815248
0.202298924 0.310609579 0.046348501
0.268442392 0.307905108 0.046348501
0.332443535 0.305519849 0.046877690
0.396280169 0.303202391 0.046877690
0.462570608 0.301541388 0.047573000
0.530275643 0.300355315 0.048262313
0.600119174 0.298535407 0.048897125
0.671587229 0.296798885 0.049408376
0.747039974 0.294351429 0.050082065
0.824517846 0.291704893 0.050329939
0.899095297 0.289885938 0.050751068
0.973599851 0.286818355 0.051365126
0.000000000 0.357584774 0.029719312
0.000000000 0.364592969 0.036767624
0.000000000 0.367503971 0.039656624
0.049986634 0.368878752 0.040420625
0.119413875 0.369854808 0.041176811
0.187771693 0.370453537 0.042617314
0.254914522 0.371241450 0.043351311
0.322279662 0.371509612 0.044481941
0.389468193 0.371455342 0.045203127
0.457167089 0.370807439 0.045819998
0.526134193 0.369941652 0.046481125
0.597443104 0.368852586 0.047136813
0.670671403 0.367687285 0.047566503
0.747293949 0.365781397 0.048255436
0.826042712 0.363681227 0.048939124
0.903883219 0.361686945 0.049359128
0.980880201 0.358708769 0.049567249
0.000000000 0.418046921 0.027205873
0.000000000 0.427365720 0.034647562
0.000000000 0.431363404 0.037309438
0.038742509 0.433614075 0.038196627
0.107993811 0.435662448 0.039417565
0.177845687 0.436889946 0.040278688
0.246074900 0.437864155 0.041223563
0.313914031 0.438747793 0.041971438
0.382446945 0.439242721 0.042663127
0.450305313 0.439617455 0.043713812
0.520822644 0.439374447 0.044392191
0.593870640 0.438712835 0.045064937
0.668847442 0.437867463 0.045731999
0.746660411 0.436747342 0.046213750
0.827018678 0.435081869 0.046914749
0.906287789 0.433264971 0.047303438
0.979271829 0.430856109 0.049008563
0.000000000 0.479827315 0.024840312
0.000000000 0.490236878 0.031888060
0.000000000 0.494997591 0.034696877
0.026368137 0.497938961 0.035831064
0.097230189 0.500565767 0.037013561
0.167883247 0.502433479 0.037999563
0.236868903 0.504311204 0.038979813
0.304694504 0.506094098 0.039703000
0.373955011 0.507077277 0.040465936
0.444148928 0.507869959 0.041221000
0.515465260 0.508253634 0.041968502
0.588716745 0.508398294 0.042938001
0.665254116 0.508058190 0.043392625
0.745324254 0.507334113 0.043577880
0.822227538 0.505315185 0.046338066
0.895213485 0.502253473 0.050054818
0.959003687 0.498923957 0.054495312
0.000000000 0.541264355 0.021833688
0.000000000 0.552895367 0.029522063
0.000000000 0.558596194 0.032331813
0.013997078 0.562428057 0.033415753
0.085512571 0.565783918 0.034302816
0.156944141 0.568201721 0.035633814
0.225854382 0.570912361 0.036373310
0.295544773 0.572984695 0.037112188
0.365724206 0.574441195 0.038196564
0.436276495 0.575865686 0.038979061
0.507630885 0.577224970 0.039701499
0.582137704 0.577567995 0.040085502
0.659559786 0.576764047 0.041914187
0.733798862 0.573569477 0.046064567
0.805363894 0.570009828 0.050720878
0.874326944 0.565962434 0.055669818
0.938019395 0.561661243 0.059320126
0.000000000 0.602637291 0.019665373
0.000000000 0.615635097 0.026466688
0.000000000 0.622346938 0.029571377
0.003647452 0.626505435 0.030409686
0.074292697 0.630348206 0.031838749
0.143903688 0.634090960 0.032528810
0.214288637 0.637124002 0.033514377
0.285678506 0.639252663 0.034302816
0.355762362 0.641606987 0.035091378
0.426557839 0.644222081 0.035880376
0.498937875 0.644094288 0.037260186
0.572061241 0.642521918 0.040785372
0.643813908 0.638750196 0.045891874
0.714509130 0.634655356 0.050719444
0.785958111 0.629604816 0.055526629
0.852920651 0.624987543 0.059652131
0.914197505 0.620322227 0.063065685
0.000000000 0.663510919 0.016757188
0.000000000 0.678023100 0.023410626
0.000000000 0.685085416 0.026565250
0.000000007 0.690245092 0.027304314
0.060823191 0.694540620 0.028733563
0.131421193 0.698905945 0.029620688
0.202772766 0.701999485 0.030409688
0.274133831 0.705015242 0.031198062
0.344357908 0.707671225 0.032381002
0.415782243 0.706646383 0.035436314
0.487178594 0.703360975 0.040074252
0.557886422 0.698925793 0.045137875
0.626338303 0.694922388 0.049937565
0.697424054 0.689411342 0.054425877
0.766844749 0.683874190 0.059135690
0.831000984 0.678846061 0.062569506
0.891942441 0.673183560 0.066048689
0.000000000 0.723541379 0.013109874
0.000000000 0.738445461 0.020502999
0.000000000 0.746318460 0.023459876
0.000000000 0.752180338 0.024199313
0.047198251 0.757124901 0.024988310
0.117963314 0.762085080 0.026121749
0.190271884 0.765970528 0.026762562
0.261341602 0.767206192 0.029177317
0.333715677 0.764238954 0.034007065
0.403802305 0.760475338 0.039212439
0.473387718 0.755821526 0.043794312
0.542855561 0.750778913 0.048582688
0.610131681 0.745897174 0.053101815
0.679151535 0.739951730 0.057392068
0.746254265 0.733783126 0.061483443
0.809529305 0.727725029 0.065214381
0.868143499 0.721450031 0.068011686
0.000000000 0.781260073 0.010202059
0.000000000 0.797458589 0.016855683
0.000000000 0.806191504 0.019813307
0.000000000 0.812510729 0.021045370
0.032331862 0.818233490 0.021734996
0.104548804 0.823005736 0.022720875
0.178723887 0.822105587 0.026515881
0.252783656 0.817487955 0.031986568
0.323163092 0.813482523 0.037112504
0.392456442 0.808540821 0.042056628
0.460561991 0.803326130 0.046601132
0.526172519 0.798296571 0.051109254
0.593487263 0.792379975 0.055460751
0.661224723 0.785568476 0.059628129
0.725605786 0.779008925 0.063198134
0.787590027 0.772335768 0.066403881
0.844472170 0.765396118 0.069603316
0.000000000 0.837105691 0.006554934
0.000000000 0.854126275 0.013208373
0.000000000 0.863991737 0.016166057
0.000000000 0.870468378 0.017447371
0.019122934 0.875292718 0.019073624
0.095592558 0.872932255 0.023361254
0.171413004 0.867656052 0.029275881
0.242761776 0.863002777 0.034697317
0.312147349 0.858249307 0.039361566
0.380309343 0.852326870 0.044207439
0.445888996 0.846901536 0.048549876
0.510580897 0.841118217 0.052954815
0.577106297 0.834171116 0.056748942
0.641438365 0.827280521 0.060713504
0.705517769 0.819900155 0.064195447
0.765104353 0.812850416 0.067409441
0.821718097 0.805191219 0.070040748
0.000000000 0.890668213 0.002168810
0.000000000 0.908063650 0.008822247
0.000000000 0.918295562 0.012469498
0.000000000 0.922943294 0.014686814
0.012913124 0.919360995 0.020404315
0.089665867 0.914432645 0.025530066
0.163494989 0.908746362 0.030951504
0.233115003 0.904039264 0.035929628
0.301039279 0.898452938 0.040887251
0.366720855 0.892255664 0.045195192
0.431330562 0.886334062 0.049280126
0.494995326 0.879868865 0.053522311
0.560925364 0.872002006 0.057416439
0.621782362 0.865250766 0.060920127
0.685217261 0.857068658 0.064695746
0.743605793 0.849331260 0.067455254
0.798678219 0.841442287 0.070084751
0.000000000 0.940952837 0.000000000
0.000000000 0.959614754 0.004435312
0.000000000 0.967579961 0.009511750
0.000000000 0.962565422 0.016067438
0.009462752 0.957352161 0.021291750
0.083804876 0.951594472 0.027057750
0.154908016 0.946042657 0.032479189
0.224686399 0.940156698 0.037161879
0.289344072 0.934478223 0.041687563
0.353123039 0.928612947 0.045954626
0.416562051 0.921772718 0.049955316
0.479426324 0.914817810 0.053571623
0.542054772 0.907132149 0.057416439
0.602937698 0.899532080 0.060920127
0.664443851 0.890742481 0.064174756
0.722436130 0.882281125 0.066949248
0.775487304 0.874555886 0.069593504
0.000000000 0.000000000 0.130162373
0.000000000 0.000000000 0.134405509
0.045313001 0.000000000 0.133863002
0.117715701 0.000000000 0.137593061
0.185679883 0.000000000 0.138862759
0.255316556 0.000000000 0.142136127
0.331445903 0.000000000 0.148553625
0.394607276 0.000000000 0.147651821
0.448479861 0.000000000 0.143467635
0.497042507 0.000000000 0.138320252
0.543816507 0.000000000 0.133684874
0.592057228 0.000000000 0.129869059
0.646026254 0.000000000 0.127855003
0.709766984 0.000000000 0.127988696
0.778301299 0.000000000 0.129124388
0.844914794 0.000000000 0.129395872
0.908879340 0.000000000 0.129704997
0.000000000 0.038541317 0.140207261
0.000000000 0.041453127 0.147689134
0.043316253 0.040086936 0.148984179
0.117155448 0.037013628 0.150553316
0.188842818 0.034598377 0.153258756
0.265704304 0.034204066 0.159965008
0.340298176 0.032035999 0.163920939
0.402261138 0.027846247 0.161428005
0.457235098 0.023509499 0.156762376
0.507198453 0.019517437 0.151303440
0.556338906 0.015870187 0.146536559
0.608199954 0.012962063 0.143264189
0.667373061 0.010054187 0.141880631
0.736474097 0.007195872 0.142927319
0.808096826 0.004977810 0.143985868
0.877404749 0.002020995 0.144467011
0.943787873 0.000000000 0.145019993
0.000000000 0.116785504 0.139185622
0.000000000 0.120834492 0.147882625
0.030261375 0.121518627 0.151976764
0.111248828 0.122122258 0.155915812
0.187853873 0.122912504 0.160321876
0.262750089 0.122233808 0.163071677
0.330841541 0.118439622 0.161881626
0.391799092 0.113107376 0.158542633
0.447798640 0.106605999 0.154249385
0.500624597 0.100165755 0.149595827
0.552921057 0.094526999 0.145816371
0.609441698 0.089765184 0.143547997
0.674121141 0.086459622 0.143382370
0.746094584 0.083826758 0.144764632
0.817431808 0.081063129 0.145485371
0.889942527 0.077892877 0.146017000
0.959329367 0.074613124 0.146741495
0.000000000 0.199305132 0.145007551
0.000000000 0.204058632 0.153539374
0.016806686 0.205194324 0.156848252
0.102628693 0.203346953 0.157951325
0.176599503 0.201005936 0.158285439
0.247045696 0.197031140 0.157474890
0.312786818 0.191844314 0.155538559
0.374040693 0.185663342 0.152649567
0.432454526 0.178806067 0.149382308
0.488687158 0.172420755 0.146497563
0.546450913 0.167019010 0.144398808
0.609720349 0.163163766 0.143814564
0.679385245 0.161227271 0.144950807
0.752378106 0.158571124 0.145943880
0.826002359 0.155639142 0.146485060
0.900265992 0.152421013 0.147285819
0.971875668 0.149328336 0.148043305
0.000000000 0.260579377 0.135630757
0.000000000 0.265463978 0.143369183
0.003154125 0.266723990 0.146406114
0.084606640 0.265597552 0.147456124
0.156719893 0.263201118 0.147997379
0.225962445 0.259824812 0.147926256
0.291083187 0.255555898 0.146880373
0.354468226 0.250277132 0.145496309
0.415384889 0.245424256 0.144268617
0.477260441 0.240916491 0.143302992
0.542023301 0.237922251 0.143375874
0.611258864 0.236442998 0.144910693
0.682728171 0.234394878 0.145753369
0.756803215 0.231690124 0.146518454
0.832239687 0.229117498 0.147511512
0.908524692 0.226315320 0.148273632
