public/lut/72.cube
TITLE "17x17x17 Adobe/IRIDAS cube 3D LUT exported with GrossGrade v0.2.2 (beta) 64 bit"
DOMAIN_MIN 0 0 0
DOMAIN_MAX 1 1 1
LUT_3D_SIZE 5
0.000000000 0.000000000 0.000000000
0.192795247 0.000000000 0.000000000
0.376472533 0.000000000 0.000000000
0.534115493 0.003943000 0.000000000
0.688483000 0.010251000 0.000000000
0.000000000 0.234898001 0.000000000
0.215866253 0.237058014 0.000000000
0.380557001 0.235183001 0.000000000
0.543541312 0.234192014 0.000000000
0.721074998 0.237565503 0.000000000
0.011828502 0.400436521 0.000000000
0.223090261 0.410614759 0.000000000
0.401069045 0.420127511 0.000000000
0.580605745 0.428451538 0.000000000
0.764890492 0.433326513 0.000000000
0.028586000 0.595022738 0.000000000
0.243307248 0.605153322 0.000000000
0.426480234 0.613178968 0.000000000
0.602818012 0.619329035 0.000000000
0.793142498 0.626183987 0.000000000
0.039429002 0.791584015 0.000000000
0.247212008 0.799112737 0.000000000
0.427763015 0.808702469 0.000000000
0.616850972 0.819550753 0.000000000
0.817112982 0.830145001 0.000000000
0.000000000 0.000000000 0.235358998
0.190872267 0.000000000 0.230297267
0.374997020 0.000000000 0.235412240
0.531636298 0.000986000 0.220956013
0.688122034 0.009463000 0.208652005
0.000000000 0.227865010 0.237051487
0.219073504 0.232966751 0.231096745
0.384189278 0.233498007 0.224523008
0.549780488 0.235128000 0.221079752
0.731521726 0.241320252 0.222597510
0.018728500 0.399081022 0.221737519
0.231574744 0.412752777 0.226644754
0.411549270 0.424177051 0.231481999
0.592568517 0.434143484 0.235484511
0.776947021 0.437765777 0.232401252
0.037062999 0.597565055 0.230615750
0.253476262 0.610308290 0.237106234
0.431806266 0.619252503 0.237276256
0.614632487 0.628992558 0.235685498
0.811155498 0.638461232 0.234041005
0.048294000 0.795759201 0.234996766
0.250459760 0.806835949 0.235074505
0.436225742 0.820073485 0.234413251
0.629560471 0.833421230 0.233916506
0.834061027 0.844945252 0.232883006
0.000000000 0.000000000 0.428075492
0.198527247 0.000000000 0.430433780
0.371756494 0.000000000 0.423700511
0.528450787 0.000986000 0.403842270
0.689052463 0.010251000 0.389248013
0.000000000 0.222539991 0.425440282
0.219604254 0.229587004 0.416796982
0.386305779 0.232626006 0.409344494
0.555498242 0.236994505 0.407189280
0.741044044 0.245290756 0.412276775
0.023657501 0.400295496 0.411037505
0.237921000 0.416332513 0.418502510
0.419217497 0.429020524 0.425088018
0.599662066 0.437727034 0.431191742
0.788726985 0.443075001 0.436718524
0.043075252 0.601307750 0.428493768
0.258973241 0.614965796 0.435733497
0.436774254 0.625944018 0.442303240
0.624316275 0.637805283 0.448551238
0.825651526 0.648532033 0.453241497
0.052347001 0.799798012 0.437085032
0.252881259 0.815024734 0.444032013
0.442847013 0.829699039 0.450172514
0.639846504 0.843930483 0.455230772
0.846067011 0.856357515 0.458351016
0.000000000 0.000000000 0.611039758
0.200251997 0.000000000 0.595647752
0.366979748 0.000000000 0.579125285
0.525689065 0.001774252 0.560395777
0.690646768 0.011829000 0.549427271
0.001971751 0.217557758 0.581171989
0.219326749 0.226491243 0.573202729
0.388270736 0.232371256 0.569609821
0.561594307 0.239604503 0.573219061
0.749517202 0.249302000 0.583023012
0.027600501 0.402524501 0.579672694
0.242900997 0.420206010 0.589509249
0.426450789 0.433385253 0.598409057
0.605468750 0.441404015 0.612572789
0.799129486 0.448404551 0.627341747
0.047242500 0.605291784 0.607734025
0.260071248 0.619578242 0.618484259
0.441738009 0.632411718 0.633618712
0.632958293 0.645501971 0.647580564
0.836526752 0.657104552 0.658567071
0.051686000 0.804865241 0.625656009
0.255647749 0.822213769 0.640634537
0.448564023 0.838172495 0.653104722
0.647610068 0.852955997 0.663325310
0.855871201 0.864985764 0.670525253
0.000000000 0.000000000 0.740081012
0.197145015 0.000000000 0.723330259
0.363203019 0.000000000 0.708469033
0.524060011 0.003351251 0.695541739
0.694233000 0.012617000 0.692453980
0.005125750 0.213953003 0.711991727
0.218795002 0.224946752 0.707434475
0.390293777 0.232656747 0.709617496
0.567686737 0.242462754 0.721559048
0.756745994 0.252009511 0.737090945
0.030754503 0.405341506 0.729496002
0.247030511 0.423612535 0.741353035
0.430463016 0.436807036 0.754503012
0.611694574 0.444778264 0.778969228
0.808398962 0.452836037 0.802598476
0.050682500 0.608873010 0.769293785
0.260791481 0.624048054 0.787073731
0.446215540 0.637892246 0.809631526
0.639554739 0.651935995 0.830589294
0.845782757 0.663623273 0.847804248
0.051020000 0.809961975 0.801685989
0.257864505 0.828401744 0.823610485
0.453217506 0.844744503 0.841484010
0.654401481 0.859544218 0.856842995
0.863561988 0.871493995 0.868203998
