public/lut/72.cube
TITLE "17x17x17 Adobe/IRIDAS cube 3D LUT exported with GrossGrade v0.2.2 (beta) 64 bit"
DOMAIN_MIN 0 0 0
DOMAIN_MAX 1 1 1
LUT_3D_SIZE 17
0.000000000 0.000000000 0.000000000
0.050147690 0.000000000 0.000000000
0.098806754 0.000000000 0.000000000
0.147213265 0.000000000 0.000000000
0.192795247 0.000000000 0.000000000
0.235954434 0.000000000 0.000000000
0.282146007 0.000000000 0.000000000
0.330973029 0.000000000 0.000000000
0.376472533 0.000000000 0.000000000
0.418636739 0.000000000 0.000000000
0.457502007 0.000000000 0.000000000
0.495956898 0.001577000 0.000000000
0.534115493 0.003943000 0.000000000
0.572761953 0.005520001 0.000000000
0.611197531 0.007195627 0.000000000
0.649966836 0.008674000 0.000000000
0.688483000 0.010251000 0.000000000
0.000000000 0.073264875 0.000000000
0.058266811 0.074755684 0.000000000
0.107428253 0.076754503 0.000000000
0.153878078 0.078545183 0.000000000
0.200362384 0.081104249 0.000000000
0.248900369 0.084352754 0.000000000
0.295273840 0.086728685 0.000000000
0.339406520 0.087786503 0.000000000
0.380317181 0.088227063 0.000000000
0.419338673 0.087818310 0.000000000
0.457848728 0.086963378 0.000000000
0.496528447 0.086378254 0.000000000
0.534816146 0.085957311 0.000000000
0.574122667 0.085198998 0.000000000
0.614296198 0.084320873 0.000000000
0.653822839 0.084288128 0.000000000
0.693756223 0.083863437 0.000000000
0.000000000 0.128457382 0.000000000
0.063936315 0.131667122 0.000000000
0.115710869 0.134800375 0.000000000
0.165002137 0.138260245 0.000000000
0.212384999 0.140860379 0.000000000
0.257952124 0.142162994 0.000000000
0.300658762 0.142464876 0.000000000
0.341553152 0.142260060 0.000000000
0.380999029 0.141627505 0.000000000
0.419823945 0.140712008 0.000000000
0.458496243 0.139465630 0.000000000
0.497135878 0.138620868 0.000000000
0.536299884 0.137810752 0.000000000
0.577043951 0.137010500 0.000000000
0.617575288 0.136718005 0.000000000
0.658836126 0.136385500 0.000000000
0.700359464 0.136385500 0.000000000
0.000000000 0.187004700 0.000000000
0.071477816 0.189698577 0.000000000
0.122593932 0.191049904 0.000000000
0.170718387 0.191954643 0.000000000
0.215904996 0.192240819 0.000000000
0.259244800 0.192101941 0.000000000
0.300780654 0.191782892 0.000000000
0.341254205 0.190924942 0.000000000
0.380878627 0.189893082 0.000000000
0.419536114 0.189177081 0.000000000
0.458866984 0.188067883 0.000000000
0.498397827 0.187383071 0.000000000
0.539153576 0.186868012 0.000000000
0.580457687 0.186497450 0.000000000
0.622501552 0.186243460 0.000000000
0.666022062 0.186468244 0.000000000
0.709248960 0.187173456 0.000000000
0.000000000 0.234898001 0.000000000
0.073302120 0.236345813 0.000000000
0.124016635 0.237093747 0.000000000
0.170964271 0.237308577 0.000000000
0.215866253 0.237058014 0.000000000
0.258588314 0.236948013 0.000000000
0.299973667 0.236591503 0.000000000
0.340774417 0.235920757 0.000000000
0.380557001 0.235183001 0.000000000
0.420397878 0.234714195 0.000000000
0.460699975 0.234381512 0.000000000
0.501355171 0.234285623 0.000000000
0.543541312 0.234192014 0.000000000
0.586236537 0.234568387 0.000000000
0.630459547 0.235130504 0.000000000
0.676198959 0.236134753 0.000000000
0.721074998 0.237565503 0.000000000
0.000000000 0.276476622 0.000000000
0.074196689 0.277829677 0.000000000
0.124163695 0.278586626 0.000000000
0.170717761 0.278881341 0.000000000
0.215411246 0.279067099 0.000000000
0.258413553 0.279314190 0.000000000
0.300090581 0.279227614 0.000000000
0.341222703 0.279319048 0.000000000
0.382128030 0.279341936 0.000000000
0.423056811 0.279749811 0.000000000
0.464680344 0.280175567 0.000000000
0.506794155 0.280697763 0.000000000
0.550488770 0.281533241 0.000000000
0.595287144 0.282888889 0.000000000
0.641558588 0.284663200 0.000000000
0.687949777 0.286150247 0.000000000
0.733460426 0.287602127 0.000000000
0.002562627 0.316201031 0.000000000
0.075331941 0.318018526 0.000000000
0.124622747 0.319105387 0.000000000
0.171467751 0.319913208 0.000000000
0.216306612 0.320660919 0.000000000
0.259312123 0.321616173 0.000000000
0.302246392 0.322471619 0.000000000
0.344185710 0.323362768 0.000000000
0.386378884 0.324300051 0.000000000
0.428207755 0.325507760 0.000000000
0.471134633 0.326822400 0.000000000
0.515526414 0.328504771 0.000000000
0.560436666 0.330344141 0.000000000
0.606348872 0.332288951 0.000000000
0.653231323 0.334137142 0.000000000
0.699968696 0.335732698 0.000000000
0.745706379 0.337211788 0.000000000
0.007984065 0.357129961 0.000000000
0.077373005 0.359699339 0.000000000
0.126643062 0.361241847 0.000000000
0.173647210 0.362705737 0.000000000
0.218756929 0.364225209 0.000000000
0.262905419 0.365660399 0.000000000
0.306274474 0.367571801 0.000000000
0.349556923 0.369205534 0.000000000
0.393023014 0.371162832 0.000000000
0.436397880 0.373459399 0.000000000
0.480755299 0.375375867 0.000000000
0.525575042 0.377364665 0.000000000
0.571038544 0.379475296 0.000000000
0.617385685 0.381513089 0.000000000
0.664240599 0.383324146 0.000000000
0.710895479 0.385005593 0.000000000
0.756417811 0.386698365 0.000000000
0.011828502 0.400436521 0.000000000
0.080181561 0.403350055 0.000000000
0.129631385 0.405843288 0.000000000
0.177137256 0.408124834 0.000000000
0.223090261 0.410614759 0.000000000
0.268553138 0.412950456 0.000000000
0.312901914 0.415447026 0.000000000
0.356787592 0.417818010 0.000000000
0.401069045 0.420127511 0.000000000
0.445089430 0.422259033 0.000000000
0.489762485 0.424304903 0.000000000
0.534667730 0.426455140 0.000000000
0.580605745 0.428451538 0.000000000
0.627612591 0.430316448 0.000000000
0.674131274 0.432223141 0.000000000
0.720070004 0.433296204 0.000000000
0.764890492 0.433326513 0.000000000
0.016461374 0.447642446 0.000000000
0.083833627 0.451160312 0.000000000
0.134060323 0.453961611 0.000000000
0.182035625 0.456728935 0.000000000
0.228894517 0.459185809 0.000000000
0.274725378 0.461675942 0.000000000
0.319629461 0.463938296 0.000000000
0.364221275 0.466450065 0.000000000
0.408845425 0.468638241 0.000000000
0.453505367 0.470762759 0.000000000
0.497967958 0.473154396 0.000000000
0.543215096 0.475300372 0.000000000
0.589803338 0.477002621 0.000000000
0.635589421 0.478431880 0.000000000
0.681080878 0.478905171 0.000000000
0.726867795 0.479283452 0.000000000
0.772118032 0.479711801 0.000000000
0.020798875 0.496462375 0.000000000
0.087767065 0.500103474 0.000000000
0.138163880 0.502927899 0.000000000
0.186887458 0.505578458 0.000000000
0.234391123 0.507943094 0.000000000
0.280175209 0.510433614 0.000000000
0.325692773 0.512667358 0.000000000
0.371009976 0.515091658 0.000000000
0.415593386 0.517312825 0.000000000
0.460910618 0.519237339 0.000000000
0.505759239 0.521374226 0.000000000
0.551111996 0.523027539 0.000000000
0.596002638 0.524145007 0.000000000
0.640381038 0.524978638 0.000000000
0.686431289 0.525894880 0.000000000
0.733076394 0.526659489 0.000000000
0.779640079 0.527553260 0.000000000
0.024938812 0.545660675 0.000000000
0.091158375 0.549269259 0.000000000
0.142151803 0.551869094 0.000000000
0.191365898 0.554284036 0.000000000
0.238886505 0.556804299 0.000000000
0.285557449 0.558921218 0.000000000
0.331526816 0.561208725 0.000000000
0.376767397 0.563562691 0.000000000
0.422321141 0.565497458 0.000000000
0.467098504 0.567293823 0.000000000
0.510787964 0.568946958 0.000000000
0.555001438 0.570003748 0.000000000
0.598839641 0.571230471 0.000000000
0.645267010 0.572439313 0.000000000
0.692331672 0.573797941 0.000000000
0.739368320 0.575097144 0.000000000
0.786905766 0.576333702 0.000000000
0.028586000 0.595022738 0.000000000
0.094442561 0.598147631 0.000000000
0.146097749 0.600572586 0.000000000
0.195129454 0.603007197 0.000000000
0.243307248 0.605153322 0.000000000
0.289995372 0.607374132 0.000000000
0.336327404 0.609534800 0.000000000
0.382067204 0.611612678 0.000000000
0.426480234 0.613178968 0.000000000
0.469455361 0.614687026 0.000000000
0.513106883 0.616163254 0.000000000
0.557483971 0.617600203 0.000000000
0.602818012 0.619329035 0.000000000
0.649751127 0.621051311 0.000000000
0.697755754 0.622636795 0.000000000
0.745721340 0.624242544 0.000000000
0.793142498 0.626183987 0.000000000
0.031690944 0.644171178 0.000000000
0.097150683 0.647320628 0.000000000
0.148706630 0.649435222 0.000000000
0.198306203 0.651644349 0.000000000
0.246534377 0.653787851 0.000000000
0.293649107 0.655858099 0.000000000
0.339800656 0.657694459 0.000000000
0.383541346 0.659297943 0.000000000
0.426856309 0.660869658 0.000000000
0.470362931 0.662700951 0.000000000
0.514908731 0.664405704 0.000000000
0.559973300 0.666462123 0.000000000
0.606592596 0.668421328 0.000000000
0.654021561 0.670611322 0.000000000
0.702422976 0.672588050 0.000000000
0.751641452 0.674379587 0.000000000
0.799674273 0.676374793 0.000000000
0.035584506 0.693273664 0.000000000
0.099127874 0.696130991 0.000000000
0.151263505 0.698058724 0.000000000
0.201124579 0.699921787 0.000000000
0.249162510 0.702055037 0.000000000
0.296053886 0.703837276 0.000000000
0.339334160 0.705529094 0.000000000
0.383097887 0.707357585 0.000000000
0.427281499 0.709312081 0.000000000
0.471412778 0.711448073 0.000000000
0.516921997 0.713612795 0.000000000
0.562309265 0.716166675 0.000000000
0.610464215 0.718071342 0.000000000
0.658361197 0.720608413 0.000000000
0.707447469 0.723029971 0.000000000
0.756724358 0.725109160 0.000000000
0.805779636 0.727206528 0.000000000
0.037852000 0.742375612 0.000000000
0.101042621 0.744874120 0.000000000
0.153275698 0.746696830 0.000000000
0.203122139 0.748437583 0.000000000
0.249745503 0.750420749 0.000000000
0.294123769 0.752133131 0.000000000
0.338080168 0.754147351 0.000000000
0.382853329 0.756236911 0.000000000
0.427005947 0.758827209 0.000000000
0.472986877 0.760861695 0.000000000
0.518487453 0.763546646 0.000000000
0.565282941 0.766174018 0.000000000
0.613970637 0.768462896 0.000000000
0.661877096 0.771484435 0.000000000
0.711840391 0.773865461 0.000000000
0.761779845 0.776155472 0.000000000
0.811573505 0.778586447 0.000000000
0.039429002 0.791584015 0.000000000
0.102182195 0.793850422 0.000000000
0.154813617 0.795292139 0.000000000
0.202347830 0.797113121 0.000000000
0.247212008 0.799112737 0.000000000
0.292340398 0.801246285 0.000000000
0.337261528 0.803564250 0.000000000
0.382454157 0.806118667 0.000000000
0.427763015 0.808702469 0.000000000
0.474232614 0.811180413 0.000000000
0.520170867 0.814269125 0.000000000
0.568468094 0.816801667 0.000000000
0.616850972 0.819550753 0.000000000
0.665643454 0.822697639 0.000000000
0.715698898 0.825224996 0.000000000
0.766153395 0.827980399 0.000000000
0.817112982 0.830145001 0.000000000
0.000000000 0.000000000 0.068980813
0.051808689 0.000000000 0.070869192
0.098915562 0.000000000 0.068071127
0.146525621 0.000000000 0.067566499
0.190612003 0.000000000 0.066328809
0.234742627 0.000000000 0.065253124
0.281524837 0.000000000 0.066115625
0.330089658 0.000000000 0.067349747
0.375627041 0.000000000 0.067120060
0.417254508 0.000000000 0.066046998
0.456735760 0.000000000 0.063867256
0.494933188 0.000246563 0.062215377
0.533413708 0.001774251 0.060529877
0.571911395 0.003943000 0.058763873
0.610817790 0.006309000 0.057128690
0.649435699 0.007935253 0.055839688
0.688113809 0.009463000 0.054014187
0.000000000 0.069140069 0.068521567
0.057699624 0.071711436 0.066923872
0.106688060 0.073264875 0.065882631
0.153601885 0.075635679 0.065814123
0.199994326 0.078424625 0.065772504
0.248346820 0.081791252 0.067172624
0.295022041 0.084504560 0.067855999
0.338891804 0.085836813 0.067391060
0.379909188 0.086068563 0.066287190
0.418888152 0.086068563 0.064401999
0.457760990 0.085651375 0.063336998
0.496204555 0.085198998 0.061630443
0.534709394 0.084744625 0.060126312
0.574207723 0.084627122 0.059369370
0.614438355 0.084231503 0.057745941
0.654047847 0.084259816 0.057090312
0.694251776 0.083830498 0.056506313
0.000000000 0.125056371 0.067904502
0.063900128 0.128638998 0.067281686
0.115117632 0.131603822 0.067754187
0.164632246 0.135419503 0.068332568
0.212186873 0.137914807 0.068507381
0.257785261 0.139895752 0.068038754
0.300901532 0.140701503 0.067465745
0.341294706 0.140408263 0.066533938
0.381253034 0.139963374 0.064967752
0.420056403 0.139572129 0.063832000
0.458804041 0.138709620 0.062760182
0.497504473 0.137842879 0.061449498
0.536859572 0.137301117 0.060529877
0.577585995 0.136678249 0.059526436
0.618077695 0.136425376 0.058922376
0.659854710 0.136385500 0.058313124
0.701504171 0.136385500 0.058321126
0.000000000 0.183639511 0.070477873
0.072000131 0.186639324 0.069986254
0.123437062 0.188364208 0.069087505
0.171538383 0.189698011 0.068547942
0.216853380 0.190182656 0.067640811
0.260219425 0.190123573 0.066950686
0.301493287 0.189942569 0.066054061
0.341870189 0.189540029 0.064967625
0.381528407 0.188850582 0.063839503
0.420706958 0.187964380 0.063301504
0.459797680 0.187383071 0.062439002
0.499444693 0.186854959 0.061602063
0.540394187 0.186455250 0.061268561
0.581960797 0.186246261 0.060603250
0.624268591 0.186269581 0.060170747
0.667914748 0.186665446 0.060126312
0.711552799 0.187454328 0.060647689
0.000000000 0.232127443 0.068581253
0.074661747 0.233891949 0.067573816
0.125214502 0.234844744 0.067432001
0.172630638 0.235378131 0.066506565
0.217196822 0.235452503 0.066019624
0.259909004 0.235462561 0.065357000
0.301485449 0.235156760 0.064339250
0.341982394 0.234733999 0.063698500
0.381848842 0.234333694 0.063550003
0.421949238 0.234002680 0.063017495
0.462172568 0.233888239 0.062439002
0.503509641 0.233946145 0.062330998
0.545401692 0.234149262 0.062330998
0.588406265 0.234730944 0.062330998
0.633110046 0.235535383 0.062402375
0.679033756 0.236884311 0.062867247
0.724212646 0.238428116 0.063443497
0.000000000 0.274263173 0.065391622
0.075795993 0.275840998 0.064828873
0.125615433 0.276883245 0.064443186
0.172708020 0.277498782 0.064261749
0.216861248 0.278013259 0.063733749
0.259946734 0.278212816 0.063550003
0.301977247 0.278295934 0.063550003
0.343117595 0.278561234 0.063550003
0.383664012 0.279104859 0.063550003
0.425219953 0.279453039 0.063550003
0.466683567 0.280132443 0.063550003
0.509320140 0.281051964 0.063550003
0.552925706 0.282178015 0.063980505
0.598421156 0.283701956 0.064549625
0.645053685 0.285592765 0.065494999
0.691389918 0.287471324 0.065709941
0.737115979 0.289094180 0.066608936
0.004139627 0.314633936 0.062660620
0.077283189 0.316540837 0.062660620
0.126366302 0.317930013 0.063017495
0.173248202 0.319017261 0.063017495
0.218146831 0.320024580 0.063194998
0.261528224 0.321051687 0.063550003
0.304163486 0.322121292 0.063550003
0.346480340 0.323293656 0.063592747
0.388506681 0.324417144 0.063945249
0.430977136 0.325681180 0.064514562
0.474097282 0.327388912 0.065037377
0.518239260 0.329408377 0.065641001
0.563887715 0.331541449 0.066634625
0.610259056 0.333531648 0.067363873
0.657024801 0.335602403 0.068313815
0.703719139 0.337449282 0.068887815
0.749750614 0.339163959 0.069721818
0.009856939 0.355933100 0.061268561
0.079282381 0.358556986 0.061855376
0.128767997 0.360377550 0.062439002
0.175879195 0.362164408 0.063017495
0.220915318 0.363798380 0.063550003
0.265381128 0.365641654 0.063910000
0.308881849 0.367569089 0.064479500
0.352432966 0.369789302 0.065211125
0.395953059 0.371919602 0.065915182
0.439598918 0.374206454 0.066914938
0.484081000 0.376536459 0.067735754
0.529152751 0.378722519 0.068487130
0.574785471 0.380909324 0.069491059
0.621237516 0.383098572 0.070188880
0.668536544 0.385095686 0.071206130
0.715210080 0.387021601 0.071962751
0.760645092 0.388097793 0.071711436
0.014194502 0.399439037 0.060676627
0.082240313 0.402733505 0.061855376
0.132185996 0.405382752 0.062938623
0.179725513 0.408032596 0.063550003
0.225826308 0.410733402 0.064584687
0.271599323 0.413230538 0.065391123
0.316216916 0.415887535 0.066533685
0.360277981 0.418556988 0.067498751
0.404581070 0.420972407 0.068246812
0.448753238 0.423375905 0.069019936
0.493757486 0.425652325 0.070057690
0.538636208 0.428000063 0.071044125
0.584845006 0.430203944 0.072058558
0.632048845 0.432290167 0.073219806
0.678009212 0.433588594 0.072391942
0.724021614 0.433989495 0.070632502
0.768490374 0.434056997 0.068023503
0.019221438 0.446682990 0.061855376
0.086265877 0.450930595 0.063222811
0.136909872 0.453904688 0.064366937
0.185176700 0.456889510 0.065425999
0.231993243 0.459615678 0.066465192
0.278041273 0.462280512 0.067532748
0.322971821 0.465083271 0.068754755
0.367924213 0.467572510 0.069523625
0.412663579 0.470037311 0.070620500
0.457104117 0.472470105 0.071600690
0.502092004 0.474784374 0.072609127
0.547777057 0.476895124 0.073410876
0.594050467 0.478521377 0.073959246
0.639046967 0.479373574 0.071780376
0.684543967 0.480050504 0.069601938
0.730674863 0.480803251 0.067201249
0.776741743 0.481508136 0.065328501
0.023460375 0.496077925 0.063017495
0.090752125 0.500271678 0.064898379
0.141356692 0.503302991 0.066020004
0.190225825 0.506064594 0.067329623
0.237936765 0.508685529 0.068580694
0.283629090 0.511562586 0.069425568
0.329459071 0.514099956 0.070653498
0.374859720 0.516382754 0.071827501
0.419970453 0.518783689 0.072641127
0.464888453 0.521302819 0.073890686
0.509674489 0.523087323 0.074022748
0.553859770 0.524630010 0.073198624
0.598328710 0.525605202 0.070861436
0.643408775 0.526839375 0.068760812
0.690484405 0.527868509 0.066650122
0.737751305 0.529059231 0.064479500
0.784289062 0.530379593 0.062803373
0.028092813 0.545593262 0.064339250
0.094079062 0.549775481 0.066328809
0.145344928 0.552591085 0.067600749
0.194708318 0.555257916 0.068954624
0.242701128 0.557766557 0.070255503
0.288985938 0.560481608 0.071310624
0.335458040 0.562701166 0.072673313
0.381276190 0.565099239 0.073669434
0.426028401 0.567352653 0.074624747
0.469694495 0.569092035 0.073933378
0.513165891 0.570470750 0.071909502
0.557216585 0.571834862 0.069800690
0.601985693 0.573588669 0.067714810
0.648777485 0.575112998 0.066025436
0.696860373 0.576398253 0.064338312
0.744550705 0.578282773 0.062403001
0.792030275 0.579955459 0.061041627
0.031690940 0.595293880 0.065814130
0.097374685 0.599037766 0.067938253
0.149269059 0.601576686 0.069153756
0.198785082 0.604071319 0.070686750
0.246899188 0.606582284 0.071666002
0.293928862 0.608896852 0.073062249
0.340332866 0.611379027 0.074242122
0.385080338 0.613216698 0.074122995
0.428115129 0.614898562 0.072716057
0.471408010 0.616642535 0.070828937
0.515276849 0.618412137 0.068727314
0.560389817 0.620268762 0.067125872
0.606446862 0.622321486 0.065114126
0.653945804 0.624231339 0.063443504
0.702672064 0.626160383 0.062179003
0.750643730 0.628361821 0.060492873
0.799131036 0.630031407 0.058876563
0.034844942 0.644644856 0.066984564
0.100352883 0.648172259 0.069021255
0.152378187 0.650437713 0.070589505
0.202299014 0.652855933 0.072091497
0.250457883 0.655138254 0.073094055
0.297687083 0.657374382 0.074462250
0.341875404 0.659216642 0.073327556
0.385145485 0.661062658 0.071709931
0.428748459 0.663026035 0.069768123
0.472738981 0.665141463 0.068050809
0.517819405 0.667206168 0.066471934
0.563366890 0.669714212 0.064584687
0.610775530 0.671734214 0.063300937
0.658644080 0.674129963 0.061593313
0.707684815 0.676418245 0.060447682
0.756794691 0.678785622 0.058763873
0.805614531 0.680750370 0.057538684
0.037950505 0.693975449 0.068045810
0.102560751 0.697114050 0.070157245
0.154842257 0.699269593 0.071602002
0.204549506 0.701534212 0.072775930
0.252582312 0.703560352 0.073675998
0.297026753 0.705526233 0.072295934
0.341024995 0.707346976 0.070267878
0.384944826 0.709659219 0.068694383
0.429300785 0.712064087 0.067092620
0.474531949 0.714296222 0.065502256
0.520308197 0.716837347 0.063910000
0.566598237 0.719500065 0.062723875
0.614825487 0.721836448 0.061195560
0.663051665 0.724583685 0.059970435
0.712755203 0.726980627 0.058237497
0.762319624 0.729479790 0.057576746
0.811755002 0.731839716 0.056333810
0.040265568 0.743426442 0.068594813
0.104468256 0.746038914 0.071109749
0.156806931 0.747794211 0.072155878
0.205675438 0.750048637 0.072781749
0.250547409 0.752016008 0.071219310
0.295253128 0.754290223 0.069239251
0.340122223 0.756476462 0.067911185
0.384626299 0.759215593 0.066061310
0.430165589 0.761807263 0.064654812
0.475655168 0.764438391 0.063301504
0.522175312 0.767206788 0.062143188
0.569961786 0.769808769 0.060639940
0.618283987 0.772512317 0.059443876
0.666704535 0.775662899 0.058199681
0.717412114 0.778107405 0.056996249
0.767339349 0.780884922 0.055791873
0.817333758 0.783259571 0.055158060
0.043217253 0.792526126 0.069597691
0.106245629 0.794856191 0.071634375
0.156674504 0.796853244 0.072232313
0.202734709 0.799036205 0.070235506
0.248354509 0.801284492 0.068561502
0.293812752 0.803720653 0.067059375
0.339653105 0.806082547 0.065467879
0.384979814 0.809299111 0.063804254
0.430594087 0.812204957 0.062731996
0.476866364 0.815229058 0.061268561
0.524104416 0.818075061 0.060126312
0.572279990 0.821064234 0.059294872
0.621177554 0.823937535 0.058115561
0.670231462 0.827166617 0.057081938
0.721144557 0.829850972 0.055830877
0.771717131 0.832565248 0.055108808
0.822563529 0.835176468 0.053915624
0.000000000 0.000000000 0.130800501
0.050049126 0.000000000 0.127228811
0.099258125 0.000000000 0.126163244
0.145779431 0.000000000 0.125543624
0.190807998 0.000000000 0.124719381
0.235027760 0.000000000 0.124072626
0.282068908 0.000000000 0.125230744
0.330187708 0.000000000 0.127067134
0.375216544 0.000000000 0.126936257
0.416571736 0.000000000 0.125078186
0.456025898 0.000000000 0.122583874
0.494537324 0.000000000 0.119982690
0.533007741 0.001577001 0.117196381
0.571340501 0.003943000 0.114772312
0.610462904 0.005717252 0.112478875
0.649476886 0.007886000 0.110434122
0.688017488 0.009463000 0.108718127
0.000000000 0.066923872 0.126664996
0.058228999 0.070163749 0.125693187
0.106637247 0.072232313 0.124437995
0.153341085 0.074148752 0.123213187
0.201222003 0.077412061 0.124861814
0.249421135 0.081045806 0.126857951
0.295354486 0.083439812 0.127691805
0.338941395 0.084739998 0.126837000
0.379710406 0.085166499 0.125218377
0.418998867 0.085166499 0.123053558
0.457779646 0.084744625 0.120990999
0.496040195 0.084603377 0.118772998
0.534796596 0.084349126 0.116538569
0.574536681 0.084203191 0.114836633
0.614596963 0.083863437 0.113183372
0.654833853 0.083834939 0.111554191
0.694919586 0.083863437 0.110837132
0.000000000 0.123148374 0.127120376
0.064505935 0.127098501 0.126695439
0.116054252 0.130931005 0.127302244
0.165274769 0.134293064 0.128035188
0.213093251 0.137166381 0.128638998
0.258335978 0.138787806 0.128414378
0.301166505 0.139494255 0.127134129
0.341861099 0.139621362 0.125539050
0.381549031 0.139284745 0.123725131
0.420652092 0.138585389 0.121840306
0.459037870 0.138025254 0.119880743
0.498230755 0.137261629 0.118227750
0.537638366 0.136718005 0.116388634
0.578275144 0.136678249 0.115246631
0.619077563 0.136642128 0.114227250
0.661029756 0.136403561 0.113248378
0.702971399 0.136638388 0.112565994
0.000000000 0.181967333 0.131082058
0.072032630 0.185039073 0.130022138
0.123501629 0.187131315 0.129671380
0.172031507 0.188433826 0.128576443
0.216982245 0.189030960 0.127664432
0.260698020 0.189394385 0.126407564
0.302003533 0.189294696 0.124708369
0.342535585 0.188734695 0.123242319
0.382144600 0.188315272 0.121860318
0.421141595 0.187635511 0.120380819
0.460359454 0.187095076 0.118945874
0.500463367 0.186601445 0.117723688
0.541181803 0.186497450 0.117023751
0.582955301 0.186494246 0.116257004
0.625771582 0.186624259 0.115612313
0.669537187 0.187256441 0.115543246
0.713630199 0.188224018 0.115564562
0.000000000 0.230762258 0.128389239
0.075171068 0.232747450 0.127431184
0.125850245 0.233726755 0.126275241
0.173165128 0.234395564 0.125390872
0.217984259 0.234776497 0.124644622
0.260829628 0.234733880 0.123401627
0.302196920 0.234570503 0.122227125
0.342802465 0.234242007 0.121183500
0.383010536 0.234034747 0.120416999
0.422940075 0.233970493 0.119527251
0.463301122 0.233866885 0.118879005
0.504719734 0.234149262 0.118434809
0.546694636 0.234517753 0.117952622
0.590471923 0.235099077 0.117864124
0.635231853 0.236186117 0.117905624
0.681177199 0.237833753 0.118512124
