public/lut/73.cube
TITLE "17x17x17 Adobe/IRIDAS cube 3D LUT exported with GrossGrade v0.2.2 (beta) 64 bit"
DOMAIN_MIN 0 0 0
DOMAIN_MAX 1 1 1
LUT_3D_SIZE 17
0.041758999 0.041758999 0.041758999
0.053743001 0.041041814 0.041041814
0.137326747 0.040217001 0.040217001
0.213573888 0.040069252 0.040069252
0.293082505 0.042326748 0.042326748
0.360075444 0.041233063 0.041233063
0.415450156 0.038147502 0.038147502
0.464080781 0.035042189 0.035042189
0.509064496 0.032331999 0.032331999
0.553306460 0.029966000 0.029620813
0.597865760 0.027304500 0.027304500
0.645935059 0.026023000 0.026023000
0.698362529 0.025234001 0.025234001
0.754016578 0.024298059 0.024298059
0.810515285 0.023657000 0.023657000
0.865916193 0.022869000 0.022869000
0.920091987 0.022869000 0.022869000
0.043217253 0.154518932 0.044599123
0.045278814 0.131536812 0.041711185
0.079325318 0.116426066 0.040945437
0.165842131 0.105032630 0.040945437
0.244773373 0.094248936 0.041662626
0.317759752 0.082531251 0.040994000
0.380855501 0.068751745 0.038935877
0.436317354 0.054559741 0.035830751
0.486185193 0.045301441 0.033465188
0.532778203 0.042175189 0.030409250
0.578888178 0.040358376 0.028093124
0.627305269 0.038936000 0.026516126
0.679259002 0.038393561 0.025037000
0.736576080 0.038442876 0.024445999
0.794927716 0.038393561 0.023657000
0.851816535 0.038442876 0.022869000
0.907148421 0.039182562 0.022869000
0.040409751 0.221718386 0.041947126
0.046891559 0.207304507 0.042702124
0.057583250 0.196575001 0.042609502
0.136253506 0.185071498 0.041900937
0.214165628 0.173293620 0.040506877
0.285426021 0.160913765 0.039527502
0.350213528 0.147589117 0.037950501
0.408127040 0.134740442 0.035140689
0.462216407 0.122132123 0.032824621
0.513044059 0.110014305 0.030064501
0.563382804 0.098096877 0.028093124
0.613885283 0.087774500 0.026023000
0.667577386 0.078257501 0.025037000
0.725778401 0.069876932 0.024298059
0.783870459 0.062449493 0.022869000
0.842627525 0.054915499 0.022869000
0.898878276 0.055632252 0.022080000
0.034204688 0.269899309 0.036569875
0.043262564 0.259640872 0.037358686
0.049540751 0.252306432 0.037999749
0.099016637 0.243850514 0.037506625
0.179141983 0.234248027 0.037210938
0.250931561 0.223539814 0.036421940
0.316749036 0.212323189 0.034352440
0.378017426 0.200636581 0.032824688
0.435699552 0.188807890 0.031148501
0.490065932 0.177900583 0.029324938
0.543991446 0.167031944 0.027600000
0.598071694 0.156921327 0.026170937
0.654081821 0.148139626 0.024593750
0.713622630 0.139993936 0.024298063
0.773527324 0.132160515 0.023558497
0.833784401 0.124343120 0.022869000
0.890767455 0.116743132 0.022080000
0.030163001 0.312651992 0.031740252
0.039478190 0.304031014 0.032529000
0.049494751 0.297908604 0.032726251
0.070612326 0.291815579 0.033317249
0.147968993 0.284359753 0.033317249
0.219677314 0.276174366 0.031937249
0.285990030 0.267308474 0.031247124
0.349454999 0.257601440 0.030310750
0.408860505 0.248159751 0.028980250
0.467480361 0.238252312 0.027600000
0.524461508 0.229111612 0.026516125
0.581686318 0.220456943 0.025579188
0.641194761 0.212494746 0.024643000
0.701950788 0.205191553 0.023657000
0.763594329 0.197598130 0.023657000
0.824221730 0.190368816 0.022819687
0.882290721 0.183847502 0.022080000
0.027058249 0.356548131 0.029177001
0.037901126 0.348297834 0.029177001
0.050003998 0.342485607 0.029423563
0.063172571 0.336889178 0.029423563
0.121741444 0.331170917 0.029423563
0.193359375 0.324930817 0.029177001
0.260584712 0.317763269 0.028635249
0.324278831 0.310583323 0.027600000
0.385955960 0.302900076 0.027058249
0.447091699 0.295062691 0.026466813
0.506353915 0.287898988 0.025480563
0.568033457 0.280377448 0.025234001
0.628774643 0.273956001 0.024445999
0.691452801 0.266710937 0.023657000
0.753950596 0.259685993 0.022869000
0.814666808 0.252977550 0.022869000
0.873557568 0.246837378 0.022080000
0.025234001 0.405242145 0.027600000
0.037654813 0.396806151 0.027600000
0.050592002 0.390920013 0.027600000
0.063194744 0.385375828 0.027599998
0.101940751 0.379850507 0.027107500
0.172229245 0.374732971 0.026812000
0.240889013 0.368777394 0.026811998
0.305792153 0.362874776 0.026318876
0.368875116 0.357019246 0.026023000
0.430693805 0.351222098 0.025234001
0.492816746 0.345139891 0.024741501
0.555488229 0.338772446 0.024445999
0.617330253 0.332776010 0.024445998
0.680055797 0.326394707 0.023164500
0.743719101 0.319561005 0.022869000
0.805387795 0.313376218 0.022868998
0.865739882 0.307283014 0.022080000
0.024002187 0.454714030 0.026812000
0.038393561 0.447327197 0.026812000
0.052950438 0.441893399 0.026811998
0.067836069 0.436923265 0.026811998
0.087911814 0.432132959 0.026368188
0.156854808 0.427006036 0.026023000
0.225206122 0.422105610 0.026022999
0.291234404 0.416916788 0.025579188
0.355567932 0.411636740 0.025234001
0.417092383 0.406908244 0.025233999
0.480917245 0.401178837 0.024150124
0.544073641 0.395372778 0.023657000
0.606006622 0.390047848 0.023657000
0.669816256 0.383997083 0.023213748
0.733600438 0.377901465 0.022080002
0.796585917 0.371908993 0.022080000
0.856129944 0.366621405 0.021636749
0.022869000 0.503995001 0.026023000
0.038788062 0.497330785 0.026023000
0.055313502 0.492539644 0.026023000
0.071300693 0.488169551 0.025628500
0.087056503 0.483770251 0.025628500
0.140836373 0.479325771 0.025234001
0.210908651 0.474896252 0.025234001
0.276953846 0.470691502 0.024839999
0.341785014 0.465970993 0.024445999
0.405234993 0.461256683 0.024445999
0.468430638 0.456508756 0.024051499
0.531491637 0.451401532 0.023657000
0.595261812 0.446223259 0.022869000
0.659480929 0.440728009 0.022721060
0.723456383 0.435163021 0.022080000
0.787991047 0.429080367 0.022080000
0.848405004 0.424667001 0.021291999
0.022080000 0.552827537 0.025677813
0.039527312 0.546694994 0.025677813
0.057153001 0.542611361 0.025677813
0.075239256 0.538819551 0.025234001
0.093377374 0.534750044 0.024987752
0.126220062 0.530867040 0.024445999
0.197718382 0.527038634 0.024445999
0.265492231 0.522903383 0.024100812
0.330212623 0.518907070 0.023657000
0.394853085 0.514469147 0.023657000
0.457496196 0.510567546 0.023312250
0.521306694 0.505872428 0.022869000
0.585504115 0.501022458 0.022869000
0.649556279 0.496049196 0.022523811
0.715664268 0.491373569 0.021981496
0.781421483 0.488235801 0.021291999
0.846817851 0.486375004 0.021291999
0.020996124 0.601323247 0.024938500
0.040261935 0.595956445 0.024495250
0.059474748 0.592359602 0.024445999
0.079017624 0.588719785 0.024445999
0.099046253 0.585362613 0.024445999
0.120316252 0.582020521 0.024445999
0.186158270 0.578278422 0.024150124
0.253972948 0.575000763 0.023657000
0.319639027 0.571226656 0.023657000
0.384381622 0.567328334 0.022869000
0.448213726 0.563461661 0.022573125
0.511421919 0.559445918 0.022080000
0.576471388 0.555284500 0.022080000
0.644646287 0.552353442 0.021932250
0.713022530 0.550107479 0.021291999
0.781635046 0.548426628 0.021291999
0.847425103 0.546535373 0.020502999
0.020502999 0.649450064 0.023657000
0.040649749 0.645014405 0.023657000
0.061144624 0.641800106 0.023657000
0.082653195 0.638609409 0.023657000
0.103986502 0.635468602 0.023657000
0.126188189 0.632302284 0.023410751
0.173910141 0.629309893 0.023410749
0.244367838 0.626102626 0.022869000
0.310551882 0.622736990 0.022869000
0.374826878 0.619536579 0.022622438
0.438618183 0.616051614 0.022080000
0.505575836 0.612947047 0.022080000
0.574355662 0.611534953 0.021883000
0.643921256 0.610173523 0.021291999
0.714031994 0.608416915 0.021045433
0.781658053 0.606955051 0.020502999
0.846923947 0.605409145 0.020502999
0.019713998 0.697694302 0.023656998
0.041416187 0.693759501 0.023656998
0.063357502 0.690941095 0.023164500
0.085929632 0.688094974 0.022869000
0.108863756 0.685447752 0.023065999
0.132647872 0.682419717 0.022869000
0.163783148 0.680046558 0.022375876
0.234334975 0.677120745 0.022080000
0.301660508 0.674072564 0.022080000
0.366858006 0.671460986 0.021883000
0.435646981 0.669665396 0.021784499
0.507312775 0.668147862 0.021291999
0.575570226 0.667793751 0.021291997
0.645188391 0.666687906 0.021094747
0.715096414 0.664960861 0.020502999
0.782037854 0.664163649 0.020502999
0.847112000 0.662744284 0.020305749
0.019566247 0.745548189 0.022869000
0.042125877 0.742243648 0.022869000
0.065588623 0.739790678 0.022869000
0.089894131 0.737154663 0.022721060
0.113826014 0.735007167 0.022277249
0.139017701 0.732439101 0.022080000
0.164185390 0.730245411 0.022080000
0.225662649 0.727776647 0.022080000
0.295826197 0.725553095 0.021932248
0.367190868 0.725065649 0.021291999
0.438306689 0.724225283 0.021144062
0.507611096 0.723707020 0.020650940
0.577268720 0.722893476 0.020502999
0.646605492 0.722127318 0.020355059
0.715144217 0.721205056 0.019714000
0.782358527 0.720151424 0.019714000
0.847573817 0.718846560 0.019566247
0.018827371 0.793575168 0.022080000
0.042876437 0.790729880 0.022080000
0.067690626 0.788564563 0.021981498
0.093163192 0.786551833 0.021981496
0.119597383 0.784426391 0.021291999
0.145132944 0.782342017 0.021291999
0.171543017 0.780514300 0.021291999
0.221737728 0.779217362 0.021291999
0.298336148 0.778836846 0.021193370
0.369967163 0.778545737 0.020502999
0.440216392 0.778402686 0.020502999
0.510046721 0.777559936 0.020502999
0.578673661 0.777249575 0.020404371
0.646954179 0.777010560 0.019714000
0.716018796 0.776173413 0.019714000
0.782423377 0.775528193 0.019615497
0.847742736 0.774290979 0.018926000
0.018087747 0.841555357 0.021291999
0.043571122 0.839085877 0.021291999
0.070275381 0.837042749 0.021291999
0.096660316 0.835571110 0.021291999
0.123646691 0.833836496 0.021291999
0.151732549 0.831722319 0.021291999
0.178277999 0.831471741 0.020502999
0.227849901 0.831740975 0.020502999
0.301600784 0.831407309 0.020502999
0.373339474 0.831278622 0.019714000
0.442402512 0.831374764 0.019714000
0.511694551 0.831271708 0.019714000
0.579115450 0.831584811 0.019664746
0.648247957 0.830875814 0.018926000
0.716455817 0.830374181 0.018926000
0.782715321 0.830145061 0.018876685
0.846963763 0.829671025 0.018137001
0.016559999 0.889901996 0.020502999
0.044258311 0.887764513 0.020502999
0.071750000 0.886103868 0.020502999
0.100125819 0.884697318 0.020502999
0.128157750 0.883532286 0.020502999
0.157908753 0.882967651 0.020502999
0.186205760 0.883184731 0.020502999
0.233146459 0.883682847 0.019714000
0.305084020 0.883643508 0.019714000
0.375869930 0.884061873 0.019714000
0.445088238 0.884089112 0.019714000
0.513258815 0.884444356 0.018926000
0.580960512 0.884756207 0.018926000
0.649949372 0.884235620 0.018926000
0.716555059 0.884444296 0.018926000
0.783159554 0.884212017 0.018137001
0.846669018 0.884275019 0.018137001
0.041041814 0.041041814 0.174553245
0.040945437 0.040217001 0.152251750
0.106478572 0.040217001 0.137958497
0.185791835 0.039429002 0.124466196
0.263890326 0.041567750 0.115351811
0.335695982 0.041233063 0.104318187
0.395141512 0.038935877 0.089504927
0.446611583 0.036569875 0.075237118
0.493301660 0.033514500 0.062000185
0.538370430 0.030409250 0.052873250
0.583738267 0.028043812 0.047832876
0.630965590 0.026023000 0.043600559
0.682203352 0.025234001 0.039822750
0.737936914 0.024445999 0.037506871
0.794810295 0.023657000 0.036915123
0.851011872 0.022869000 0.037704065
0.905379593 0.022869000 0.038442876
0.040945437 0.121646807 0.124127880
0.043911938 0.100599624 0.101380371
0.057214811 0.086670123 0.086825192
0.135018453 0.073398247 0.073811814
0.212565869 0.061723378 0.062844254
0.291467816 0.052537061 0.060228188
0.360985190 0.050115250 0.056791250
0.419280648 0.047492940 0.050608121
0.470544815 0.044821184 0.044454683
0.518283367 0.041942563 0.039773688
0.565327108 0.040506251 0.038541436
0.613365114 0.039231814 0.038245879
0.664373815 0.038442876 0.037704125
0.720758021 0.038442876 0.037851878
0.778474331 0.039133251 0.038393561
0.836844802 0.038442876 0.038442876
0.892385423 0.039182562 0.039182562
0.042516001 0.199309438 0.093849123
0.047507562 0.183354989 0.073292375
0.051560748 0.171208128 0.063341931
0.106333710 0.159452990 0.058572941
0.189860076 0.149371445 0.054137003
0.264910370 0.138939694 0.049953189
0.332777143 0.127007633 0.045186814
0.394061625 0.114703313 0.044737998
0.449814439 0.102280624 0.043123189
0.501332521 0.090523198 0.041993812
0.551441014 0.079185933 0.040798310
0.601347506 0.069432877 0.039724376
0.653712511 0.059886627 0.039182562
0.709968865 0.053467311 0.039133254
0.768683791 0.053711127 0.038442872
0.827765346 0.054957502 0.039182562
0.884336889 0.056178253 0.039182562
0.036520563 0.253389120 0.060975809
0.044736497 0.242516950 0.054547746
0.053404003 0.234851256 0.050530061
0.075463764 0.226947024 0.046657000
0.158675298 0.217544138 0.045686498
0.233551368 0.207307458 0.045462999
0.301382005 0.196384892 0.045552313
0.364631146 0.184887201 0.044645872
0.423640400 0.173302576 0.044185311
0.479079187 0.162034959 0.042930815
0.532533765 0.151251391 0.041564062
0.586073399 0.140941262 0.040505502
0.640992165 0.131652698 0.039773561
0.698702157 0.123600557 0.039872065
0.759463966 0.115580246 0.039822813
0.819644392 0.107421689 0.039872065
0.876953065 0.100095265 0.039921314
0.030951250 0.298265338 0.046946250
0.041181564 0.289655775 0.042083748
0.051348373 0.283862352 0.041758999
0.063893683 0.277961850 0.043263566
0.127516568 0.271098137 0.043911938
0.201998249 0.263078272 0.044049375
0.270818263 0.254117996 0.044599123
0.335898876 0.244467184 0.043537438
0.396495938 0.234778315 0.043073565
0.455469847 0.224816516 0.042323064
0.512635469 0.215038881 0.041514810
0.569394529 0.206029505 0.040748313
0.627220929 0.197722137 0.040748313
0.688138843 0.190236554 0.040116251
0.749873102 0.183063880 0.040698998
0.810758233 0.175934061 0.040553313
0.868942022 0.169941947 0.040698998
0.027600000 0.342261434 0.038590752
0.038492125 0.334260553 0.039527439
0.050679252 0.328844488 0.040312685
0.062109753 0.323864073 0.041564062
0.101555571 0.318679988 0.042323064
0.175705805 0.312541068 0.042323064
0.245145202 0.305543363 0.042559315
0.310053170 0.298297405 0.042323064
0.372371614 0.290650964 0.041895248
0.433837861 0.282306969 0.041564062
0.492964983 0.274758756 0.041227937
0.552959681 0.267418832 0.041465499
0.614403248 0.260149330 0.040748313
0.677134871 0.253364086 0.041465499
0.740032017 0.246555626 0.041274250
0.800671160 0.240589380 0.041465499
0.861195683 0.233935758 0.041465499
0.025234001 0.390224963 0.039773624
0.037654813 0.381790459 0.040019877
0.051261999 0.376520216 0.040505502
0.064790249 0.371529698 0.040797625
0.082325123 0.366648138 0.041371375
0.154671997 0.361371666 0.041514810
0.223157823 0.356168479 0.041514810
0.289116204 0.350499034 0.041564062
0.353132635 0.344463140 0.041514810
0.415583134 0.338223994 0.041846000
0.477835834 0.332205385 0.041514810
0.540188491 0.326375365 0.041751374
0.603265703 0.320189893 0.042224500
0.666823626 0.313910723 0.041938625
0.729241967 0.308043450 0.042224500
0.792265952 0.301716238 0.041938625
0.852762878 0.295822144 0.042175189
0.024445999 0.440371901 0.040797625
0.038442876 0.433121592 0.040797625
0.052950438 0.428017914 0.041227937
0.068273075 0.423335880 0.041419186
0.082504563 0.418813080 0.041514810
0.136697486 0.413690478 0.041514810
0.207643211 0.409033090 0.041514810
0.274470448 0.404167145 0.041940622
0.339300364 0.399331599 0.042224500
0.402146488 0.394476324 0.042224500
0.465623498 0.389270276 0.042414002
0.528849483 0.383932680 0.042224500
0.592557132 0.378299356 0.042645250
0.656301081 0.372809917 0.042925753
0.720129430 0.367102265 0.042925753
0.783876896 0.360971391 0.042925753
0.843893290 0.355300665 0.042925753
0.023263000 0.490576982 0.041514810
0.039133251 0.483921349 0.041514810
0.055082750 0.479430437 0.041893311
0.072342753 0.475207090 0.041893311
0.088779002 0.471143842 0.042224500
0.121287800 0.466583312 0.042224500
0.194392204 0.462474704 0.042224500
0.261435539 0.458480716 0.042647749
0.326826453 0.454003155 0.042975001
0.391018063 0.449405521 0.042975001
0.454749733 0.444952071 0.043252874
0.517822564 0.440276504 0.043296251
0.582294285 0.435192764 0.043160252
0.646763682 0.429868937 0.043669686
0.711422622 0.424589962 0.043669686
0.776397884 0.419199437 0.044036184
0.840016246 0.417293757 0.043669686
0.022080000 0.540234983 0.042601004
0.039527312 0.534282267 0.042601001
0.057153001 0.530419827 0.042601004
0.075239256 0.526759446 0.042601004
0.094134808 0.522723198 0.042975001
0.115465567 0.518981516 0.043299187
0.180638030 0.515533626 0.042975001
0.250144124 0.511527181 0.043299187
0.315854460 0.507638931 0.043669686
0.380301505 0.503739357 0.043669686
0.444169819 0.499822646 0.043669686
0.508448660 0.495258719 0.043990374
0.572811961 0.490420401 0.044406187
0.638598323 0.486775637 0.043990374
0.707058847 0.483184338 0.044356875
0.775513053 0.481418937 0.044356875
0.840324700 0.480191916 0.044723373
0.021291999 0.589402616 0.043719001
0.040212687 0.584382772 0.043719001
0.059434809 0.580966473 0.043719001
0.079017624 0.577577293 0.043719001
0.098674625 0.574081063 0.043719001
0.119869687 0.570939541 0.043993875
0.168364272 0.567619920 0.044406187
0.239358097 0.564213932 0.044406187
0.305887938 0.560717344 0.043993875
0.370780885 0.557299256 0.044406187
0.434066415 0.553720176 0.044406187
0.498652875 0.549898386 0.044632751
0.567569673 0.547366977 0.045085873
0.637406290 0.545403361 0.045085873
0.707464457 0.543906331 0.045085873
0.776115060 0.542262435 0.045759000
0.840630412 0.541242242 0.045085873
0.020502999 0.638514102 0.044406187
0.041366939 0.634286344 0.044406187
0.061770748 0.631105542 0.044406187
0.082422197 0.628258586 0.044406187
0.104366817 0.625105619 0.044406187
0.126336738 0.622681022 0.044632751
0.157484964 0.619221687 0.045085873
0.229671210 0.616203845 0.045085873
0.295699805 0.613586545 0.045085873
0.361472696 0.610149562 0.045135126
0.427931130 0.607519150 0.045404375
0.498292327 0.606210649 0.045808252
0.568101048 0.605223358 0.045310248
0.638757229 0.604126334 0.045759000
0.707745314 0.603004217 0.045808252
0.776354253 0.601610184 0.045852691
0.841583192 0.600378156 0.046474811
0.020256437 0.687242448 0.045314625
0.042125877 0.683674991 0.045314625
0.063357502 0.680913270 0.045265373
0.086766630 0.678194046 0.045085873
0.109904185 0.675678849 0.045085873
0.133386493 0.673210442 0.045135126
0.158601776 0.670476556 0.045314625
0.220023021 0.667933524 0.045808252
0.288751662 0.665325284 0.045808252
0.358421922 0.663957715 0.045808252
0.430118591 0.663315594 0.045986000
0.500146985 0.662807643 0.046474811
0.570261240 0.662015140 0.046474811
0.639815807 0.661396623 0.046474811
0.709137261 0.660373032 0.046650812
0.777530134 0.659132957 0.047183372
0.841481626 0.658528686 0.046650812
0.018926000 0.736376464 0.045808252
0.042876437 0.732721925 0.045941565
0.065588623 0.730468571 0.045941565
0.089894131 0.728129268 0.045941565
0.114368074 0.726063907 0.046474811
0.138863936 0.723706484 0.046523374
0.164354444 0.721479475 0.046523374
0.212138221 0.719850361 0.046523374
0.288778991 0.719195664 0.046655376
0.361815989 0.718938231 0.046474814
0.432665437 0.718614697 0.046655376
0.502503633 0.718306661 0.046606813
0.572924137 0.717474580 0.047183376
0.640927255 0.717459381 0.047183376
0.710425198 0.716583133 0.047183376
0.778713644 0.715579033 0.047837749
0.842485785 0.715103865 0.047837749
0.018137001 0.784825802 0.046523374
0.042925749 0.781845272 0.046523374
0.067690626 0.779882193 0.046523374
0.093554199 0.777723789 0.046611376
0.119282633 0.775990963 0.046611376
0.145648807 0.774049759 0.047183376
0.171459243 0.773087263 0.047183376
0.216952801 0.772860765 0.047183376
0.293976963 0.772742987 0.047183376
0.365166038 0.772985280 0.047270630
0.435632735 0.772973239 0.047837749
0.505395949 0.772556126 0.047837749
0.574420989 0.772558272 0.047837749
0.642940402 0.772457063 0.047971942
0.712095261 0.771752059 0.048533376
0.778820336 0.771343291 0.048533376
0.843643129 0.770911515 0.048485562
0.017348999 0.833405793 0.047885563
0.043571122 0.831108809 0.047885563
0.069743440 0.829408348 0.047274813
0.097118437 0.827494919 0.047274813
0.123667628 0.826363623 0.047227003
0.151290745 0.825076520 0.047663253
0.178687006 0.825508237 0.047837749
0.223871097 0.825741112 0.047837749
0.297529429 0.826030493 0.047837749
0.369564772 0.826064765 0.047880936
0.439181954 0.826362312 0.048144691
0.507690132 0.826604009 0.048533376
0.576529562 0.826675355 0.048533376
0.644787669 0.826739609 0.048533376
0.713058829 0.826571405 0.048576131
0.779908478 0.826221824 0.049174625
0.844159663 0.825995266 0.049174625
0.016559999 0.882485092 0.048533376
0.044307623 0.880177975 0.048533376
0.072235376 0.878514171 0.048533376
0.100466944 0.877331436 0.048533376
0.129149362 0.876822829 0.048533376
0.157606825 0.877427042 0.048533376
0.186466381 0.877725840 0.048533376
0.230164468 0.878309190 0.048533376
0.301144898 0.878886580 0.048533376
0.372607172 0.879298091 0.049174625
0.442035228 0.879564524 0.049174625
0.510455370 0.880009234 0.049174625
0.578048468 0.880588651 0.049221940
0.647047043 0.880412281 0.049858499
0.713621140 0.880993903 0.049773622
0.780717611 0.880773604 0.049217068
0.844631195 0.880872846 0.049811184
0.040994000 0.040994000 0.262067378
0.042421374 0.040994000 0.241363257
0.087660499 0.040217001 0.227004498
0.169908881 0.040069252 0.215749323
0.248639762 0.040994000 0.209546134
0.320781678 0.041233063 0.200358257
0.381420910 0.038935877 0.186157003
0.434300959 0.036619186 0.171127051
0.482902884 0.033514500 0.156738862
0.528608382 0.030409250 0.143426120
0.574485660 0.028093124 0.131749630
0.621637821 0.026565438 0.121332318
0.672744870 0.025233999 0.112336375
0.727983057 0.024445999 0.104929432
0.785012245 0.023657000 0.097470745
0.841659904 0.022869000 0.090484992
0.896390378 0.022869000 0.084186502
0.040945437 0.104402818 0.215048000
0.043911938 0.083459809 0.195383936
0.045772441 0.069809690 0.182923198
0.119057134 0.055916745 0.172409132
0.196566358 0.047306813 0.162200436
0.276068628 0.049777936 0.157752439
0.347171724 0.048933312 0.149352059
0.407142341 0.046975560 0.137196437
0.460014075 0.044868998 0.124880560
0.509055078 0.042419065 0.112837136
0.556850314 0.040797625 0.101690620
0.604652226 0.039478064 0.091968313
0.655729651 0.038640127 0.082975686
0.711675942 0.038442876 0.075792491
0.770370066 0.038442872 0.068842620
0.828017294 0.039083939 0.063738436
0.884127915 0.039182562 0.062252373
0.041853625 0.184764132 0.192098007
0.047418687 0.168231249 0.175176501
0.053238124 0.155632019 0.162898138
0.087711327 0.143685251 0.151258320
0.173331499 0.133810014 0.142628998
0.250531405 0.124440320 0.134088010
0.321693659 0.113456503 0.124643125
0.384157985 0.102013879 0.113578312
0.441645533 0.089819752 0.102694504
0.494396716 0.078524187 0.091994688
0.544596136 0.067649253 0.082214631
0.594503641 0.057637312 0.072545692
0.646002412 0.052894127 0.065777123
0.701392770 0.053424124 0.062472500
0.759917140 0.054275874 0.060657248
0.819627106 0.055549003 0.059199497
0.876298249 0.056802500 0.058845252
0.037260186 0.242549568 0.157743797
0.045507435 0.231636003 0.144663125
0.054732122 0.223729208 0.135860994
0.070304878 0.215688750 0.127472624
0.144504189 0.206680387 0.118261874
0.221778169 0.196977764 0.109022878
0.291535467 0.186536327 0.099338867
0.356263638 0.175394520 0.089704730
0.416534185 0.163900018 0.079919621
0.472074062 0.152853027 0.072374187
0.525970280 0.141831324 0.067241311
0.579148471 0.131776690 0.063451558
0.633395076 0.122342318 0.060668312
0.690578222 0.113512509 0.058263935
0.750670731 0.105773382 0.057333000
0.810880125 0.097576134 0.056376632
0.868408442 0.091329075 0.057003878
0.031740252 0.289423734 0.127949625
0.041804560 0.280927747 0.115457252
0.052178998 0.275018990 0.107343629
0.062513873 0.269510120 0.099443436
0.114044003 0.263154894 0.091468006
0.191162199 0.255104393 0.083131813
0.261439770 0.246439129 0.076287255
0.327675760 0.236913577 0.070641309
0.389108777 0.227186397 0.067055874
0.448475391 0.217227325 0.064022809
0.505875885 0.207244381 0.061059751
0.562048674 0.197980568 0.058625627
0.619723916 0.189420015 0.056724504
0.679541886 0.181625888 0.056225747
0.741636038 0.174403638 0.056423254
0.802462339 0.167642638 0.057963252
