public/lut/73.cube
TITLE "17x17x17 Adobe/IRIDAS cube 3D LUT exported with GrossGrade v0.2.2 (beta) 64 bit"
DOMAIN_MIN 0 0 0
DOMAIN_MAX 1 1 1
LUT_3D_SIZE 5
0.041758999 0.041758999 0.041758999
0.293082505 0.042326748 0.042326748
0.509064496 0.032331999 0.032331999
0.698362529 0.025234001 0.025234001
0.920091987 0.022869000 0.022869000
0.030163001 0.312651992 0.031740252
0.147968993 0.284359753 0.033317249
0.408860505 0.248159751 0.028980250
0.641194761 0.212494746 0.024643000
0.882290721 0.183847502 0.022080000
0.022869000 0.503995001 0.026023000
0.087056503 0.483770251 0.025628500
0.341785014 0.465970993 0.024445999
0.595261812 0.446223259 0.022869000
0.848405004 0.424667001 0.021291999
0.019713998 0.697694302 0.023656998
0.108863756 0.685447752 0.023065999
0.301660508 0.674072564 0.022080000
0.575570226 0.667793751 0.021291997
0.847112000 0.662744284 0.020305749
0.016559999 0.889901996 0.020502999
0.128157750 0.883532286 0.020502999
0.305084020 0.883643508 0.019714000
0.580960512 0.884756207 0.018926000
0.846669018 0.884275019 0.018137001
0.042516001 0.042516001 0.417329490
0.222961247 0.041758999 0.369849741
0.461157501 0.033119999 0.309771001
0.656094790 0.025233999 0.257628262
0.881252468 0.022869000 0.230434254
0.032529000 0.272206992 0.282745004
0.091183744 0.246410266 0.260908246
0.374290049 0.212395996 0.231410757
0.607004046 0.174669489 0.199266255
0.847085953 0.147366509 0.179609984
0.023263000 0.469289273 0.209999010
0.090217754 0.450877488 0.189146489
0.301702023 0.435384780 0.175313249
0.560633540 0.417719781 0.162746012
0.828505278 0.407291532 0.151571751
0.019517001 0.671240568 0.175645992
0.109405003 0.660448313 0.159484491
0.275987506 0.653953791 0.149205014
0.562229991 0.653472245 0.142438516
0.834912539 0.651451766 0.137076750
0.016757250 0.869480014 0.154446006
0.129008248 0.868195236 0.144118756
0.295794249 0.871365309 0.140448511
0.574677467 0.874240041 0.139979005
0.842031002 0.875480771 0.144620255
0.040217001 0.040217001 0.656907976
0.173838511 0.038443252 0.617402494
0.418256521 0.031148501 0.553236485
0.627035022 0.024445999 0.499215007
0.856159508 0.022080000 0.473268032
0.030951250 0.239055991 0.532761216
0.078106001 0.212805748 0.526116252
0.342355490 0.183976740 0.501290321
0.582548261 0.150431007 0.460177541
0.824484468 0.124384001 0.437144995
0.023263000 0.447845519 0.456749976
0.091927752 0.430588752 0.444002748
0.275382996 0.416425020 0.435168505
0.541463554 0.401917249 0.425006747
0.818319499 0.398201525 0.415080011
0.019713998 0.654826522 0.424235523
0.111027002 0.644784510 0.414686739
0.268311024 0.643990755 0.409965515
0.556121230 0.645180821 0.405750275
0.829707265 0.644738495 0.400681019
0.017348999 0.857344508 0.403001517
0.129933760 0.859322786 0.398043036
0.291679502 0.864164531 0.396108985
0.571586728 0.868421733 0.394606292
0.838104963 0.871799946 0.392605513
0.034499999 0.034499999 0.808000803
0.132690996 0.033119999 0.785905063
0.381915510 0.028388999 0.739969015
0.603823781 0.024445999 0.699689269
0.836824775 0.022080000 0.679382265
0.028586000 0.211172998 0.725362539
0.079686001 0.184206247 0.725625753
0.312484264 0.159428269 0.710389256
0.559685528 0.131141499 0.674982548
0.806398809 0.106643006 0.655200779
0.022080000 0.431906760 0.664850295
0.094131000 0.415170252 0.658474684
0.256232500 0.401742011 0.654269814
0.534316540 0.393326491 0.647677541
0.811386049 0.391496271 0.639177501
0.019122999 0.642791986 0.637975991
0.112618007 0.634047985 0.633167565
0.263537765 0.636859775 0.632310987
0.552924514 0.639154315 0.630461574
0.826584697 0.639756560 0.627295256
0.016559999 0.848888755 0.620256543
0.131381497 0.853320479 0.619289756
0.290610790 0.858896255 0.619903028
0.569119990 0.864587784 0.620453477
0.836222053 0.868688524 0.620115280
0.029966000 0.029966000 0.926949024
0.105332002 0.029177001 0.916239023
0.357366025 0.026417499 0.890277028
0.588019550 0.023657000 0.868857980
0.823212028 0.022080000 0.855368972
0.026812000 0.191322505 0.878406286
0.080874003 0.164295763 0.881837249
0.290797532 0.141952991 0.876070738
0.542611301 0.117201254 0.854221761
0.793542743 0.104269750 0.841913223
0.022080000 0.420079023 0.842072964
0.096682996 0.403891027 0.840775728
0.242484510 0.391502500 0.841012001
0.529859781 0.387784481 0.838790774
0.807067037 0.387192011 0.833719969
0.018925998 0.634256005 0.824588776
0.114890255 0.627644718 0.824632227
0.262914270 0.631329775 0.827110529
0.551383734 0.634684741 0.828702688
0.823255479 0.637099504 0.828075051
0.016559999 0.843620002 0.814760983
0.133414999 0.849113762 0.817112744
0.289866507 0.855780959 0.820623040
0.569065809 0.861891031 0.824018240
0.835507989 0.866519988 0.826222003
