public/lut/74.cube
TITLE "17x17x17 Adobe/IRIDAS cube 3D LUT exported with GrossGrade v0.2.2 (beta) 64 bit"
DOMAIN_MIN 0 0 0
DOMAIN_MAX 1 1 1
LUT_3D_SIZE 5
0.056820001 0.056820001 0.056820001
0.176095754 0.053812001 0.053812001
0.343127012 0.053973000 0.053973000
0.496079504 0.046714246 0.046714246
0.646219015 0.037852000 0.037852000
0.052673001 0.224377006 0.052673001
0.143191501 0.216943756 0.051515497
0.319074273 0.212179005 0.046712503
0.488742024 0.206820995 0.039626002
0.664137244 0.205293506 0.033317249
0.037457500 0.370036513 0.037457500
0.140208498 0.379621267 0.035879999
0.321210027 0.390217006 0.033514500
0.510053277 0.403897285 0.031937502
0.710510015 0.417778492 0.029571502
0.030556999 0.547567487 0.030556999
0.160428256 0.569983959 0.029966000
0.351681232 0.590809286 0.029374251
0.547700286 0.606816053 0.046514504
0.743686497 0.616159558 0.065502755
0.026812000 0.740360022 0.026812000
0.179507762 0.767985225 0.032134749
0.378890991 0.781792521 0.053648502
0.571743011 0.791866720 0.070795752
0.763821006 0.798446000 0.084261000
0.055567998 0.055567998 0.260698497
0.166286260 0.053164251 0.237249255
0.346593767 0.053326502 0.236921996
0.507271528 0.045281749 0.222877264
0.666585982 0.036274001 0.212395996
0.050173249 0.233669490 0.233174995
0.161414266 0.237769246 0.240573496
0.341381252 0.238045007 0.243256763
0.518700540 0.239061505 0.246434510
0.714702487 0.247304514 0.257214993
0.035091501 0.396160781 0.225281253
0.172259003 0.418570012 0.247346997
0.365409762 0.439186007 0.266749740
0.564917743 0.459152520 0.285236269
0.767260492 0.471249253 0.299329251
0.029966000 0.591063559 0.247142509
0.198916495 0.623950541 0.274957508
0.399797022 0.646779239 0.295533776
0.595356524 0.655583262 0.309041739
0.786458731 0.659895241 0.317652494
0.026023000 0.788783252 0.264156252
0.219205007 0.816015482 0.289825737
0.417226762 0.825202227 0.304210246
0.608346224 0.830573559 0.314206749
0.798192501 0.832267761 0.320151746
0.056196000 0.056196000 0.428051531
0.170282260 0.055250999 0.422502756
0.349251032 0.051353000 0.420397013
0.513564825 0.042326748 0.406603992
0.682826042 0.034697000 0.399305016
0.047242500 0.241104499 0.411440253
0.172353998 0.250684023 0.426220745
0.356065810 0.256327748 0.434067518
0.546055794 0.266046762 0.448800504
0.753333211 0.279716015 0.468924522
0.034303002 0.420771509 0.417030990
0.196434259 0.451159000 0.451309294
0.397440493 0.476255029 0.479640543
0.603433788 0.498162985 0.504396021
0.800155997 0.504469514 0.510686994
0.029768750 0.624302268 0.452124000
0.227176502 0.664090276 0.490997493
0.430190504 0.680510044 0.507951260
0.622959733 0.686361253 0.515592456
0.813159466 0.686549783 0.518724501
0.026023000 0.826152503 0.476341009
0.243912995 0.846108437 0.498503238
0.441186011 0.852359474 0.508149981
0.630702794 0.854840517 0.513705254
0.817532003 0.854411483 0.515868485
0.056196000 0.056196000 0.575195014
0.171216756 0.053649750 0.576339781
0.349818528 0.047945000 0.572968721
0.518944025 0.040020000 0.563974500
0.698987246 0.033711750 0.566790998
0.042888250 0.247288257 0.559538484
0.181516513 0.261680752 0.581739545
0.371475011 0.274111509 0.602230787
0.572481036 0.290641546 0.631733000
0.785356998 0.306596994 0.660001040
0.033119999 0.442739785 0.589398265
0.216430500 0.478688478 0.634611011
0.423588037 0.507687032 0.671962500
0.628972709 0.525082946 0.692766547
0.823211432 0.528714776 0.694308996
0.028980000 0.652684510 0.638833523
0.248522744 0.696285486 0.685645700
0.450496793 0.705395043 0.693376958
0.642822564 0.708244562 0.697000563
0.830933213 0.706173778 0.697033286
0.027797250 0.856085241 0.671222568
0.261209756 0.868421674 0.684428275
0.457702756 0.872354209 0.690232456
0.645772994 0.872892499 0.692824543
0.831369996 0.870447516 0.692933559
0.052347001 0.052347001 0.687958002
0.170053259 0.050347999 0.697364509
0.350122511 0.044371501 0.699084520
0.524193764 0.037062999 0.699213266
0.715388000 0.033909000 0.716511011
0.039626002 0.252809733 0.685089767
0.189473987 0.272329986 0.717400253
0.387156010 0.291029245 0.753340244
0.592500031 0.310087770 0.792032003
0.810267270 0.327294230 0.828198254
0.032725997 0.460590005 0.741608977
0.231882006 0.500294805 0.795559525
0.443457007 0.531377554 0.840528965
0.645840049 0.544011950 0.854048252
0.839120507 0.545346975 0.853618503
0.028388999 0.675136268 0.805372000
0.264514774 0.714843512 0.850244522
0.465503007 0.722107470 0.855393767
0.656460285 0.723239779 0.856785297
0.843091249 0.719923019 0.855327725
0.039429002 0.875120997 0.842779994
0.273278505 0.883990765 0.850144744
0.468881518 0.886638522 0.853585005
0.656379998 0.885757029 0.855104983
0.842073023 0.881681025 0.854939997
