public/lut/74.cube
TITLE "17x17x17 Adobe/IRIDAS cube 3D LUT exported with GrossGrade v0.2.2 (beta) 64 bit"
DOMAIN_MIN 0 0 0
DOMAIN_MAX 1 1 1
LUT_3D_SIZE 17
0.056820001 0.056820001 0.056820001
0.057400312 0.055012874 0.055012874
0.097075127 0.054933999 0.054933999
0.136570334 0.054295000 0.054295000
0.176095754 0.053812001 0.053812001
0.215724126 0.053002000 0.053002000
0.258538783 0.053651001 0.053651001
0.301228166 0.054295000 0.054295000
0.343127012 0.053973000 0.053973000
0.383174121 0.052715439 0.052715439
0.420864105 0.051020000 0.051020000
0.458533019 0.048769064 0.048769064
0.496079504 0.046714246 0.046714246
0.533562958 0.044600558 0.044600558
0.571206927 0.042421371 0.042421371
0.608678818 0.040167749 0.040167749
0.646219015 0.037852000 0.037852000
0.054973625 0.101675376 0.054973625
0.058014628 0.088684753 0.054334939
0.069067188 0.081450440 0.054254748
0.110655755 0.075632945 0.053651001
0.151533678 0.070308439 0.052510750
0.193808883 0.066462748 0.052347001
0.237693995 0.064292997 0.052756377
0.283510089 0.062724940 0.053407624
0.328332990 0.062508941 0.053326502
0.372125626 0.062508941 0.052715439
0.412980855 0.061708752 0.051020000
0.453314006 0.059971750 0.049455252
0.492965758 0.058236815 0.046714250
0.532664895 0.056540437 0.044600558
0.572265327 0.054689374 0.042421371
0.611062706 0.052750938 0.040167749
0.649880290 0.051430374 0.037852000
0.055488750 0.142761752 0.055488750
0.059640810 0.131335750 0.054813877
0.063237630 0.125280261 0.053651001
0.101401821 0.121327192 0.052960686
0.146520883 0.119521126 0.053488750
0.191589952 0.117978565 0.053448189
0.236847624 0.116693377 0.053569876
0.281634539 0.115855686 0.053651001
0.325692534 0.114323504 0.052674502
0.368325233 0.112663187 0.051103249
0.409856379 0.110395245 0.049497373
0.450829864 0.108126752 0.047463249
0.491579980 0.105952248 0.045281749
0.532339334 0.103858374 0.043123748
0.572879672 0.102301620 0.040896870
0.613495171 0.100874506 0.038590748
0.653445125 0.100059748 0.036372624
0.055685747 0.185432136 0.055685747
0.061495937 0.178364128 0.055488750
0.067577243 0.174805269 0.054933999
0.099016637 0.172568336 0.054814186
0.145518258 0.170514449 0.054295000
0.191214994 0.169346392 0.053651001
0.235835686 0.168089122 0.052714311
0.279760659 0.166546643 0.051435310
0.322863311 0.164944649 0.050134502
0.364852548 0.163138509 0.048810940
0.406755239 0.161296204 0.046757378
0.448334068 0.159388959 0.044873938
0.489919931 0.157660142 0.043215938
0.531564415 0.155958384 0.040848307
0.573620617 0.154515952 0.038689435
0.616043925 0.153427631 0.036421936
0.657699943 0.153166950 0.034844939
0.052673001 0.224377006 0.052673001
0.060944188 0.221054435 0.053164251
0.067782745 0.219150633 0.052673001
0.095681578 0.218170062 0.052510750
0.143191501 0.216943756 0.051515497
0.188485876 0.215707943 0.050682500
0.232752010 0.214645863 0.049579252
0.276664525 0.213448822 0.048074123
0.319074273 0.212179005 0.046712503
0.361644506 0.210741192 0.045098748
0.404046863 0.209496006 0.043168753
0.446062833 0.208219245 0.041709185
0.488742024 0.206820995 0.039626002
0.531799018 0.205978885 0.037901059
0.575890362 0.205013007 0.036471248
0.620198727 0.204912513 0.034894250
0.664137244 0.205293506 0.033317249
0.048509937 0.260782063 0.048509937
0.057936940 0.259249747 0.048509937
0.066650070 0.259202600 0.048509937
0.092945136 0.259117693 0.048030064
0.140047118 0.258640707 0.047286499
0.185375810 0.258308858 0.046623189
0.229794681 0.258010507 0.045234248
0.273307085 0.257271707 0.044234060
0.316511512 0.256671757 0.042749751
0.359273314 0.256124318 0.041233063
0.401801407 0.255555481 0.039675251
0.445582509 0.254917979 0.038393751
0.489227682 0.254784614 0.037309561
0.533981681 0.254751801 0.035732251
0.580470324 0.255063236 0.034155250
0.626800656 0.256047010 0.033119999
0.673600614 0.257653177 0.032331999
0.044279873 0.296165764 0.044279873
0.054970436 0.296381027 0.044279873
0.065012373 0.297220409 0.044279873
0.091537885 0.297879905 0.043541875
0.138613001 0.298320621 0.042323373
0.183329746 0.298877507 0.041564751
0.227955267 0.299277157 0.040795252
0.271883070 0.299621522 0.040015873
0.315204024 0.299888760 0.038935874
0.358661264 0.300349534 0.037802313
0.402638137 0.300790399 0.036569875
0.447304696 0.301407397 0.035781503
0.492819279 0.302511662 0.034499999
0.539765060 0.304057777 0.033415876
0.588356972 0.305985928 0.032627497
0.637515724 0.308559835 0.032331999
0.686050713 0.310932517 0.031543002
0.040556937 0.332098275 0.040556937
0.052053437 0.333621204 0.040113688
0.063664250 0.335167825 0.039773751
0.091772452 0.336701572 0.039773751
0.138159007 0.337937713 0.038985189
0.183856681 0.339395046 0.038196750
0.228235394 0.340842456 0.037408188
0.272562712 0.342047334 0.036175936
0.317197382 0.343609661 0.035830751
0.361052185 0.345484823 0.035042189
0.406689167 0.347062469 0.034253750
0.452811062 0.349437505 0.033465188
0.500231385 0.352273583 0.032676749
0.549287379 0.355314225 0.032331999
0.599362552 0.358417302 0.031888187
0.649637043 0.361446232 0.030754000
0.698083341 0.364314646 0.030754000
0.037457500 0.370036513 0.037457500
0.049792498 0.372573286 0.036668502
0.062513255 0.374878496 0.036668502
0.093596384 0.377287984 0.036668502
0.140208498 0.379621267 0.035879999
0.186008126 0.381845206 0.035091501
0.231148258 0.384407759 0.034303002
0.275823474 0.387341440 0.033909000
0.321210027 0.390217006 0.033514500
0.367013365 0.393329024 0.032775249
0.413646758 0.396852255 0.032331999
0.460975826 0.400490820 0.032331999
0.510053277 0.403897285 0.031937502
0.559810460 0.407656670 0.031148499
0.610378683 0.411194623 0.030754000
0.661465049 0.414519072 0.030359998
0.710510015 0.417778492 0.029571502
0.034352250 0.410516560 0.034352250
0.048764877 0.414087802 0.033958249
0.062765256 0.417402565 0.033909000
0.096959136 0.420815051 0.033563811
0.143917382 0.424243510 0.033563811
0.190692618 0.427950978 0.033119999
0.236410320 0.431765884 0.032775249
0.282570899 0.435796380 0.032331999
0.328647316 0.439654946 0.032331999
0.375428438 0.443592846 0.031986814
0.422612846 0.447832763 0.031247126
0.470921248 0.451677799 0.030754000
0.520301402 0.455699950 0.030556999
0.570528328 0.459889442 0.029966002
0.621561348 0.463767499 0.030852627
0.672121048 0.467206120 0.032183569
0.720515609 0.470091760 0.037654314
0.032824498 0.454548001 0.032824498
0.048719563 0.459500551 0.032824498
0.064509749 0.463835508 0.032430500
0.101236761 0.468107373 0.032331999
0.149605244 0.472223252 0.032331999
0.196240067 0.476733863 0.032036126
0.243162885 0.481000751 0.031838875
0.289708614 0.485647440 0.031247126
0.336592019 0.489758879 0.030754000
0.383986622 0.494370729 0.030754000
0.431642503 0.498844743 0.030458501
0.480212569 0.503345907 0.029719438
0.530179262 0.507766366 0.029669877
0.580774307 0.511486351 0.033366818
0.631292045 0.515038788 0.037652761
0.681118548 0.517998576 0.043710444
0.729577899 0.520342529 0.049064249
0.032085437 0.500687778 0.032085437
0.048719563 0.506729245 0.031543002
0.067010559 0.511437476 0.031296439
0.106502578 0.516204417 0.031296439
0.154822692 0.521044254 0.030754000
0.202380702 0.525788188 0.030754000
0.249867454 0.530634761 0.030754000
0.297025084 0.535574019 0.030507751
0.344224870 0.540332317 0.029719438
0.391792983 0.545193732 0.029423563
0.440181881 0.550103188 0.028635250
0.489835680 0.554442704 0.032282375
0.539618373 0.558133006 0.037407625
0.589911699 0.561413467 0.042825878
0.639915407 0.564291179 0.048495941
0.689323425 0.566788435 0.053684629
0.736871898 0.569023609 0.058010250
0.030556999 0.547567487 0.030556999
0.048719563 0.554348230 0.030556999
0.068770260 0.559504747 0.030556999
0.111545011 0.564792991 0.029966000
0.160428256 0.569983959 0.029966000
0.208445758 0.575277865 0.029768750
0.256234765 0.580591083 0.029177001
0.303692847 0.585713327 0.029177001
0.351681232 0.590809286 0.029374251
0.399346232 0.596176565 0.030705251
0.448911905 0.600092411 0.035682876
0.498922110 0.603310227 0.041260377
0.547700286 0.606816053 0.046514504
0.597489238 0.609652698 0.051757943
0.647064328 0.612225056 0.056812007
0.696564734 0.614399850 0.061565191
0.743686497 0.616159558 0.065502755
0.029818060 0.595162690 0.029818060
0.049232561 0.602565706 0.029818060
0.070001438 0.608276665 0.029275626
0.116215833 0.613751233 0.029029248
0.165532619 0.619405746 0.029029248
0.213834926 0.625062168 0.028241061
0.262314022 0.630516291 0.028881501
0.310511082 0.635844707 0.029472696
0.358984143 0.640867889 0.033169635
0.407782495 0.644921362 0.038835384
0.457306683 0.647968531 0.044220630
0.506013572 0.651125431 0.049661819
0.555177391 0.654112458 0.054808382
0.604218960 0.656676590 0.059220951
0.653734803 0.659003556 0.063876010
0.702522635 0.660782218 0.068221822
0.749879658 0.662319481 0.071875200
0.028388999 0.643175066 0.028388999
0.049315002 0.651024461 0.028388999
0.071673751 0.657127798 0.028388999
0.120766521 0.663043857 0.028290370
0.170277253 0.669000149 0.028290370
0.219372869 0.674764216 0.028487502
0.267684013 0.680423915 0.030655757
0.317065239 0.685403585 0.035781324
0.366174042 0.688948512 0.041176133
0.415125251 0.692190707 0.046263441
0.464019388 0.695250690 0.051680628
0.512666583 0.697943509 0.056189507
0.561419368 0.700478911 0.061049134
0.610171437 0.702893317 0.065956503
0.659479976 0.704930842 0.069799267
0.707504094 0.706648290 0.073838703
0.754774988 0.708069921 0.077277385
0.027600000 0.691616118 0.027600000
0.049357444 0.699767768 0.027600000
0.075690001 0.706055164 0.027550746
0.125165448 0.712255359 0.027600000
0.174848378 0.718515098 0.028241003
0.224494874 0.724303544 0.032134689
0.274209023 0.728839219 0.037358820
0.324186593 0.732416868 0.042697698
0.373020560 0.735509694 0.047678944
0.421586186 0.738771141 0.052997690
0.469451487 0.741531014 0.057395823
0.518440187 0.744035661 0.062078130
0.566589713 0.746554732 0.066545822
0.615759671 0.748389244 0.070794947
0.664412856 0.750269830 0.074820384
0.712079227 0.752226830 0.078254372
0.759060442 0.753567219 0.081068747
0.026812000 0.740360022 0.026812000
0.049360812 0.748639345 0.026812000
0.079351500 0.755259871 0.026023000
0.129046336 0.761823237 0.028241064
0.179507762 0.767985225 0.032134749
0.230119869 0.772085547 0.038147189
0.280550152 0.775702655 0.043446627
0.329785913 0.779037595 0.048377316
0.378890991 0.781792521 0.053648502
0.426889807 0.784737945 0.057974063
0.474895358 0.787342370 0.062660128
0.523452699 0.789622962 0.066546686
0.571743011 0.791866720 0.070795752
0.620533824 0.793793440 0.074852444
0.668855190 0.795536995 0.078254998
0.716771066 0.797280133 0.081539437
0.763821006 0.798446000 0.084261000
0.056820001 0.056820001 0.126669496
0.056235000 0.055607248 0.110160306
0.088317752 0.055013247 0.101294495
0.130078003 0.053771749 0.093647122
0.170918509 0.053164251 0.087716252
0.211521626 0.053002000 0.082454249
0.255756885 0.053691253 0.079445750
0.300589025 0.054295000 0.076584756
0.343607396 0.053651001 0.073854186
0.384492129 0.052387938 0.070129938
0.423917562 0.051020000 0.067467369
0.461956114 0.048337188 0.064840816
0.500493705 0.046001501 0.062629819
0.538580298 0.043866057 0.060400683
0.577063918 0.041663371 0.058633935
0.615527093 0.039478250 0.056871936
0.653415680 0.037852000 0.055025749
0.054933999 0.095730625 0.095293246
0.058014628 0.085092805 0.085123502
0.068131812 0.079936743 0.080002807
0.108630314 0.074759625 0.075263053
0.152133062 0.071266003 0.071716562
0.195617691 0.068671875 0.069464505
0.241499946 0.067861125 0.069089569
0.288435519 0.067045316 0.068956316
0.334427506 0.066325501 0.069294192
0.378243327 0.064964063 0.068521939
0.419981867 0.063331746 0.067162499
0.460990697 0.061628312 0.065363623
0.500836074 0.059479438 0.063699625
0.541218221 0.058111809 0.061568186
0.581135988 0.056995813 0.060344312
0.620798767 0.055745311 0.059709311
0.660086811 0.055113375 0.059703372
0.055488750 0.139439628 0.084133744
0.059640814 0.131496876 0.076995879
0.063737251 0.126966119 0.072618246
0.103808075 0.124930128 0.070916750
0.150076494 0.124094754 0.069752999
0.197043076 0.123832196 0.069648191
0.243498012 0.123750255 0.069719873
0.289128453 0.123270310 0.069752999
0.333322763 0.122195557 0.069256127
0.375891119 0.120643124 0.067940623
0.417689681 0.119020686 0.067394495
0.458866835 0.117164753 0.066497497
0.500193655 0.115412816 0.066079810
0.541341424 0.113743447 0.065832503
0.582373142 0.112684004 0.065763257
0.624152720 0.111380249 0.065341815
0.664891124 0.111019753 0.066272311
0.055567998 0.186269701 0.078057691
0.061569314 0.181851253 0.074021868
0.067098059 0.179824457 0.072445937
0.104162075 0.178455070 0.071339250
0.151857629 0.177756950 0.070846692
0.198377877 0.177146018 0.070776373
0.243539497 0.176337764 0.070776373
0.287933677 0.175280198 0.070285127
0.331176162 0.173975512 0.070219249
0.373779863 0.172645941 0.070606939
0.415492743 0.171088442 0.070568562
0.457449317 0.169485018 0.070142813
0.499471247 0.167923257 0.070568562
0.541662753 0.166895822 0.070991062
0.584822774 0.165982887 0.071542189
0.628625691 0.165340334 0.072409563
0.671536028 0.165515706 0.073780060
0.052177250 0.227461696 0.072128370
0.060462371 0.225864887 0.070458755
0.067201748 0.225581810 0.070421189
0.102090076 0.225111946 0.070383377
0.150217444 0.224827185 0.070383377
0.196050003 0.224344179 0.070814192
0.241091430 0.223607689 0.071625441
0.285142779 0.222751632 0.072076999
0.328203321 0.221911773 0.072595119
0.370982647 0.220933437 0.073390812
0.413482726 0.219956368 0.073870622
0.456196189 0.219155818 0.074903749
0.499615192 0.218267366 0.075623684
0.543513596 0.217873126 0.076788753
0.589189589 0.217811063 0.078157559
0.634984791 0.218442440 0.079543933
0.681215942 0.219686821 0.081293821
0.048030064 0.265439332 0.066921934
0.057050005 0.265490532 0.067297995
0.065540627 0.266292274 0.068277374
0.100482449 0.266867757 0.069752999
0.147821248 0.267068684 0.070645377
0.194008186 0.267305493 0.071657814
0.238915443 0.267241985 0.073015064
0.282746136 0.267255157 0.073996499
0.325838029 0.267199993 0.075438373
0.369595051 0.267029881 0.076649815
0.412600487 0.267046750 0.078171507
0.456815124 0.267269433 0.079698436
0.501822948 0.267685652 0.081330806
0.548470855 0.268498182 0.083301246
0.596639812 0.270230353 0.085263938
0.645249963 0.272408754 0.087776557
0.694061279 0.274465024 0.090336561
0.043074377 0.302213073 0.064370379
0.053770747 0.303633839 0.066188686
0.063380376 0.305311441 0.068064876
0.099666134 0.306766599 0.069549002
0.146884382 0.307725400 0.071490124
0.192911491 0.308743089 0.073453873
0.237631753 0.309810400 0.075219750
0.282093704 0.310763687 0.077378377
0.326289445 0.311724871 0.079193242
0.370433241 0.312748462 0.080974251
0.415209025 0.314082146 0.083220944
0.460909665 0.315808475 0.085276812
0.508512676 0.317917526 0.087701440
0.557673514 0.320707679 0.090635821
0.607725382 0.323888958 0.093358874
0.658024549 0.326734781 0.096171312
0.707414448 0.329347730 0.098912194
0.039034437 0.339542210 0.063760124
0.051142562 0.342210621 0.066285998
0.062369313 0.344470114 0.068906695
0.101190768 0.346639425 0.071386687
0.148030952 0.348805428 0.073699996
0.194221258 0.350789547 0.076452501
0.239547446 0.353031963 0.079035811
0.284723967 0.355356455 0.081243753
0.329929829 0.357688606 0.083991811
0.375268549 0.360439599 0.086428881
0.422034383 0.363630801 0.089422375
0.469738752 0.367100656 0.092308760
0.518967152 0.370465457 0.095406063
0.569059312 0.374201894 0.098536566
0.619802415 0.377721608 0.101608634
0.671139657 0.380980283 0.104571074
0.721162915 0.384095103 0.106976941
0.035879999 0.378819019 0.064610317
0.049451001 0.382602215 0.068593502
0.063726373 0.385880142 0.071638688
0.104060389 0.389126182 0.074547440
0.151235700 0.392497510 0.077495813
0.198132694 0.395785391 0.080497749
0.244573012 0.399393618 0.083560564
0.290548652 0.403336674 0.086647749
0.336888582 0.407317877 0.090044066
0.383886009 0.411316961 0.093181759
0.431529880 0.415534258 0.096376315
0.479968518 0.419545114 0.099456131
0.530085802 0.423375189 0.102835946
0.580700874 0.427607208 0.106076874
0.631869495 0.431560814 0.109468259
0.683938563 0.434955031 0.112786263
0.732088506 0.438025385 0.116831765
0.034352250 0.421436101 0.067241810
0.048419375 0.426745892 0.072083689
0.065892808 0.431200147 0.075480565
0.108354822 0.435833693 0.079037875
0.156692386 0.440164387 0.082464747
0.204545751 0.444534361 0.085812189
0.251222640 0.449319065 0.089454561
0.298148602 0.453909695 0.092971310
0.345502734 0.458323807 0.096405879
0.393176377 0.462810814 0.099705629
0.440955848 0.467547596 0.103101321
0.490470618 0.471870542 0.106724121
0.540715039 0.476506561 0.109990627
0.591407299 0.480760425 0.113989949
0.643134296 0.484200180 0.118140638
0.693024695 0.486896306 0.122692123
0.741074443 0.489179969 0.126591444
0.032824498 0.467606694 0.071011499
0.048719563 0.474140823 0.076441690
0.068076253 0.479438096 0.080201380
0.113991015 0.484438360 0.084056802
0.163072377 0.489438683 0.087948687
0.210654438 0.494570613 0.091498002
0.258718193 0.499634415 0.095307499
0.306274831 0.504601419 0.099112123
0.353962332 0.509489775 0.102553189
0.402071506 0.514684737 0.106052369
0.450662583 0.519536257 0.109738812
0.500040948 0.524716496 0.113185309
0.550475538 0.528414726 0.117763624
0.601092279 0.531605184 0.122404568
0.651379764 0.534395337 0.127065003
0.700843811 0.536588848 0.131181180
0.748171449 0.538600147 0.134711564
0.031543002 0.514794946 0.074954189
0.048719563 0.522435009 0.080713198
0.069750190 0.527986109 0.084908381
0.119279325 0.533541858 0.088833757
0.168637455 0.539200485 0.093132004
0.216619626 0.545019090 0.097015627
0.265577972 0.550057411 0.100762561
0.313697219 0.555554807 0.104766309
0.361619204 0.561077952 0.108408377
0.410112262 0.566324055 0.112066939
0.459558070 0.571004510 0.116214745
0.508990288 0.574679017 0.121035807
0.558867037 0.577649415 0.125664130
0.608790696 0.580253601 0.130056441
0.657879591 0.582943201 0.134359062
0.707519293 0.584565699 0.138062686
0.754939020 0.586084366 0.141157940
0.030556999 0.562649369 0.078808002
0.048719563 0.570814192 0.084769748
0.073063187 0.577050269 0.089243621
0.124628946 0.582987487 0.093763754
0.174219713 0.589005709 0.097996444
0.223092139 0.594949007 0.102027059
0.271887422 0.600860476 0.105986439
0.320620567 0.606483042 0.109903559
0.369306147 0.612104654 0.113805749
0.418243825 0.616367102 0.118357003
0.467402339 0.619578242 0.123203628
0.516764700 0.622523665 0.127850294
0.565823793 0.625169873 0.132284060
0.615173638 0.627488256 0.136352435
0.664652407 0.629383504 0.140252754
0.713133812 0.631052732 0.143611744
0.759784102 0.632522345 0.146519437
0.029177001 0.610940814 0.082512751
0.048155505 0.619534731 0.088781126
0.078328066 0.625970244 0.093688011
0.129763499 0.632484555 0.098174825
0.179357320 0.638870358 0.102317758
0.228882760 0.645106316 0.106547505
0.278201520 0.651069880 0.110650077
0.327277511 0.656591713 0.115020692
0.376340449 0.660579324 0.119948626
0.425496876 0.663519502 0.124712318
0.474112481 0.666645348 0.129271060
0.522485733 0.669324160 0.133411378
0.571500719 0.671441019 0.137501687
0.620509565 0.673605502 0.141317815
0.670071244 0.675056815 0.144670323
0.717926025 0.676599503 0.147841558
0.764862001 0.677617669 0.150682449
0.028388999 0.659424722 0.086114444
0.048673749 0.668342769 0.092536941
0.082910821 0.675247908 0.097350687
0.134110957 0.681953669 0.101960197
0.184205502 0.688810229 0.106360197
0.234398693 0.694938838 0.110694453
0.283777326 0.700345755 0.115342133
0.334035099 0.703809857 0.120571882
0.383333027 0.706836879 0.125173926
0.431648999 0.709620416 0.129599631
0.479804695 0.712521195 0.133750811
0.528580070 0.714622021 0.137777433
0.576703727 0.716751635 0.141600668
0.625235856 0.718807161 0.145100489
0.674826026 0.719914496 0.148314059
0.722413659 0.721258998 0.151178136
0.768865228 0.722466409 0.153486997
0.027600000 0.708225667 0.089502379
0.049315002 0.717327356 0.096109621
0.087025180 0.724471331 0.100770310
0.138304770 0.731497169 0.105266199
0.188712388 0.738218784 0.109931514
0.240209877 0.743242264 0.114976563
0.290086389 0.746605039 0.119953759
0.340046287 0.749683678 0.124879003
0.388920516 0.752401471 0.129332617
0.436775178 0.755240738 0.133622125
0.484956264 0.757495463 0.137380004
0.533293962 0.759596944 0.141038239
0.581547320 0.761443853 0.144602761
0.629847407 0.763208032 0.147810370
0.678689122 0.764322519 0.150702640
0.726359606 0.765568972 0.153244257
0.772940814 0.766473949 0.155503929
0.026812000 0.757127464 0.092050686
0.049360815 0.766514897 0.098851323
0.090290822 0.773640275 0.103781313
0.141923711 0.780967355 0.108505741
0.194138885 0.785806835 0.113631621
0.244997501 0.789349675 0.118974186
0.295330822 0.792454422 0.123597935
0.344624132 0.795282364 0.128249690
0.393452197 0.797553122 0.132329375
0.441157311 0.800324202 0.136250883
0.489252239 0.802204132 0.139938369
0.537152648 0.804263532 0.143252134
0.585467339 0.805922449 0.146489888
0.633782148 0.807460785 0.149407685
0.681992829 0.808644772 0.152250126
0.729860485 0.809759974 0.154748619
0.776365340 0.810779691 0.156763807
0.056196000 0.056196000 0.173866376
0.057361625 0.055567998 0.160458878
0.083793506 0.054933999 0.151674122
0.126845703 0.053771749 0.145433053
0.167788997 0.053083126 0.139654502
0.210603327 0.053002000 0.136641562
0.256269634 0.054053500 0.135870874
0.300918400 0.054295000 0.134329066
0.344497889 0.053651001 0.132182747
0.385480851 0.052347001 0.129029006
0.425369740 0.050767999 0.125680253
0.464015871 0.048075877 0.122242376
0.502926648 0.046001501 0.118708126
0.541524887 0.043866057 0.115591191
0.580560923 0.041663371 0.113134623
0.619395733 0.039379686 0.111101188
0.658236742 0.037852000 0.109445624
0.054973625 0.093608305 0.146932811
0.057975940 0.084513374 0.138403118
0.066669933 0.079005748 0.133765563
0.108800381 0.075602129 0.130494252
0.153112933 0.072623312 0.128632069
0.197766736 0.071060188 0.127692625
0.245310143 0.070896998 0.128980055
0.292680383 0.070933498 0.130109489
0.338704526 0.070405379 0.130225122
0.382029980 0.069110058 0.128922880
0.423799604 0.067552254 0.127245247
0.464630067 0.065969564 0.125387058
0.505045891 0.064458691 0.123302750
0.545487404 0.063134439 0.121434182
0.586126983 0.062048189 0.119824193
0.626170218 0.061457999 0.118842252
0.666200697 0.061416373 0.118190624
0.056038249 0.140104383 0.139857620
0.059717000 0.132884324 0.133743003
0.064800128 0.129821762 0.131268889
0.106636383 0.128457382 0.130267501
0.153998002 0.128371254 0.130672619
0.201208696 0.128385365 0.131320119
0.248281658 0.128595740 0.131927878
0.293761849 0.128102615 0.131970003
0.337821782 0.127009004 0.131517127
0.380653292 0.125764191 0.130531743
0.422204643 0.124027997 0.129410386
0.463737458 0.122634001 0.128404185
0.505003154 0.120934747 0.127120376
0.546729207 0.119485624 0.126071498
0.588157952 0.118728116 0.125494376
0.630527556 0.118075743 0.125449881
0.672493398 0.117806002 0.125449881
0.055567998 0.187831387 0.136164874
0.061569314 0.184739754 0.133939371
0.067098185 0.183539078 0.133000508
0.107745260 0.183251768 0.133198828
0.155424625 0.182501376 0.132977575
0.202421442 0.181948319 0.133217260
0.247696713 0.181444645 0.133180439
0.292049199 0.180595890 0.132917628
0.335657269 0.179401755 0.132857442
0.378158629 0.178144947 0.132537186
0.420290053 0.176997453 0.132081762
0.462565809 0.175550818 0.131736562
0.504528999 0.174603090 0.131432563
0.547817707 0.173716068 0.131301180
0.591732681 0.173041135 0.131525949
0.636235535 0.173039883 0.132354990
0.680886090 0.173604071 0.133478940
0.052014999 0.229639873 0.130056888
0.059904374 0.229003623 0.130163252
0.066271245 0.229274511 0.130770996
0.105914071 0.229344070 0.131283119
0.153720766 0.229435503 0.132053763
0.200646877 0.229130998 0.132657751
0.245417148 0.228928760 0.133217260
0.290020466 0.228450879 0.133682996
0.333241642 0.227782890 0.134036630
0.375993729 0.227059871 0.134256378
0.418977261 0.226290867 0.134960249
0.461841851 0.225869507 0.135364875
0.506054699 0.225385636 0.136202753
0.551166713 0.225602001 0.137080252
0.597682059 0.226334259 0.138596505
0.645066440 0.227549687 0.140482619
