public/lut/75.cube
TITLE "17x17x17 Adobe/IRIDAS cube 3D LUT exported with GrossGrade v0.2.2 (beta) 64 bit"
DOMAIN_MIN 0 0 0
DOMAIN_MAX 1 1 1
LUT_3D_SIZE 17
0.029177001 0.029177001 0.029177001
0.058915999 0.029177001 0.029177001
0.077445000 0.028388999 0.028388999
0.098703258 0.028241063 0.028241063
0.142800748 0.027600000 0.027600000
0.189733997 0.027600000 0.027600000
0.236438513 0.026812002 0.026812002
0.288245767 0.027945187 0.027945187
0.338715523 0.028388999 0.028388999
0.386424571 0.027600000 0.027600000
0.429678768 0.026812000 0.026812000
0.471217930 0.025776438 0.025776438
0.511632264 0.024248749 0.024248749
0.551752090 0.022080000 0.022080000
0.591648936 0.020502999 0.020502999
0.630771816 0.019664746 0.019664746
0.670078993 0.018926000 0.018137001
0.028438250 0.068291999 0.028438250
0.058429003 0.065654315 0.028438250
0.078420185 0.064490192 0.027698625
0.098431699 0.064490192 0.027698625
0.138730258 0.064490192 0.027600000
0.186950684 0.064915128 0.026861250
0.237757757 0.066952556 0.027600000
0.290644288 0.070125312 0.028339688
0.340949416 0.072156623 0.028438250
0.386842728 0.072861932 0.027600000
0.430264056 0.072861932 0.026516125
0.472288609 0.072787687 0.024938500
0.512945890 0.072750121 0.026664125
0.553961098 0.072251879 0.028339567
0.594710946 0.072621807 0.031395189
0.634928286 0.073035374 0.032972191
0.675530672 0.073548749 0.034499876
0.028388999 0.127660245 0.028388999
0.060003623 0.127010763 0.028290374
0.080691874 0.127572626 0.028290374
0.101762578 0.128688365 0.028290374
0.144612625 0.131251499 0.028290374
0.197011113 0.134489253 0.028388999
0.247727394 0.136512503 0.028881500
0.295748949 0.137814626 0.027945187
0.341592908 0.137958005 0.028684376
0.385245383 0.137524635 0.031839125
0.427868366 0.136982128 0.034499999
0.469662756 0.136469498 0.036668748
0.511080682 0.135737628 0.039034627
0.552938223 0.135220379 0.040699750
0.594856560 0.135220379 0.042883128
0.637295067 0.135769635 0.044410937
0.680129766 0.136650130 0.045909002
0.029177001 0.189850569 0.029177001
0.062470566 0.190897956 0.029226312
0.084838748 0.192308828 0.029324938
0.107283510 0.194073632 0.028536750
0.150907502 0.195087016 0.028389001
0.200412810 0.195688009 0.030359816
0.247860894 0.196052253 0.034303065
0.293943346 0.195969269 0.037260439
0.338349015 0.195468262 0.040404879
0.381301880 0.194964081 0.042692687
0.423779756 0.194242761 0.044593252
0.466017514 0.193588018 0.046350688
0.508625090 0.193302631 0.048070565
0.552045703 0.193299636 0.050088882
0.596331656 0.193855822 0.052585509
0.641545534 0.194839567 0.055126131
0.686750174 0.196689323 0.057468191
0.027008999 0.240025759 0.027008999
0.059742436 0.241642132 0.026220251
0.081528373 0.243191242 0.028191749
0.105447128 0.244970635 0.031395499
0.150431260 0.245925754 0.036077250
0.198747247 0.246496007 0.040159941
0.245166242 0.246837139 0.043350875
0.290387034 0.246632069 0.045502380
0.334085256 0.246699005 0.048289001
0.377571434 0.246694505 0.050338499
0.420651853 0.246596634 0.052749880
0.464181125 0.246856004 0.055122752
0.508781731 0.247533754 0.057124749
0.554278374 0.248808697 0.059972253
0.601699829 0.250718147 0.062723875
0.649981856 0.253161043 0.065531626
0.697234273 0.255726993 0.068653002
0.023903562 0.282776624 0.024445999
0.054962873 0.285313725 0.030162625
0.077264816 0.287297517 0.035436314
0.102248266 0.289336741 0.039576441
0.150166258 0.290652722 0.043350436
0.197386310 0.292045027 0.046218872
0.243270814 0.293041617 0.049663689
0.288184166 0.293781936 0.052665815
0.332597703 0.294791102 0.055164065
0.376898646 0.295883000 0.057739124
0.420905858 0.297368526 0.060527999
0.466748059 0.299078733 0.063408621
0.513304651 0.301633745 0.066571750
0.561942816 0.304689378 0.069892257
0.611681998 0.307771146 0.072966821
0.660399377 0.310927004 0.076407254
0.708356738 0.313863307 0.079152189
0.020798875 0.323340386 0.029867128
0.051548503 0.326685935 0.037161689
0.074207373 0.329451770 0.041276500
0.102244765 0.332125247 0.045946810
0.151618138 0.334257126 0.049403250
0.198542997 0.336545825 0.052747317
0.244545504 0.338774502 0.056260005
0.290006816 0.341097891 0.059522629
0.335282505 0.343628377 0.062795252
0.380737573 0.346579820 0.066158071
0.427216113 0.349771410 0.069592759
0.474764466 0.353333831 0.072837189
0.522798240 0.357087910 0.076158755
0.572012067 0.360718042 0.079812445
0.621747673 0.364228547 0.083098881
0.671282411 0.367737383 0.086427130
0.719836116 0.370930135 0.089048378
0.018482188 0.365016222 0.036373064
0.048883937 0.369681478 0.042974565
0.072025754 0.373231471 0.047502004
0.107064195 0.376795888 0.052175377
0.155582696 0.380355030 0.056302190
0.202735186 0.384054840 0.059893943
0.249705195 0.387898266 0.063870825
0.296115547 0.391864270 0.067495503
0.342739373 0.395813704 0.071443826
0.388843924 0.399967045 0.074779131
0.436306685 0.403905660 0.078483753
0.484144807 0.407984167 0.082026944
0.532458842 0.412150204 0.085613936
0.582150936 0.416048706 0.089045696
0.632323444 0.419936895 0.092423193
0.682577729 0.423584342 0.095695697
0.730812669 0.427184105 0.098473758
0.017348999 0.410366505 0.042882003
0.047885563 0.416603804 0.049915686
0.071694493 0.421415746 0.055083878
0.112600893 0.426047206 0.059333690
0.161714256 0.430833995 0.063944757
0.209830374 0.435452342 0.068042815
0.257019520 0.440069258 0.072222374
0.304018915 0.444478929 0.075996444
0.350653529 0.448997527 0.080050007
0.397742510 0.453427464 0.083503194
0.445326388 0.457821876 0.087290749
0.493325502 0.462188393 0.090719067
0.542677283 0.466349512 0.094254509
0.592191339 0.470938206 0.097873695
0.642808914 0.475040644 0.101377003
0.693282843 0.479085505 0.104582630
0.742088497 0.482692003 0.107519001
0.017003812 0.459022701 0.049581312
0.047837749 0.466069013 0.057507999
0.074252188 0.471523076 0.062256437
0.119054578 0.476746291 0.067159310
0.168408632 0.481867522 0.071704440
0.217233136 0.486772627 0.076005057
0.264429599 0.491807461 0.080051690
0.311868519 0.496735662 0.083934493
0.359233260 0.501499653 0.087923065
0.406770110 0.506216526 0.091577753
0.454141736 0.511089206 0.095204875
0.502853036 0.515594006 0.098818310
0.552387893 0.520306408 0.102510750
0.602222085 0.524979651 0.105943188
0.653435647 0.529378831 0.109455317
0.703909338 0.533542752 0.113329068
0.752852142 0.537278771 0.117081501
0.016264124 0.508001089 0.056269623
0.047445126 0.515772939 0.063948438
0.076848753 0.521520257 0.069398373
0.125606000 0.527130127 0.074213937
0.175572753 0.532552123 0.078916132
0.223697305 0.538080513 0.083107561
0.271916896 0.543368220 0.087291628
0.319770932 0.548583567 0.091390438
0.367245525 0.553612709 0.095287375
0.414942861 0.558754802 0.099018693
0.462981999 0.563708067 0.102485500
0.511734128 0.568688750 0.106199749
0.561700761 0.573560476 0.109930500
0.612338781 0.578257203 0.113896631
0.663511693 0.582457125 0.117949128
0.713905215 0.586386561 0.121852681
0.762608767 0.589649498 0.125041872
0.015771000 0.557186007 0.062766373
0.047183376 0.565327644 0.070430256
0.079527631 0.571491718 0.075662687
0.131722704 0.577477813 0.080708995
0.181946129 0.583202541 0.085364625
0.230518997 0.588920593 0.089864999
0.279054195 0.594538331 0.094049439
0.327060223 0.600042641 0.097898558
0.374744356 0.605445385 0.101958506
0.422769368 0.610741794 0.105711810
0.471329927 0.615887940 0.109117813
0.520988047 0.620838404 0.113087751
0.571223021 0.625553131 0.117271312
0.622103512 0.629772425 0.121503197
0.672689557 0.633691490 0.125221446
0.722334564 0.637336731 0.128543690
0.771219015 0.639975905 0.131060690
0.014983000 0.606122255 0.068796247
0.046523374 0.614716709 0.076442815
0.085931376 0.621250629 0.081653371
0.137903020 0.627346694 0.086599626
0.187877998 0.633476257 0.091315001
0.237062871 0.639401615 0.095827505
0.285983682 0.645179391 0.100010507
0.333692551 0.651081741 0.103946380
0.382302761 0.656475782 0.107703499
0.430240273 0.662146568 0.111610994
0.480042756 0.666950762 0.115822501
0.530236006 0.671297789 0.120062254
0.579682767 0.675875783 0.123677500
0.630354166 0.679668307 0.127353564
0.680770159 0.683067739 0.130698264
0.730385303 0.686220884 0.133587569
0.778321266 0.688774228 0.135903001
0.014194000 0.654980183 0.073933817
0.047134813 0.663973033 0.081654698
0.091139503 0.670865178 0.087045759
0.143230274 0.677185774 0.092165194
0.193207562 0.683616102 0.096642189
0.242906809 0.689633071 0.101064011
0.291976899 0.695604026 0.105222635
0.340323031 0.701537490 0.109142445
0.389161080 0.706904173 0.113354139
0.438802093 0.711886287 0.117570259
0.488254130 0.716331542 0.121690191
0.537642777 0.720436633 0.125440687
0.587271929 0.724529862 0.128834054
0.637886047 0.727751255 0.131838188
0.687797427 0.731030941 0.134759367
0.737266243 0.733842313 0.137328178
0.784786463 0.736224413 0.139330879
0.014194000 0.703952312 0.078799136
0.047875568 0.713141024 0.086518437
0.095963262 0.720090449 0.091743007
0.147832513 0.726740599 0.096592881
0.198287502 0.733341575 0.101283252
0.248392627 0.739462793 0.105574250
0.297080010 0.745651901 0.109799631
0.346628338 0.751339138 0.114031695
0.397022396 0.755754113 0.118373759
0.446412057 0.760104597 0.122283258
0.495432377 0.764417410 0.126075625
0.544888735 0.768163264 0.129414380
0.594481647 0.771658540 0.132405877
0.644071519 0.774883986 0.135277003
0.694013000 0.777943492 0.137836382
0.742629766 0.780627966 0.139831066
0.790317953 0.782781184 0.141516373
0.013406000 0.752648413 0.082967259
0.049071442 0.762053192 0.090435378
0.100634381 0.769023597 0.095804811
0.152568698 0.775806725 0.100527816
0.203035384 0.782592952 0.105082005
0.253370941 0.788785279 0.109439127
0.303775311 0.794135630 0.114184447
0.353651166 0.799303770 0.118374191
0.403636903 0.803307950 0.122283690
0.452786177 0.807342112 0.126056507
0.501465201 0.811307847 0.129318744
0.550978422 0.814791322 0.132330939
0.599881113 0.818242729 0.134982497
0.649636686 0.821205437 0.137563810
0.699187756 0.823844671 0.139545247
0.747613966 0.826636076 0.141481191
0.794871926 0.828702748 0.142588437
0.013406000 0.801254988 0.086520001
0.050295562 0.810689151 0.093767501
0.104739502 0.817847013 0.098976500
0.156516075 0.824776947 0.103948876
0.207426995 0.831524014 0.108348250
0.259166449 0.836394131 0.113180622
0.309877902 0.841525674 0.117572881
0.359978676 0.845985532 0.121630937
0.409476519 0.849953532 0.124964997
0.457761824 0.854004562 0.128214180
0.506822884 0.857570410 0.131233007
0.556012213 0.860826969 0.133794248
0.604842305 0.864099741 0.136416256
0.654325962 0.866938651 0.138414010
0.703578949 0.869459510 0.140383005
0.752175212 0.872047186 0.142026573
0.800032020 0.873775005 0.143129006
0.029226312 0.029226312 0.081102751
0.059519686 0.029177001 0.085067682
0.076716565 0.028487500 0.086036190
0.103979826 0.028388999 0.088021815
0.154308319 0.027600000 0.090946317
0.203326181 0.027600000 0.093760684
0.253661305 0.027600002 0.097742192
0.306151778 0.028388999 0.102362752
0.356327653 0.028782999 0.106242746
0.401720315 0.027600000 0.107541502
0.444411427 0.026072312 0.107909381
0.485084891 0.024987750 0.107935816
0.525205135 0.023460001 0.107476875
0.565006793 0.021932248 0.107157312
0.605005622 0.020502999 0.106928557
0.645189881 0.019664746 0.107252374
0.685372651 0.018137001 0.107620940
0.028438250 0.086186685 0.092647120
0.059519690 0.084864743 0.097472116
0.078935623 0.084380001 0.100940496
0.103200324 0.083984502 0.103943065
0.155523315 0.085465126 0.108709000
0.208286732 0.088325873 0.114065565
0.261071235 0.090945870 0.119476311
0.311489552 0.092844620 0.123305880
0.358015329 0.093116499 0.125060752
0.401571572 0.092909500 0.125725180
0.443950146 0.092519499 0.126104563
0.484953612 0.091704316 0.125634119
0.525460124 0.091309622 0.125610992
0.566553354 0.090914004 0.125315681
0.607957661 0.091309629 0.125634119
0.649823427 0.091394432 0.125971064
0.692102432 0.092583686 0.126876742
0.029818125 0.150182754 0.105147369
0.061737627 0.151130378 0.111878872
0.082971878 0.152165875 0.116295569
0.111000136 0.154368877 0.121133059
0.165066630 0.156597927 0.125618309
0.215919673 0.157649249 0.129095182
0.264743537 0.158060446 0.131732613
0.310989171 0.158060819 0.133556128
0.355334669 0.157465681 0.134325743
0.398254752 0.156737059 0.134919375
0.440127999 0.155528441 0.135087132
0.481610626 0.154772922 0.135236755
0.523622632 0.154254943 0.135513440
0.565955400 0.154059306 0.136041254
0.609684348 0.154332370 0.136663944
0.654582441 0.155070439 0.138058811
0.699404478 0.156521514 0.139711946
0.029177001 0.209040642 0.114365444
0.061414566 0.210515305 0.121071003
0.082811438 0.212213010 0.126028240
0.113551952 0.213470072 0.130250752
0.166096196 0.214234889 0.133281887
0.215082675 0.214441568 0.135699376
0.261921704 0.214340255 0.137727380
0.306946218 0.213907093 0.139348075
0.350884378 0.213258311 0.140382752
0.393744022 0.212525442 0.141356811
0.436367363 0.212120771 0.142129630
0.479062617 0.211877584 0.143091574
0.522930682 0.211964130 0.144218326
0.567799211 0.212793648 0.145576194
0.614607513 0.214167446 0.147663251
0.662804663 0.216361329 0.150154307
0.710135639 0.218746632 0.152458310
0.025628500 0.255718797 0.117547378
0.056812562 0.258206367 0.124627247
0.078367569 0.260159403 0.129510000
0.114253014 0.261709452 0.133405194
0.164813638 0.262547880 0.136819750
0.212446436 0.263105482 0.139403939
0.258746684 0.263558626 0.141661316
0.303892195 0.263628185 0.143619701
0.347695947 0.263964742 0.145446628
0.391503632 0.264354795 0.147269428
0.435504913 0.265080720 0.148932382
0.480431408 0.266218901 0.150973499
0.526771009 0.268048197 0.153393060
0.574888825 0.270637304 0.156219617
0.624607384 0.273519576 0.159216374
0.673814058 0.276311368 0.162110746
0.721601009 0.279002041 0.164485753
0.022326563 0.297587007 0.119605251
0.052870002 0.300858796 0.126833871
0.073927194 0.303375840 0.131860748
0.115410008 0.305494606 0.135982573
0.164605945 0.307213604 0.139637247
0.212194115 0.308748811 0.142868116
0.258372039 0.310324937 0.146008238
0.303589344 0.311937183 0.148649067
0.348554343 0.313884825 0.151422888
0.393885374 0.316016495 0.154238001
0.439906567 0.318718940 0.157208443
0.487278163 0.321897328 0.160476878
0.535767019 0.325241804 0.163834557
0.585429430 0.328641355 0.167164862
0.635583341 0.331971824 0.170311064
0.684885621 0.335289359 0.173211828
0.733584404 0.338082522 0.175863504
0.020009873 0.338988096 0.122323498
0.049573001 0.343373537 0.130052447
0.073208310 0.346798956 0.135315001
0.118393011 0.349874467 0.139954254
0.167220056 0.352940589 0.144064620
0.214952677 0.356000155 0.148209125
0.261802554 0.359348714 0.152008504
0.308368206 0.362896740 0.155936062
0.355061024 0.366589308 0.159762993
0.401784182 0.370439887 0.163364381
0.449000299 0.374278128 0.166868746
0.496982455 0.378126591 0.170471564
0.546141446 0.381905854 0.173996806
0.596053958 0.385605633 0.177375138
0.646264732 0.389459729 0.180635303
0.696426094 0.393033057 0.183616444
0.745551467 0.395946085 0.186242566
0.018482186 0.383051604 0.127054930
0.047932874 0.389182836 0.135275066
0.075269066 0.393776804 0.141067699
0.123787642 0.398356080 0.146460235
0.173091754 0.402907789 0.151168495
0.221628815 0.407636970 0.156013444
0.269558877 0.411952853 0.160356060
0.316576779 0.416282475 0.164561868
0.363576025 0.420748949 0.168527439
0.410890758 0.424896777 0.172394067
0.458653241 0.429243684 0.176286057
0.506974280 0.433582336 0.179758862
0.556601346 0.437691540 0.183295384
0.606916487 0.441800028 0.186824679
0.657408655 0.445986331 0.190090865
0.708182752 0.449749887 0.193207875
0.757415056 0.453047156 0.195769817
0.017348999 0.431631476 0.133763194
0.047536563 0.438976318 0.142423689
0.078761250 0.444394082 0.148456812
0.130532026 0.449612916 0.153944433
0.180327564 0.454899818 0.159081057
0.229184359 0.459847689 0.163883388
0.277443290 0.464744359 0.168426573
0.324733734 0.469770938 0.172740370
0.372387648 0.474504292 0.176930010
0.420105636 0.479113370 0.180827379
0.468205452 0.483784765 0.184636742
0.516940475 0.488311589 0.188348383
0.567127526 0.492702693 0.191906691
0.617246509 0.497328252 0.195406631
0.668195307 0.501638114 0.198777869
0.719664037 0.505402863 0.201847255
0.768099010 0.508832812 0.204483628
0.017003812 0.480969518 0.140320748
0.047183376 0.488991439 0.149346396
0.084873818 0.495019525 0.155458122
0.136789262 0.501017392 0.161009252
0.187345877 0.506357849 0.166232556
0.236810133 0.511774182 0.171288326
0.284953088 0.517181456 0.175853431
0.333012223 0.522422016 0.180295438
0.380930454 0.527439058 0.184425324
0.429297209 0.532371581 0.188440636
0.477172852 0.537602484 0.192189306
0.526564121 0.542403042 0.195921436
0.576874137 0.547130525 0.199603811
0.627543628 0.551773548 0.203185990
0.679033041 0.555712998 0.206621379
0.728923380 0.559276819 0.209669948
0.777713001 0.562158346 0.212015182
0.015771000 0.530380845 0.146544695
0.046523374 0.539068103 0.155604988
0.091222502 0.545529187 0.161735997
0.143620387 0.551741958 0.167483509
0.194292828 0.557622075 0.172844753
0.243332937 0.563402593 0.177786320
0.292507142 0.569166839 0.182489485
0.340882123 0.574686944 0.186830193
0.388931215 0.580043495 0.191101372
0.437477976 0.585443556 0.195082009
0.486027062 0.590707719 0.198965386
0.535446584 0.595764577 0.202766806
0.586311221 0.600107253 0.206503987
0.637258530 0.604067147 0.210016683
0.687943161 0.607593715 0.213137433
0.737644315 0.610477328 0.215611175
0.785750866 0.613030016 0.217496619
0.015771000 0.579625726 0.152186990
0.048005123 0.589094460 0.161167681
0.097607315 0.595793307 0.167529255
0.149770826 0.602221191 0.173275501
0.200515807 0.608578086 0.178661868
0.249752879 0.614858210 0.183625117
0.299618959 0.620470226 0.188314199
0.348360389 0.626250982 0.192831442
0.396435142 0.632125020 0.196961328
0.444967240 0.637629151 0.201012373
0.494398236 0.642725170 0.204854429
0.544506550 0.646977186 0.208667696
0.594549954 0.650729656 0.211890444
0.645320594 0.654135346 0.215003178
0.695029795 0.657497585 0.217619643
0.744675398 0.659979641 0.219706133
0.792731822 0.661974430 0.221201122
0.014983000 0.628844023 0.157226816
0.050559878 0.638560832 0.166147113
0.103256568 0.645521402 0.172562301
0.155421391 0.652387261 0.178290069
0.206236497 0.659041464 0.183612704
0.256349921 0.665281117 0.188616961
0.305800140 0.671442747 0.193367749
0.354860038 0.677391529 0.197683692
0.403578401 0.683140099 0.201899499
0.452940434 0.687926352 0.205856621
0.502490699 0.692179143 0.209603563
0.552219510 0.696006238 0.212866560
0.601886511 0.699363887 0.215849817
0.651704907 0.702704847 0.218322501
0.701353312 0.705489993 0.220630869
0.751291275 0.707446992 0.222360253
0.798040986 0.709583521 0.223521993
0.014194000 0.677826524 0.161520436
0.053534940 0.687805593 0.170482129
0.108280689 0.694901347 0.176730752
0.160762519 0.701942444 0.182386443
0.211481750 0.708866119 0.187767997
0.262163520 0.715273440 0.192669690
0.311711311 0.721750021 0.197388321
0.361028820 0.727467895 0.201684564
0.410497457 0.732226551 0.205774859
0.460041493 0.736181974 0.209477931
0.509624898 0.739962876 0.212697059
0.558489382 0.743451655 0.215592444
0.608307183 0.746431291 0.218079060
0.657453358 0.749441624 0.220423490
0.707301140 0.751901329 0.222295374
0.756459773 0.753763914 0.223652676
0.803366542 0.755643964 0.224504933
0.014194000 0.726513147 0.165096506
0.057233695 0.736639440 0.173865989
0.112571515 0.744043469 0.179974377
0.165438458 0.751114666 0.185856506
0.216055825 0.758225799 0.191030934
0.266921937 0.764706016 0.195954174
0.317386925 0.770387888 0.200541109
0.367984235 0.774920166 0.204646140
0.417067081 0.779177904 0.208358824
0.466431171 0.782875776 0.211700067
0.515182495 0.786561668 0.214497447
0.564226329 0.789452016 0.216986954
0.613391876 0.792440832 0.219212174
0.662605524 0.795089960 0.221106380
0.712245226 0.797295928 0.222634628
0.760625184 0.799176812 0.223816931
0.807822526 0.800759673 0.224614441
0.013406000 0.775113523 0.168122187
0.061883070 0.785173655 0.176703677
0.116875373 0.792645633 0.182725638
0.169575825 0.799853325 0.188332200
0.220828563 0.806955099 0.193548068
0.272443563 0.812615573 0.198294878
0.323459953 0.817082167 0.202571124
0.373044670 0.821460187 0.206312642
0.422861695 0.825056612 0.209620565
0.471558183 0.828570306 0.212585300
0.520166695 0.831771433 0.215076879
0.569091201 0.834711671 0.217257246
0.617956579 0.837487519 0.219225258
0.666924000 0.839859247 0.220768437
0.716096461 0.842007160 0.222101942
0.764234602 0.843882442 0.223114178
0.811401486 0.845316410 0.223612636
0.013406000 0.823490858 0.170205936
0.065730505 0.833396137 0.178652808
0.120459065 0.841043591 0.184606820
0.173102394 0.848526478 0.190153301
0.225465506 0.854158521 0.194991618
0.277490675 0.858669698 0.199516058
0.328219831 0.862891674 0.203404993
0.377702892 0.866848707 0.206776068
0.426719487 0.870444655 0.209715813
0.475659102 0.873734295 0.212518185
0.524171591 0.876666129 0.214569375
0.573030353 0.879409194 0.216564760
0.621604085 0.881968081 0.218317419
0.670775592 0.884087205 0.219581008
0.719046414 0.886404037 0.220725879
0.767799795 0.888079762 0.221415877
0.814908504 0.889604449 0.221766755
0.028487500 0.028487500 0.137553126
0.058466811 0.028487500 0.141747817
0.076652750 0.028388999 0.145083755
0.111812010 0.027747937 0.148997188
0.163082257 0.027600000 0.152807131
0.212260500 0.027600000 0.155869499
0.264969260 0.028389001 0.162360132
0.317571402 0.028389001 0.168326497
0.365842521 0.028487500 0.171211377
0.410043180 0.026812000 0.171894744
0.452039480 0.025727125 0.171509624
0.492456049 0.024199437 0.170659006
0.532547414 0.022671750 0.169650495
0.572457135 0.021291999 0.168847755
0.612884581 0.019812625 0.168155000
0.653783977 0.018926000 0.167979494
0.694719374 0.018137001 0.168184251
0.028388999 0.096631318 0.152398199
0.058993813 0.095755376 0.158615440
0.078484006 0.096051440 0.163344115
0.112884134 0.097122245 0.168922186
0.167929009 0.099990249 0.176142558
0.221267059 0.102760062 0.182269990
0.272835672 0.104672633 0.187152952
0.321112037 0.105275624 0.189692080
0.365988761 0.105090126 0.190541118
0.408938050 0.104250565 0.190301836
0.450587153 0.103560373 0.189734504
0.491401166 0.102751374 0.188799322
0.532237709 0.102300189 0.187975809
0.573921323 0.102009065 0.187541068
0.616260886 0.102366813 0.187541068
0.659401238 0.102803558 0.188112438
0.703097999 0.104226559 0.189130008
0.030655500 0.163820639 0.169919133
0.062899686 0.165394634 0.178453192
0.083154991 0.166371375 0.183393508
0.121402130 0.168211073 0.188534871
0.174810007 0.169220015 0.192321509
0.225073129 0.169613510 0.195262983
0.273013145 0.169444636 0.196960881
0.318442464 0.168876618 0.197875008
0.362237275 0.167980000 0.198359370
0.404993594 0.167180121 0.198358938
0.446686238 0.166137263 0.198258877
0.488638610 0.165432692 0.198106870
0.531056643 0.165084004 0.197985008
0.574718237 0.165243804 0.198619619
0.619530439 0.165945515 0.199626505
0.666057587 0.167520061 0.201462567
0.713029861 0.169281751 0.203833610
0.027846437 0.219232380 0.177070692
0.060307935 0.221229509 0.184775323
0.080709249 0.222951517 0.190104067
0.122610636 0.223945573 0.194083080
0.173870876 0.224497631 0.197271556
0.222830862 0.224658772 0.199619681
0.269033432 0.224380016 0.201223314
0.314023972 0.223926634 0.202411994
0.357788146 0.223426372 0.203327000
0.400748938 0.223021448 0.204173684
0.443625510 0.222865686 0.204973683
0.487613499 0.222838581 0.205965132
0.532172322 0.223622888 0.207379431
0.578985274 0.225154623 0.209611565
0.627698123 0.227409065 0.212297261
0.676910877 0.229947448 0.215229690
0.724602461 0.232342452 0.217687130
0.024741625 0.264640629 0.178169623
0.055518501 0.267369717 0.186152861
0.076714121 0.269574106 0.191439629
0.122416258 0.270969123 0.195456177
0.172527626 0.272041887 0.198766127
0.220369816 0.272781640 0.201696068
0.266318381 0.273278773 0.203988627
0.311533898 0.273925751 0.206140622
0.355908871 0.274654984 0.208221748
0.400310874 0.275621355 0.210277557
0.445404857 0.276920497 0.212427005
0.491360426 0.279091418 0.215160072
0.539425731 0.281827360 0.218455255
0.588910520 0.284744859 0.221735507
0.638704419 0.287852734 0.225049749
0.688523054 0.290682375 0.228136122
