public/lut/75.cube
TITLE "17x17x17 Adobe/IRIDAS cube 3D LUT exported with GrossGrade v0.2.2 (beta) 64 bit"
DOMAIN_MIN 0 0 0
DOMAIN_MAX 1 1 1
LUT_3D_SIZE 5
0.029177001 0.029177001 0.029177001
0.142800748 0.027600000 0.027600000
0.338715523 0.028388999 0.028388999
0.511632264 0.024248749 0.024248749
0.670078993 0.018926000 0.018137001
0.027008999 0.240025759 0.027008999
0.150431260 0.245925754 0.036077250
0.334085256 0.246699005 0.048289001
0.508781731 0.247533754 0.057124749
0.697234273 0.255726993 0.068653002
0.017348999 0.410366505 0.042882003
0.161714256 0.430833995 0.063944757
0.350653529 0.448997527 0.080050007
0.542677283 0.466349512 0.094254509
0.742088497 0.482692003 0.107519001
0.014983000 0.606122255 0.068796247
0.187877998 0.633476257 0.091315001
0.382302761 0.656475782 0.107703499
0.579682767 0.675875783 0.123677500
0.778321266 0.688774228 0.135903001
0.013406000 0.801254988 0.086520001
0.207426995 0.831524014 0.108348250
0.409476519 0.849953532 0.124964997
0.604842305 0.864099741 0.136416256
0.800032020 0.873775005 0.143129006
0.029177001 0.029177001 0.242270753
0.177570999 0.028191749 0.265651494
0.379659772 0.027797248 0.287777752
0.544137001 0.025037002 0.281488746
0.711592495 0.031740502 0.279886752
0.023065999 0.279093236 0.285612762
0.186069995 0.288386732 0.309339225
0.371984780 0.294796497 0.322698027
0.563346267 0.306842208 0.339309752
0.763669968 0.319288254 0.354332745
0.016954498 0.468753040 0.309831232
0.211784989 0.496433258 0.343958974
0.409474790 0.518742442 0.367981464
0.609056294 0.538996518 0.387843251
0.810807824 0.551511765 0.399274260
0.014785750 0.669579268 0.339135766
0.238651514 0.703989208 0.373769999
0.441135496 0.727368712 0.395326495
0.637559533 0.738474786 0.405296028
0.831318021 0.743740559 0.408392489
0.024051750 0.863927245 0.353642493
0.256610006 0.892898560 0.381609231
0.457232773 0.904841065 0.393386990
0.649986804 0.912644744 0.398681253
0.841002524 0.916103244 0.398553491
0.029571502 0.053968001 0.441153526
0.206750751 0.055717252 0.480251491
0.392827988 0.055877000 0.481478512
0.559410334 0.057124503 0.474403769
0.744824052 0.064799502 0.484595537
0.019911250 0.303314030 0.469742775
0.210694015 0.319546521 0.505472243
0.406017780 0.335301518 0.534399271
0.603950262 0.350045741 0.559787512
0.809760809 0.363464266 0.581112266
0.016559999 0.509898007 0.518897533
0.245718002 0.542797208 0.564255238
0.449490041 0.567682505 0.596384048
0.654559553 0.588033020 0.621359706
0.851396501 0.593353033 0.626037478
0.031937253 0.714329243 0.558609009
0.273871481 0.753707290 0.603380919
0.478490025 0.770193696 0.622011781
0.672711790 0.776015043 0.627986312
0.863407016 0.776345551 0.627570271
0.051017001 0.908916950 0.577772021
0.287418246 0.930565000 0.603254199
0.486328006 0.938496470 0.611926556
0.679809570 0.941394806 0.615537524
0.866438031 0.941482008 0.612314463
0.028980000 0.077029996 0.608237267
0.215077013 0.078376003 0.634751022
0.398542494 0.078376003 0.636279523
0.575105488 0.081477746 0.642630279
0.772186756 0.091636755 0.667091250
0.018926000 0.326567471 0.632518768
0.233396500 0.350083739 0.683272004
0.433882505 0.368183553 0.721632481
0.636785507 0.384554744 0.755183101
0.846573710 0.398719758 0.783370554
0.023460004 0.543300211 0.704644561
0.272455513 0.579751253 0.760018051
0.481542051 0.606936038 0.800021470
0.685643017 0.622228503 0.820075274
0.878487766 0.623466969 0.822183967
0.053643502 0.750503302 0.756338477
0.300634027 0.792339742 0.808472514
0.504379511 0.800242305 0.820480824
0.698794484 0.801809072 0.823160052
0.885591507 0.798976004 0.819891751
0.071321003 0.944288015 0.781631231
0.309348494 0.957524478 0.800883055
0.511304498 0.961492240 0.807411551
0.698347211 0.962078750 0.807679534
0.883659005 0.959263504 0.802948773
0.026023000 0.089599997 0.727096021
0.218215495 0.092484497 0.755032003
0.403553009 0.094053999 0.766188025
0.591931999 0.101187252 0.793069005
0.793479979 0.111504003 0.826429009
0.018137001 0.346758246 0.777101755
0.250149012 0.373253971 0.836581945
0.454927236 0.392856747 0.883070230
0.660930276 0.410168767 0.924391270
0.871176779 0.427772492 0.954586029
0.039428502 0.568203986 0.866628528
0.292026997 0.607301712 0.929663777
0.508121490 0.635559976 0.972805500
0.707139015 0.644765794 0.991005063
0.898132443 0.642869473 0.992341042
0.069333754 0.777642012 0.930837989
0.328519255 0.814153492 0.980249465
0.526377738 0.819874763 0.991344512
0.715259790 0.819317520 0.994053483
0.900409222 0.813857019 0.989904523
0.087408997 0.966835976 0.960381985
0.332093239 0.975093484 0.975301504
0.525299013 0.977295995 0.980772972
0.711276293 0.976036251 0.980648994
0.895668983 0.970948994 0.975814998
