public/lut/76.cube
TITLE "17x17x17 Adobe/IRIDAS cube 3D LUT exported with GrossGrade v0.2.2 (beta) 64 bit"
DOMAIN_MIN 0 0 0
DOMAIN_MAX 1 1 1
LUT_3D_SIZE 5
0.000000000 0.000000000 0.000000000
0.141110510 0.000000000 0.000000000
0.352654994 0.000000000 0.030360002
0.525426269 0.000000000 0.047596000
0.679072022 0.000000000 0.048294000
0.000000000 0.251674265 0.049660001
0.158053994 0.265428752 0.035091754
0.360664010 0.261911243 0.042857498
0.543854237 0.252937496 0.000000000
0.720983267 0.247363016 0.000000000
0.000000000 0.430980504 0.079577506
0.104719996 0.452838540 0.009660249
0.358335018 0.460742027 0.055565000
0.550785303 0.465409279 0.077886507
0.739122987 0.466719002 0.042446006
0.000000000 0.628518760 0.100504249
0.094322257 0.646688223 0.061284002
0.351747274 0.656841278 0.037260003
0.568004489 0.667784572 0.060164750
0.769086003 0.675733566 0.069998249
0.000000000 0.825358987 0.106785998
0.117869750 0.839559972 0.085828997
0.352463543 0.858363032 0.000000000
0.581310987 0.869213223 0.011434251
0.790230989 0.877070010 0.029966000
0.000000000 0.000000000 0.210022002
0.195644259 0.000000000 0.277615488
0.404883027 0.000000000 0.293763995
0.560131013 0.000000000 0.284010500
0.712923288 0.000000000 0.279064000
0.000000000 0.286333263 0.284604490
0.177214995 0.297898233 0.313798487
0.383644491 0.297317237 0.323594034
0.576360106 0.292068481 0.330419987
0.769636035 0.276678026 0.327259511
0.000000000 0.476053238 0.312389016
0.138929248 0.497913510 0.330781460
0.386777997 0.503627956 0.345588028
0.581560493 0.505047500 0.352686256
0.774247289 0.505786777 0.349463224
0.000000000 0.669516265 0.332313240
0.095148005 0.687226534 0.337340236
0.378946990 0.696029007 0.344285488
0.594711721 0.702051520 0.348752230
0.793215513 0.704417467 0.347669244
0.000000000 0.858740509 0.334024757
0.118455246 0.874511540 0.334165007
0.371468514 0.887133241 0.326450497
0.599696457 0.892619967 0.328119755
0.806568980 0.896413743 0.325922489
0.000000000 0.043248504 0.396787524
0.225799501 0.000000000 0.507491946
0.421496987 0.000000000 0.484754533
0.578047752 0.000000000 0.467870027
0.738583505 0.000000000 0.465691030
0.000000000 0.308314502 0.451734275
0.156641752 0.323508501 0.513791502
0.403251022 0.323668242 0.527074218
0.596431255 0.320154518 0.533183813
0.788508773 0.304798275 0.540734529
0.000000000 0.507231474 0.498429507
0.152093500 0.527980447 0.534031451
0.401759505 0.532011986 0.548511028
0.601508498 0.531232953 0.555608273
0.794533491 0.529626012 0.558688998
0.000000000 0.697744012 0.525434494
0.096575007 0.713449955 0.543209553
0.395667255 0.720233560 0.554487526
0.609868288 0.722173214 0.558521748
0.807164788 0.721122980 0.556986272
0.000000000 0.881934524 0.531079531
0.119792752 0.896041036 0.540261984
0.384513497 0.904060006 0.542076945
0.610303283 0.906562507 0.543148756
0.815990508 0.907912970 0.540616989
0.000000000 0.076536752 0.579024017
0.226016507 0.000000000 0.679467797
0.427523494 0.000000000 0.651898503
0.593214810 0.000000000 0.639220715
0.763370991 0.000000000 0.644922733
0.000000000 0.330084234 0.608952999
0.072500750 0.345579237 0.718206048
0.413662970 0.342172265 0.729366481
0.619553268 0.335046232 0.731648207
0.803872287 0.326490521 0.730503201
0.000000000 0.533689499 0.673314571
0.075382501 0.553602517 0.724836230
0.401519001 0.555067778 0.740621507
0.615340948 0.551791251 0.749325216
0.810740530 0.545901477 0.752184272
0.000000000 0.720533311 0.707428575
0.098685011 0.734133363 0.733245015
0.405409515 0.737818837 0.747226477
0.619376779 0.736537814 0.751962781
0.816718519 0.732825279 0.751397491
0.000000000 0.900571704 0.718801260
0.121358752 0.911796749 0.734346271
0.394020259 0.916186750 0.740792513
0.618004501 0.916435003 0.742452741
0.823281288 0.915818036 0.741011024
0.000000000 0.095908001 0.718627989
0.216949254 0.000000000 0.826730967
0.430036008 0.000000000 0.808400512
0.608507991 0.000000000 0.808072269
0.784052014 0.000000000 0.819384992
0.000000000 0.351315737 0.765353024
0.057247005 0.362785518 0.888717294
0.412434787 0.353722751 0.932775795
0.635319531 0.343864262 0.929628015
0.825435996 0.332707763 0.924616277
0.000000000 0.555677533 0.841818452
0.078583002 0.572205544 0.901068687
0.392731547 0.572792530 0.929347456
0.626080275 0.566981733 0.928482056
0.818529487 0.560582519 0.926398993
0.000000000 0.739122510 0.882552028
0.101049498 0.750479519 0.915409505
0.394149750 0.751966238 0.935191691
0.620512724 0.747222960 0.940457225
0.824069977 0.741085768 0.936882734
0.000000000 0.915825009 0.901787996
0.123314254 0.923528731 0.921931982
0.398474514 0.925389528 0.931340456
0.621979475 0.923737228 0.934223771
0.825048029 0.922186017 0.935352981
