public/lut/76.cube
TITLE "17x17x17 Adobe/IRIDAS cube 3D LUT exported with GrossGrade v0.2.2 (beta) 64 bit"
DOMAIN_MIN 0 0 0
DOMAIN_MAX 1 1 1
LUT_3D_SIZE 17
0.000000000 0.000000000 0.000000000
0.003696562 0.000000000 0.000000000
0.023263002 0.000000000 0.000000000
0.085830450 0.000000000 0.000000000
0.141110510 0.000000000 0.000000000
0.194181189 0.000000000 0.003450187
0.245048895 0.000000000 0.012518753
0.298488140 0.000000000 0.021390067
0.352654994 0.000000000 0.030360002
0.401351899 0.000000000 0.037752938
0.445074856 0.000000000 0.042323373
0.485806376 0.000000000 0.046403188
0.525426269 0.000000000 0.047596000
0.564234674 0.000000000 0.047596000
0.602463067 0.000000000 0.047596000
0.640714407 0.000000000 0.047639627
0.679072022 0.000000000 0.048294000
0.000000000 0.060899936 0.000000000
0.003844438 0.069271438 0.002956875
0.036816817 0.074926689 0.005766813
0.103477634 0.077839501 0.013750438
0.164667502 0.078887247 0.010990688
0.229793370 0.076886065 0.002266938
0.288873017 0.075255059 0.000000000
0.341755271 0.072488122 0.000000000
0.388700604 0.069196686 0.000000000
0.432360798 0.064317003 0.000000000
0.473142117 0.059845254 0.000000000
0.512274146 0.055137247 0.000000000
0.550584316 0.050320685 0.000000000
0.588320732 0.045637369 0.000000000
0.626266003 0.040799119 0.000000000
0.664232254 0.036964305 0.000000000
0.703275561 0.032627564 0.000246437
0.000000000 0.130452499 0.010152875
0.006111813 0.138507068 0.028191313
0.033021625 0.148369879 0.017447002
0.109186448 0.153113559 0.027698942
0.170720741 0.156502008 0.037654251
0.228750259 0.158397004 0.030704875
0.284366518 0.156369627 0.017052870
0.337571502 0.152040571 0.000985623
0.384103894 0.148389265 0.000000000
0.427843451 0.143905193 0.000000000
0.469280869 0.139948383 0.000000000
0.509802341 0.135798439 0.000000000
0.549015105 0.132316008 0.000000000
0.588528156 0.128529936 0.000000000
0.627994061 0.125465989 0.000000000
0.667772055 0.122586250 0.000000000
0.708532214 0.119394876 0.000000000
0.000000000 0.199934140 0.035239004
0.007738126 0.206118643 0.050740503
0.019369001 0.214053199 0.019172063
0.103504449 0.216043696 0.028881313
0.167638078 0.216511011 0.038985439
0.222668126 0.216366395 0.047064062
0.273899794 0.215279326 0.043848433
0.323270321 0.213393703 0.031148374
0.371955663 0.209848687 0.014145127
0.418588758 0.205854774 0.000000004
0.461918741 0.202213317 0.000000000
0.504338980 0.198887438 0.000000000
0.545624256 0.195940584 0.000000000
0.587468922 0.192822710 0.000000000
0.628919542 0.190518022 0.000000000
0.671312928 0.188266948 0.000000000
0.713650703 0.186535954 0.000000000
0.000000000 0.251674265 0.049660001
0.009906124 0.256087989 0.061523810
0.020010125 0.262431979 0.033611376
0.089239702 0.265221238 0.024248876
0.158053994 0.265428752 0.035091754
0.215188891 0.264895499 0.044230625
0.266286284 0.264110506 0.051765375
0.313820153 0.263192773 0.052700747
0.360664010 0.261911243 0.042857498
0.407580674 0.259936690 0.028635439
0.453930497 0.257649899 0.011040002
0.499316931 0.255112559 0.000000000
0.543854237 0.252937496 0.000000000
0.587574005 0.251377761 0.000000000
0.631675303 0.249935746 0.000000000
0.676113844 0.248729616 0.000000000
0.720983267 0.247363016 0.000000000
0.000000000 0.295579255 0.058086377
0.011434563 0.299599767 0.068861254
0.023805188 0.304973036 0.046377875
0.067814894 0.309298187 0.017939940
0.147516623 0.309808046 0.029670315
0.206823125 0.310301989 0.039724186
0.259413093 0.310190767 0.048638251
0.309061080 0.310106874 0.055210751
0.355907023 0.310050696 0.060385935
0.402522683 0.309996068 0.052814126
0.449437439 0.309679896 0.041941810
0.496124059 0.309376121 0.027353939
0.544233799 0.308365434 0.008279809
0.590843022 0.307603866 0.000000000
0.636653602 0.306943357 0.000000000
0.682277501 0.305735171 0.000000000
0.727337241 0.305099636 0.000000000
0.000000000 0.338109791 0.065571621
0.013159564 0.342001081 0.074534185
0.026910126 0.347266257 0.056804005
0.045775458 0.352984726 0.012962065
0.136321634 0.354679525 0.023459874
0.200003818 0.355878890 0.035042439
0.255180120 0.357185751 0.044463124
0.306787670 0.358267277 0.053039193
0.355702400 0.359530926 0.059789874
0.403800517 0.360451549 0.066026442
0.450601488 0.361876041 0.062356506
0.497787446 0.362568945 0.053855944
0.545281947 0.362600774 0.042463504
0.592782855 0.362425029 0.026466619
0.640646577 0.361722529 0.006209999
0.687030852 0.360972881 0.000000000
0.732616127 0.360552013 0.000000000
0.000000000 0.382402986 0.072457567
0.014736564 0.386887550 0.079459749
0.030458815 0.392413765 0.066084825
0.046289757 0.398596585 0.029916497
0.123918116 0.402556717 0.017250184
0.194670439 0.404996961 0.029916560
0.253221154 0.407011479 0.041228063
0.306772977 0.408939838 0.050428942
0.357017100 0.410481513 0.058011815
0.406812251 0.411620915 0.064942189
0.453786701 0.412838817 0.070399374
0.500668466 0.414106816 0.071047381
0.547869980 0.414592206 0.063645191
0.594662130 0.415163398 0.054332562
0.642232597 0.415101022 0.042109560
0.689778566 0.414587528 0.025530186
0.736697018 0.414014280 0.006210020
0.000000000 0.430980504 0.079577506
0.016708063 0.435654163 0.085703194
0.033711500 0.441510886 0.075097248
0.051445130 0.447365820 0.047729868
0.104719996 0.452838540 0.009660249
0.188165754 0.455146790 0.024248872
0.250081390 0.457447022 0.036964253
0.305478156 0.459409356 0.047020569
0.358335018 0.460742027 0.055565000
0.407480687 0.462645233 0.062443811
0.456773371 0.463354886 0.068729751
0.503612757 0.464628100 0.073870182
0.550785303 0.465409279 0.077886507
0.597851872 0.465995133 0.071536310
0.644482315 0.466615498 0.063641369
0.691866040 0.466433525 0.054095179
0.739122987 0.466719002 0.042446006
0.000000000 0.480476052 0.086209565
0.018186500 0.485235751 0.091582686
0.036816813 0.490650624 0.082700126
0.055894189 0.496318430 0.060894743
0.080653191 0.502529085 0.006210060
0.178926125 0.505145371 0.016658686
0.245704591 0.507179558 0.031247316
0.303927898 0.509038210 0.042698193
0.357899219 0.510765553 0.052098006
0.408680320 0.512219131 0.059529938
0.458334565 0.513261974 0.066339940
0.506644607 0.514263391 0.071842879
0.554072201 0.514873087 0.076815188
0.601554155 0.515692592 0.080979817
0.648916066 0.516863167 0.077547491
0.697011411 0.518607914 0.069927745
0.746930420 0.520425975 0.058762435
0.000000000 0.529917896 0.092219748
0.019714188 0.534293592 0.096466064
0.039917000 0.539748251 0.089268997
0.060583878 0.545063674 0.071425058
0.082260758 0.550651014 0.026515871
0.167129129 0.554282546 0.009216437
0.240368888 0.556518853 0.024446130
0.300765395 0.558329523 0.037457321
0.356131524 0.560074747 0.047679380
0.408740312 0.561314821 0.055920437
0.459299982 0.562331975 0.063022003
0.508735597 0.562979937 0.069067754
0.558073819 0.564784348 0.073520631
0.607241750 0.566691577 0.077184185
0.656559706 0.569027960 0.079579994
0.705307841 0.571450830 0.078555994
0.754905224 0.573124528 0.069196120
0.000000000 0.579200506 0.096973501
0.021242501 0.583577335 0.100650430
0.043464936 0.588608563 0.094542749
0.065470815 0.593468249 0.079712555
0.088249192 0.598856091 0.047535248
0.146949381 0.603327036 0.001429313
0.233177826 0.605177283 0.016954567
0.297264218 0.607031882 0.031247322
0.354377836 0.608484864 0.043166377
0.408406198 0.609663129 0.052138187
0.460308671 0.611120462 0.058963686
0.512086272 0.613662064 0.063774563
0.563247263 0.616308093 0.067612126
0.613491952 0.619031370 0.070663072
0.663574159 0.621046841 0.073580876
0.712892294 0.623101056 0.075570814
0.762302220 0.624873102 0.076507308
0.000000000 0.628518760 0.100504249
0.022721000 0.632552505 0.104044437
0.046330750 0.637148023 0.098526374
0.070200697 0.641854167 0.086256564
0.094322257 0.646688223 0.061284002
0.127707243 0.651426554 0.002957188
0.225268900 0.653346300 0.009463002
0.292331517 0.655290544 0.023903694
0.351747274 0.656841278 0.037260003
0.408972621 0.658676505 0.046446308
0.462801397 0.662242591 0.051515996
0.516401529 0.665054381 0.055958185
0.568004489 0.667784572 0.060164750
0.619279027 0.670126438 0.063056752
0.669621944 0.672249675 0.065852255
0.719605565 0.674061775 0.068018809
0.769086003 0.675733566 0.069998249
0.000000000 0.677416921 0.103474438
0.024839751 0.681587696 0.106530875
0.049214318 0.685738802 0.101864621
0.074592389 0.689884901 0.090988442
0.100388631 0.694294333 0.070084319
0.126683876 0.698823631 0.023262838
0.212108895 0.701782405 0.001527812
0.287827641 0.703528404 0.016313495
0.351508021 0.706506729 0.027945053
0.410420239 0.709976792 0.035929553
0.465882868 0.713136911 0.041752052
0.520151198 0.715810418 0.046799302
0.572391450 0.718492806 0.050849617
0.624025524 0.720717371 0.054571740
0.675122738 0.722581863 0.057665557
0.724968255 0.724676311 0.059450932
0.775150001 0.726178288 0.061784681
0.000000000 0.726830423 0.105341755
0.026368376 0.730507016 0.107983440
0.052230503 0.734270334 0.104304500
0.078939572 0.737929046 0.094564751
0.106276259 0.741966188 0.077369131
0.134067014 0.746401250 0.044481140
0.200432390 0.750194550 0.000000000
0.284851819 0.753858805 0.003302055
0.350986540 0.757577837 0.012518613
0.411209375 0.760785818 0.022277046
0.468141615 0.763708472 0.029275613
0.522305608 0.766450167 0.035485923
0.576048017 0.768733561 0.040212620
0.627592921 0.771038175 0.043909993
0.679280579 0.773046970 0.047329366
0.729883611 0.774815202 0.050047617
0.780217886 0.776549816 0.052097119
0.000000000 0.776079774 0.106415004
0.027255066 0.779537439 0.108691186
0.055333629 0.783036053 0.105434999
0.083475888 0.786256552 0.096892744
0.112167135 0.790065944 0.082687184
0.141380504 0.794709563 0.055965628
0.193641901 0.800579011 0.000000000
0.283712149 0.804543734 0.000000000
0.351061344 0.807992816 0.000000000
0.411913365 0.811223030 0.005174924
0.469713986 0.814001262 0.013750921
0.524540424 0.816697180 0.020749360
0.578813136 0.818932056 0.027600050
0.630856693 0.821255922 0.032233305
0.683082938 0.823166609 0.036175493
0.734352827 0.825041652 0.039281119
0.785460293 0.826641321 0.042323053
0.000000000 0.825358987 0.106785998
0.028733438 0.828848779 0.108645752
0.058319375 0.831926346 0.105481379
0.087812193 0.835116804 0.098774374
0.117869750 0.839559972 0.085828997
0.148538932 0.845351458 0.060177438
0.191554785 0.850942254 0.002661375
0.285362959 0.854861617 0.000000000
0.352463543 0.858363032 0.000000000
0.414159298 0.861350119 0.000000000
0.470850855 0.864319086 0.000000000
0.526973426 0.866786838 0.004435813
0.581310987 0.869213223 0.011434251
0.634378076 0.871526361 0.016855692
0.686677158 0.873358130 0.022277132
0.739022076 0.875250936 0.026861254
0.790230989 0.877070010 0.029966000
0.000000000 0.000000000 0.042630002
0.002316688 0.000000000 0.070659064
0.042152248 0.000000000 0.074341744
0.102100134 0.000000000 0.084717251
0.158035189 0.000000000 0.093608432
0.209681764 0.000000000 0.099942125
0.261887997 0.000000000 0.107194945
0.318851590 0.000000000 0.116181068
0.372398496 0.000000000 0.121898435
0.419536263 0.000000000 0.124472380
0.461844623 0.000000000 0.125292063
0.501404822 0.000000000 0.125292063
0.539957345 0.000000000 0.124995813
0.577753305 0.000000000 0.124676317
0.615209401 0.000000000 0.124056682
0.652993619 0.000000000 0.123735130
0.691498876 0.000000000 0.123735130
0.000000000 0.081080996 0.086979374
0.003844438 0.088611551 0.101585940
0.049647938 0.094789684 0.113775492
0.118052572 0.097913310 0.121518880
0.181168079 0.101229563 0.130018800
0.245795012 0.100029126 0.136385500
0.307534754 0.093100429 0.138152942
0.364607334 0.078924865 0.135115191
0.418072730 0.057747308 0.128887624
0.468356252 0.023755502 0.119928747
0.507593393 0.012419876 0.115748756
0.542248964 0.013159563 0.114892811
0.576770186 0.013947563 0.113791250
0.612007380 0.014736564 0.113791257
0.647825599 0.015623253 0.113465935
0.684398055 0.016362878 0.113512002
0.722417414 0.017841313 0.113815628
0.000000000 0.154752314 0.111055061
0.006111813 0.162862822 0.125812426
0.047750942 0.171053991 0.133432940
0.122954570 0.174132377 0.140676752
0.183719888 0.175108805 0.145614445
0.239189565 0.174683616 0.147744387
0.292776197 0.172182813 0.147353560
0.344619393 0.167412698 0.144596934
0.394541770 0.160641253 0.140399620
0.442984283 0.151826948 0.134014010
0.490113884 0.141282633 0.126198813
0.536590040 0.128284931 0.116910748
0.582481027 0.112442568 0.105474748
0.628670692 0.091240101 0.091817677
0.673254609 0.067302711 0.077892050
0.717843592 0.034154940 0.062309567
0.755607963 0.035682626 0.067252383
0.000000000 0.217572778 0.127281815
0.007738126 0.222822398 0.139392629
0.027698435 0.229581580 0.138408378
0.114143267 0.230520889 0.144219577
0.177094504 0.230397150 0.148584381
0.231118813 0.229726389 0.151825383
0.281489938 0.228120625 0.152688876
0.330167800 0.225902572 0.150665253
0.377631873 0.222933263 0.147646129
0.425151497 0.218437210 0.143265247
0.471982509 0.213440582 0.138247445
0.518995345 0.207337439 0.131738871
0.565435767 0.200960949 0.124345623
0.612681389 0.193623126 0.115732372
0.659666002 0.185843989 0.105892994
0.708302736 0.176057190 0.093560621
0.756593466 0.165657967 0.079062566
0.000000000 0.265345097 0.134092122
0.009906124 0.269923002 0.143924758
0.020010125 0.275607198 0.139619559
0.099371254 0.277634621 0.142709449
0.166478947 0.277708173 0.147374183
0.223140374 0.276993126 0.151088372
0.274369478 0.276204079 0.154332623
0.321588993 0.275469393 0.155744240
0.368787825 0.274328500 0.153936371
0.415693551 0.272659451 0.151234746
0.462469697 0.270730168 0.147890925
0.509751976 0.268244803 0.143701181
0.557388246 0.265603125 0.138687074
0.605946183 0.262119502 0.132685870
0.653731108 0.258735955 0.126119629
0.702123523 0.254198432 0.118206553
0.750614285 0.248896807 0.108412191
0.000000000 0.308225304 0.138563499
0.011434563 0.312681794 0.146715879
0.023805188 0.317964822 0.142820880
0.080678016 0.321502000 0.140239373
0.156465948 0.322438627 0.145685494
0.215879247 0.322832882 0.150369242
0.268621683 0.323197454 0.154056072
0.318170071 0.323595256 0.157428876
0.365970880 0.323909491 0.160373434
0.412782431 0.324584752 0.159444630
0.460604429 0.324664056 0.157346681
0.508502126 0.324442923 0.154467016
0.556042314 0.323723882 0.151081622
0.604170203 0.322309256 0.146681890
0.651870728 0.320254296 0.141351491
0.699494302 0.318018168 0.135207996
0.748440504 0.314604998 0.128022179
0.000000000 0.351391733 0.143289000
0.013208813 0.355942160 0.150543243
0.026910126 0.361557841 0.147053987
0.056069639 0.367025942 0.139020562
0.146844506 0.369028419 0.144957125
0.209411696 0.371017218 0.150412813
0.265904903 0.372554749 0.155172914
0.318005562 0.373860300 0.159246072
0.367084622 0.375452787 0.163103253
0.415316731 0.376515031 0.166228503
0.462739676 0.377317369 0.166413948
0.510002255 0.377767593 0.164201930
0.557712257 0.377706021 0.161080122
0.604579806 0.377484143 0.157623321
0.652338028 0.376397699 0.153255135
0.699400544 0.375362456 0.148369193
0.747902632 0.373022079 0.142488316
0.000000000 0.397792906 0.149287626
0.015179814 0.403217733 0.156079873
0.030705065 0.409148902 0.153388560
0.046467509 0.415563017 0.143405631
0.134669632 0.419286698 0.145672247
0.205187127 0.421385914 0.151414618
0.263788819 0.423323840 0.156480551
0.317716151 0.425056696 0.160673946
0.368549377 0.426486850 0.164708808
0.417744756 0.427518278 0.168009937
0.465445280 0.428459734 0.170779809
0.513024688 0.429006726 0.172103196
0.559459150 0.429672480 0.169590250
0.606878281 0.429572850 0.166499510
0.653796494 0.429298729 0.162691623
0.701010346 0.428582340 0.158406690
0.748335242 0.427069336 0.153496236
0.000000000 0.447364777 0.156171739
0.016708063 0.452743411 0.162284195
0.033711500 0.458475411 0.159780860
0.051445130 0.464468777 0.150965065
0.118183628 0.469365507 0.145771250
0.198096126 0.471735001 0.151494071
0.261111945 0.473389387 0.156704500
0.316163719 0.475174338 0.161089256
0.368748635 0.476616770 0.165040135
0.419202983 0.477764517 0.168539137
0.467832297 0.478456944 0.171228558
0.515470326 0.479273140 0.173730299
0.562324166 0.479759634 0.175855190
0.609553516 0.479934067 0.173535749
0.656055748 0.480073601 0.170273185
0.704090118 0.479885191 0.166127190
0.752489328 0.480813324 0.161466688
0.000000000 0.496817529 0.161930248
0.018186500 0.501881182 0.167585373
0.036816813 0.507492304 0.165273309
0.056128189 0.513234556 0.157475308
0.093645073 0.518701494 0.145106122
0.189739004 0.520966113 0.150832921
0.256264329 0.522940159 0.155936748
0.314396411 0.524492741 0.160376519
0.367974252 0.525863349 0.164345250
0.419033766 0.526990354 0.167726129
0.469305933 0.527712822 0.170616448
0.517430842 0.528390527 0.173128948
0.565280139 0.528954268 0.175177798
0.613118410 0.529785931 0.176795870
0.661332965 0.531263947 0.175218180
0.710406482 0.532833874 0.171152189
0.759469092 0.534223735 0.166265875
0.000000000 0.545648456 0.166798308
0.019714188 0.550878346 0.171693563
0.039917000 0.556002736 0.169821620
0.061057817 0.561458647 0.162559122
0.082260758 0.566952288 0.148395509
0.178036883 0.569828629 0.148968130
0.250516623 0.571574152 0.154200137
0.311008155 0.573147237 0.158644065
0.366213530 0.574445605 0.162533641
0.418793261 0.575516045 0.165984496
0.468993455 0.576228499 0.168921262
0.519548535 0.577490509 0.171228498
0.569569230 0.579244614 0.173043683
0.618924916 0.581341565 0.174187005
0.668445766 0.583096087 0.175037012
0.716973901 0.584664166 0.174212486
0.765901625 0.585980415 0.169684693
0.000000000 0.594318986 0.170534551
0.021242501 0.599710107 0.175022990
0.043464936 0.604298115 0.173147380
0.065470815 0.609204769 0.166517988
0.088249192 0.614346981 0.154131427
0.161529198 0.618008375 0.146400183
0.242967263 0.619832873 0.151638553
0.306244403 0.621351302 0.156063750
0.363672435 0.622481167 0.159894884
0.417663246 0.623505354 0.163328797
0.470939130 0.625848293 0.165839925
0.522919655 0.628259659 0.167773634
0.574301958 0.630314112 0.169175684
0.624306083 0.632400215 0.170038998
0.673975289 0.634060383 0.170723811
0.723160326 0.635423124 0.171159193
0.772077799 0.636662841 0.171159193
0.000000000 0.643170476 0.173188940
0.023262750 0.648012936 0.177228689
0.046330750 0.652236581 0.175323576
0.070200697 0.656751335 0.169589937
0.094322257 0.661189139 0.158074185
0.136157930 0.665629327 0.143567443
0.233778521 0.667408288 0.148348004
0.302120268 0.668800890 0.152706623
0.361546844 0.670600414 0.156560004
0.419330686 0.673327029 0.159056753
0.473597258 0.676041484 0.161325067
0.526832342 0.678363144 0.162980929
0.578208089 0.680540144 0.164138928
0.629126787 0.682382584 0.165073499
0.678979695 0.683951020 0.165719181
0.728755832 0.685360372 0.165765822
0.777840555 0.686548948 0.165782496
0.000000000 0.691542149 0.174713194
0.024839751 0.696013212 0.178273067
0.049681127 0.699941278 0.176799312
0.074592389 0.704054058 0.171351120
0.100460261 0.708215058 0.161285192
0.126896262 0.712506235 0.145467386
0.223429635 0.714869440 0.144390568
0.297307611 0.717172146 0.148469806
0.361339778 0.720570385 0.151366621
0.419764310 0.723433971 0.153640509
0.475477934 0.725882590 0.155653745
0.529199362 0.728044987 0.157120243
0.581378281 0.730100513 0.158320680
0.632775009 0.731921792 0.159058645
0.683322787 0.733351111 0.159529433
0.733494520 0.734718859 0.159732103
0.782920957 0.736030638 0.159500003
0.000000000 0.739723921 0.175349876
0.026368376 0.743961394 0.178647757
0.052230503 0.747659206 0.177205116
0.079035573 0.751242638 0.172187760
0.106349379 0.755090356 0.163172066
0.134231821 0.759479702 0.149116501
0.209664062 0.763866305 0.139115438
0.294674098 0.767249107 0.142674685
0.360369861 0.770184994 0.145261392
0.420519322 0.772802234 0.147663057
0.476846576 0.775223255 0.149243951
0.531048059 0.777362645 0.150744423
0.584038615 0.779324830 0.151732087
0.636077464 0.781006336 0.152487308
0.687002659 0.782574534 0.152766630
0.737513840 0.783948958 0.152995452
0.787531137 0.785293102 0.152752250
0.000000000 0.788552165 0.175110430
0.027255066 0.792016387 0.178010613
0.055333629 0.795379519 0.176562563
0.083475888 0.798862338 0.172144949
0.112236701 0.802456141 0.163962871
0.141470924 0.808036029 0.150151759
0.195446655 0.813492417 0.133173764
0.290887296 0.816767156 0.136229560
0.359685898 0.819509566 0.138774812
0.420489937 0.822062552 0.140864313
0.477915317 0.824360251 0.142435431
0.532705367 0.826570213 0.143796504
0.586491764 0.828353107 0.144836128
0.638811529 0.830113947 0.145369560
0.690252006 0.831677198 0.145662993
0.741272569 0.833187699 0.145957127
0.791918814 0.834566534 0.145682499
0.000000000 0.837240100 0.174217060
0.028733438 0.840606987 0.176685512
0.058319375 0.843459904 0.175422624
0.087812193 0.846692145 0.171250686
0.118118748 0.852061093 0.162838504
0.148538932 0.857501805 0.149387568
0.181887046 0.863184512 0.129042432
0.285701722 0.866345227 0.128983438
0.357684970 0.869029760 0.131704926
0.420299828 0.871387422 0.133625254
0.478323191 0.873762965 0.135225132
0.533957839 0.875874043 0.136275947
0.588406026 0.877691805 0.137354881
0.641137660 0.879456937 0.137935758
0.693116903 0.881195307 0.138245434
0.745069981 0.882607520 0.138266131
0.796500266 0.884034097 0.138266131
0.000000000 0.000000000 0.103987627
0.003006188 0.000000000 0.123977557
0.051943876 0.000000000 0.131185129
0.112615883 0.000000000 0.143041566
0.166923746 0.000000000 0.150905252
0.223029703 0.000000000 0.160160989
0.281170756 0.000000000 0.170282632
0.337231666 0.000000000 0.178472877
0.386644661 0.000000000 0.182277486
0.430535883 0.000000000 0.183174744
0.471316755 0.000000000 0.183017492
0.510139108 0.000000000 0.182142496
0.547923267 0.000000000 0.181013495
0.585203052 0.000000000 0.180193990
0.622644544 0.000000000 0.179177627
0.660485983 0.000000000 0.178570747
0.699030757 0.000000000 0.178126991
0.000000000 0.094009683 0.144869238
0.004632438 0.101139814 0.158576190
0.048191130 0.107665069 0.184771687
0.127480462 0.111342691 0.192975506
0.192438826 0.113834001 0.199375942
0.253240138 0.113133319 0.205692142
0.311555207 0.105844058 0.209297314
0.366870791 0.093690559 0.209337935
0.419520706 0.075305186 0.206706315
0.468518049 0.050333001 0.202074006
0.515008867 0.015179876 0.196198449
0.550415397 0.013208812 0.191638008
0.585291862 0.013947563 0.188355058
0.620648324 0.014884315 0.185661495
0.656709790 0.015623253 0.183621377
0.693704486 0.016362878 0.182193309
0.731932461 0.017841313 0.181366637
0.000000000 0.168951631 0.172015369
0.006111813 0.176426753 0.186294988
0.049647875 0.183081880 0.199422628
0.128052831 0.184580386 0.204798877
0.189501747 0.184780136 0.208357379
0.244086444 0.183862954 0.210669637
0.296337396 0.180786505 0.211940765
0.347221851 0.176039383 0.211743400
0.396694660 0.169567376 0.209857017
0.444488555 0.161261737 0.206627384
0.492027998 0.151346877 0.202520758
0.538283408 0.140040815 0.197638869
0.584617734 0.126161993 0.191897616
0.630675018 0.109830178 0.185956433
0.677070498 0.087827355 0.179031014
0.723328233 0.060020715 0.172556117
0.767224431 0.036373001 0.167839006
0.000000000 0.227181137 0.184170619
0.007738126 0.232530445 0.195482925
0.032871243 0.237905771 0.201562122
0.119196706 0.238594070 0.206491247
0.181815565 0.237934560 0.209683508
0.235631704 0.237235010 0.212052748
0.285478950 0.235701457 0.213219941
0.333770782 0.233321697 0.213148057
0.381131828 0.230332628 0.212194681
0.428749561 0.226331457 0.210575938
0.476030588 0.221470207 0.207981557
0.522002578 0.216695517 0.204897612
0.569553018 0.210702688 0.201357380
0.617404938 0.204223439 0.197498053
0.665467441 0.196770757 0.193007201
0.714109719 0.188316673 0.187934428
0.762720108 0.178578630 0.181967258
0.000000000 0.273205757 0.188433990
0.009906124 0.277986020 0.197932392
0.020601876 0.283464998 0.200250626
0.105032191 0.284692377 0.204571933
0.171404138 0.284895122 0.208473504
0.227662370 0.284378260 0.211571127
0.278630406 0.283939719 0.214139879
0.326486170 0.283262998 0.215877995
0.373723388 0.282430619 0.215963230
0.420979798 0.280931681 0.215315685
0.468195379 0.279485732 0.214369997
0.515913963 0.277696639 0.212860182
0.564332843 0.275107473 0.210962504
0.612545371 0.272259831 0.208353877
0.661107957 0.268482119 0.205203623
0.708899021 0.264346182 0.201200619
