public/lut/77.cube
TITLE "17x17x17 Adobe/IRIDAS cube 3D LUT exported with GrossGrade v0.2.2 (beta) 64 bit"
DOMAIN_MIN 0 0 0
DOMAIN_MAX 1 1 1
LUT_3D_SIZE 17
0.052347001 0.052347001 0.052347001
0.054647375 0.049711440 0.049711440
0.120108999 0.048380375 0.048380375
0.190178081 0.045008563 0.045008563
0.265853763 0.041374501 0.041374501
0.337708056 0.035436373 0.035436373
0.398842126 0.023755871 0.023755871
0.452228546 0.011286120 0.011286120
0.500923991 0.000394499 0.000394499
0.544438839 0.000000000 0.000000000
0.587759376 0.000000000 0.000000000
0.632391393 0.000000000 0.000000000
0.680125237 0.000000000 0.000000000
0.730814099 0.000000000 0.000000000
0.781280100 0.000000000 0.000000000
0.832777798 0.000000000 0.000000000
0.884621978 0.000000000 0.000000000
0.049626250 0.145743430 0.050305560
0.051644374 0.134900495 0.048985001
0.097697698 0.127442315 0.048294000
0.174170583 0.120879441 0.047024000
0.248783380 0.112640314 0.043586686
0.318817675 0.100872561 0.036225375
0.382294416 0.085154682 0.025579495
0.440155745 0.065856308 0.013208870
0.492683887 0.043437432 0.001133685
0.539576352 0.029177375 0.000000000
0.585457027 0.019024312 0.000000000
0.631625175 0.013701312 0.000098562
0.679908037 0.014144813 0.000838250
0.731480062 0.014884315 0.000641060
0.784279406 0.016264312 0.000000000
0.836059153 0.017053250 0.000000000
0.888568342 0.017841313 0.000000000
0.043538876 0.211035997 0.045007247
0.049837500 0.203395993 0.045007247
0.077898003 0.196708500 0.045095246
0.156862020 0.188556254 0.045052562
0.227943003 0.179207116 0.042134374
0.296159953 0.167918995 0.034746688
0.359718144 0.155153751 0.025333248
0.419687539 0.140667304 0.014687244
0.475640357 0.124813870 0.003055497
0.526716769 0.111345306 0.000000000
0.575598359 0.100110248 0.000000000
0.625426352 0.089185625 0.000000000
0.676421285 0.079713002 0.000000000
0.728991091 0.070948996 0.000000000
0.782503963 0.061483618 0.000000000
0.835359633 0.053175308 0.000000000
0.889037013 0.047896128 0.000000000
0.032134373 0.259358138 0.034352437
0.041370377 0.253651381 0.035140622
0.054889936 0.248764634 0.035978872
0.130403638 0.242052391 0.035929624
0.202199131 0.233433887 0.035929624
0.269900501 0.223992631 0.032972559
0.334363639 0.213089392 0.024544248
0.395849854 0.201067016 0.015672933
0.454272419 0.188515514 0.005766247
0.509626448 0.176291078 0.000000000
0.562572002 0.165587008 0.000000000
0.615710258 0.155926198 0.000000000
0.669161916 0.147765249 0.000000000
0.724133730 0.140050262 0.000000000
0.778351545 0.132889882 0.000000000
0.832952797 0.125795200 0.000000000
0.886736870 0.119111761 0.000000000
0.021883249 0.302235514 0.024051249
0.032775436 0.297331035 0.025037499
0.044634871 0.293392897 0.025825500
0.102722704 0.288297117 0.025874812
0.176133245 0.281487495 0.026614500
0.244891569 0.273428559 0.026614500
0.309876025 0.264510006 0.024248373
0.371690094 0.255071312 0.016461371
0.432995528 0.244718999 0.007885499
0.492081225 0.234169245 0.000000000
0.548725486 0.224718869 0.000000000
0.603951991 0.216632992 0.000000000
0.661079049 0.208993763 0.000000000
0.717471957 0.201685444 0.000000000
0.772132277 0.195343003 0.000000000
0.827919602 0.188522935 0.000000000
0.882915735 0.182034001 0.000000000
0.013356376 0.345818758 0.015475812
0.025776250 0.340796888 0.016264124
0.038492188 0.336788744 0.017200749
0.076068953 0.332644701 0.017841812
0.152694061 0.327114135 0.018088061
0.222126693 0.320745766 0.018629814
0.287425965 0.313625813 0.018876376
0.350981057 0.305960804 0.017249934
0.413759172 0.297950745 0.009610436
0.474658191 0.289618880 0.000838063
0.535470486 0.281231880 0.000000000
0.593984902 0.274243057 0.000000000
0.652279615 0.267302096 0.000000000
0.709643006 0.260530084 0.000000000
0.765274882 0.254359365 0.000000000
0.820556939 0.248427629 0.000000000
0.877379119 0.242188051 0.000000000
0.005618248 0.393882126 0.007688372
0.019812748 0.388648331 0.008723623
0.034499999 0.384654641 0.009265373
0.052671384 0.380148262 0.010054374
0.131310254 0.374927640 0.010842748
0.202310935 0.369713336 0.011631373
0.269336373 0.363625884 0.012420373
0.334158897 0.357585698 0.012912873
0.397798777 0.351030916 0.011828499
0.461006194 0.344202459 0.003745563
0.522270739 0.337673545 0.000000000
0.581862211 0.331323326 0.000000000
0.641929388 0.324516267 0.000000000
0.699843109 0.318179369 0.000000000
0.757291734 0.312044024 0.000000000
0.813986719 0.306078881 0.000000000
0.870986760 0.300322145 0.000000000
0.000000000 0.444846600 0.002020813
0.015179814 0.440120786 0.002366000
0.031050127 0.436231405 0.002710749
0.047350883 0.431617409 0.003351248
0.107470617 0.426958352 0.003843934
0.184412926 0.421907753 0.004632934
0.253764808 0.416469425 0.005470622
0.319977462 0.410943031 0.006209936
0.383811474 0.405175596 0.007442184
0.447479755 0.398984611 0.006407063
0.509771526 0.393094748 0.000000000
0.570679665 0.386954784 0.000000000
0.631035805 0.380647272 0.000000000
0.689912319 0.374677539 0.000000000
0.748302579 0.368743062 0.000000000
0.805803418 0.363193780 0.000000000
0.862821877 0.357936829 0.000000000
0.000000000 0.496145010 0.003154000
0.016708063 0.491415441 0.002760001
0.034204628 0.487582028 0.002760001
0.052108191 0.483562827 0.003006250
0.082200751 0.479485005 0.000000000
0.166436180 0.474808812 0.000000000
0.237357765 0.469895780 0.000000000
0.304715961 0.464587033 0.000394499
0.370058507 0.459321022 0.000788498
0.434339881 0.453687429 0.001577499
0.496814251 0.447963893 0.001380126
0.558969736 0.442201972 0.000000000
0.618760228 0.436918736 0.000000000
0.678917766 0.431074768 0.000000000
0.737628937 0.425595254 0.000000000
0.796748638 0.419834137 0.000000000
0.854179502 0.415119022 0.000000000
0.000000000 0.547242343 0.002809250
0.018630251 0.542715549 0.002809250
0.037605252 0.539092779 0.002366000
0.057019316 0.535391688 0.002366000
0.078349255 0.531556726 0.000591499
0.148728311 0.527362108 0.000000000
0.223361894 0.522586763 0.000000000
0.291090965 0.517954171 0.000000000
0.356968731 0.512922347 0.000000000
0.421041191 0.508010864 0.000000000
0.485186875 0.502224684 0.000000000
0.547151566 0.497091800 0.000000000
0.607910931 0.491939753 0.000000000
0.669377148 0.486403376 0.000000000
0.727536023 0.481814325 0.000000000
0.786886275 0.477652371 0.000000000
0.846317530 0.473809928 0.000000000
0.000000000 0.598468423 0.002661500
0.020158000 0.594129026 0.002366000
0.040592372 0.590811372 0.002366000
0.061646320 0.587446034 0.002366000
0.083360873 0.583838463 0.003548750
0.129873931 0.579943836 0.000000000
0.209256902 0.575353920 0.000000000
0.278249890 0.570984364 0.000000000
0.344887018 0.566417813 0.000000000
0.409311742 0.561702430 0.000000000
0.473533005 0.556628346 0.000000000
0.535562575 0.551800907 0.000000000
0.598103046 0.547058403 0.000000000
0.659303367 0.542655468 0.000000000
0.719627202 0.539304256 0.000000000
0.779695511 0.535543501 0.000000000
0.839762509 0.532000244 0.000000000
0.000000000 0.649714947 0.003154000
0.021735001 0.645581901 0.002366000
0.043790001 0.642530382 0.002366000
0.066473633 0.639371634 0.003154000
0.089559309 0.636135638 0.003154000
0.116905063 0.632490814 0.000000000
0.194798887 0.628294885 0.000000000
0.265634388 0.624187946 0.000000000
0.332888573 0.619907379 0.000000000
0.398155570 0.615403354 0.000000000
0.462457627 0.610955596 0.000000000
0.526504457 0.606948733 0.000000000
0.590791047 0.602802336 0.000000000
0.653375983 0.599036992 0.000000000
0.713717520 0.595843911 0.000000000
0.773563802 0.592530251 0.000000000
0.832157016 0.589834332 0.000000000
0.000000000 0.700971961 0.002957000
0.023262750 0.697493732 0.003154000
0.047040876 0.694229782 0.002366000
0.071151383 0.691863537 0.003154000
0.095558755 0.688486516 0.002563000
0.121111125 0.684852719 0.004140000
0.178867400 0.681310534 0.000000000
0.253774792 0.677429914 0.000000000
0.320919991 0.673698485 0.000000000
0.389322817 0.669382036 0.000000000
0.456799030 0.665253341 0.000000000
0.522488713 0.661427498 0.000000000
0.585114717 0.658315241 0.000000000
0.647628844 0.654879808 0.000000000
0.708569646 0.651802897 0.000000000
0.768501699 0.648932397 0.000000000
0.827799737 0.646157503 0.000000000
0.000000000 0.752593994 0.003154000
0.024987692 0.749190569 0.003154000
0.050268006 0.746708393 0.003154000
0.075597949 0.744092286 0.003154000
0.101700388 0.740737498 0.003154000
0.128516331 0.737809837 0.003696437
0.164111316 0.734398246 0.000000000
0.241961911 0.730737388 0.000000000
0.315876305 0.726736248 0.000000000
0.386052489 0.722921908 0.000000000
0.453232408 0.719254196 0.000000000
0.518792748 0.715819597 0.000000000
0.581930161 0.712839961 0.000000000
0.643866301 0.709888041 0.000000000
0.703965306 0.707252860 0.000000000
0.764036000 0.704742193 0.000000000
0.824096024 0.702042699 0.000000000
0.000000000 0.804363012 0.003154000
0.026368376 0.801221669 0.002366000
0.052966505 0.799012423 0.002366000
0.080224827 0.796124876 0.002366001
0.107755885 0.793582022 0.002563000
0.136041507 0.791073024 0.003154000
0.164935917 0.787474692 0.004829621
0.237743542 0.783600152 0.000000000
0.313422620 0.779783905 0.000000000
0.383729726 0.776245058 0.000000000
0.450724274 0.772892714 0.000000000
0.514818788 0.770215631 0.000000000
0.578543901 0.767337561 0.000000000
0.641058624 0.764481187 0.000000000
0.701110303 0.762180209 0.000000000
0.759329557 0.760630786 0.000000000
0.820029974 0.757884502 0.000000000
0.000000000 0.855785847 0.003154000
0.027945437 0.853215218 0.002366001
0.055964816 0.850986242 0.003154000
0.084730379 0.848126769 0.002366001
0.113687702 0.845908821 0.002612252
0.143361747 0.843463898 0.003154000
0.173695534 0.839261293 0.004435497
0.235585600 0.835607111 0.000000000
0.312762469 0.832312047 0.000000000
0.381095290 0.829551518 0.000000000
0.448486418 0.826460302 0.000000000
0.512204230 0.824202716 0.000000000
0.576322019 0.821299553 0.000000000
0.637213409 0.819398582 0.000000000
0.698953211 0.816917777 0.000000000
0.757456064 0.815602303 0.000000000
0.816249132 0.813984990 0.000000000
0.000000000 0.906906009 0.003154000
0.029473126 0.905113518 0.003154000
0.058927875 0.902640760 0.003154000
0.089041382 0.900349915 0.003154000
0.119705498 0.897846222 0.003154000
0.150586575 0.894274831 0.003154000
0.182416260 0.890610337 0.004139624
0.234478533 0.887296855 0.000000000
0.312182009 0.884559035 0.000000000
0.381375939 0.881863713 0.000000000
0.446922749 0.879724860 0.000000000
0.511178434 0.877600312 0.000000000
0.575129271 0.874904752 0.000000000
0.635336161 0.873734832 0.000000000
0.695895791 0.871944606 0.000000000
0.756443739 0.870150864 0.000000000
0.815499008 0.868915021 0.000000000
0.050431624 0.050431624 0.111855820
0.055241749 0.049753439 0.113542564
0.119966254 0.048985001 0.113451943
0.190588519 0.044963688 0.112151623
0.266280085 0.041948251 0.114074878
0.338238060 0.034648065 0.112317748
0.399040252 0.023262747 0.105166875
0.452786714 0.010547370 0.095762998
0.501589656 0.000000000 0.085985132
0.545398116 0.000000000 0.081303626
0.589173496 0.000000000 0.077074692
0.634389102 0.000000000 0.074487820
0.682390809 0.000000000 0.071837626
0.733219504 0.000000000 0.070688754
0.784496546 0.000000000 0.069699630
0.835668504 0.000000000 0.068656065
0.887746453 0.000000000 0.067094125
0.048985001 0.152831450 0.116821572
0.052264061 0.142195314 0.116796508
0.095783629 0.133451506 0.116133444
0.172646016 0.126585245 0.116796508
0.246746451 0.117155686 0.115309000
0.316639930 0.104778253 0.111417502
0.380167395 0.088656120 0.104468122
0.438168228 0.069602996 0.095613360
0.491510630 0.047210433 0.085541181
0.541860461 0.022178501 0.074415058
0.587749064 0.012419876 0.070852436
0.632220328 0.013208812 0.072079122
0.680836916 0.013996876 0.070656255
0.732258916 0.014884315 0.069129623
0.785210550 0.016264312 0.067600377
0.837534428 0.017053250 0.066029184
0.890235186 0.017841313 0.064860500
0.042085562 0.215575173 0.111750878
0.049154937 0.208107755 0.113418311
0.071191370 0.201228887 0.113743193
0.151918635 0.192850947 0.113067314
0.223632872 0.182861701 0.110402189
0.291703820 0.171641365 0.106170744
0.356421947 0.158424437 0.099802621
0.416905642 0.143752232 0.092002496
0.472958088 0.128291309 0.082917623
0.526897490 0.111440688 0.072576188
0.579055905 0.093333878 0.061172187
0.631376565 0.072465003 0.048092000
0.684910357 0.046338744 0.033120248
0.738390505 0.031198068 0.029583633
0.788004100 0.033317499 0.039400820
0.839598775 0.034894504 0.047859192
0.891623974 0.036471624 0.053212315
0.030557374 0.262984037 0.100823440
0.039864127 0.257202417 0.102008693
0.052876312 0.252214253 0.102728873
0.124490812 0.245329395 0.102395251
0.196877003 0.236894071 0.101257309
0.265259981 0.227066323 0.098668374
0.330046386 0.216180444 0.093751937
0.391925037 0.204309389 0.086825311
0.451131701 0.191392958 0.078910373
0.508346558 0.178115711 0.069869004
0.564000189 0.164584130 0.059396379
0.619453132 0.150986195 0.046841003
0.675660133 0.137136385 0.033021685
0.733071387 0.121603824 0.018826991
0.786091983 0.111949697 0.017201064
0.840379536 0.101656944 0.017890628
0.893583953 0.092445515 0.019270500
0.021143749 0.305880189 0.089195497
0.031838693 0.300756752 0.090078250
0.043255124 0.296489060 0.090861380
0.095717631 0.291338235 0.090829879
0.170112506 0.284474313 0.090400003
0.239343703 0.276416361 0.089158684
0.305321455 0.267453760 0.087091871
0.367948562 0.257791042 0.081690125
0.429172546 0.247561559 0.074995875
0.489177942 0.236762077 0.067167193
0.548176408 0.225851938 0.057397127
0.606545031 0.215452388 0.045526065
0.665081501 0.205032378 0.032331247
0.723807871 0.193908930 0.019467868
0.778624058 0.186082512 0.018433064
0.833487332 0.178373992 0.019221250
0.887969911 0.171795368 0.020010062
0.012321813 0.350225210 0.079606622
0.024988187 0.344769031 0.080050126
0.037950438 0.340359777 0.080491498
0.067791015 0.336021900 0.080491498
0.146297440 0.330211043 0.080050126
0.216700569 0.323661774 0.079570621
0.282308906 0.316776574 0.078752816
0.346657306 0.309048355 0.077161811
0.409721643 0.300637841 0.071316376
0.470751524 0.292554259 0.064447187
0.532189429 0.284166306 0.055665813
0.593167961 0.275677323 0.045134753
0.653487086 0.267055333 0.032577809
0.712778270 0.257931709 0.019812996
0.768779576 0.250813425 0.019369001
0.824531972 0.244079426 0.020158000
0.880824327 0.237222314 0.020946937
0.004583685 0.399400204 0.071592554
0.019270936 0.393418521 0.071592554
0.033810250 0.389126062 0.071592554
0.049133696 0.384234309 0.071267560
0.123117179 0.378938377 0.071067929
0.195529684 0.373411655 0.070699498
0.263191313 0.367398411 0.070168816
0.329286695 0.360776842 0.069668129
0.393130571 0.354298264 0.068527937
0.455803305 0.347857952 0.062300250
0.518682539 0.340559483 0.054483622
0.580335796 0.333276510 0.044291187
0.641448021 0.325714767 0.032134309
0.700266480 0.318342507 0.021094495
0.758225501 0.311368912 0.020305876
0.814804614 0.305167764 0.020996189
0.872897744 0.298358500 0.021735001
0.000000000 0.450358301 0.066189870
0.015179814 0.444752455 0.064501941
0.030705065 0.440547228 0.063822813
0.047176380 0.435828209 0.063637063
0.096412681 0.431087345 0.062602878
0.177075118 0.426103771 0.062345184
0.247055888 0.420523733 0.062133685
0.313934684 0.414644778 0.061807998
0.378165573 0.408851594 0.061218683
0.442778021 0.402381778 0.060433935
0.505336344 0.396132410 0.053005625
0.567535281 0.389440447 0.043202002
0.628540874 0.383036762 0.032725625
0.688810408 0.376218230 0.021833809
0.747174442 0.370013624 0.021735001
0.805705845 0.363694221 0.022178814
0.863422871 0.357575357 0.022967249
0.000000000 0.501284659 0.062576190
0.017053250 0.495859712 0.061104693
0.034204628 0.492123514 0.060252808
0.052108191 0.487751573 0.059309751
0.074280500 0.483506948 0.053831123
0.156590253 0.478938073 0.052734122
0.231157944 0.473361701 0.052734122
0.298385292 0.468221426 0.052079998
0.364666194 0.462530851 0.052129246
0.429190308 0.456769317 0.052079998
0.492204010 0.451015204 0.051552560
0.554658234 0.445112467 0.042846128
0.616115630 0.439136684 0.032972187
0.677124381 0.432847023 0.023065686
0.736002684 0.427049756 0.022918001
0.795774043 0.421146601 0.023361314
0.853830338 0.416914701 0.024051687
0.000000000 0.552314222 0.059395999
0.018630251 0.547106266 0.057915062
0.037605252 0.543650270 0.056984875
0.057019316 0.539653718 0.055697564
0.077237003 0.535433769 0.054625250
0.131260261 0.531599939 0.041120250
0.213246837 0.526505470 0.041536000
0.283827633 0.521473706 0.041444376
0.350788474 0.516316354 0.041169502
0.415877551 0.511014640 0.041919999
0.480181247 0.505301356 0.041969314
0.542705178 0.499804556 0.042304438
0.604293823 0.494617045 0.033760935
0.666402876 0.488782614 0.024248686
0.726387382 0.484536648 0.024051687
0.786150396 0.480597317 0.024839751
0.845213056 0.476899356 0.025184939
0.000000000 0.603357017 0.055785500
0.020158000 0.598784804 0.054518249
0.040592372 0.595272362 0.053589061
0.061646320 0.591577828 0.052582189
0.083529621 0.587830842 0.051632375
0.107194498 0.583964884 0.033807248
0.194605723 0.579411387 0.030163124
0.268338084 0.574764252 0.030902250
0.336885065 0.570095658 0.030902250
0.402459472 0.565204799 0.031690877
0.466786385 0.560088277 0.031542938
0.530999124 0.555130124 0.032331876
0.594875097 0.550290704 0.033810314
0.657518029 0.546223998 0.027058057
0.718558490 0.542455435 0.025579438
0.778640628 0.538748860 0.025924563
0.837994516 0.535242677 0.026417688
0.000000000 0.654459357 0.052671749
0.021735001 0.650671840 0.051200248
0.043790001 0.647321761 0.049486436
0.066583693 0.643611431 0.048160814
0.089559309 0.639944196 0.047165126
0.113550313 0.636184752 0.045940876
0.171680152 0.632607102 0.023016501
0.252847403 0.628209174 0.023509312
0.323191404 0.623616040 0.023706499
0.390349180 0.619071126 0.024297938
0.458213389 0.614435434 0.024839751
0.523644686 0.610524952 0.025579438
0.588813424 0.606255472 0.027353998
0.651036322 0.602722526 0.028832436
0.712512612 0.599103868 0.026663937
0.772422552 0.595950961 0.027205750
0.832387626 0.592605889 0.027945437
0.000000000 0.705925226 0.049486812
0.023262750 0.702299476 0.047475688
0.047040876 0.699035048 0.046121001
0.071151383 0.695965230 0.045279749
0.095941439 0.692163229 0.044116057
0.121111125 0.688713789 0.044430185
0.153845206 0.685403168 0.025579125
0.239974588 0.681446552 0.025037002
0.313659072 0.677012563 0.025234252
0.384673744 0.673002601 0.025825938
0.453293204 0.668885112 0.025924565
0.519389093 0.665095448 0.026614686
0.583135724 0.661656439 0.027156439
0.645386636 0.658495963 0.027353689
0.707347035 0.654994786 0.028043937
0.767433941 0.652059913 0.028684188
0.826826155 0.649337530 0.028930688
0.000000000 0.757507086 0.046164997
0.024987692 0.753902435 0.044835810
0.050268006 0.751071095 0.043430872
0.075597949 0.747993112 0.042138807
0.102016754 0.744386137 0.041483499
0.128770247 0.741289794 0.040915437
0.156185091 0.738051534 0.037453368
0.232032686 0.734135091 0.026368378
0.310890883 0.730109513 0.026565440
0.382427514 0.726281941 0.027156437
0.449770749 0.722883105 0.027304377
0.516319215 0.719111562 0.027945437
0.579559922 0.716240525 0.028142439
0.641857922 0.713227034 0.028881378
0.702820063 0.710493803 0.029473126
0.763597488 0.707613766 0.029670190
0.822213888 0.705365062 0.030261189
0.000000000 0.808822691 0.043525994
0.026466880 0.805279851 0.042092934
0.052966505 0.802850008 0.041390561
0.080319695 0.800065994 0.040153936
0.107800506 0.797036529 0.039961182
0.136041522 0.794182897 0.039329875
0.165058523 0.789813936 0.040968683
0.229849488 0.786281109 0.027945437
0.309327006 0.782734692 0.028043941
0.380291998 0.779352963 0.028684188
0.448196232 0.776003897 0.028832067
0.513133168 0.773148477 0.029473126
0.576702416 0.770430982 0.029620942
0.639502525 0.767528296 0.030261189
0.699795842 0.765289724 0.030359816
0.759868562 0.763015866 0.031099442
0.819014251 0.761183441 0.031789813
0.000000000 0.860069215 0.041487183
0.027945437 0.857133150 0.040727682
0.056003191 0.854622960 0.039378438
0.084758140 0.851942778 0.038591128
0.113924198 0.849003553 0.037999377
0.143361762 0.845560074 0.039132878
0.173782766 0.841527164 0.041108124
0.227422535 0.838307321 0.029473126
0.308618337 0.835194588 0.029522380
0.379307806 0.832034171 0.029867189
0.447029382 0.829083622 0.030310500
0.511777520 0.826535881 0.030557003
0.574885845 0.824260712 0.031099439
0.636797011 0.821994543 0.031789813
0.697595239 0.819779813 0.031888377
0.757163286 0.817994595 0.032577872
0.816670239 0.816329896 0.032676440
0.000000000 0.910892725 0.040058315
0.029473126 0.908514440 0.039329875
0.058927875 0.906113505 0.038640440
0.089041382 0.903795481 0.038591128
0.119792752 0.899858594 0.038640440
0.150851935 0.896359682 0.039379187
0.182548761 0.892883003 0.040342938
0.225961924 0.890388787 0.030754251
0.308306247 0.887465715 0.031050127
0.378951490 0.884698808 0.031050127
0.446329325 0.882077336 0.031839125
0.510380983 0.880017221 0.031839125
0.574258983 0.877689898 0.032577872
0.635144591 0.876052082 0.032627124
0.695445001 0.874545932 0.033366814
0.756136537 0.872563660 0.033416126
0.815699160 0.871202707 0.034154877
0.049070500 0.049669001 0.177501634
0.053963125 0.048985001 0.180909872
0.119011872 0.046979997 0.179478243
0.190583706 0.045462999 0.179525942
0.266629368 0.041948251 0.184565991
0.337162435 0.034401812 0.184019625
0.397663146 0.023065746 0.177765623
0.451578289 0.010054308 0.169012010
0.500334501 0.000000000 0.160117999
0.544666409 0.000000000 0.153163433
0.589064062 0.000000000 0.147998750
0.634799182 0.000000000 0.143845767
0.682992160 0.000000000 0.140956625
0.734577239 0.000000000 0.139619634
0.785997570 0.000000000 0.138202369
0.837489486 0.000000000 0.137076825
0.889436245 0.000000000 0.135728762
0.048337188 0.157613814 0.184299126
0.051061623 0.146518245 0.185874254
0.093057692 0.138030946 0.186071634
0.170503452 0.129401058 0.186387375
0.244836941 0.119804874 0.186472878
0.314056367 0.106605366 0.183428630
0.377109200 0.090767495 0.177548736
0.435440421 0.072017372 0.169861823
0.489678830 0.049487244 0.161110073
0.540178597 0.023608126 0.152173564
0.586926222 0.012419876 0.146000072
0.631971657 0.013208812 0.143652886
0.680880487 0.014194125 0.141239941
0.733233690 0.015426063 0.139333010
0.785759866 0.016264312 0.137658507
0.838181734 0.017053250 0.136236876
0.890962124 0.017841313 0.134820998
0.041277751 0.217882261 0.178156868
0.048465565 0.209813446 0.181121513
0.067623124 0.203127131 0.182555497
0.148140252 0.194337875 0.181788936
0.220266491 0.184581622 0.180051118
0.288479507 0.172991678 0.176505759
0.352920026 0.160107762 0.171431124
0.413303137 0.145578504 0.165041953
0.470494419 0.129818246 0.157655269
0.524571061 0.113359876 0.149887308
0.577650845 0.095031254 0.141823515
0.630210578 0.074755430 0.134369001
0.684840679 0.047744870 0.126919627
0.737697780 0.031740502 0.123387374
0.787974656 0.033317503 0.125908881
0.839422286 0.034943756 0.128194943
0.892257392 0.036471624 0.129556626
0.030409623 0.265066534 0.165678814
0.039720248 0.258781880 0.168437377
0.051826809 0.253569394 0.169843495
0.119411819 0.246603191 0.170251071
0.192933947 0.238208324 0.169329628
0.261150807 0.228558689 0.167147815
0.326353073 0.217712760 0.163342312
0.388311654 0.206008062 0.158309937
0.447768718 0.193221316 0.152486071
0.505699933 0.179855704 0.146133244
0.562498569 0.165963560 0.139524505
0.617527723 0.152945086 0.132818952
0.674499094 0.138665080 0.126262128
0.731877446 0.123240307 0.119166620
0.788573802 0.104293682 0.111307189
0.844383121 0.078388683 0.102421120
0.899410427 0.057105958 0.097754002
0.019714499 0.308001637 0.154132500
0.031049877 0.302440494 0.155960709
0.042511877 0.297968984 0.157229617
0.090633012 0.292791665 0.158160552
0.165965140 0.286010891 0.157923490
0.235249549 0.277970791 0.156926692
0.301207513 0.269000620 0.154928744
0.364753485 0.259273738 0.151556507
0.425916880 0.249257639 0.146962374
0.486186504 0.238574684 0.141911253
0.545352936 0.227721885 0.136413246
0.604315341 0.217258006 0.130668312
0.663612902 0.206581876 0.124700621
0.722151101 0.195506305 0.117971994
0.780241430 0.183257118 0.110304624
0.837076485 0.170165747 0.101445302
