public/lut/77.cube
TITLE "17x17x17 Adobe/IRIDAS cube 3D LUT exported with GrossGrade v0.2.2 (beta) 64 bit"
DOMAIN_MIN 0 0 0
DOMAIN_MAX 1 1 1
LUT_3D_SIZE 5
0.052347001 0.052347001 0.052347001
0.265853763 0.041374501 0.041374501
0.500923991 0.000394499 0.000394499
0.680125237 0.000000000 0.000000000
0.884621978 0.000000000 0.000000000
0.021883249 0.302235514 0.024051249
0.176133245 0.281487495 0.026614500
0.432995528 0.244718999 0.007885499
0.661079049 0.208993763 0.000000000
0.882915735 0.182034001 0.000000000
0.000000000 0.496145010 0.003154000
0.082200751 0.479485005 0.000000000
0.370058507 0.459321022 0.000788498
0.618760228 0.436918736 0.000000000
0.854179502 0.415119022 0.000000000
0.000000000 0.700971961 0.002957000
0.095558755 0.688486516 0.002563000
0.320919991 0.673698485 0.000000000
0.585114717 0.658315241 0.000000000
0.827799737 0.646157503 0.000000000
0.000000000 0.906906009 0.003154000
0.119705498 0.897846222 0.003154000
0.312182009 0.884559035 0.000000000
0.575129271 0.874904752 0.000000000
0.815499008 0.868915021 0.000000000
0.040791750 0.049669001 0.297552496
0.266553521 0.037457250 0.309948236
0.496209502 0.000000000 0.281626999
0.683989763 0.000000000 0.257699519
0.891676247 0.000000000 0.252559274
0.018531250 0.311026007 0.265828788
0.157138735 0.287650526 0.275355250
0.419509530 0.251331270 0.268671751
0.659666240 0.209486753 0.256063253
0.890957296 0.158635244 0.241084740
0.000000000 0.509887040 0.249567509
0.071676753 0.490397036 0.251844019
0.353468269 0.468358994 0.251011014
0.607519329 0.443663299 0.246518508
0.851679504 0.421894997 0.236669004
0.000000000 0.713928580 0.238997012
0.096375756 0.699419022 0.239073262
0.305703759 0.683028519 0.233615488
0.580499530 0.667581320 0.236033753
0.824294209 0.655505300 0.233531252
0.000000000 0.918330252 0.228286743
0.120125003 0.904749751 0.229671508
0.282924265 0.893126547 0.219894007
0.569880724 0.883406281 0.223351002
0.814831495 0.876527250 0.225677013
0.007885997 0.039428499 0.532599509
0.257848978 0.001182998 0.534554482
0.482195526 0.000000000 0.483930528
0.682140768 0.000000000 0.461643249
0.892433524 0.000000000 0.459906012
0.000000000 0.314743996 0.461582780
0.129633501 0.288971752 0.482057273
0.405126750 0.253700256 0.481743753
0.649782777 0.214493498 0.477652252
0.884376287 0.164477006 0.472176492
0.000000000 0.518541038 0.457259536
0.073607504 0.497060776 0.466634989
0.339466035 0.473919511 0.470977515
0.598130286 0.449527025 0.471294999
0.844760001 0.430110991 0.468655020
0.000000000 0.722745299 0.452859759
0.097885504 0.706696033 0.458028287
0.301763058 0.688957453 0.460481524
0.577568829 0.673878253 0.462759793
0.822604775 0.661708236 0.462394774
0.000000000 0.926563025 0.445558012
0.121358752 0.909967780 0.450810492
0.279595524 0.898379922 0.450544000
0.569378972 0.888899684 0.453538537
0.813688040 0.882488966 0.455211520
0.000000000 0.042703003 0.688985765
0.233220756 0.000000000 0.696866751
0.465410531 0.000000000 0.658203244
0.677389741 0.000000000 0.647308946
0.890668750 0.000000000 0.650335491
0.000000000 0.317600250 0.636574745
0.082026497 0.288252234 0.671369553
0.391613275 0.252525002 0.680037022
0.639858007 0.216388240 0.678676009
0.874983191 0.170197994 0.678307235
0.000000000 0.525103033 0.647769272
0.076494262 0.502145290 0.663340509
0.321467280 0.478426784 0.675138474
0.591708243 0.455243289 0.678218842
0.839627028 0.436156034 0.678151488
0.000000000 0.729255497 0.652003527
0.099969253 0.711743474 0.661994219
0.298059225 0.693759501 0.668642282
0.575737715 0.678808033 0.672301769
0.820482969 0.666880727 0.673789263
0.000000000 0.932783246 0.650707483
0.123070002 0.913772225 0.658547997
0.277324021 0.902310491 0.662566304
0.568985224 0.893570483 0.666918457
0.814427018 0.886905491 0.670058250
0.000000000 0.047596000 0.815639973
0.211175501 0.000000000 0.836077273
0.449642003 0.000000000 0.817812502
0.671368480 0.000000000 0.821275532
0.886700988 0.000000000 0.830556989
0.000000000 0.320717245 0.802448511
0.057863001 0.288638234 0.842203200
0.376966268 0.250053257 0.870181739
0.632125735 0.211369514 0.872619510
0.865529001 0.174357757 0.871027231
0.000000000 0.529695988 0.827773511
0.079901002 0.505704284 0.848779738
0.300806046 0.481083035 0.870688975
0.586541295 0.458842039 0.875784278
0.833838463 0.441282034 0.876255989
0.000000000 0.733850241 0.841888249
0.102497257 0.714599967 0.855871558
0.287439525 0.697562456 0.866365731
0.572623730 0.682686269 0.872346282
0.818267226 0.671333551 0.876064003
0.000000000 0.935265005 0.848538995
0.125156999 0.916728735 0.858314037
0.273136526 0.906004488 0.865724504
0.568555474 0.897374272 0.871807516
0.815042973 0.890684009 0.877070010
