public/lut/78.cube
TITLE "17x17x17 Adobe/IRIDAS cube 3D LUT exported with GrossGrade v0.2.2 (beta) 64 bit"
DOMAIN_MIN 0 0 0
DOMAIN_MAX 1 1 1
LUT_3D_SIZE 5
0.000000000 0.000000000 0.000000000
0.275943756 0.000000000 0.000000000
0.494796515 0.000000000 0.000000000
0.657780528 0.000000000 0.000000000
0.836459994 0.000000000 0.000000000
0.000000000 0.269343257 0.000000000
0.251298010 0.264392495 0.000000000
0.462064505 0.255259007 0.000000000
0.658435524 0.254833490 0.000000000
0.847879469 0.256024241 0.000000000
0.000000000 0.458434016 0.000000000
0.243822515 0.466665030 0.000000000
0.464551032 0.472778022 0.000000000
0.668969989 0.477313757 0.000000000
0.864017963 0.480136007 0.000000000
0.000000000 0.660769999 0.000000000
0.250696748 0.672073781 0.000000000
0.471167028 0.680766523 0.000000000
0.674410522 0.682022750 0.000000000
0.869310260 0.681257248 0.000000000
0.000000000 0.863822997 0.000000000
0.253011495 0.875464976 0.000000000
0.468263030 0.877979040 0.000000000
0.673361778 0.879800797 0.000000000
0.873100996 0.881523013 0.000000000
0.000000000 0.000000000 0.314585507
0.273460239 0.000000000 0.296432495
0.488464236 0.000000000 0.259257019
0.658845961 0.000000000 0.232207760
0.842561245 0.000000000 0.224519014
0.000000000 0.261079758 0.263458252
0.257005244 0.262193739 0.247198999
0.475742489 0.256578505 0.231420234
0.681853771 0.255593002 0.222149000
0.877109706 0.252739251 0.211970508
0.000000000 0.460958511 0.231461018
0.253690481 0.475576520 0.229228511
0.482027769 0.484576494 0.232194245
0.691942751 0.490483522 0.228966758
0.888107300 0.489746511 0.221969992
0.000000000 0.668980241 0.229204506
0.258330017 0.685914993 0.225101769
0.485747278 0.693727255 0.229568750
0.691283822 0.694766760 0.231868997
0.887715220 0.694030285 0.227751255
0.000000000 0.874680758 0.225813255
0.254409015 0.886999965 0.218377739
0.477870256 0.890629530 0.223212495
0.686456263 0.892674744 0.227377251
0.888122737 0.894223988 0.230544001
0.000000000 0.000000000 0.597548485
0.265212238 0.000000000 0.555170059
0.476392031 0.000000000 0.498651505
0.659061730 0.000000000 0.466949522
0.847871542 0.000000000 0.458276004
0.000000000 0.251286745 0.504720509
0.256326258 0.257216513 0.492893517
0.481565535 0.259791732 0.475945741
0.691290736 0.261853993 0.471884519
0.888875484 0.260577977 0.467097014
0.000000000 0.464081019 0.466247559
0.263444483 0.482046783 0.470946282
0.493955523 0.493253529 0.474179029
0.704596281 0.499683499 0.474152267
0.899692535 0.498031497 0.467896491
0.000000000 0.676010489 0.460988522
0.269642502 0.695562243 0.467533767
0.495888501 0.702072978 0.468077540
0.702383280 0.703725755 0.467162490
0.899507284 0.703374267 0.464295506
0.000000000 0.883469462 0.456469536
0.263460010 0.894876778 0.456595510
0.487042546 0.899429977 0.458569020
0.696148276 0.902079761 0.460220516
0.898101509 0.903707504 0.461535513
0.000000000 0.000000000 0.788245738
0.248748004 0.000000000 0.749041796
0.464403510 0.000000000 0.701057017
0.661117494 0.000000000 0.680146754
0.852807760 0.000000000 0.672695518
0.000000000 0.242496252 0.706439018
0.252560973 0.250364244 0.714118600
0.489839524 0.259485483 0.700320005
0.698578954 0.267312258 0.693540215
0.897977471 0.267554760 0.691430509
0.000000000 0.467432499 0.681056023
0.267807543 0.487871021 0.692291737
0.503594816 0.500464559 0.695789278
0.713051319 0.506101489 0.692709744
0.908689737 0.504865050 0.686490476
0.000000000 0.682161212 0.677657306
0.278492004 0.702786267 0.687195539
0.503483057 0.709218740 0.684279501
0.710513949 0.711637735 0.681923509
0.908278465 0.711280823 0.679600000
0.000000000 0.891138017 0.674416780
0.270316482 0.901664734 0.673392534
0.494821787 0.906844735 0.674068332
0.703989506 0.910028994 0.675023258
0.906447768 0.911941230 0.676213264
0.000000000 0.000000000 0.939270020
0.236601740 0.000000000 0.912909985
0.458172023 0.000000000 0.886276484
0.663431764 0.000000000 0.877309263
0.857442975 0.000000000 0.872523010
0.000000000 0.237693503 0.889846802
0.248292506 0.242892250 0.924569309
0.495463282 0.256562263 0.911372244
0.707911253 0.266665995 0.903431475
0.905507028 0.273229510 0.899097979
0.000000000 0.470504016 0.881157994
0.268918276 0.492114007 0.901479959
0.510739982 0.505831003 0.905591965
0.719811499 0.510603786 0.896731019
0.915372968 0.510556519 0.889604509
0.000000000 0.687530041 0.882670760
0.280269265 0.708028316 0.892292500
0.508676767 0.714963436 0.887424231
0.717233002 0.717926025 0.883177280
0.914112210 0.718403757 0.882306457
0.000000000 0.896290004 0.880729973
0.275552005 0.907485485 0.878719270
0.499853492 0.913349032 0.878822982
0.710555792 0.916728973 0.880174518
0.913137019 0.918802977 0.882377982
