public/lut/78.cube
TITLE "17x17x17 Adobe/IRIDAS cube 3D LUT exported with GrossGrade v0.2.2 (beta) 64 bit"
DOMAIN_MIN 0 0 0
DOMAIN_MAX 1 1 1
LUT_3D_SIZE 17
0.000000000 0.000000000 0.000000000
0.059101000 0.000000000 0.000000000
0.135609001 0.000000000 0.000000000
0.205456510 0.000000000 0.000000000
0.275943756 0.000000000 0.000000000
0.346319199 0.000000000 0.000000000
0.402707011 0.000000000 0.000000000
0.450865030 0.000000000 0.000000000
0.494796515 0.000000000 0.000000000
0.535616517 0.000000000 0.000000000
0.575844467 0.000000000 0.000000000
0.616197586 0.000000000 0.000000000
0.657780528 0.000000000 0.000000000
0.700815916 0.000000000 0.000000000
0.745310426 0.000000000 0.000000000
0.790773213 0.000000000 0.000000000
0.836459994 0.000000000 0.000000000
0.000000000 0.074918814 0.000000000
0.059012566 0.073903374 0.000000000
0.131522387 0.073399246 0.000000000
0.203036264 0.074754685 0.000000000
0.275977612 0.077333629 0.000000000
0.340085745 0.077492446 0.000000000
0.394728571 0.075614624 0.000000000
0.443254620 0.073146246 0.000000000
0.487453520 0.071095809 0.000000000
0.529745221 0.068583377 0.000000000
0.571436346 0.067527443 0.000000000
0.613199115 0.066672809 0.000000000
0.656275332 0.066160001 0.000000000
0.700290680 0.066672809 0.000000000
0.746514559 0.066715561 0.000000000
0.791856050 0.067266122 0.000000000
0.837927520 0.067814380 0.000000000
0.000000000 0.150546640 0.000000000
0.061283000 0.150793821 0.000000000
0.135735765 0.152094245 0.000000000
0.207963511 0.153100252 0.000000000
0.273073643 0.151584759 0.000000000
0.331319869 0.148901805 0.000000000
0.384190887 0.145486251 0.000000000
0.432906479 0.141804308 0.000000000
0.478662491 0.138713121 0.000000000
0.522829533 0.136148944 0.000000000
0.566287339 0.134137258 0.000000000
0.610424936 0.132792383 0.000000000
0.655581594 0.132448494 0.000000000
0.701666474 0.132750511 0.000000000
0.747788548 0.133087501 0.000000000
0.794248283 0.133369744 0.000000000
0.840775609 0.133650377 0.000000000
0.000000000 0.219009325 0.000000000
0.060967628 0.218654260 0.000000000
0.132800385 0.217633083 0.000000000
0.200560823 0.215466008 0.000000000
0.262271762 0.212637752 0.000000000
0.318969250 0.209081203 0.000000000
0.372007847 0.205444455 0.000000000
0.421762288 0.202046394 0.000000000
0.469102651 0.199115083 0.000000000
0.515583575 0.196870327 0.000000000
0.561861634 0.195613578 0.000000000
0.608888984 0.194820449 0.000000000
0.656410992 0.195002511 0.000000000
0.703670919 0.195368335 0.000000000
0.750505686 0.195606828 0.000000000
0.797291577 0.195847884 0.000000000
0.843845069 0.196208328 0.000000000
0.000000000 0.269343257 0.000000000
0.055712935 0.269316047 0.000000000
0.126367614 0.268343240 0.000000000
0.191131383 0.266527712 0.000000000
0.251298010 0.264392495 0.000000000
0.307762563 0.261559308 0.000000000
0.361324757 0.259035259 0.000000000
0.412137270 0.256868929 0.000000000
0.462064505 0.255259007 0.000000000
0.511283100 0.254264623 0.000000000
0.560695648 0.254165024 0.000000000
0.609739780 0.254470944 0.000000000
0.658435524 0.254833490 0.000000000
0.706367970 0.255131751 0.000000000
0.753267884 0.255596757 0.000000000
0.800749183 0.255578488 0.000000000
0.847879469 0.256024241 0.000000000
0.000000000 0.313790113 0.000000000
0.053068750 0.314532727 0.000000000
0.121889688 0.314137071 0.000000000
0.184397697 0.313704103 0.000000000
0.243933633 0.312493682 0.000000000
0.300569832 0.311415613 0.000000000
0.354759127 0.310664535 0.000000000
0.407573700 0.310281873 0.000000000
0.459925950 0.310302615 0.000000000
0.511323690 0.310892940 0.000000000
0.562293172 0.311357826 0.000000000
0.611679494 0.312019616 0.000000000
0.660927594 0.312444687 0.000000000
0.709282577 0.312849373 0.000000000
0.756782532 0.313331187 0.000000000
0.804312587 0.313558042 0.000000000
0.851784050 0.313980520 0.000000000
0.000000000 0.358652025 0.000000000
0.053863060 0.360069335 0.000000000
0.119725876 0.360778660 0.000000000
0.181733891 0.361483276 0.000000000
0.241406992 0.361916631 0.000000000
0.298186392 0.362732530 0.000000000
0.353972644 0.363586903 0.000000000
0.408063591 0.364650637 0.000000000
0.461213142 0.365477622 0.000000000
0.513202250 0.366302580 0.000000000
0.564262271 0.367076397 0.000000000
0.614152014 0.367946148 0.000000000
0.663660884 0.368499398 0.000000000
0.712060750 0.369161129 0.000000000
0.760285795 0.369569033 0.000000000
0.808143973 0.369999766 0.000000000
0.856262863 0.370466650 0.000000000
0.000000000 0.407345086 0.000000000
0.055644687 0.409802705 0.000000000
0.121368684 0.411455214 0.000000000
0.183013573 0.413026661 0.000000000
0.242230192 0.414399058 0.000000000
0.299499243 0.415777028 0.000000000
0.355165571 0.417122602 0.000000000
0.409745961 0.418308854 0.000000000
0.462842911 0.419576436 0.000000000
0.515282333 0.420549035 0.000000000
0.566450238 0.421643734 0.000000000
0.616867661 0.422489166 0.000000000
0.666427612 0.423287332 0.000000000
0.715458512 0.424143821 0.000000000
0.763834417 0.424680829 0.000000000
0.812036037 0.425230235 0.000000000
0.860026836 0.425870657 0.000000000
0.000000000 0.458434016 0.000000000
0.058520563 0.461119324 0.000000000
0.123405881 0.463189393 0.000000000
0.184768394 0.464887023 0.000000000
0.243822515 0.466665030 0.000000000
0.300990880 0.468367040 0.000000000
0.356742024 0.470036030 0.000000000
0.411032915 0.471450597 0.000000000
0.464551032 0.472778022 0.000000000
0.517198563 0.474097371 0.000000000
0.568547606 0.475272894 0.000000000
0.619433284 0.476239145 0.000000000
0.668969989 0.477313757 0.000000000
0.718647540 0.478170395 0.000000000
0.767047763 0.478961617 0.000000000
0.816075087 0.479661345 0.000000000
0.864017963 0.480136007 0.000000000
0.000000000 0.509238124 0.000000000
0.061387248 0.512154162 0.000000000
0.125903875 0.514233053 0.000000000
0.187022015 0.516444445 0.000000000
0.245669633 0.518428206 0.000000000
0.302837253 0.520349085 0.000000000
0.358485699 0.522127688 0.000000000
0.412995726 0.523765981 0.000000000
0.466462642 0.525383174 0.000000000
0.518909514 0.526808798 0.000000000
0.570876300 0.528067768 0.000000000
0.621669769 0.529451311 0.000000000
0.671855569 0.530510485 0.000000000
0.721723497 0.531261384 0.000000000
0.770120621 0.532274365 0.000000000
0.818310618 0.532085240 0.000000000
0.866157174 0.531525910 0.000000000
0.000000000 0.559659243 0.000000000
0.064202316 0.563063979 0.000000000
0.128202379 0.565371394 0.000000000
0.188795447 0.567717314 0.000000000
0.247306377 0.569925487 0.000000000
0.304304004 0.572019696 0.000000000
0.360065132 0.573912382 0.000000000
0.414707541 0.575659573 0.000000000
0.468381763 0.577420771 0.000000000
0.520902336 0.579030037 0.000000000
0.572823644 0.580558479 0.000000000
0.623985291 0.582027793 0.000000000
0.674325287 0.582624137 0.000000000
0.723286390 0.582952678 0.000000000
0.771427572 0.582688153 0.000000000
0.819351852 0.582131445 0.000000000
0.867511749 0.581648350 0.000000000
0.000000000 0.610203326 0.000000000
0.066969372 0.613783956 0.000000000
0.130285561 0.616253555 0.000000000
0.190598011 0.618788898 0.000000000
0.249017626 0.621101022 0.000000000
0.305971861 0.623293221 0.000000000
0.361751139 0.625258684 0.000000000
0.416379988 0.627284646 0.000000000
0.469633520 0.629286230 0.000000000
0.522685051 0.631047010 0.000000000
0.574590743 0.632334173 0.000000000
0.624995291 0.632740021 0.000000000
0.674977660 0.632744431 0.000000000
0.723493934 0.632618725 0.000000000
0.771849751 0.632267475 0.000000000
0.820107996 0.631940365 0.000000000
0.868500650 0.631649494 0.000000000
0.000000000 0.660769999 0.000000000
0.069609620 0.664423108 0.000000000
0.132379264 0.667144179 0.000000000
0.192372888 0.669642627 0.000000000
0.250696748 0.672073781 0.000000000
0.307436138 0.674437761 0.000000000
0.362936795 0.676582634 0.000000000
0.417552799 0.678712070 0.000000000
0.471167028 0.680766523 0.000000000
0.523728132 0.681841612 0.000000000
0.574965477 0.681973636 0.000000000
0.624922037 0.682158768 0.000000000
0.674410522 0.682022750 0.000000000
0.723704219 0.681907177 0.000000000
0.772357106 0.681645751 0.000000000
0.820754588 0.681484342 0.000000000
0.869310260 0.681257248 0.000000000
0.000000000 0.711557209 0.000000000
0.071691938 0.715165734 0.000000000
0.134045690 0.717946231 0.000000000
0.193746075 0.720640898 0.000000000
0.251780689 0.723149478 0.000000000
0.308565736 0.725475490 0.000000000
0.364056647 0.727869153 0.000000000
0.418510646 0.729871392 0.000000000
0.471161962 0.730807602 0.000000000
0.523369908 0.730881393 0.000000000
0.574134946 0.731137097 0.000000000
0.624534249 0.731210113 0.000000000
0.674215257 0.731256366 0.000000000
0.723675430 0.731233120 0.000000000
0.772515059 0.731055677 0.000000000
0.821189582 0.731172264 0.000000000
0.870169401 0.730931759 0.000000000
0.000000000 0.762219787 0.000000000
0.073176309 0.766151190 0.000000000
0.135256633 0.769018292 0.000000000
0.194947571 0.771572471 0.000000000
0.252739727 0.774199486 0.000000000
0.309034884 0.776801527 0.000000000
0.364187926 0.778819919 0.000000000
0.418060780 0.779246747 0.000000000
0.470521241 0.779724061 0.000000000
0.522326648 0.780089736 0.000000000
0.573466778 0.780282557 0.000000000
0.623873889 0.780500889 0.000000000
0.673858762 0.780631065 0.000000000
0.723634481 0.780654073 0.000000000
0.772668123 0.780770302 0.000000000
0.821589172 0.780854166 0.000000000
0.871055126 0.780900300 0.000000000
0.000000000 0.813030779 0.000000000
0.074712567 0.816962123 0.000000000
0.136415318 0.819830716 0.000000000
0.195793077 0.822466314 0.000000000
0.253295064 0.825243056 0.000000000
0.309447080 0.827070951 0.000000000
0.363546699 0.827852845 0.000000000
0.416949123 0.828302145 0.000000000
0.469490588 0.828867316 0.000000000
0.521350265 0.829152882 0.000000000
0.572692513 0.829498827 0.000000000
0.623115420 0.829893589 0.000000000
0.673686504 0.830067337 0.000000000
0.723117590 0.830420375 0.000000000
0.772983193 0.830573082 0.000000000
0.822208703 0.830943167 0.000000000
0.871928096 0.831112802 0.000000000
0.000000000 0.863822997 0.000000000
0.076185502 0.867734432 0.000000000
0.137274384 0.870661259 0.000000000
0.196689323 0.873307645 0.000000000
0.253011495 0.875464976 0.000000000
0.308263063 0.876233995 0.000000000
0.362561405 0.876827002 0.000000000
0.416057855 0.877328992 0.000000000
0.468263030 0.877979040 0.000000000
0.520497203 0.878428578 0.000000000
0.571862102 0.878922641 0.000000000
0.622757375 0.879371703 0.000000000
0.673361778 0.879800797 0.000000000
0.723436058 0.880251825 0.000000000
0.772935152 0.880681872 0.000000000
0.823171973 0.881179988 0.000000000
0.873100996 0.881523013 0.000000000
0.000000000 0.000000000 0.075723305
0.057791751 0.000000000 0.070422627
0.130802006 0.000000000 0.064275749
0.201222315 0.000000000 0.059645310
0.272487551 0.000000000 0.060611002
0.342918187 0.000000000 0.062027380
0.400312275 0.000000000 0.060344309
0.449289322 0.000000000 0.057399437
0.493457496 0.000000000 0.054342061
0.535078883 0.000000000 0.051732562
0.575321496 0.000000000 0.049763374
0.616346538 0.000000000 0.048005126
0.658102453 0.000000000 0.047036249
0.701547503 0.000000000 0.046904247
0.746681988 0.000000000 0.046326999
0.792267978 0.000000000 0.046326999
0.838473797 0.000000000 0.046326999
0.000000000 0.067391060 0.062567376
0.057926375 0.067391060 0.059012562
0.130650625 0.067391060 0.057304189
0.205298573 0.066757992 0.054877497
0.281310439 0.066687621 0.051954128
0.348378420 0.062503621 0.044550374
0.404756010 0.054700434 0.033514183
0.455140769 0.045726188 0.022720620
0.500724256 0.036422186 0.012617247
0.541723132 0.035830878 0.011631813
0.582094669 0.036619812 0.012419876
0.622948885 0.037703689 0.013208812
0.665378273 0.039228439 0.013996876
0.709414721 0.041477565 0.014884315
0.755164921 0.043519001 0.016264312
0.800372124 0.045014877 0.017053250
0.846424580 0.047099188 0.017841313
0.000000000 0.143911645 0.060610127
0.058930129 0.146490127 0.058366440
0.134805501 0.148137987 0.058493562
0.209024400 0.149419382 0.055641875
0.276667893 0.147845179 0.050007001
0.337297559 0.143951386 0.041638188
0.392235130 0.138745323 0.031789497
0.442766070 0.133196622 0.021735309
0.489551514 0.127696618 0.012666497
0.533282578 0.125110000 0.012370626
0.576309264 0.123568751 0.013159563
0.619843602 0.123063371 0.013947562
0.664659262 0.123086564 0.014736564
0.710975289 0.123770006 0.015672565
0.757027388 0.124692619 0.016412189
0.803391695 0.125312060 0.017151816
0.849601984 0.126246065 0.018531688
0.000000000 0.214731008 0.060533121
0.055032872 0.216284275 0.053366248
0.132410929 0.215466693 0.052720807
0.201976061 0.213628560 0.050817374
0.265267521 0.211142898 0.045511562
0.323581189 0.207345441 0.037950374
0.377862573 0.203236639 0.029472813
0.429030806 0.198852122 0.020946683
0.478053927 0.195036456 0.013109812
0.524612963 0.192650259 0.013208814
0.571032703 0.191438764 0.013947563
0.618082523 0.191102147 0.014982813
0.665641904 0.191509187 0.015721874
0.713085592 0.191948831 0.016461503
0.759600282 0.192674950 0.017201064
0.806441426 0.192946330 0.017890628
0.853214741 0.193503633 0.019270500
0.000000000 0.266736805 0.055171184
0.046473000 0.268478721 0.043831252
0.125023380 0.267707676 0.042579874
0.192446262 0.266142547 0.041731812
0.253864139 0.263810694 0.040344749
0.311521500 0.261437178 0.035387374
0.366340280 0.258773893 0.027895812
0.418539584 0.256375074 0.020749435
0.469745994 0.254432499 0.014144812
0.519739628 0.253536135 0.014588626
0.569550633 0.253417432 0.015327563
0.618978441 0.253977895 0.016116375
0.667518973 0.254380256 0.016905311
0.715527117 0.254825771 0.017693564
0.762631536 0.255301058 0.018433064
0.809933901 0.255589485 0.019221250
0.857142806 0.256164998 0.020010062
0.000000000 0.312163740 0.050145686
0.041250315 0.314581811 0.034746375
0.118958503 0.314529032 0.034007374
0.185005575 0.314111412 0.033810377
0.246391252 0.313280940 0.033021376
0.304233700 0.312345624 0.032479625
0.359245896 0.311737746 0.027107436
0.413424283 0.311517358 0.021143934
0.467191875 0.311661452 0.015278312
0.519223690 0.312264591 0.015869811
0.570326924 0.312924117 0.016609438
0.620191216 0.313612461 0.017053250
0.669610620 0.314004749 0.017841313
0.718028009 0.314573407 0.018630251
0.766001642 0.314975381 0.019369001
0.813264012 0.315490127 0.020158000
0.860940933 0.315831244 0.020946937
0.000000000 0.357884079 0.047906563
0.038393997 0.360975951 0.027599934
0.115490876 0.362099707 0.026811935
0.181681842 0.362870693 0.026762623
0.243120506 0.363874078 0.026220188
0.301892728 0.365002364 0.026762623
0.358358443 0.366147786 0.026516061
0.413914084 0.367168635 0.021143934
0.467816740 0.368212968 0.016708061
0.520244837 0.369224280 0.017053250
0.571924686 0.369971722 0.017841313
0.622543395 0.370707959 0.018383689
0.672068477 0.371525019 0.019122750
0.720799088 0.372143090 0.019911438
0.769009113 0.372779518 0.020305876
0.816923022 0.373312294 0.020996189
0.865150154 0.373585284 0.021735001
0.000000000 0.407268524 0.046590999
0.035929434 0.411482006 0.021094622
0.115095310 0.413564026 0.021341182
0.181980118 0.415501028 0.020601496
0.243627638 0.417266965 0.020552248
0.302538872 0.419042110 0.020601496
0.359696150 0.420343846 0.020601496
0.415068686 0.421824038 0.020650808
0.469051182 0.423117042 0.018235814
0.522140443 0.424259096 0.018630251
0.573987484 0.425353557 0.019073501
0.624947727 0.426331192 0.019862127
0.674631059 0.427351326 0.020404503
0.723812759 0.428041905 0.020946939
0.772545815 0.428757101 0.021735001
0.820926070 0.429350257 0.022178814
0.869402766 0.429925770 0.022967249
0.000000000 0.459048718 0.046277687
0.036471315 0.463512272 0.017053248
0.116435811 0.465990782 0.017053250
0.183378443 0.468085080 0.017447252
0.245080933 0.470089316 0.017693562
0.304027557 0.472039551 0.018235814
0.361184090 0.473866880 0.018630251
0.416680723 0.475371480 0.019024251
0.470837086 0.476983964 0.019418312
0.524043679 0.478349328 0.019812813
0.575796723 0.479659706 0.020601749
0.626944542 0.480826527 0.021193188
0.677282453 0.481867582 0.021735001
0.726944804 0.482730597 0.022129502
0.775993586 0.483694762 0.022918001
0.824797809 0.484035850 0.023361314
0.872384489 0.483931661 0.024051687
0.000000000 0.510407746 0.046277687
0.042782001 0.514970243 0.018630251
0.120059624 0.517617226 0.018630251
0.185834944 0.520007551 0.018975001
0.247351632 0.522279799 0.019368999
0.305972755 0.524393737 0.019763499
0.363041073 0.526390553 0.020158000
0.418364137 0.528190732 0.020552438
0.472605407 0.529966176 0.020946937
0.525771260 0.531692028 0.021291688
0.578094125 0.533048451 0.022030875
0.629487336 0.534395814 0.022523999
0.679712296 0.535565615 0.022868749
0.730160177 0.536219060 0.023657188
0.778172255 0.536386430 0.024150189
0.826009929 0.535802126 0.024839751
0.873794675 0.535273433 0.025184939
0.000000000 0.561490178 0.046277687
0.048608691 0.566255450 0.020158000
0.123835258 0.568900764 0.020453874
0.188479945 0.571537197 0.020503126
0.249250695 0.574071467 0.020946937
0.307771742 0.576488793 0.021242438
0.364799976 0.578424156 0.021488748
0.420131862 0.580474019 0.022030875
0.474531919 0.582474291 0.022474688
0.527534902 0.584327400 0.022819500
0.580102086 0.585976601 0.023262750
0.631240845 0.586862385 0.023607876
0.681457698 0.587292075 0.024347188
0.730243146 0.587134242 0.024839751
0.778554738 0.586717725 0.025579438
0.826765358 0.586137831 0.025924563
0.874610186 0.585811436 0.026417688
0.000000000 0.612519264 0.046006188
0.053566501 0.617568910 0.021735001
0.126669809 0.620330811 0.021981563
0.190679505 0.622994542 0.021981563
0.251184970 0.625564694 0.022523999
0.309492439 0.628042400 0.022770248
0.366164625 0.630400062 0.023016501
0.421472818 0.632597089 0.023509312
0.475683510 0.634677827 0.023706499
0.528983057 0.636431098 0.024297938
0.580764592 0.637091160 0.024839751
0.631245852 0.637249410 0.025086313
0.681060433 0.637153029 0.025825938
0.730098009 0.636843801 0.026368376
0.778563857 0.636607349 0.026663937
0.826830029 0.636368036 0.027205750
0.875504553 0.635827899 0.027945437
0.000000000 0.663538814 0.045561813
0.059033193 0.668435812 0.023262750
0.129854813 0.671367168 0.023509249
0.192735761 0.674218059 0.023509249
0.253035367 0.676814854 0.024051689
0.310901314 0.679491937 0.024248688
0.367077470 0.682040811 0.024593502
0.422803909 0.684219122 0.025037002
0.476440310 0.685847342 0.025234252
0.528987527 0.686272085 0.025825938
0.580232680 0.686489224 0.025924565
0.630717635 0.686503053 0.026614686
0.680413246 0.686602175 0.027156439
0.729908526 0.686345875 0.027353689
0.778711200 0.686156094 0.028043937
0.827193558 0.685991168 0.028684188
0.875789940 0.685674131 0.028930688
0.000000000 0.714535773 0.045561813
0.063054509 0.719408989 0.024987690
0.132181004 0.722391605 0.024987690
0.194512129 0.725307524 0.024987692
0.254271448 0.728047788 0.025579438
0.312007159 0.730667710 0.025776628
0.368199021 0.733264744 0.026121814
0.422552258 0.734678984 0.026368378
0.475680590 0.735089362 0.026565440
0.527972579 0.735400856 0.027156437
0.578932166 0.735747397 0.027304377
0.629858077 0.735737503 0.027945437
0.679759860 0.735825121 0.028142439
0.729550004 0.735754967 0.028881378
0.778289258 0.735761881 0.029473126
0.827577114 0.735579431 0.029670190
0.876182079 0.735463679 0.030261189
0.000000000 0.765367150 0.045561813
0.066271126 0.770241976 0.026466880
0.133728743 0.773353279 0.026516190
0.195712447 0.776260674 0.026516190
0.255001247 0.779184520 0.027156437
0.312292486 0.781775117 0.027255066
0.367570311 0.782976151 0.027255066
0.421581417 0.783573210 0.027945437
0.474475831 0.784030437 0.028043941
0.526866019 0.784416616 0.028684188
0.578307807 0.784642756 0.028832067
0.628929615 0.784963429 0.029473126
0.679205477 0.785115302 0.029620942
0.729051828 0.785198689 0.030261189
0.778311968 0.785276890 0.030359816
0.827619672 0.785292804 0.031099442
0.876918137 0.785357594 0.031789813
0.000000000 0.816408336 0.044843372
0.068474069 0.821165204 0.027945437
0.134901002 0.824353576 0.027994690
0.196501434 0.827313185 0.027994690
0.255210698 0.829980850 0.028684188
0.311604828 0.831125557 0.028733438
0.366486132 0.831848562 0.028782753
0.420165539 0.832549810 0.029473126
0.473298699 0.833062053 0.029522380
0.525416255 0.833503485 0.029867189
0.576966465 0.833857834 0.030310500
0.628132582 0.834225953 0.030557003
0.678530037 0.834505022 0.031099439
0.728535652 0.834820151 0.031789813
0.778375089 0.834987879 0.031888377
0.827943027 0.835158527 0.032577872
0.877562165 0.835334718 0.032676440
0.000000000 0.867582560 0.042679314
0.070583001 0.872004449 0.029473126
0.136063188 0.875138819 0.029522438
0.196928695 0.877938688 0.029522438
0.254302621 0.879164755 0.030113436
0.310579181 0.880009651 0.030261189
0.365165263 0.880852759 0.030261189
0.418764353 0.881603897 0.030754251
0.471872926 0.882218003 0.031050127
0.523971081 0.882801235 0.031050127
0.575695455 0.883289814 0.031839125
0.627082348 0.883720040 0.031839125
0.678050041 0.884063482 0.032577872
0.728161573 0.884584546 0.032627124
0.778220356 0.885041833 0.033366814
0.828297257 0.885270655 0.033416126
0.878411233 0.885617673 0.034154877
0.000000000 0.000000000 0.164608866
0.057393502 0.000000000 0.153153703
0.129486367 0.000000000 0.148059011
0.199539766 0.000000000 0.142536506
0.271758139 0.000000000 0.141347989
0.341511041 0.000000000 0.139439121
0.398995012 0.000000000 0.133452997
0.448007047 0.000000000 0.126080245
0.492248625 0.000000000 0.119098745
0.534273207 0.000000000 0.113024011
0.574919879 0.000000000 0.108005621
0.616178572 0.000000000 0.104186937
0.658342540 0.000000000 0.101266503
0.702353835 0.000000000 0.099196561
0.747749805 0.000000000 0.098081380
0.793686688 0.000000000 0.096920379
0.839838743 0.000000000 0.096165001
0.000000000 0.063173436 0.146251440
0.057926375 0.064199001 0.141827568
0.129970938 0.064647436 0.135355264
0.204686642 0.064561188 0.132822573
0.281105757 0.064533688 0.131661251
0.347804934 0.060275625 0.125403687
0.404170603 0.053103562 0.115884744
0.454622924 0.044752181 0.105553932
0.500748992 0.034993250 0.094630808
0.544593692 0.026121689 0.084532186
0.587413073 0.018186437 0.073722132
0.629856825 0.013208812 0.065277629
0.672367871 0.014194125 0.061368812
0.716849148 0.015426063 0.058149125
0.762461185 0.016264312 0.055696808
0.808079302 0.017151812 0.053513251
0.853840232 0.018137062 0.051846813
0.000000000 0.141347989 0.140698761
0.058892310 0.143772870 0.135060012
0.135270119 0.146236122 0.132495999
0.209520996 0.147556245 0.129410952
0.276974887 0.146017238 0.123816371
0.337639987 0.142595455 0.116248570
0.392696381 0.137897760 0.107842624
0.443081021 0.132389575 0.099124193
0.490704000 0.127228379 0.089815125
0.536498189 0.122178815 0.080778942
0.581847131 0.117141753 0.070750624
0.627555370 0.112997003 0.060791381
0.674533665 0.109282248 0.049539749
0.721893370 0.106534436 0.040734682
0.769055247 0.104720123 0.033317499
0.814472497 0.106569126 0.034943756
0.860139549 0.108388752 0.036471624
0.000000000 0.212042511 0.134041443
0.055032875 0.214283898 0.127315938
0.133232638 0.214029387 0.123584315
0.202583015 0.212348342 0.119512871
0.265978485 0.210067317 0.114165999
0.324268013 0.206613198 0.107565880
0.378948808 0.202815518 0.101021759
0.430310369 0.198908508 0.093667001
0.479657143 0.195170313 0.086686134
0.528049588 0.191810325 0.078581311
0.576539338 0.189165622 0.070661753
0.625306785 0.187401697 0.061901942
0.674801171 0.185990438 0.051985249
0.723347843 0.184613705 0.043418370
0.771155417 0.183316454 0.035485439
0.817208290 0.183776885 0.036520939
0.863719285 0.184807315 0.038048625
0.000000000 0.264927000 0.121640749
0.047652751 0.267210603 0.113951445
0.125956252 0.266805112 0.111088999
0.193967253 0.265519202 0.108556435
0.255380362 0.263564736 0.105691873
0.312879622 0.261409342 0.101468436
0.367820621 0.259009629 0.095963001
0.420544028 0.256924421 0.090525493
0.471947789 0.255229890 0.085042998
0.523484230 0.254008889 0.078523375
0.574812114 0.253418744 0.071944006
0.625867486 0.252966315 0.064300627
0.675822735 0.252341986 0.055647247
0.724820852 0.251660436 0.047343243
0.773295641 0.250919253 0.039421372
0.820462942 0.251006931 0.038097940
