public/lut/79.cube
TITLE "17x17x17 Adobe/IRIDAS cube 3D LUT exported with GrossGrade v0.2.2 (beta) 64 bit"
DOMAIN_MIN 0 0 0
DOMAIN_MAX 1 1 1
LUT_3D_SIZE 17
0.000000000 0.000000000 0.000000000
0.018186688 0.000000000 0.000000000
0.084782749 0.000000000 0.000000000
0.146659195 0.000000000 0.000000000
0.202596009 0.000000000 0.000000000
0.259620547 0.000000000 0.000000000
0.321422130 0.000000000 0.000000000
0.377044410 0.000000000 0.000000000
0.425227016 0.000000000 0.000000000
0.468312323 0.000000000 0.000000000
0.509115577 0.000000000 0.000000000
0.548374116 0.000000000 0.000000000
0.587038517 0.000000000 0.000000000
0.625930011 0.000000000 0.000000000
0.664882660 0.000000000 0.000000000
0.705580771 0.000000000 0.000000000
0.748156011 0.000000000 0.000000000
0.000000000 0.051808685 0.000000000
0.006062563 0.037605003 0.000000000
0.064911440 0.030655812 0.000000000
0.126831383 0.024741188 0.000000000
0.184319690 0.019960938 0.000000000
0.240914240 0.015475437 0.000000000
0.302351952 0.011976812 0.000000000
0.362363338 0.010053876 0.000000000
0.413752407 0.010497689 0.000000000
0.459841609 0.011631813 0.000000000
0.502422750 0.012419876 0.000000000
0.542931139 0.013208812 0.000000000
0.582792878 0.013947563 0.000000000
0.622288167 0.014884315 0.000000000
0.662593186 0.016264312 0.000000000
0.703695118 0.017053250 0.000000000
0.746769130 0.017841313 0.000000000
0.000000000 0.106240004 0.000000000
0.006111813 0.097756065 0.000000000
0.056016255 0.092241503 0.000000000
0.117206641 0.088028312 0.000000000
0.176452875 0.085227624 0.000000000
0.237571746 0.084587499 0.000000000
0.299043030 0.083848372 0.000000000
0.355409682 0.081828751 0.000000000
0.405942380 0.078852497 0.000000000
0.453125626 0.075717315 0.000000000
0.496508628 0.072474003 0.000000000
0.538627863 0.069710746 0.000000000
0.580052733 0.067411505 0.000000000
0.620240986 0.065747999 0.000000000
0.661631048 0.064635754 0.000000000
0.703971744 0.063613817 0.000000000
0.748150468 0.063072503 0.000000000
0.000000000 0.165174320 0.000000000
0.007738126 0.156641379 0.000000000
0.048319437 0.152635455 0.000000000
0.114143454 0.149784014 0.000000000
0.175822511 0.148554638 0.000000000
0.235963821 0.147042766 0.000000000
0.293989450 0.144734144 0.000000000
0.347934723 0.141674265 0.000000000
0.397719145 0.138228685 0.000000000
0.444848180 0.134827450 0.000000000
0.489892989 0.131401256 0.000000000
0.533458769 0.128443763 0.000000000
0.575859308 0.126066506 0.000000000
0.618237257 0.124322131 0.000000000
0.660750270 0.122526698 0.000000000
0.704723120 0.121893391 0.000000000
0.749843478 0.121257201 0.000000000
0.000000000 0.219680503 0.000000000
0.009906124 0.214622632 0.000000000
0.041778002 0.211859509 0.000000000
0.110441893 0.209116310 0.000000000
0.171203494 0.206622243 0.000000000
0.229604572 0.203527376 0.000000000
0.285732001 0.200352132 0.000000000
0.337762833 0.197108507 0.000000000
0.388160497 0.193605497 0.000000000
0.436201870 0.190375447 0.000000000
0.482504725 0.186929390 0.000000000
0.526939332 0.184281871 0.000000000
0.571514249 0.181951761 0.000000000
0.615965068 0.180118620 0.000000000
0.660018325 0.178908125 0.000000000
0.706180930 0.178197205 0.000000000
0.752862751 0.177988499 0.000000000
0.000000000 0.264786929 0.000000000
0.011631813 0.262002677 0.000000000
0.035978686 0.260350674 0.000000000
0.103415444 0.258578241 0.000000000
0.163086131 0.256375879 0.000000000
0.220554188 0.253721356 0.000000000
0.275132447 0.251051992 0.000000000
0.327919155 0.248260006 0.000000000
0.378620684 0.245245621 0.000000000
0.427374691 0.242459312 0.000000000
0.475435257 0.239661440 0.000000000
0.521663487 0.237609312 0.000000000
0.568156362 0.235872865 0.000000000
0.614351511 0.234600753 0.000000000
0.660303175 0.234279320 0.000000000
0.707764149 0.234060809 0.000000000
0.756578982 0.234500006 0.000000000
0.000000000 0.306739271 0.000000000
0.013208813 0.304982007 0.000000000
0.032035749 0.304412633 0.000000000
0.097540386 0.303287894 0.000000000
0.156053126 0.301744282 0.000000000
0.211983070 0.300357610 0.000000000
0.266675383 0.298495770 0.000000000
0.319275975 0.296575338 0.000000000
0.370539248 0.294597775 0.000000000
0.420428753 0.292576641 0.000000000
0.469892979 0.290924996 0.000000000
0.517858207 0.289881587 0.000000000
0.566056371 0.289088517 0.000000000
0.613959551 0.288859397 0.000000000
0.662857056 0.289112031 0.000000000
0.711552501 0.289547890 0.000000000
0.760987878 0.290252775 0.000000000
0.000000000 0.348121732 0.000000000
0.015179814 0.347300768 0.000000000
0.031642001 0.347226113 0.000000000
0.093494140 0.346798837 0.000000000
0.150483310 0.346290648 0.000000000
0.206168890 0.345653474 0.000000000
0.260415256 0.344876915 0.000000000
0.313431174 0.344227582 0.000000000
0.364975512 0.343515843 0.000000000
0.416407317 0.342639089 0.000000000
0.466693550 0.342372835 0.000000000
0.516798079 0.342420280 0.000000000
0.566516280 0.342849523 0.000000000
0.616469562 0.343544155 0.000000000
0.666165471 0.344106346 0.000000000
0.715761065 0.344864041 0.000000000
0.765189111 0.345691592 0.000000000
0.000000000 0.391352534 0.000000000
0.016708063 0.391261518 0.000000000
0.034500126 0.391640276 0.000000000
0.090873018 0.391984880 0.000000000
0.147322506 0.392418027 0.000000000
0.202636883 0.392788082 0.000000000
0.256770641 0.393057257 0.000000000
0.310029924 0.393305659 0.000000000
0.362783998 0.393918514 0.000000000
0.415379941 0.394479215 0.000000000
0.466725528 0.395461768 0.000000000
0.518185139 0.396282911 0.000000000
0.568948746 0.397265017 0.000000000
0.619421601 0.398279876 0.000000000
0.669504404 0.399235010 0.000000000
0.719904423 0.399866819 0.000000000
0.769626021 0.401104510 0.000000000
0.000000000 0.438220203 0.000000000
0.018630251 0.438659847 0.000000000
0.037605252 0.439387262 0.000000000
0.090561196 0.440425605 0.000000000
0.146762431 0.441634834 0.000000000
0.201933429 0.442923069 0.000000000
0.256596774 0.444088995 0.000000000
0.310319334 0.445421368 0.000000000
0.363767147 0.446718693 0.000000000
0.416311920 0.447978020 0.000000000
0.468553692 0.449093223 0.000000000
0.520530164 0.450344771 0.000000000
0.571390033 0.451714575 0.000000000
0.623088837 0.452610940 0.000000000
0.672968149 0.454180002 0.000000000
0.723973811 0.455605060 0.000000000
0.775672436 0.456939429 0.000000000
0.000000000 0.488103747 0.000000000
0.020158000 0.489213198 0.000000000
0.040592372 0.490565896 0.000000000
0.090717569 0.492063820 0.000000000
0.147289872 0.493582517 0.000000000
0.202962175 0.495074928 0.000000000
0.257733256 0.496634752 0.000000000
0.311580658 0.498306334 0.000000000
0.365326792 0.499903649 0.000000000
0.418067008 0.501510978 0.000000000
0.470804274 0.502866626 0.000000000
0.522808731 0.504492283 0.000000000
0.574872255 0.506117642 0.000000000
0.626464725 0.507648528 0.000000000
0.678466320 0.509464622 0.000000000
0.729573607 0.511192083 0.000000000
0.781518638 0.512624085 0.000000000
0.000000000 0.538968086 0.000000000
0.021735001 0.540553033 0.000000000
0.043790001 0.542095065 0.000000000
0.091755889 0.544114232 0.000000000
0.148200244 0.545889854 0.000000000
0.203912884 0.547802627 0.000000000
0.258788943 0.549680173 0.000000000
0.313064009 0.551571786 0.000000000
0.366795450 0.553351343 0.000000000
0.419801742 0.555327892 0.000000000
0.473266333 0.557052732 0.000000000
0.526225209 0.559040189 0.000000000
0.579263985 0.560911894 0.000000000
0.631518781 0.562857628 0.000000000
0.683468521 0.564500511 0.000000000
0.734864116 0.566176414 0.000000000
0.786963224 0.567610800 0.000000000
0.000000000 0.590251565 0.000000000
0.023262750 0.592481971 0.000000000
0.047040876 0.594310999 0.000000000
0.092462264 0.596488714 0.000000000
0.149535254 0.598754704 0.000000000
0.205344677 0.600771844 0.000000000
0.260223776 0.602889895 0.000000000
0.314521462 0.605112851 0.000000000
0.368242770 0.607285023 0.000000000
0.423182279 0.609182775 0.000000000
0.477465868 0.611431241 0.000000000
0.530746818 0.613638401 0.000000000
0.583696544 0.615629256 0.000000000
0.636198699 0.617429376 0.000000000
0.688303232 0.619052052 0.000000000
0.740142226 0.620770633 0.000000000
0.791875482 0.622264028 0.000000000
0.000000000 0.642381191 0.000000000
0.024987692 0.644772887 0.000000000
0.050268006 0.647270977 0.000000000
0.093861014 0.649525285 0.000000000
0.151113689 0.651859045 0.000000000
0.206742555 0.654200554 0.000000000
0.261997014 0.656504869 0.000000000
0.316301972 0.659051120 0.000000000
0.371671826 0.661416709 0.000000000
0.427183568 0.663490951 0.000000000
0.481260300 0.665923297 0.000000000
0.534814060 0.667939007 0.000000000
0.587897480 0.669899642 0.000000000
0.640310466 0.671897411 0.000000000
0.692672312 0.673409641 0.000000000
0.744550526 0.675229609 0.000000000
0.796891153 0.676563978 0.000000000
0.000000000 0.694912195 0.000000000
0.026368376 0.698001981 0.000000000
0.052966505 0.700614452 0.000000000
0.095466949 0.702865064 0.000000000
0.152413622 0.705557227 0.000000000
0.207781509 0.708130121 0.000000000
0.263644785 0.710628510 0.000000000
0.319748491 0.713231206 0.000000000
0.375759244 0.715560198 0.000000000
0.430526555 0.717960238 0.000000000
0.484921485 0.720004439 0.000000000
0.538229227 0.722261846 0.000000000
0.591348529 0.724249065 0.000000000
0.644241750 0.726081073 0.000000000
0.696616709 0.727809787 0.000000000
0.748283267 0.729676008 0.000000000
0.800823867 0.731309175 0.000000000
0.000000000 0.747895777 0.000000000
0.027945437 0.751414537 0.000000000
0.055964816 0.753829539 0.000000000
0.097428828 0.756361306 0.000000000
0.154080570 0.759221554 0.000000000
0.210140452 0.762002885 0.000000000
0.267497838 0.764556766 0.000000000
0.323563069 0.767044604 0.000000000
0.379056960 0.769666553 0.000000000
0.433759809 0.771911085 0.000000000
0.488167375 0.774031937 0.000000000
0.541077435 0.776512325 0.000000000
0.595364094 0.778165221 0.000000000
0.647442043 0.780375659 0.000000000
0.700678527 0.781940579 0.000000000
0.752496541 0.784016728 0.000000000
0.804630160 0.785872936 0.000000000
0.000000000 0.801218987 0.000000000
0.029473126 0.804777682 0.000000000
0.058927875 0.807387114 0.000000000
0.099403635 0.810153842 0.000000000
0.156241506 0.813150764 0.000000000
0.214007437 0.815841615 0.000000000
0.270948529 0.818228006 0.000000000
0.326974034 0.820834041 0.000000000
0.381744027 0.823472023 0.000000000
0.436973453 0.825611472 0.000000000
0.491064250 0.828040361 0.000000000
0.544768035 0.830245733 0.000000000
0.598937988 0.832089007 0.000000000
0.651508868 0.834295094 0.000000000
0.704072058 0.836192250 0.000000000
0.756643057 0.838283420 0.000000000
0.809607029 0.840016007 0.000000000
0.000000000 0.000000000 0.042630002
0.015869999 0.000000000 0.047641378
0.086779818 0.000000000 0.050533313
0.147633687 0.000000000 0.052220751
0.204352945 0.000000000 0.052515689
0.262613505 0.000000000 0.054684691
0.325222373 0.000000000 0.057647750
0.380646616 0.000000000 0.058688376
0.428534567 0.000000000 0.057870254
0.472057611 0.000000000 0.056938253
0.512715697 0.000000000 0.055733062
0.552403629 0.000000000 0.053915624
0.591083109 0.000000000 0.053106312
0.630354226 0.000000000 0.052492559
0.669977367 0.000000000 0.051391751
0.711319506 0.000000000 0.051391751
0.754164934 0.000000000 0.051342439
0.000000000 0.058783501 0.051194627
0.005322875 0.047197748 0.052515693
0.067650124 0.040573876 0.054921310
0.131429702 0.033661995 0.055127501
0.192525506 0.025382312 0.054950878
0.253580093 0.016658500 0.054362122
0.317665786 0.009019001 0.054210749
0.373109549 0.009315126 0.057791755
0.421065807 0.010497689 0.059822436
0.465341866 0.011631813 0.060631752
0.507347822 0.012419876 0.061133936
0.547659814 0.013208812 0.059944000
0.587705553 0.013996876 0.058783501
0.627683580 0.014884315 0.057605565
0.668252707 0.016264312 0.057034627
0.709929287 0.017053250 0.056449566
0.753773451 0.017841313 0.056986816
0.000000000 0.114642382 0.053817064
0.006111813 0.106482498 0.056225374
0.057745755 0.101983570 0.057383500
0.121211007 0.097663000 0.058526881
0.183863014 0.094688505 0.059123747
0.248877361 0.092562564 0.060192939
0.311129123 0.088144809 0.058603436
0.368097782 0.081406370 0.054605559
0.419135660 0.072771937 0.048747063
0.467338830 0.062841251 0.041363813
0.512212276 0.051504876 0.033415999
0.555089653 0.041006126 0.026417438
0.596964896 0.033021502 0.020158060
0.637138665 0.031198068 0.020354878
0.677199662 0.033317503 0.023312503
0.719031632 0.034894504 0.026269376
0.762598693 0.036471624 0.028536875
0.000000000 0.175525635 0.060300186
0.007738126 0.167674154 0.062536314
0.050016124 0.163965136 0.061439253
0.118745200 0.161534220 0.063645750
0.182207301 0.158998460 0.065305628
0.243364871 0.156416401 0.064383939
0.301898718 0.152428135 0.061824940
0.356791228 0.147100642 0.058128059
0.408147603 0.141156748 0.052799996
0.456752062 0.134820074 0.046806499
0.502898693 0.128128439 0.039560936
0.547840953 0.121666774 0.032282248
0.591425717 0.115425326 0.025924310
0.635393918 0.109285749 0.019270744
0.678207755 0.105781443 0.017201064
0.722335398 0.104035452 0.017890628
0.767552137 0.103245884 0.019270500
0.000000000 0.227384374 0.061722066
0.009906124 0.223091185 0.065082751
0.039974120 0.221079573 0.062288120
0.111791886 0.218191832 0.063983001
0.174160495 0.215358555 0.065602124
0.234050632 0.211952880 0.066160001
0.290740401 0.208091617 0.063445255
0.344079167 0.204038307 0.060131751
0.395796120 0.199461386 0.055648185
0.445355892 0.194402263 0.050243691
0.493298084 0.189424306 0.044097498
0.539674699 0.184861198 0.037408251
0.585538685 0.180656254 0.031148624
0.631475806 0.176406816 0.024938561
0.677306235 0.173236564 0.018925563
0.723570228 0.171602935 0.019221250
0.770977795 0.171246767 0.020010062
0.000000000 0.271708310 0.061224125
0.011631813 0.269034296 0.064218998
0.029916251 0.268214434 0.059246749
0.101760328 0.266557008 0.061160497
0.164718553 0.264242232 0.062591687
0.223834127 0.261185288 0.063560188
0.279097706 0.258495063 0.063595437
0.332652092 0.255489111 0.061258934
0.384853631 0.251811981 0.057524063
0.434690744 0.248504072 0.053340375
0.484025598 0.244965062 0.048294686
0.532084703 0.242015123 0.042403124
0.580445826 0.239036560 0.036422186
0.628237665 0.236701310 0.030507995
0.676862895 0.234562069 0.024692308
0.725234866 0.233439177 0.020158000
0.774408937 0.233119994 0.020946937
0.000000000 0.313293457 0.060081437
0.013701312 0.311596006 0.063108191
0.027600251 0.311623037 0.058599502
0.093119510 0.310773879 0.057241999
0.156001136 0.309550494 0.058922432
0.214167997 0.307889521 0.060163938
0.269571424 0.306116521 0.061269060
0.323691398 0.303734988 0.061676752
0.375697136 0.301826000 0.058949124
0.426713169 0.299947411 0.055378944
0.477386594 0.297968596 0.051210500
0.527406096 0.296380132 0.046681747
0.577540696 0.295128167 0.041231439
0.627084732 0.294294715 0.035880245
0.677427113 0.293585002 0.030508056
0.727333784 0.292824894 0.024494996
0.777893305 0.292168826 0.021735001
0.000000000 0.354843169 0.059481122
0.015179814 0.354160279 0.062351376
0.030705065 0.354379326 0.060848311
0.085658699 0.354636848 0.053926248
0.148964494 0.354289144 0.055750564
0.207105011 0.353780895 0.057193000
0.263222635 0.352928519 0.058688376
0.317814350 0.352126151 0.059564248
0.370380372 0.351396322 0.060117375
0.422719061 0.350989461 0.057535566
0.474524617 0.350664079 0.054381315
0.526588380 0.350386173 0.050493754
0.577454805 0.350821376 0.045976497
0.628588796 0.350694537 0.040521622
0.679275930 0.350565404 0.034993060
0.729790211 0.350468665 0.029472809
0.780795813 0.349972934 0.023411065
0.000000000 0.398917049 0.059481122
0.017053250 0.398740470 0.062395371
0.034204628 0.399369270 0.062838875
0.079437017 0.400687248 0.051267378
0.144463375 0.401131064 0.053070124
0.203210682 0.401524663 0.054686189
0.259799153 0.401954144 0.056291562
0.314816475 0.402414590 0.057497755
0.368750185 0.403091222 0.058986373
0.422075689 0.403962880 0.060363565
0.474909574 0.404626638 0.057713121
0.526888549 0.405302584 0.054498311
0.578618586 0.406013072 0.049986564
0.630692482 0.406185150 0.045215435
0.681126952 0.406752795 0.040136181
0.732935190 0.406886041 0.034697119
0.783949494 0.407523125 0.029275503
0.000000000 0.446623564 0.060383126
0.018630251 0.447237968 0.063222811
0.037605252 0.448239505 0.065133065
0.073740080 0.450504631 0.048692189
0.141556442 0.451630443 0.050972126
0.201446131 0.452893913 0.052859873
0.259170711 0.454025298 0.054626875
0.314768910 0.455110759 0.056165501
0.369375825 0.456366122 0.057448439
0.423186749 0.457490176 0.058639813
0.476404876 0.458419442 0.059765123
0.528676152 0.459540218 0.057436999
0.580541611 0.460745662 0.053807247
0.633491755 0.461046249 0.049646057
0.684504569 0.462466538 0.044807181
0.736596227 0.463319123 0.039853055
0.788361788 0.464117318 0.034401253
0.000000000 0.496649176 0.062071376
0.020158000 0.497999787 0.064855941
0.040592372 0.499396950 0.066492312
0.069914199 0.501974940 0.046700940
0.138715938 0.503758132 0.048642874
0.200341508 0.505304933 0.050633624
0.258477181 0.506829441 0.052367814
0.314622074 0.508350253 0.054025814
0.369965255 0.509839296 0.055564001
0.423606664 0.511430562 0.056548938
0.477457464 0.512550414 0.057750940
0.530593216 0.514073372 0.059112065
0.583624780 0.515288770 0.057387687
0.636484206 0.516658485 0.053757995
0.688473821 0.517986357 0.049722746
0.740357399 0.518982291 0.044448122
0.792390466 0.519816339 0.039276250
0.000000000 0.547287822 0.063194998
0.021735001 0.549665213 0.066115625
0.043790001 0.551370800 0.067829691
0.067128196 0.554283619 0.045907624
0.135794252 0.556285977 0.045944996
0.199196681 0.558107853 0.047954254
0.257767469 0.560052514 0.049702249
0.314918607 0.561707973 0.051161185
0.369966537 0.563555717 0.052922312
0.424784869 0.565273643 0.054292813
0.479764432 0.566856205 0.056154564
0.533759594 0.568449736 0.057739500
0.587173939 0.569963157 0.058963060
0.639749110 0.571514606 0.057224184
0.692030311 0.572720230 0.053511057
0.743932307 0.573887646 0.048578184
0.796281993 0.574745655 0.043041062
0.000000000 0.598845124 0.064261749
0.023262750 0.601471186 0.066977121
0.047040876 0.603560150 0.068614565
0.071151383 0.606523991 0.050211307
0.133283943 0.608784676 0.042548001
0.198469311 0.610996008 0.044512812
0.257808447 0.613163948 0.046333436
0.315362215 0.615123868 0.048118688
0.371481091 0.617144644 0.050279189
0.427660733 0.619185865 0.052016187
0.483119667 0.620922029 0.054006498
0.536948264 0.622660697 0.055281311
0.590251088 0.624309480 0.056538314
0.643671751 0.625467300 0.057728000
0.695466876 0.626971185 0.056066308
0.747651875 0.628172100 0.051642999
0.799604237 0.629356742 0.047025502
0.000000000 0.650770426 0.065253124
0.024987692 0.653690279 0.067938253
0.050268006 0.656089544 0.069120631
0.075597949 0.659074903 0.054375250
0.128777131 0.661956668 0.039372623
0.196863994 0.664317369 0.041047558
0.257303089 0.666719675 0.043004684
0.316299319 0.668864250 0.045089185
0.374231249 0.670950949 0.047469623
0.430512637 0.672930956 0.049479559
0.485555649 0.674740016 0.050947059
0.540095687 0.676398218 0.052349746
0.593511701 0.678017259 0.053490434
0.646767497 0.679374516 0.054685306
0.698911369 0.680785000 0.055911873
0.751431048 0.682017326 0.054203872
0.803078532 0.683450282 0.049730442
0.000000000 0.703003824 0.065814130
0.026466880 0.706452906 0.068005249
0.052966505 0.708905995 0.069920190
0.080319695 0.712129653 0.057438124
0.123778701 0.715331912 0.035929371
0.195424438 0.717922032 0.037851747
0.258894652 0.720193326 0.039998684
0.318696648 0.722519696 0.041890748
0.376540154 0.724534214 0.044229500
0.433100820 0.726431251 0.046110369
0.488292307 0.728235662 0.047512811
0.542304099 0.730178952 0.048967369
0.596463442 0.731632471 0.050195932
0.649549603 0.733154893 0.050906502
0.702082217 0.734573066 0.052188121
0.754562855 0.735983551 0.052841809
0.806693137 0.737365305 0.051692627
0.000000000 0.756009936 0.066328809
0.027945437 0.759380817 0.068481311
0.056003191 0.762204349 0.070019193
0.084758140 0.765293837 0.060280997
0.120517939 0.768808544 0.033662498
0.196388200 0.771358728 0.035091307
0.260714263 0.773690701 0.037260182
0.321187526 0.775644541 0.039127182
0.378888458 0.777894557 0.040481247
0.435341120 0.779784858 0.042267185
0.490524501 0.781732023 0.043371186
0.545192659 0.783450425 0.044777684
0.598956168 0.785337806 0.046109937
0.652311027 0.786740005 0.046944812
0.705228448 0.788288355 0.048203748
0.757725120 0.789802969 0.048296250
0.810479105 0.791314423 0.049570374
0.000000000 0.808889091 0.066370122
0.029473126 0.812484920 0.068481311
0.058927875 0.815411568 0.070019193
0.089041382 0.818605423 0.061576188
0.120898813 0.822011530 0.032035500
0.197716624 0.824409485 0.032282311
0.262751907 0.826798022 0.033957750
0.322842300 0.828969240 0.035929248
0.380810082 0.831177592 0.037358813
0.437086552 0.833214283 0.038788002
0.492789060 0.835129559 0.039959751
0.547457874 0.836930811 0.040913500
0.601765931 0.838614881 0.042273127
0.654806674 0.840467691 0.042831812
0.708350360 0.842035651 0.044198688
0.761115432 0.843721330 0.044921126
0.814468801 0.845234156 0.045587689
0.000000000 0.000000000 0.099312499
0.015869999 0.000000000 0.102050997
0.086843997 0.000000000 0.103759497
0.148321778 0.000000000 0.107395753
0.206082255 0.000000000 0.108981498
0.265586644 0.000000000 0.112172194
0.328067422 0.000000000 0.117263630
0.382705837 0.000000000 0.118470937
0.430177420 0.000000000 0.117442124
0.473637640 0.000000000 0.115607001
0.514466882 0.000000000 0.113663130
0.554186344 0.000000000 0.111748375
0.593267441 0.000000000 0.110339746
0.632682204 0.000000000 0.109032251
0.673024237 0.000000000 0.108301505
0.714659214 0.000000000 0.107935376
0.758165121 0.000000000 0.107935376
0.000000000 0.064007998 0.105440065
0.004632438 0.053786188 0.111250505
0.069579132 0.047049940 0.113750696
0.132215589 0.040475249 0.115053564
0.193760186 0.032134313 0.117091134
0.256870300 0.023805313 0.119747996
0.321542263 0.015278623 0.122853749
0.378491104 0.009758376 0.123314694
0.425888419 0.010842876 0.122573689
0.469712794 0.011631813 0.121211439
0.510965526 0.012419876 0.119665623
0.551295280 0.013208812 0.118367188
0.590912104 0.014194125 0.117162190
0.630939126 0.014884315 0.116222188
0.671663105 0.016264312 0.115534879
0.713894010 0.017053250 0.114844188
0.758174241 0.017841313 0.114844188
0.000000000 0.121050999 0.111352503
0.006111813 0.111427248 0.114099815
0.058924627 0.107412003 0.117031634
0.123985447 0.103707001 0.119830184
0.188135624 0.101617374 0.123731248
0.252560496 0.098959565 0.127343878
0.313896656 0.094345875 0.128098249
0.369958162 0.087574989 0.126462623
0.421383619 0.078567997 0.122983120
0.468947172 0.069603689 0.118530810
0.513916016 0.058971502 0.113641754
0.557393968 0.047713879 0.108639501
0.599768221 0.038048498 0.104318999
0.641303480 0.031740502 0.100387625
0.681992054 0.033317503 0.100779250
0.724196136 0.034943756 0.101504877
0.768396735 0.036471624 0.101945750
0.000000000 0.181442261 0.120241560
0.008378375 0.174527898 0.123936936
0.051904567 0.171314582 0.126017004
0.121381700 0.168179750 0.128757820
0.184991509 0.165699646 0.130670130
0.246053487 0.162135080 0.131460309
0.303594977 0.157738581 0.130493060
0.358213782 0.152374148 0.128221184
0.409487069 0.146562576 0.125301689
0.458022565 0.140271947 0.121362187
0.505153060 0.133421957 0.117267691
0.549483418 0.127430260 0.113010883
0.594060242 0.121171393 0.108751997
0.638313115 0.114979438 0.104400247
0.683149278 0.108959503 0.100087866
0.729030609 0.102296889 0.096056372
0.777016342 0.095245332 0.091554068
0.000000000 0.232022747 0.121315248
0.009906124 0.227940887 0.125962004
0.041473500 0.226012364 0.127115130
0.113762394 0.223346815 0.129025057
0.176557243 0.220094144 0.130790383
0.235677749 0.216806754 0.131138250
0.292234778 0.213049501 0.130215496
0.345902085 0.208695322 0.128302872
0.397420287 0.204041630 0.126007378
0.446972936 0.199087873 0.122736625
0.494869143 0.194416881 0.119584627
0.541773260 0.189881518 0.115901619
0.588313162 0.185723886 0.112498745
0.634943247 0.181770742 0.108966127
0.681625426 0.178437248 0.105431378
0.729438424 0.175172001 0.101985253
