public/lut/79.cube
TITLE "17x17x17 Adobe/IRIDAS cube 3D LUT exported with GrossGrade v0.2.2 (beta) 64 bit"
DOMAIN_MIN 0 0 0
DOMAIN_MAX 1 1 1
LUT_3D_SIZE 5
0.000000000 0.000000000 0.000000000
0.202596009 0.000000000 0.000000000
0.425227016 0.000000000 0.000000000
0.587038517 0.000000000 0.000000000
0.748156011 0.000000000 0.000000000
0.000000000 0.219680503 0.000000000
0.171203494 0.206622243 0.000000000
0.388160497 0.193605497 0.000000000
0.571514249 0.181951761 0.000000000
0.752862751 0.177988499 0.000000000
0.000000000 0.391352534 0.000000000
0.147322506 0.392418027 0.000000000
0.362783998 0.393918514 0.000000000
0.568948746 0.397265017 0.000000000
0.769626021 0.401104510 0.000000000
0.000000000 0.590251565 0.000000000
0.149535254 0.598754704 0.000000000
0.368242770 0.607285023 0.000000000
0.583696544 0.615629256 0.000000000
0.791875482 0.622264028 0.000000000
0.000000000 0.801218987 0.000000000
0.156241506 0.813150764 0.000000000
0.381744027 0.823472023 0.000000000
0.598937988 0.832089007 0.000000000
0.809607029 0.840016007 0.000000000
0.000000000 0.000000000 0.193930253
0.207871005 0.000000000 0.211699501
0.432083040 0.000000000 0.225630507
0.596590757 0.000000000 0.215574265
0.765091538 0.000000000 0.213714004
0.000000000 0.239099771 0.228695244
0.178343251 0.227635741 0.245877996
0.399258018 0.211414248 0.244198769
0.592773736 0.194567248 0.236399755
0.787636757 0.182575762 0.232234985
0.000000000 0.412420988 0.223642007
0.152155250 0.416080266 0.236359760
0.379865259 0.419478297 0.245542258
0.592431784 0.421890259 0.248896509
0.799229980 0.422943771 0.247161999
0.000000000 0.614454806 0.234006494
0.141914755 0.625457764 0.240658239
0.384027243 0.633155048 0.248400748
0.602990508 0.637927294 0.251682013
0.810996771 0.641382754 0.249742761
0.000000000 0.823619485 0.237991512
0.131001502 0.836213470 0.237855509
0.389432013 0.843552709 0.242523760
0.610288978 0.849354982 0.244490743
0.822708488 0.854527235 0.244804010
0.000000000 0.000000000 0.368060023
0.217224002 0.000000000 0.411567271
0.430000544 0.000000000 0.417268515
0.599999547 0.000000000 0.406703532
0.776798487 0.000000000 0.410578012
0.000000000 0.248061255 0.416007757
0.175486505 0.236682266 0.449474514
0.400428504 0.222077757 0.450205028
0.601006746 0.209717244 0.451070249
0.802107692 0.199619263 0.456779003
0.000000000 0.428741008 0.422487020
0.159188509 0.433261216 0.448030800
0.391003013 0.436748505 0.463414490
0.606692255 0.438831508 0.472683758
0.813600004 0.438033521 0.474152505
0.000000000 0.631605029 0.442841291
0.151253760 0.643213034 0.462189019
0.395932257 0.648731768 0.471395016
0.614196539 0.651491523 0.474807799
0.822587252 0.652912021 0.474667013
0.000000000 0.840235949 0.452761531
0.144934759 0.850169480 0.461445510
0.398743510 0.855566502 0.466750503
0.619312286 0.859781027 0.468901515
0.830916524 0.863774002 0.469330519
0.000000000 0.012026002 0.546852767
0.217078507 0.000000000 0.588687003
0.423972249 0.000000000 0.586407304
0.601225257 0.000000000 0.582629323
0.786293983 0.000000000 0.596017778
0.000000000 0.253153503 0.580130279
0.166939259 0.240578502 0.631557524
0.402284741 0.227912754 0.640657485
0.610725760 0.221261755 0.650722980
0.812868536 0.213610500 0.662183523
0.000000000 0.442248523 0.609088004
0.156121761 0.447451502 0.647639513
0.398459524 0.450823277 0.669221759
0.617611289 0.451239765 0.679831028
0.823956966 0.449019015 0.682884514
0.000000000 0.645790279 0.641346753
0.158061266 0.657160997 0.669046998
0.403800011 0.660292029 0.678929329
0.622548103 0.661355257 0.683526099
0.830282211 0.661551297 0.685170531
0.000000000 0.853924513 0.658977985
0.154995769 0.860665262 0.670762479
0.406136274 0.864416540 0.676997304
0.625732541 0.867701769 0.680431962
0.837690234 0.870471716 0.682097495
0.000000000 0.025234001 0.701717973
0.210063249 0.000000000 0.738304019
0.416925520 0.000000000 0.740718007
0.603107512 0.000000000 0.749774992
0.794206977 0.000000000 0.773270011
0.000000000 0.257243246 0.732989788
0.155265510 0.242195994 0.803487241
0.404641032 0.232667997 0.825882733
0.620153010 0.226567507 0.844289243
0.823090553 0.222079247 0.857820034
0.000000000 0.453549504 0.787772000
0.146705508 0.458666801 0.839574516
0.403300494 0.461647004 0.867505968
0.625413775 0.459765494 0.877357483
0.832063019 0.456470490 0.881316543
0.000000000 0.657549262 0.832199514
0.149496496 0.667765737 0.866048753
0.407670021 0.668801010 0.877237260
0.628476024 0.668435752 0.883375049
0.836392045 0.667706490 0.886512518
0.000000000 0.863952994 0.857179999
0.162051260 0.868728757 0.871413231
0.410427511 0.871461987 0.879140973
0.630478799 0.873598993 0.884196281
0.842577994 0.875855982 0.887643993
