public/lut/80.cube
TITLE "17x17x17 Adobe/IRIDAS cube 3D LUT exported with GrossGrade v0.2.2 (beta) 64 bit"
DOMAIN_MIN 0 0 0
DOMAIN_MAX 1 1 1
LUT_3D_SIZE 5
0.000000000 0.000000000 0.000000000
0.233184993 0.000000000 0.000000000
0.478897512 0.000000000 0.000000000
0.658529997 0.000000000 0.000000000
0.858920991 0.000000000 0.000000000
0.000000000 0.245951995 0.002168750
0.182857499 0.233387992 0.000000000
0.435632765 0.215227246 0.000000000
0.656146765 0.204800755 0.000000000
0.879037023 0.204175502 0.000000000
0.000000000 0.450576007 0.002366000
0.154132247 0.458775759 0.000000000
0.417174011 0.465175033 0.000000000
0.663348019 0.469889998 0.000000000
0.898751020 0.472147018 0.000000000
0.000000000 0.682278037 0.002366000
0.154864997 0.701206207 0.000000000
0.417747259 0.714469016 0.000000000
0.665507495 0.719272971 0.000000000
0.898302257 0.717990041 0.000000000
0.000000000 0.912320018 0.003154000
0.163404018 0.935257971 0.000000000
0.414270520 0.942991972 0.000000000
0.656189561 0.944440007 0.000000000
0.886417985 0.942731023 0.000000000
0.000000000 0.000000000 0.274976999
0.219745249 0.000000000 0.263069004
0.471710235 0.000000000 0.248390749
0.662039220 0.000000000 0.225712001
0.870729268 0.000000000 0.223077744
0.000000000 0.245633259 0.255327493
0.182467997 0.240465507 0.259912997
0.446214497 0.224243745 0.247758269
0.686816037 0.210876748 0.238532245
0.921804488 0.196062267 0.229490757
0.000000000 0.465581775 0.234531999
0.153686255 0.481539994 0.243836761
0.435622007 0.491241515 0.253908753
0.693503499 0.496781260 0.256574988
0.931774735 0.492950261 0.249311015
0.000000000 0.705125749 0.241068512
0.128253996 0.731580794 0.244884506
0.430839002 0.742123783 0.254029006
0.679759502 0.739359200 0.254823267
0.910749972 0.732683539 0.247810751
0.000000000 0.937855005 0.243564248
0.120125003 0.958340764 0.243226513
0.411368012 0.960233748 0.236907750
0.658395767 0.956593513 0.235978752
0.889471531 0.950793743 0.233570009
0.000000000 0.000000000 0.531762540
0.217115507 0.000000000 0.532920241
0.458075017 0.000000000 0.496090531
0.664182007 0.000000000 0.472764760
0.880539536 0.000000000 0.473821998
0.000000000 0.240832239 0.505460739
0.171699256 0.238172263 0.532437086
0.447927058 0.229497999 0.519791484
0.699273944 0.224344507 0.522693992
0.939283788 0.212162748 0.523637772
0.000000000 0.476973534 0.490647018
0.161200494 0.496911049 0.518809795
0.448685527 0.509319067 0.535632491
0.708629012 0.514364243 0.544059753
0.938670516 0.506615996 0.538125992
0.000000000 0.722197294 0.501390517
0.140598744 0.752077460 0.526314557
0.438738048 0.754475534 0.532419086
0.686156273 0.747457504 0.528675795
0.915304422 0.737581253 0.520249248
0.000000000 0.956963003 0.502492011
0.121358752 0.969608188 0.510265231
0.414760530 0.967228532 0.507377982
0.659246504 0.960707784 0.501590252
0.890199482 0.952326536 0.496684521
0.000000000 0.000000000 0.736051798
0.200609252 0.000000000 0.737212002
0.443374038 0.000000000 0.708371997
0.667508245 0.000000000 0.702653766
0.888789773 0.000000000 0.708823264
0.000000000 0.235584512 0.716601312
0.149439245 0.229608744 0.776654780
0.454523027 0.229488000 0.780194521
0.711366057 0.231029496 0.783660293
0.952196777 0.225891009 0.787920237
0.000000000 0.486901760 0.730317533
0.145935521 0.509955049 0.778376460
0.457615793 0.523748636 0.802236736
0.717224538 0.522145748 0.806098938
0.942432940 0.513567805 0.791859508
0.000000000 0.735765040 0.748497486
0.144544765 0.765990019 0.785366058
0.441415012 0.760973036 0.786881983
0.688737571 0.750266492 0.779833794
0.914353728 0.739282012 0.768925548
0.000000000 0.972773969 0.750599265
0.123070002 0.975114703 0.756944001
0.416673511 0.969286501 0.753946483
0.658932507 0.961025536 0.746970236
0.889111459 0.951266527 0.739355803
0.000000000 0.000000000 0.890778005
0.186237499 0.000000000 0.906142235
0.434787989 0.000000000 0.904688478
0.670698524 0.000000000 0.919417739
0.895762026 0.000000000 0.931325972
0.000000000 0.234173760 0.914248228
0.138340011 0.227273762 0.998126030
0.455083013 0.251347750 0.989469290
0.707020044 0.265802503 1.000000000
0.948486745 0.269901752 1.000000000
0.000000000 0.495250046 0.957630038
0.207953513 0.520166039 1.000000000
0.474117011 0.536679983 1.000000000
0.717039466 0.529868245 1.000000000
0.941583514 0.518308520 1.000000000
0.000000000 0.747250259 0.984172285
0.211682260 0.769976497 1.000000000
0.455280513 0.762145996 1.000000000
0.690629244 0.750639796 1.000000000
0.913364232 0.738155246 1.000000000
0.000000000 0.979987979 0.984767973
0.125156999 0.977019489 0.990679026
0.402920514 0.970223010 0.988550484
0.656746030 0.959425986 0.979905248
0.887203991 0.948682010 0.969915986
