public/lut/80.cube
TITLE "17x17x17 Adobe/IRIDAS cube 3D LUT exported with GrossGrade v0.2.2 (beta) 64 bit"
DOMAIN_MIN 0 0 0
DOMAIN_MAX 1 1 1
LUT_3D_SIZE 17
0.000000000 0.000000000 0.000000000
0.050581563 0.000000000 0.000000000
0.094283119 0.000000000 0.000000000
0.165168822 0.000000000 0.000000000
0.233184993 0.000000000 0.000000000
0.307058811 0.000000000 0.000000000
0.374553144 0.000000000 0.000000000
0.429649591 0.000000000 0.000000000
0.478897512 0.000000000 0.000000000
0.524469674 0.000000000 0.000000000
0.568715274 0.000000000 0.000000000
0.612690091 0.000000000 0.000000000
0.658529997 0.000000000 0.000000000
0.706658781 0.000000000 0.000000000
0.757100582 0.000000000 0.000000000
0.807512522 0.000000000 0.000000000
0.858920991 0.000000000 0.000000000
0.000000000 0.050393376 0.000000000
0.052439690 0.050393373 0.000000000
0.082383752 0.050446499 0.000000000
0.137403399 0.050571751 0.000000000
0.208644614 0.050987996 0.000000000
0.284656137 0.053536691 0.000000000
0.354965270 0.054342061 0.000000000
0.413923591 0.052314624 0.000000000
0.465803951 0.050105184 0.000000000
0.514504671 0.047385253 0.000000000
0.561035752 0.045341879 0.000000000
0.607088089 0.043930687 0.000000000
0.654977262 0.042728566 0.000000000
0.705005586 0.042118318 0.000000000
0.757558763 0.042027313 0.000000000
0.809656024 0.042679314 0.000000000
0.862551749 0.041978061 0.000000000
0.000000000 0.115414247 0.000789000
0.053053375 0.104961008 0.000000000
0.083311126 0.098986380 0.000000000
0.125210807 0.094536617 0.000000000
0.199183762 0.092538498 0.000000000
0.275764704 0.092397131 0.000000000
0.345537424 0.089810751 0.000000000
0.406101793 0.085375190 0.000000000
0.460102737 0.081731372 0.000000000
0.510517061 0.078791380 0.000000000
0.558133125 0.076867998 0.000000000
0.606504738 0.075127631 0.000000000
0.655950785 0.074185126 0.000000000
0.707038462 0.074116498 0.000000000
0.760326147 0.074247748 0.000000000
0.813844025 0.075059250 0.000000000
0.867766857 0.075560749 0.000000000
0.000000000 0.187921956 0.001577000
0.055491567 0.179680824 0.000000000
0.088471815 0.175275505 0.000000000
0.121598765 0.171908319 0.000000000
0.195444509 0.169188023 0.000000000
0.266595393 0.165414393 0.000000000
0.332820445 0.160405144 0.000000000
0.392926455 0.155347884 0.000000000
0.448896259 0.150109023 0.000000000
0.501495183 0.145198822 0.000000000
0.552414298 0.141134128 0.000000000
0.603532970 0.138087705 0.000000000
0.655258596 0.136294007 0.000000000
0.709821224 0.135543764 0.000000000
0.764464259 0.135013893 0.000000000
0.818851948 0.134952024 0.000000000
0.873456240 0.134952024 0.000000000
0.000000000 0.245951995 0.002168750
0.052727938 0.241353944 0.000000000
0.085874125 0.239055365 0.000000000
0.118472889 0.236783877 0.000000000
0.182857499 0.233387992 0.000000000
0.252278745 0.229608506 0.000000000
0.317266285 0.224813506 0.000000000
0.377573282 0.220102191 0.000000000
0.435632765 0.215227246 0.000000000
0.490998626 0.211026758 0.000000000
0.545349717 0.207727641 0.000000000
0.599741817 0.205689251 0.000000000
0.656146765 0.204800755 0.000000000
0.712826073 0.204383448 0.000000000
0.768004179 0.204535365 0.000000000
0.823655128 0.204046935 0.000000000
0.879037023 0.204175502 0.000000000
0.000000000 0.295004129 0.001577000
0.047961935 0.292511672 0.000000000
0.080891378 0.291365504 0.000000000
0.112373069 0.290705174 0.000000000
0.169425696 0.288853556 0.000000000
0.237968877 0.286087722 0.000000000
0.302415401 0.282934368 0.000000000
0.364245027 0.279594004 0.000000000
0.424277872 0.276503265 0.000000000
0.482672572 0.274130434 0.000000000
0.541209280 0.272635907 0.000000000
0.599406898 0.272555888 0.000000000
0.658048451 0.272234321 0.000000000
0.715819657 0.272095859 0.000000000
0.772195995 0.272143364 0.000000000
0.828135490 0.272149920 0.000000000
0.884730339 0.272419930 0.000000000
0.000000000 0.342507511 0.001577000
0.043750875 0.341702342 0.000000000
0.076812632 0.341620892 0.000000000
0.108812757 0.341695875 0.000000000
0.160525128 0.341362506 0.000000000
0.227440253 0.340525597 0.000000000
0.292402774 0.339353979 0.000000000
0.355921298 0.338479459 0.000000000
0.418414026 0.337889791 0.000000000
0.479609489 0.338190466 0.000000000
0.540994287 0.338310659 0.000000000
0.600778222 0.338689893 0.000000000
0.660250545 0.338706791 0.000000000
0.718406141 0.339039892 0.000000000
0.775668561 0.339452624 0.000000000
0.832463205 0.339443892 0.000000000
0.890551388 0.339598268 0.000000000
0.000000000 0.393708080 0.001577000
0.041978061 0.394694269 0.000000000
0.075127631 0.395833462 0.000000000
0.107931755 0.396639228 0.000000000
0.155780196 0.397694975 0.000000000
0.223086506 0.398947537 0.000000000
0.288944900 0.399877220 0.000000000
0.353830159 0.400832474 0.000000000
0.417264283 0.401693225 0.000000000
0.480061740 0.402436495 0.000000000
0.541670799 0.403235286 0.000000000
0.602649331 0.404016167 0.000000000
0.661763728 0.404636770 0.000000000
0.720869482 0.405167907 0.000000000
0.779545128 0.405482650 0.000000000
0.837202191 0.405791968 0.000000000
0.894912481 0.406095356 0.000000000
0.000000000 0.450576007 0.002366000
0.041219063 0.453123152 0.000000000
0.076059878 0.454855144 0.000000000
0.109368630 0.456742078 0.000000000
0.154132247 0.458775759 0.000000000
0.221718878 0.460782945 0.000000000
0.287953407 0.462378144 0.000000000
0.352624834 0.464002550 0.000000000
0.417174011 0.465175033 0.000000000
0.480748594 0.466372639 0.000000000
0.542514622 0.467691422 0.000000000
0.603989542 0.468704760 0.000000000
0.663348019 0.469889998 0.000000000
0.723127723 0.470546246 0.000000000
0.782369018 0.471116513 0.000000000
0.841214180 0.471602261 0.000000000
0.898751020 0.472147018 0.000000000
0.000000000 0.508381426 0.002366000
0.041550253 0.511634767 0.000000000
0.076837502 0.514254212 0.000000000
0.110716380 0.517081082 0.000000000
0.153912500 0.519475579 0.000000000
0.221512318 0.522156656 0.000000000
0.287621528 0.524387658 0.000000000
0.352421969 0.526569545 0.000000000
0.416960597 0.528411984 0.000000000
0.480049074 0.530242980 0.000000000
0.542777598 0.531628251 0.000000000
0.605350792 0.532792509 0.000000000
0.665621400 0.534194112 0.000000000
0.726583123 0.534768760 0.000000000
0.784572244 0.536207080 0.000000000
0.842398107 0.536517680 0.000000000
0.899924040 0.536685526 0.000000000
0.000000000 0.566204250 0.002366000
0.041644875 0.570646703 0.000000000
0.077475376 0.573932230 0.000000000
0.112402633 0.577268004 0.000000000
0.153525501 0.580304742 0.000000000
0.221629187 0.583264112 0.000000000
0.287927896 0.585982382 0.000000000
0.352446735 0.588806450 0.000000000
0.417757154 0.590780258 0.000000000
0.480652541 0.593153298 0.000000000
0.544238389 0.594722509 0.000000000
0.605761170 0.596674442 0.000000000
0.667461336 0.597565711 0.000000000
0.726388872 0.598604381 0.000000000
0.785190165 0.599052787 0.000000000
0.843153059 0.599064469 0.000000000
0.900960267 0.598718345 0.000000000
0.000000000 0.624098837 0.002366000
0.041169811 0.629530728 0.000000000
0.077898003 0.633521140 0.000000000
0.113855816 0.637328386 0.000000000
0.153916255 0.640831769 0.000000000
0.222217306 0.644095957 0.000000000
0.287660897 0.647416174 0.000000000
0.353081346 0.650294304 0.000000000
0.417349190 0.652985454 0.000000000
0.481863141 0.655234635 0.000000000
0.544566393 0.657331407 0.000000000
0.606086671 0.658801615 0.000000000
0.667709649 0.659278214 0.000000000
0.726368904 0.659820795 0.000000000
0.785322130 0.659610033 0.000000000
0.842632413 0.659521043 0.000000000
0.900130153 0.659162760 0.000000000
0.000000000 0.682278037 0.002366000
0.041169811 0.688780546 0.000000000
0.078988127 0.692820787 0.000000000
0.115430631 0.697106719 0.000000000
0.154864997 0.701206207 0.000000000
0.221729487 0.704912841 0.000000000
0.288190275 0.708330989 0.000000000
0.353186548 0.711597800 0.000000000
0.417747259 0.714469016 0.000000000
0.481947958 0.716546893 0.000000000
0.544388831 0.717661619 0.000000000
0.605645895 0.718646407 0.000000000
0.665507495 0.719272971 0.000000000
0.724868000 0.719364107 0.000000000
0.783269942 0.719140053 0.000000000
0.841477334 0.718466282 0.000000000
0.898302257 0.717990041 0.000000000
0.000000000 0.740310490 0.003154000
0.041879501 0.747145414 0.000000000
0.079766251 0.751958609 0.000000000
0.117392629 0.756564796 0.000000000
0.156901941 0.760822177 0.000000000
0.222444445 0.764749229 0.000000000
0.288319647 0.768603981 0.000000000
0.353537261 0.771765411 0.000000000
0.416887522 0.774491429 0.000000000
0.480857760 0.775594831 0.000000000
0.543019235 0.776611924 0.000000000
0.604485393 0.776804864 0.000000000
0.663605273 0.777559102 0.000000000
0.722056150 0.777843893 0.000000000
0.781066537 0.776965618 0.000000000
0.838485658 0.776406467 0.000000000
0.896202624 0.775570691 0.000000000
0.000000000 0.798146546 0.002366000
0.041784871 0.805592239 0.000000000
0.080302507 0.811088145 0.000000000
0.118762381 0.815606177 0.000000000
0.158577502 0.820176065 0.000000000
0.222036690 0.824458480 0.000000000
0.287994385 0.828137219 0.000000000
0.353321284 0.830145597 0.000000000
0.417360246 0.831480205 0.000000000
0.479373127 0.833157599 0.000000000
0.540467620 0.834196568 0.000000000
0.602075875 0.834213138 0.000000000
0.661156654 0.834592402 0.000000000
0.719557583 0.834544480 0.000000000
0.777767777 0.833971024 0.000000000
0.834969878 0.833252966 0.000000000
0.892390609 0.832349300 0.000000000
0.000000000 0.855514228 0.002366000
0.041120499 0.863703728 0.000000000
0.082067251 0.868397295 0.000000000
0.120586321 0.873822987 0.000000000
0.162066817 0.877989411 0.000000000
0.221883252 0.882835567 0.000000000
0.288133383 0.884731233 0.000000000
0.352656215 0.886608243 0.000000000
0.416074157 0.887943625 0.000000000
0.477791697 0.889153242 0.000000000
0.538717270 0.889961898 0.000000000
0.599059582 0.890163839 0.000000000
0.659053445 0.889997423 0.000000000
0.716439128 0.890205145 0.000000000
0.775277376 0.889308214 0.000000000
0.831695378 0.889158309 0.000000000
0.889071941 0.888170004 0.000000000
0.000000000 0.912320018 0.003154000
0.041879501 0.919981420 0.000000000
0.082469746 0.925820589 0.000000000
0.123033568 0.930815160 0.000000000
0.163404018 0.935257971 0.000000000
0.223198876 0.937776029 0.000000000
0.287593395 0.940205872 0.000000000
0.352160394 0.941567719 0.000000000
0.414270520 0.942991972 0.000000000
0.476402074 0.943598747 0.000000000
0.537176251 0.944190860 0.000000000
0.596710443 0.944525182 0.000000000
0.656189561 0.944440007 0.000000000
0.714380383 0.944383979 0.000000000
0.772214592 0.943709731 0.000000000
0.829262495 0.943709731 0.000000000
0.886417985 0.942731023 0.000000000
0.000000000 0.000000000 0.068980813
0.051825624 0.000000000 0.057220817
0.084645867 0.000000000 0.053724375
0.157438651 0.000000000 0.053764686
0.226202831 0.000000000 0.053651877
0.301350743 0.000000000 0.055570062
0.370238960 0.000000000 0.056243502
0.427350163 0.000000000 0.054027498
0.477310270 0.000000000 0.051495127
0.523740113 0.000000000 0.048827566
0.568178177 0.000000000 0.046821564
0.613335371 0.000000000 0.045386754
0.659637988 0.000000000 0.044209000
0.708488405 0.000000000 0.044071559
0.759621680 0.000000000 0.043472562
0.811132491 0.000000000 0.043472562
0.862707198 0.000000000 0.044159748
0.000000000 0.051017750 0.054752246
0.051825628 0.049811188 0.053001814
0.081948198 0.049853191 0.052393377
0.135328144 0.049811184 0.051907502
0.210048005 0.047117874 0.049254127
0.289786488 0.044291690 0.045964874
0.362846166 0.036421996 0.038784184
0.424816906 0.024840370 0.027452558
0.478463501 0.013701186 0.016017873
0.526360333 0.011631813 0.013208812
0.571792305 0.012419876 0.014292751
0.617139935 0.013208812 0.015032126
0.664812922 0.013996876 0.016313562
0.715104342 0.014884315 0.016905308
0.767614782 0.016264312 0.017102562
0.819773257 0.017053250 0.017939879
0.872867882 0.017841313 0.019368999
0.000000000 0.112218499 0.053737625
0.051820252 0.103386059 0.052439690
0.083679192 0.098871626 0.052439690
0.122921020 0.094507180 0.051866561
0.200516388 0.092328057 0.051065564
0.280400842 0.089786813 0.047863375
0.353307664 0.082410127 0.040393308
0.415980548 0.071873739 0.029078869
0.472319216 0.059394874 0.017447060
0.523206949 0.050145000 0.012370626
0.570061028 0.047931623 0.013159563
0.617679238 0.047108874 0.013947562
0.666931748 0.047327001 0.014736564
0.718592465 0.048076503 0.015672565
0.772451937 0.048257068 0.016412189
0.825457096 0.050183188 0.017151816
0.879448533 0.050857250 0.018531688
0.000000000 0.186291769 0.057409503
0.052520812 0.180206001 0.053219754
0.087144867 0.176683128 0.053697687
0.120543763 0.173952013 0.053697687
0.196232259 0.171487272 0.053214688
0.269377202 0.167246833 0.047688689
0.337909162 0.161485061 0.039758872
0.400702596 0.154130071 0.029571433
0.458837926 0.145908445 0.018925808
0.512407601 0.139344513 0.013208814
0.562817991 0.135525510 0.013947563
0.614183486 0.132681444 0.014982813
0.666652203 0.131087586 0.015721874
0.721864998 0.130254447 0.016461503
0.776124060 0.130475014 0.017201064
0.831469893 0.130189270 0.017890628
0.885982513 0.130254447 0.019270500
0.000000000 0.246015817 0.054668002
0.046056628 0.243233323 0.046946250
0.081453748 0.241293371 0.047474250
0.115244016 0.239548996 0.047474250
0.182727560 0.237055182 0.046817999
0.253548592 0.232810557 0.044933688
0.320640266 0.227989569 0.037506558
0.382901967 0.222782940 0.029571436
0.443158090 0.217052072 0.019862309
0.500222266 0.211931080 0.014588626
0.555641770 0.208489820 0.015327563
0.610782385 0.206743807 0.016116375
0.667713642 0.206190437 0.016905311
0.725011230 0.205551818 0.017693564
0.780632854 0.205609754 0.018433064
0.836310923 0.205396503 0.019221250
0.892217696 0.205586508 0.020010062
0.000000000 0.296153933 0.050193001
0.035091501 0.295639426 0.037999626
0.072650939 0.294796228 0.037999626
0.106276512 0.294446170 0.037999626
0.168655381 0.292883962 0.037802625
0.239269570 0.290154994 0.037210938
0.304909319 0.287358731 0.036274251
0.368429035 0.284277558 0.029324809
0.430630207 0.281142741 0.020897310
0.490930498 0.278753042 0.015869811
0.550715923 0.277607262 0.016609438
0.610492408 0.277305573 0.017053250
0.669530392 0.277133703 0.017841313
0.727770627 0.276850939 0.018630251
0.784516454 0.276930004 0.019418312
0.841104925 0.276924431 0.020158000
0.898108780 0.276959538 0.020946937
0.000000000 0.344844580 0.047303688
0.027895810 0.345763385 0.029472813
0.064623751 0.346072525 0.029522125
0.099331252 0.346772581 0.030015249
0.157951951 0.346829653 0.029472813
0.228348568 0.346364796 0.029324874
0.294683397 0.345894963 0.029226249
0.360601395 0.345138401 0.029226247
0.424731195 0.345060140 0.021932375
0.488364935 0.345331639 0.017053250
0.550251007 0.345540226 0.017841313
0.611527264 0.345455110 0.018383689
0.670735836 0.346091509 0.019122750
0.729054272 0.346516907 0.019911438
0.788050652 0.346318722 0.020305876
0.844978690 0.346608400 0.020996189
0.903145254 0.346374065 0.021735001
0.000000000 0.397711843 0.045660440
0.020650810 0.400442928 0.023016747
0.057038996 0.402028441 0.022277121
0.094130620 0.403792590 0.022227809
0.151271880 0.405281901 0.022424996
0.223014504 0.406987786 0.022326436
0.291709334 0.408174604 0.022227809
0.358642906 0.409291267 0.022967495
0.423538059 0.410293669 0.022523683
0.487887710 0.411087096 0.018630251
0.550674915 0.411890596 0.019073501
0.612338006 0.412583381 0.019862127
0.672634304 0.413339496 0.020404503
0.732140243 0.413767844 0.020946939
0.791499436 0.413920015 0.021735001
0.849681735 0.414354354 0.022178814
0.907284796 0.414947093 0.022967249
0.000000000 0.455808520 0.046015937
0.017053250 0.459988624 0.019073565
0.051719122 0.462327272 0.017053250
0.090807013 0.464901447 0.017447252
0.147859812 0.467203885 0.017693562
0.221060991 0.469639957 0.018235814
0.290567577 0.471353620 0.018630251
0.357064843 0.473343968 0.019024251
0.423469394 0.474649817 0.019418312
0.487314939 0.476381689 0.019812813
0.550931513 0.477485210 0.020601749
0.613669753 0.478301793 0.021193188
0.674357772 0.479446173 0.021735001
0.734961808 0.480115265 0.022129502
0.794094741 0.480830580 0.022918001
0.853198409 0.481143564 0.023361314
0.910351038 0.481228113 0.024051687
0.000000000 0.514216244 0.046326999
0.018630251 0.519252956 0.020601749
0.053276815 0.522645950 0.018630251
0.092663817 0.525809050 0.018975001
0.147712708 0.528646231 0.019368999
0.220866114 0.531727493 0.019763499
0.290507317 0.533946812 0.020158000
0.357698143 0.536318123 0.020552438
0.423476487 0.538479626 0.020946937
0.488175988 0.540438175 0.021291688
0.551627576 0.542055428 0.022030875
0.614053309 0.543624640 0.022523999
0.675827801 0.544642150 0.022868749
0.737358093 0.545206010 0.023657188
0.795662761 0.545546472 0.024150189
0.853501141 0.545211256 0.024839751
0.910664678 0.544759035 0.025184939
0.000000000 0.572809517 0.046326999
0.020158000 0.578896224 0.022819500
0.055438567 0.582788885 0.020453874
0.095315754 0.586485624 0.020503126
0.148055568 0.590040386 0.020946937
0.221792728 0.593213916 0.021242438
0.290312767 0.596430719 0.021488748
0.357416362 0.599239826 0.022030875
0.423619211 0.601720631 0.022474688
0.488531560 0.603861630 0.022819500
0.552510440 0.605981112 0.023262750
0.614700258 0.607395470 0.023607876
0.676315606 0.608018577 0.024347188
0.736096859 0.607960999 0.024839751
0.793611169 0.607759655 0.025579438
0.851370633 0.607220650 0.025924563
0.909344435 0.605959892 0.026417688
0.000000000 0.631533206 0.046277687
0.021735001 0.638898492 0.024839751
0.057086442 0.643078625 0.021981563
0.097799949 0.647200406 0.021981563
0.147806257 0.651497960 0.022523999
0.221490443 0.654875457 0.022770248
0.291092217 0.658102453 0.023016501
0.357832104 0.661545753 0.023509312
0.423164546 0.664455235 0.023706499
0.488294005 0.666937113 0.024297938
0.551951826 0.667877972 0.024839751
0.613556325 0.668690860 0.025086313
0.674595416 0.668453038 0.025825938
0.733660758 0.668288112 0.026368376
0.791842639 0.667649806 0.026663937
0.849348187 0.666933537 0.027205750
0.906531811 0.666022301 0.027945437
0.000000000 0.690115809 0.046811000
0.023262750 0.697984755 0.025875252
0.058991004 0.703079760 0.023509249
0.100178011 0.707594991 0.023509249
0.149624825 0.711757720 0.024051689
0.222099990 0.715799630 0.024248688
0.290582269 0.719551265 0.024593502
0.358483523 0.722700536 0.025037002
0.423899084 0.725461960 0.025234252
0.487612993 0.726631582 0.025825938
0.550130427 0.727295280 0.025924565
0.611682832 0.727398932 0.026614686
0.671065032 0.727538228 0.027156439
0.731330454 0.726620674 0.027353689
0.789128840 0.726112604 0.028043937
0.846713483 0.724921107 0.028684188
0.903092027 0.724159062 0.028930688
0.000000000 0.748599946 0.046277687
0.024987692 0.756732464 0.027205750
0.061848875 0.762148798 0.024987690
0.103628941 0.767098486 0.024987692
0.152252942 0.771402299 0.025579438
0.222762555 0.776022136 0.025776628
0.290708512 0.780044734 0.026121814
0.357094049 0.782470703 0.026368378
0.421527833 0.784035206 0.026565440
0.485002756 0.784837782 0.027156437
0.547143042 0.785260379 0.027304377
0.608485460 0.784958243 0.027945437
0.668589950 0.784536839 0.028142439
0.727678955 0.783919811 0.028881378
0.785516083 0.783115864 0.029473126
0.842865646 0.782191336 0.029670190
0.899310231 0.780999422 0.030261189
0.000000000 0.806656420 0.046898998
0.026466880 0.814971626 0.027994689
0.063964188 0.821070552 0.026516190
0.105740510 0.826274991 0.026516190
0.153249577 0.830955327 0.027156437
0.222028926 0.835539520 0.027255066
0.290060043 0.837838769 0.027255066
0.355870038 0.839235902 0.027945437
0.419919401 0.840443611 0.028043941
0.483788699 0.840598404 0.028684188
0.544635534 0.841148615 0.028832067
0.604773343 0.841269016 0.029473126
0.665086687 0.840683103 0.029620942
0.723967075 0.839926183 0.030261189
0.781543672 0.839091361 0.030359816
0.839195132 0.837967515 0.031099442
0.895498335 0.837092161 0.031789813
0.000000000 0.864031017 0.046326999
0.027945437 0.872966647 0.029620942
0.066182375 0.878790736 0.027994690
0.108285375 0.884122550 0.027994690
0.154357612 0.889080107 0.028684188
0.221794054 0.891809940 0.028733438
0.289632648 0.893269956 0.028782753
0.354582012 0.894565403 0.029473126
0.418435723 0.895447493 0.029522380
0.480223000 0.896011591 0.029867189
0.542055488 0.895980716 0.030310500
0.601908684 0.895961285 0.030557003
0.661255956 0.895611048 0.031099439
0.720123887 0.894756436 0.031789813
0.777650416 0.894043505 0.031888377
0.834438384 0.893089533 0.032577872
0.892088592 0.891754389 0.032676440
0.000000000 0.920756757 0.046376251
0.029473126 0.929836750 0.031148691
0.068268627 0.935533643 0.029522438
0.109959438 0.940880716 0.029522438
0.155252114 0.944103301 0.030113436
0.221068740 0.946147501 0.030261189
0.288661629 0.947436333 0.030261189
0.352438837 0.948843956 0.030754251
0.416319937 0.949393868 0.031050127
0.477724761 0.949752927 0.031050127
0.539036512 0.949841022 0.031839125
0.598972976 0.949626923 0.031839125
0.658074081 0.949268520 0.032577872
0.716208160 0.948712587 0.032627124
0.774438024 0.947743297 0.033366814
0.830553651 0.947218716 0.033416126
0.888244927 0.945984900 0.034154877
0.000000000 0.000000000 0.139632627
0.051205937 0.000000000 0.130844742
0.084646001 0.000000000 0.127797246
0.153526947 0.000000000 0.122666188
0.222764626 0.000000000 0.118854880
0.298387498 0.000000000 0.119870245
0.368180037 0.000000000 0.118248999
0.425241172 0.000000000 0.112554938
0.475945890 0.000000000 0.106632501
0.522741258 0.000000000 0.101234004
0.567997634 0.000000000 0.096878499
0.613724530 0.000000000 0.093551002
0.660357416 0.000000000 0.091185004
0.710002184 0.000000000 0.089735501
0.761782706 0.000000000 0.089362755
0.813695848 0.000000000 0.088989124
0.865667522 0.000000000 0.088989124
0.000000000 0.051017750 0.124562375
0.052485500 0.049853191 0.120722249
0.082910374 0.049811184 0.116739817
0.132351577 0.049259499 0.113089316
0.208367676 0.047117874 0.111522943
0.288116783 0.044291690 0.110750571
0.361763239 0.036421996 0.106188118
0.423660517 0.024840370 0.097297937
0.479115993 0.012962435 0.086744130
0.526786506 0.011631813 0.080733813
0.572493315 0.012419876 0.077590376
0.618850350 0.013208812 0.075192250
0.667268932 0.014194125 0.074485004
0.717980385 0.015426063 0.074008189
0.771353006 0.016264312 0.074548751
0.823912919 0.017053250 0.075086750
0.876982212 0.017841313 0.075581998
0.000000000 0.110690132 0.117227629
0.051866565 0.102590814 0.113326684
0.083648250 0.098813877 0.111200243
0.121943645 0.095195562 0.109503001
0.200784996 0.093756124 0.109822504
0.280525506 0.090957500 0.109668314
0.353173643 0.084096499 0.104998872
0.416419923 0.073887803 0.097176373
0.473515421 0.060971625 0.087399997
0.526100814 0.046271499 0.076412372
0.576406360 0.033415627 0.065159254
0.625180483 0.028142376 0.059994191
0.674180090 0.029670127 0.060175128
0.726256430 0.031740502 0.061273374
0.779671788 0.033317503 0.062449999
0.833319247 0.034943756 0.064003751
0.887002826 0.036471624 0.064574748
0.000000000 0.186219454 0.117973879
0.052520812 0.180833504 0.113918751
0.087234616 0.177978754 0.112873003
0.120279700 0.175479263 0.111831814
0.196418688 0.173052192 0.110929370
0.269732177 0.169289395 0.107681938
0.337870538 0.163396895 0.102542192
0.401262522 0.156250581 0.095691055
0.459520191 0.148743823 0.087685868
0.514894605 0.140760392 0.078519441
0.569062829 0.132507011 0.068815812
0.622468591 0.125675589 0.057772003
0.678491831 0.118172213 0.046731308
0.735552251 0.111267328 0.035880432
0.790235102 0.109803207 0.034943689
0.844560266 0.109460399 0.036520939
0.898955047 0.109794647 0.038048625
0.000000000 0.246275127 0.110336125
0.045337934 0.243882120 0.105655998
0.080924630 0.242413491 0.105281003
0.114271015 0.241368502 0.105534375
0.182842508 0.238767624 0.104804002
0.254067123 0.234885931 0.103384629
0.321153641 0.230507985 0.099238247
0.384203404 0.225252822 0.094163746
0.444526255 0.219846264 0.088117369
0.503241956 0.214544371 0.080447003
0.560291529 0.210346013 0.072848499
0.619738340 0.206055745 0.063770123
0.678633571 0.203225240 0.053431623
0.737295330 0.200102270 0.043293424
0.794995308 0.197638512 0.036570251
0.849895895 0.197330385 0.038097940
