public/lut/81.cube
TITLE "17x17x17 Adobe/IRIDAS cube 3D LUT exported with GrossGrade v0.2.2 (beta) 64 bit"
DOMAIN_MIN 0 0 0
DOMAIN_MAX 1 1 1
LUT_3D_SIZE 5
0.027618000 0.032349002 0.031555001
0.141937003 0.024444999 0.023071000
0.241576999 0.023651000 0.019714000
0.410827994 0.037659001 0.022095000
0.677734017 0.086516999 0.045471001
0.000000000 0.138488993 0.002380000
0.185332999 0.164063007 0.000000000
0.424834996 0.193694994 0.008667000
0.610535026 0.214661002 0.027802000
0.819549978 0.237549007 0.060608000
0.000000000 0.297149986 0.001587000
0.203186005 0.334625006 0.000000000
0.461638987 0.364594012 0.003540000
0.704101980 0.408356011 0.030944999
0.905487001 0.461760998 0.064514004
0.000000000 0.494872987 0.003937000
0.188567996 0.491699010 0.000000000
0.448029011 0.553771973 0.000000000
0.704986989 0.562682986 0.011047000
0.939971983 0.617950022 0.053497002
0.000000000 0.725372016 0.008667000
0.177338004 0.707854986 0.000000000
0.414855987 0.788909972 0.000000000
0.683380008 0.789184988 0.000000000
0.922393978 0.797455013 0.010254000
0.030762000 0.033142000 0.150269002
0.170867994 0.027618000 0.180176005
0.368164003 0.027984999 0.210114002
0.543549001 0.039032001 0.216124997
0.734435976 0.059875000 0.166718006
0.006500000 0.136078000 0.134795994
0.173247993 0.191314995 0.189818993
0.421326011 0.214232996 0.204620004
0.608582020 0.243194997 0.222075999
0.753234982 0.235016003 0.192413002
0.000000000 0.306946009 0.113707997
0.183289006 0.338775992 0.150512993
0.448395014 0.426239014 0.213653997
0.676635981 0.485260010 0.238220006
0.887421012 0.506286979 0.288147002
0.000000000 0.499572992 0.087523997
0.193847999 0.474792004 0.077881001
0.447937012 0.577820003 0.177001998
0.708007991 0.600098014 0.217833996
0.911742985 0.670440972 0.288543999
0.000000000 0.718505979 0.066009998
0.180877998 0.704559028 0.039551001
0.454407007 0.719848990 0.041687001
0.695984006 0.793030024 0.177031994
0.950989008 0.807922006 0.128204003
0.031555001 0.036285002 0.274017006
0.168792993 0.032745000 0.376648009
0.421447992 0.039825000 0.398925990
0.604552984 0.061919998 0.447510004
0.838195980 0.094879001 0.434783995
0.023468001 0.142975003 0.344330013
0.181885004 0.196715996 0.406067014
0.438995004 0.235474005 0.437256008
0.641997993 0.261413991 0.432648003
0.834838986 0.274993986 0.430420011
0.005127000 0.320892006 0.339661002
0.167266995 0.387755990 0.404388011
0.418242991 0.484100014 0.455078006
0.658141971 0.492583990 0.463593006
0.895020008 0.512085021 0.475463986
0.000000000 0.509216011 0.318419993
0.178497002 0.542479992 0.346740991
0.415192008 0.588989019 0.396210015
0.675109982 0.681549013 0.476195991
0.919005990 0.739197016 0.477019995
0.000000000 0.747650027 0.283385992
0.168792993 0.727874994 0.295441002
0.459044993 0.734405994 0.297699004
0.676575005 0.836853027 0.467743009
0.943390012 0.870453000 0.507934988
0.033325002 0.050689999 0.501250982
0.181976005 0.037078999 0.541229010
0.412353992 0.054595999 0.623627007
0.651794016 0.079346001 0.587311029
0.830474973 0.119019002 0.653228998
0.028778000 0.162476003 0.521088004
0.155670002 0.187255993 0.538177013
0.436737001 0.256561011 0.645752013
0.657042980 0.284606993 0.604065001
0.835236013 0.298096001 0.616180003
0.022095000 0.344177008 0.573791981
0.168549001 0.394836009 0.597504020
0.435912997 0.479461998 0.642120004
0.680297971 0.512481987 0.678283989
0.901885986 0.550200999 0.669586003
0.002563000 0.529296994 0.551880002
0.180084005 0.551270008 0.581786990
0.427794993 0.633148015 0.642426014
0.634765983 0.718689024 0.676726997
0.906127989 0.718596995 0.710753977
0.000000000 0.756653011 0.534606993
0.145721003 0.739014030 0.544983029
0.435059011 0.798309028 0.593169987
0.677489996 0.856505990 0.650726020
0.917450011 0.918030024 0.687897027
0.049683001 0.087402001 0.745299995
0.131409004 0.053955000 0.775359988
0.381348014 0.085175000 0.879974008
0.636963010 0.111663997 0.838898003
0.889069021 0.158966005 0.817322016
0.045471001 0.183745995 0.722931027
0.106049001 0.187224999 0.717833996
0.382842988 0.230041996 0.834473014
0.598846018 0.299560994 0.812012017
0.846343994 0.327086985 0.792999029
0.053314000 0.378356993 0.809478998
0.127899006 0.407409996 0.769774973
0.396605998 0.461365014 0.788085997
0.671905994 0.526398003 0.864166021
0.910919011 0.576323986 0.857879996
0.039825000 0.565643013 0.803161979
0.189696997 0.575073004 0.797607005
0.442505002 0.636260986 0.836121023
0.693542004 0.699280024 0.883484006
0.906372011 0.727997005 0.900786996
0.003174000 0.775847971 0.801940978
0.215728998 0.775542974 0.800507009
0.436859012 0.809813976 0.830565989
0.684387028 0.873016000 0.890320003
0.930054009 0.937804997 0.932617009
