public/lut/81.cube
TITLE "17x17x17 Adobe/IRIDAS cube 3D LUT exported with GrossGrade v0.2.2 (beta) 64 bit"
DOMAIN_MIN 0 0 0
DOMAIN_MAX 1 1 1
LUT_3D_SIZE 17
0.027618000 0.032349002 0.031555001
0.066650003 0.030060001 0.029236000
0.100189000 0.027710000 0.026215000
0.121978998 0.026031001 0.024597000
0.141937003 0.024444999 0.023071000
0.162781000 0.023651000 0.022095000
0.186278999 0.022887999 0.021300999
0.212402001 0.022887999 0.020508001
0.241576999 0.023651000 0.019714000
0.274322987 0.024444999 0.019714000
0.312561005 0.027100001 0.019714000
0.357818991 0.031250000 0.020508001
0.410827994 0.037659001 0.022095000
0.471619010 0.045990001 0.024750000
0.537872016 0.057891998 0.030151000
0.608429015 0.072327003 0.037200999
0.677734017 0.086516999 0.045471001
0.017548000 0.056366000 0.018402001
0.052002002 0.055755999 0.018402001
0.091155998 0.054504000 0.019073000
0.120453000 0.052611999 0.018279999
0.148773000 0.051819000 0.016907001
0.180236995 0.052276999 0.016113000
0.211456001 0.054108001 0.015381000
0.242461994 0.055573002 0.015076000
0.273254007 0.057128999 0.015076000
0.306091011 0.058867998 0.015076000
0.341735989 0.060394000 0.015381000
0.382416010 0.062378000 0.016602000
0.429717988 0.065338001 0.018371999
0.484679997 0.069824003 0.021484001
0.546905994 0.077026002 0.026276000
0.615508974 0.087677002 0.034088001
0.684387028 0.099212997 0.042511001
0.002747000 0.090271004 0.005035000
0.041351002 0.088592999 0.002808000
0.082336001 0.087769002 0.002869000
0.122345001 0.088776000 0.002869000
0.164734006 0.089599997 0.002075000
0.209411994 0.090759002 0.002747000
0.253998011 0.093566999 0.003540000
0.295684993 0.097015001 0.005035000
0.334807992 0.100281000 0.006500000
0.371886998 0.103058003 0.008087000
0.408996999 0.105559997 0.010345000
0.447510004 0.108368002 0.012970000
0.488922000 0.111236997 0.016754000
0.535247982 0.114899002 0.021576000
0.588195980 0.119080000 0.028380999
0.648621023 0.124939002 0.036316000
0.711304009 0.132935002 0.045990001
0.000000000 0.115051001 0.003021000
0.038695998 0.115203999 0.000000000
0.080963001 0.117004000 0.000000000
0.125396997 0.121338002 0.000000000
0.176208004 0.126404002 0.000000000
0.230224997 0.130493000 0.001343000
0.285889000 0.134948999 0.002869000
0.340117991 0.139923006 0.005035000
0.389739990 0.144805998 0.007355000
0.434691995 0.149260998 0.010803000
0.476348996 0.153136998 0.014191000
0.516937017 0.156676993 0.018340999
0.558990002 0.160735995 0.022980001
0.603699028 0.164764002 0.029022001
0.652435005 0.169556007 0.036010999
0.706634998 0.174926996 0.043915000
0.764586985 0.181823999 0.053162001
0.000000000 0.138488993 0.002380000
0.037170000 0.140320003 0.000061000
0.083893001 0.146942005 0.000000000
0.131989002 0.155548006 0.000000000
0.185332999 0.164063007 0.000000000
0.243285999 0.172271997 0.000793000
0.303986013 0.179688007 0.002380000
0.365691990 0.186829001 0.005188000
0.424834996 0.193694994 0.008667000
0.478271008 0.200011998 0.012970000
0.525359988 0.205504999 0.017456001
0.568207026 0.210174993 0.022368999
0.610535026 0.214661002 0.027802000
0.655852973 0.219482005 0.034607001
0.705901980 0.224854007 0.042419001
0.761169016 0.231049001 0.051330999
0.819549978 0.237549007 0.060608000
0.000000000 0.169341996 0.001038000
0.035828002 0.171448007 0.000000000
0.086883999 0.181273997 0.000000000
0.138733000 0.193572998 0.000000000
0.194885001 0.204071000 0.000000000
0.253509998 0.213623002 0.000000000
0.314574987 0.223601997 0.001587000
0.378814995 0.233307004 0.004395000
0.443511993 0.242370993 0.008270000
0.504028022 0.250701994 0.012970000
0.557434022 0.258118004 0.018738000
0.603851020 0.264800996 0.024932999
0.645995975 0.271210015 0.030913999
0.688872993 0.277404994 0.037505999
0.736968994 0.283508003 0.045502000
0.792235970 0.289581001 0.054443002
0.851989985 0.295410007 0.064331003
0.000000000 0.208130002 0.000793000
0.033020001 0.209044993 0.000000000
0.087738000 0.219269007 0.000000000
0.142517000 0.234801993 0.000000000
0.202423006 0.247008994 0.000000000
0.263489008 0.255706996 0.000000000
0.324005008 0.265197992 0.000793000
0.386536002 0.275878996 0.003601000
0.451813012 0.286377013 0.007385000
0.516570985 0.296355993 0.012177000
0.576323986 0.305846989 0.018738000
0.628692985 0.314880013 0.025726000
0.674010992 0.323821992 0.031952001
0.715606987 0.332641989 0.038940001
0.759429991 0.340972990 0.045715000
0.810944021 0.347930998 0.054474000
0.869049013 0.353179991 0.065094002
0.000000000 0.251464993 0.000793000
0.028870000 0.250580013 0.000000000
0.085845999 0.258727998 0.000000000
0.142975003 0.276183993 0.000000000
0.204895005 0.291198999 0.000000000
0.270141989 0.299286008 0.000000000
0.332825005 0.306396008 0.000061000
0.393768013 0.315735012 0.002014000
0.456757009 0.326171994 0.005463000
0.521820009 0.336760998 0.010498000
0.585236013 0.347259998 0.016998000
0.643096983 0.358123988 0.024750000
0.693755984 0.369536996 0.032134999
0.738341987 0.381287009 0.039733998
0.781494021 0.392913997 0.046448000
0.830169976 0.402862996 0.054809999
0.886138976 0.409453988 0.064514004
0.000000000 0.297149986 0.001587000
0.023864999 0.294220001 0.000000000
0.082001001 0.298218012 0.000000000
0.140533000 0.315643013 0.000000000
0.203186005 0.334625006 0.000000000
0.270781994 0.344390988 0.000000000
0.337677002 0.349090993 0.000000000
0.400330007 0.355681986 0.000793000
0.461638987 0.364594012 0.003540000
0.524658024 0.374390006 0.008179000
0.588286996 0.384429991 0.014679000
0.649016976 0.395507991 0.022430001
0.704101980 0.408356011 0.030944999
0.753418028 0.422881991 0.038940001
0.799773991 0.438109994 0.046356000
0.849425972 0.452057004 0.054443002
0.905487001 0.461760998 0.064514004
0.000000000 0.344024986 0.001923000
0.018524000 0.340148985 0.000061000
0.077271000 0.338928014 0.000000000
0.136840999 0.353087991 0.000000000
0.199370995 0.375732005 0.000000000
0.266570985 0.390381008 0.000000000
0.335754007 0.394867003 0.000000000
0.402496010 0.398254007 0.000000000
0.465424001 0.404601991 0.001617000
0.527221978 0.412627995 0.005524000
0.589447021 0.421112001 0.011292000
0.650542974 0.430572987 0.019317999
0.708099008 0.442901999 0.027863000
0.760985970 0.458770990 0.036377002
0.811127007 0.477142006 0.044677999
0.863434017 0.495025992 0.052917000
0.920807004 0.508117974 0.063141003
0.000000000 0.392334014 0.002380000
0.012421000 0.387970001 0.000061000
0.071686000 0.382598996 0.000000000
0.132781997 0.390839010 0.000000000
0.195038006 0.414124012 0.000000000
0.260437012 0.435669005 0.000000000
0.328826994 0.444000006 0.000000000
0.397857994 0.445464998 0.000000000
0.464691013 0.448668987 0.000000000
0.528258979 0.454497993 0.002411000
0.590026975 0.460938007 0.007385000
0.650452018 0.467925996 0.014648000
0.708893001 0.477447987 0.023651000
0.764252007 0.492065012 0.032471001
0.817169011 0.511810005 0.040984999
0.871338010 0.532898009 0.050262000
0.929656982 0.548919976 0.060821999
0.000000000 0.442535013 0.003174000
0.007050000 0.438019007 0.000061000
0.066742003 0.430786014 0.000000000
0.129028007 0.432098001 0.000000000
0.191314995 0.451660007 0.000000000
0.254943997 0.478729010 0.000000000
0.320861995 0.494872987 0.000000000
0.388855010 0.497925013 0.000000000
0.457915992 0.498290986 0.000000000
0.525299013 0.501555979 0.000092000
0.588898003 0.506103992 0.003265000
0.649353027 0.510650992 0.009460000
0.707732975 0.516570985 0.018250000
0.764496028 0.527435005 0.027557001
0.820038021 0.545226991 0.037108999
0.876221001 0.566986024 0.046661001
0.935333014 0.585448980 0.057250999
0.000000000 0.494872987 0.003937000
0.002777000 0.490478992 0.000244000
0.062531002 0.483123988 0.000000000
0.125609994 0.479339987 0.000000000
0.188567996 0.491699010 0.000000000
0.250945985 0.519684017 0.000000000
0.313964993 0.544463992 0.000000000
0.379669011 0.553740978 0.000000000
0.448029011 0.553771973 0.000000000
0.517486989 0.554138005 0.000000000
0.584563971 0.556702018 0.000092000
0.646484017 0.559448004 0.003265000
0.704986989 0.562682986 0.011047000
0.762176991 0.568877995 0.020569000
0.819854975 0.581328988 0.031342000
0.879028022 0.599578977 0.042328000
0.939971983 0.617950022 0.053497002
0.000000000 0.549255013 0.004730000
0.000610000 0.545044005 0.001770000
0.058715999 0.538239002 0.000092000
0.122437000 0.532288015 0.000000000
0.186554000 0.536682010 0.000000000
0.248595998 0.560546994 0.000000000
0.309174001 0.591247976 0.000000000
0.371643007 0.609375000 0.000000000
0.437927008 0.612671018 0.000000000
0.507140994 0.611205995 0.000000000
0.576354980 0.611450016 0.000000000
0.641510010 0.613129020 0.000000000
0.700713992 0.614745975 0.003265000
0.757750988 0.617736995 0.011841000
0.816254020 0.624114990 0.022675000
0.877960026 0.635437012 0.035980001
0.941375971 0.649414003 0.049408000
0.000000000 0.605651975 0.006317000
0.000000000 0.601806998 0.004883000
0.055206001 0.595580995 0.000183000
0.119231999 0.589630008 0.000000000
0.184600994 0.588164985 0.000000000
0.247498006 0.604247987 0.000000000
0.306519002 0.635773003 0.000000000
0.365478992 0.662415028 0.000000000
0.428557992 0.671997011 0.000000000
0.496062994 0.670776010 0.000000000
0.565856993 0.668914974 0.000000000
0.633789003 0.669281006 0.000000000
0.695801020 0.670776010 0.000000000
0.752288997 0.672484994 0.002472000
0.809966981 0.675384998 0.011719000
0.872070014 0.680236995 0.025055001
0.937317014 0.687744021 0.041382000
0.000000000 0.664031982 0.007904000
0.000000000 0.660521984 0.005615000
0.052154999 0.655028999 0.000183000
0.115845002 0.649811029 0.000000000
0.181976005 0.645752013 0.000000000
0.246795997 0.653168023 0.000000000
0.305510998 0.680481017 0.000000000
0.361236989 0.712768972 0.000000000
0.420623988 0.730193973 0.000000000
0.486176014 0.731750011 0.000000000
0.555481017 0.728577018 0.000000000
0.624724984 0.727385998 0.000000000
0.689270020 0.728667974 0.000000000
0.747437000 0.731200993 0.000000000
0.803345025 0.733336985 0.000885000
0.864075005 0.735260010 0.011108000
0.929687977 0.738250971 0.026550001
0.000000000 0.725372016 0.008667000
0.000000000 0.722198009 0.007935000
0.046997000 0.717101991 0.000977000
0.110808998 0.712401986 0.000000000
0.177338004 0.707854986 0.000000000
0.243835002 0.709351003 0.000000000
0.303954989 0.730682015 0.000000000
0.358368009 0.764617980 0.000000000
0.414855987 0.788909972 0.000000000
0.478332996 0.794463992 0.000000000
0.547028005 0.790955007 0.000000000
0.616882026 0.788726985 0.000000000
0.683380008 0.789184988 0.000000000
0.743010998 0.791778982 0.000000000
0.800140023 0.794830024 0.000000000
0.859009027 0.796599984 0.000153000
0.922393978 0.797455013 0.010254000
0.029967999 0.032379001 0.070923001
0.066132002 0.030029001 0.069366001
0.103087999 0.027710000 0.066192999
0.127685994 0.025390999 0.063904002
0.149719000 0.023864999 0.062224999
0.172699004 0.022338999 0.060516000
0.199248999 0.021576000 0.059937000
0.228515998 0.021300999 0.059356999
0.258911014 0.020569000 0.057617001
0.291839987 0.020569000 0.055206001
0.328613013 0.021331999 0.051849000
0.372009009 0.022186000 0.047028001
0.424102992 0.023804000 0.039733998
0.484131008 0.028441999 0.031677000
0.548309028 0.042693999 0.030029001
0.614531994 0.063873000 0.037903000
0.681334972 0.081665002 0.046142999
0.019073000 0.054565001 0.053314000
0.050689999 0.055755999 0.053925000
0.091553003 0.052094001 0.053863999
0.123291001 0.049896002 0.053252999
0.154633000 0.049224999 0.053130999
0.187987998 0.050322998 0.053100999
0.221649006 0.051787999 0.053040002
0.253722996 0.054047000 0.053040002
0.284637004 0.056458000 0.053649999
0.315917999 0.058837999 0.053589001
0.348937988 0.060943998 0.052703999
0.386321992 0.062286001 0.050751001
0.430694997 0.065063000 0.048278999
0.484557986 0.070129000 0.046936002
0.547240973 0.077910997 0.047058001
0.616333008 0.088134997 0.049316000
0.685333014 0.100005999 0.054016002
0.005829000 0.086487003 0.039184999
0.041320998 0.087738000 0.039917000
0.083922997 0.086792000 0.042114001
0.124297999 0.087067001 0.043549001
0.167480007 0.087830000 0.044952001
0.212920994 0.089478001 0.046172999
0.259003013 0.092987001 0.047455002
0.302215993 0.097198002 0.048767000
0.341430992 0.101531997 0.050354000
0.377258003 0.105347000 0.051910002
0.410461009 0.108368002 0.052855998
0.442809999 0.110717997 0.052611999
0.478118986 0.112792999 0.051422000
0.521027029 0.114928998 0.049773999
0.574890018 0.117919996 0.049224999
0.639099002 0.123504996 0.050140001
0.704711974 0.131560996 0.054687999
0.000153000 0.112213001 0.032042999
0.037323002 0.115143001 0.032042999
0.081482001 0.118225001 0.034240998
0.126708999 0.123016000 0.036529999
0.176941007 0.127471998 0.038787998
0.230835006 0.131592005 0.040497001
0.286742985 0.136353001 0.042479999
0.341919005 0.141875997 0.044647001
0.392883003 0.147674993 0.047332998
0.438140988 0.153075993 0.050537001
0.477874994 0.157379001 0.053679999
0.513213992 0.160644993 0.055877998
0.546997011 0.162964001 0.056701999
0.583252013 0.164825007 0.056488000
0.627411008 0.167206004 0.056000002
0.682312012 0.170990005 0.056823999
0.742888987 0.177246004 0.060973998
0.000000000 0.136993006 0.027496001
0.035583001 0.141051993 0.025330000
0.084197998 0.148498997 0.028137000
0.132355005 0.158172995 0.031799000
0.185546994 0.167206004 0.034851000
0.242493004 0.175446004 0.037108999
0.302367985 0.183105007 0.038635001
0.364136010 0.190825999 0.040924001
0.424102992 0.198364004 0.043884002
0.478821009 0.205321997 0.048064999
0.526854992 0.211089998 0.052306999
0.568542004 0.215362996 0.056671001
0.606140018 0.218536004 0.060089000
0.643371999 0.221008003 0.062622003
0.684661984 0.223450005 0.063721001
0.734375000 0.227019995 0.065948002
0.791411996 0.232146993 0.070160002
0.000000000 0.168427005 0.022736000
0.032715000 0.171325997 0.014099000
0.087127998 0.180877998 0.019257000
0.140045002 0.194855005 0.025908999
0.196502998 0.207153007 0.030396000
0.254669011 0.217559993 0.033264000
0.314209014 0.227905005 0.035034001
0.376769990 0.238585994 0.037108999
0.440551996 0.248657003 0.040222000
0.501403987 0.257813007 0.044434000
0.555846989 0.265533000 0.049254999
0.603209972 0.271941990 0.054412998
0.645020008 0.277007997 0.059661999
0.685271978 0.281127989 0.064117000
0.728057981 0.284637004 0.067809999
0.777130008 0.288024992 0.071929999
0.833069026 0.291992009 0.076537997
0.000000000 0.207092002 0.016754000
0.030944999 0.207580999 0.002350000
0.088104002 0.216339007 0.004913000
0.144653007 0.233429000 0.011353000
0.205292001 0.248749003 0.021973001
0.267394990 0.259276986 0.027344000
0.327147990 0.269439995 0.030396000
0.387329012 0.280975014 0.032715000
0.450226009 0.293060005 0.035828002
0.513489008 0.304504007 0.039489999
0.572601020 0.314666986 0.044983000
0.625092030 0.323639005 0.050841998
0.670867980 0.331512004 0.056793001
0.713042974 0.338622987 0.062378000
0.756560981 0.344695985 0.067626998
0.806273997 0.349335015 0.072936997
0.862456977 0.352813989 0.078217000
0.000000000 0.250122011 0.009125000
0.028137000 0.248412997 0.000000000
0.086669996 0.254364014 0.000000000
0.144684002 0.272368997 0.000397000
0.207976997 0.291411996 0.007446000
0.275146008 0.302794993 0.015625000
0.338806003 0.310638011 0.020752000
0.398193002 0.320250988 0.025330000
0.458281994 0.332213998 0.028870000
0.520905018 0.344848990 0.032837000
0.582732975 0.356842011 0.038146999
0.639374018 0.367859006 0.044372998
0.689208984 0.378235012 0.051422000
0.733794987 0.388579994 0.058380000
0.778075993 0.398375988 0.064971998
0.827971995 0.406250000 0.071014002
0.884643972 0.411285013 0.071777001
0.000000000 0.295471013 0.002625000
0.023894999 0.292358011 0.000000000
0.082703002 0.294066995 0.000000000
0.141815007 0.310180992 0.000000000
0.205109000 0.332581013 0.000000000
0.275023997 0.347382009 0.003998000
0.344359994 0.353942990 0.007996000
0.407043010 0.360107005 0.011047000
0.466033995 0.369507015 0.014893000
0.526520014 0.381408989 0.019531000
0.588257015 0.393799007 0.024597000
0.647400022 0.405640006 0.031036001
0.700958014 0.417602986 0.039551001
0.749145985 0.430359006 0.047516000
0.795593023 0.443695009 0.054962002
0.846405029 0.455749989 0.062408000
0.903594971 0.464172006 0.066405997
0.000000000 0.342009991 0.001099000
0.018585000 0.338225991 0.000000000
0.077789001 0.335662991 0.000000000
0.137786999 0.346832007 0.000000000
0.200562000 0.370422006 0.000000000
0.269591987 0.390960991 0.000000000
0.341796994 0.399475008 0.000000000
0.409851015 0.402893007 0.000397000
0.471466005 0.408538997 0.001923000
0.530884027 0.417632997 0.006744000
0.591338992 0.428618997 0.012970000
0.651122987 0.440001994 0.020293999
0.707336009 0.452147990 0.028748000
0.758880973 0.466095001 0.036804002
0.808197021 0.482055992 0.045410000
0.860503972 0.497741997 0.054474000
0.918335021 0.509827018 0.065002002
0.000000000 0.389984012 0.002319000
0.012726000 0.385803014 0.000000000
0.072417997 0.380248994 0.000000000
0.133759007 0.384613007 0.000000000
0.196441993 0.405517995 0.000000000
0.263000011 0.431273997 0.000000000
0.333739996 0.445800990 0.000000000
0.404632986 0.449492991 0.000000000
0.470856011 0.451691002 0.000000000
0.532562017 0.457031012 0.001587000
0.593047976 0.465027004 0.007599000
0.652831972 0.474395990 0.014587000
0.710205019 0.485291004 0.022583000
0.764007986 0.498870999 0.031585999
0.815825999 0.516174018 0.040833000
0.869659007 0.534606993 0.050110001
0.928008974 0.549315989 0.060028002
0.000000000 0.439850003 0.003113000
0.007294000 0.435730010 0.000061000
0.067474000 0.428772002 0.000000000
0.130096003 0.427094012 0.000000000
0.193297997 0.441161990 0.000000000
0.257813007 0.468230993 0.000000000
0.324950993 0.490752995 0.000000000
0.394165009 0.499237001 0.000000000
0.462891012 0.500122011 0.000000000
0.528809011 0.501984000 0.000000000
0.591766000 0.506500006 0.001526000
0.652679026 0.512726009 0.007629000
0.710937977 0.520812988 0.015625000
0.766174018 0.532440007 0.024383999
0.820038021 0.548981011 0.034210000
0.875549018 0.568328977 0.044128001
0.934692025 0.585236013 0.054412998
0.000000000 0.492096007 0.003937000
0.002777000 0.488007009 0.000061000
0.063231997 0.480987996 0.000000000
0.126984000 0.476013005 0.000000000
0.191071004 0.482024997 0.000000000
0.254516989 0.505034983 0.000000000
0.318206996 0.533234000 0.000000000
0.383727998 0.550078988 0.000000000
0.451263011 0.553833008 0.000000000
0.519439995 0.553497016 0.000000000
0.585999012 0.554718018 0.000000000
0.649474978 0.557677984 0.002502000
0.709442019 0.562530994 0.010010000
0.765990973 0.570648015 0.018738000
0.821594000 0.583770990 0.028930999
0.879424989 0.600890994 0.039978001
0.939940989 0.617919981 0.051422000
0.000000000 0.546661019 0.004730000
0.000610000 0.542725027 0.001190000
0.059723001 0.536132991 0.000000000
0.123718001 0.530182004 0.000000000
0.188842997 0.530089974 0.000000000
0.252716005 0.545836985 0.000000000
0.314301014 0.574615002 0.000000000
0.375793010 0.599518001 0.000000000
0.440063000 0.609740973 0.000000000
0.507598996 0.609984994 0.000000000
0.576416016 0.608916998 0.000000000
0.643158019 0.609497011 0.000000000
0.705231011 0.611510992 0.003052000
0.763396978 0.616088986 0.010803000
0.820250988 0.624359012 0.021790000
0.880005002 0.636107981 0.034302000
0.942505002 0.649627984 0.047851998
0.000000000 0.603484988 0.006317000
0.000000000 0.599700987 0.004883000
0.056366000 0.593657970 0.000183000
0.120757997 0.588074028 0.000000000
0.186554000 0.584807992 0.000000000
0.251648009 0.592926025 0.000000000
0.312682986 0.617828012 0.000000000
0.370819002 0.647338986 0.000000000
0.430938989 0.665192008 0.000000000
0.496033013 0.668731987 0.000000000
0.565186024 0.666687012 0.000000000
0.634521008 0.665709972 0.000000000
0.699432015 0.666504025 0.000000000
0.758422971 0.668914974 0.001617000
0.815979004 0.673614979 0.011475000
0.876160026 0.679961979 0.024901999
0.940093994 0.688018978 0.040619001
0.000000000 0.662140012 0.007904000
0.000000000 0.658721983 0.005615000
0.053314000 0.653442025 0.000183000
0.117493004 0.648499012 0.000000000
0.183807001 0.644379020 0.000000000
0.250153005 0.646575987 0.000000000
0.312072992 0.664885998 0.000000000
0.368256003 0.695098996 0.000000000
0.424499989 0.719512999 0.000000000
0.486663997 0.728209972 0.000000000
0.554687977 0.726776004 0.000000000
0.624846995 0.724609017 0.000000000
0.692200005 0.724883974 0.000000000
0.753386974 0.727172971 0.000000000
0.810302973 0.730468988 0.000183000
0.869719982 0.733947992 0.011688000
0.933867991 0.738036990 0.027984999
0.000000000 0.723784983 0.008667000
0.000000000 0.720673025 0.007935000
0.048340000 0.715698004 0.000977000
0.112488002 0.711211979 0.000000000
0.179015994 0.707213998 0.000000000
0.246368006 0.706054986 0.000000000
0.309875011 0.718445003 0.000000000
0.366241008 0.746674001 0.000000000
0.420318991 0.775330007 0.000000000
0.479705989 0.789062977 0.000000000
0.546356022 0.789367974 0.000000000
0.616577029 0.786652029 0.000000000
0.685181022 0.786041021 0.000000000
0.748444021 0.787903011 0.000000000
0.807465017 0.791382015 0.000000000
0.865570009 0.794556022 0.000153000
0.927429020 0.796570003 0.011780000
0.030060001 0.032439999 0.111571997
0.063415997 0.030762000 0.113342002
0.102264002 0.028380999 0.111236997
0.131164998 0.026825000 0.108916998
0.158508003 0.025238000 0.107391000
0.189300999 0.023651000 0.106567003
0.223572001 0.022887999 0.107299998
0.258300990 0.022095000 0.107758000
0.293639988 0.021973001 0.108276002
0.329468012 0.021973001 0.107818998
0.367188007 0.022766000 0.106322996
0.407135010 0.023560001 0.102875002
0.451599002 0.025330000 0.096190996
0.503875971 0.029114000 0.086060002
0.563872993 0.035004001 0.073028997
0.630218983 0.043242998 0.058655001
0.697296023 0.055695001 0.049835000
0.023590000 0.052611999 0.096069001
0.053801998 0.051422000 0.099182002
0.094269000 0.048096001 0.099120997
0.130585000 0.046599999 0.099426001
0.166260004 0.047058001 0.099670000
0.204009995 0.048340000 0.100066997
0.242553994 0.049805000 0.100768998
0.279846013 0.051514000 0.101775996
0.315246999 0.052855998 0.102631003
0.349822998 0.054382000 0.102631003
0.385192990 0.055663999 0.101685002
0.421752989 0.056274001 0.099059999
0.461822987 0.056976002 0.093718998
0.509643972 0.057769999 0.084441997
0.568085015 0.059967000 0.072052002
0.633849978 0.068207003 0.061462000
0.698242009 0.085175000 0.063750997
0.013519000 0.081177004 0.076018997
0.043609999 0.082549997 0.080261000
0.081450999 0.084105998 0.084167004
0.128539994 0.083984002 0.087921001
0.174866006 0.084716998 0.089996003
0.222412005 0.086883999 0.091247998
0.270812988 0.090759002 0.092834003
0.316864014 0.095946997 0.095427997
0.357544005 0.101775996 0.098449998
0.394012004 0.107147001 0.101043999
0.427154988 0.111298002 0.102448002
0.457794011 0.113646999 0.101898000
0.487610012 0.115203999 0.099365003
0.522765994 0.116301998 0.094573997
0.571869016 0.118408002 0.088379003
0.635802984 0.123138003 0.083374001
0.702789009 0.131652996 0.083678998
0.001129000 0.108214997 0.064971998
0.038849000 0.112946004 0.069610998
0.080017000 0.120177999 0.075438999
0.126984000 0.125000000 0.079285003
0.178864002 0.129363999 0.083313003
0.233153999 0.133086994 0.085968003
0.289306998 0.138214007 0.089171998
0.345183998 0.144562006 0.092681997
0.397826999 0.152007997 0.097321004
0.444519013 0.159301996 0.102141999
0.484313995 0.164977998 0.105926998
0.517120004 0.168578997 0.108214997
0.543823004 0.169829994 0.107787997
0.569518983 0.168975994 0.103271000
0.605255008 0.167754993 0.095917001
0.659331977 0.168975994 0.090209998
0.723297000 0.174468994 0.089599997
0.000000000 0.135894999 0.058563001
0.036377002 0.141724005 0.062958002
0.081359997 0.153839007 0.069305003
0.128754005 0.165252998 0.075165004
0.182708994 0.174683005 0.079498000
0.240264997 0.182403997 0.083434999
0.300139993 0.189910993 0.086487003
0.361571997 0.197693005 0.090117998
0.422241002 0.205963001 0.095183998
0.479247987 0.214324996 0.101104997
0.529572010 0.221283004 0.107330002
0.571471989 0.226013005 0.112700999
0.604735970 0.228119001 0.115874998
0.631165028 0.227202997 0.114868000
0.658813000 0.224547997 0.109039001
0.699615002 0.223267004 0.102173001
