public/lut/82.cube
TITLE "17x17x17 Adobe/IRIDAS cube 3D LUT exported with GrossGrade v0.2.2 (beta) 64 bit"
DOMAIN_MIN 0 0 0
DOMAIN_MAX 1 1 1
LUT_3D_SIZE 17
0.011047000 0.039429002 0.073151000
0.094146997 0.034759998 0.070068002
0.144012004 0.027892999 0.062438998
0.185394004 0.023010001 0.055298001
0.250092000 0.018340999 0.047943000
0.327423006 0.015778000 0.040709998
0.404114008 0.014191000 0.032439999
0.479828000 0.017883001 0.023894999
0.550567985 0.036285002 0.024840999
0.615997016 0.063231997 0.035278000
0.678986013 0.086089998 0.046264999
0.741150022 0.107024997 0.057769999
0.804382026 0.128571004 0.070251003
0.870453000 0.150543004 0.083099000
0.935059011 0.172454998 0.096252002
0.970978022 0.184417993 0.103455000
0.969910026 0.183960006 0.103423998
0.000153000 0.093842000 0.039948002
0.058136001 0.092528999 0.037597999
0.110198997 0.088776000 0.038300000
0.150145993 0.086029001 0.037415002
0.209076002 0.085326999 0.033629999
0.281493992 0.086456001 0.029663000
0.357239008 0.090301998 0.025726000
0.432799995 0.097747996 0.022522001
0.506653011 0.109039001 0.021331999
0.575836003 0.123076998 0.026764000
0.640532970 0.137573004 0.037597999
0.702392995 0.151641995 0.048583999
0.764190972 0.166077003 0.060883000
0.830231011 0.181305006 0.074340999
0.900940001 0.197844997 0.088531002
0.968200982 0.213593006 0.102752998
0.970520020 0.212066993 0.103423998
0.000000000 0.128509998 0.031647000
0.040587999 0.129363999 0.023254000
0.085785002 0.128356993 0.021790000
0.120209001 0.127685994 0.020293999
0.174500003 0.130096003 0.017333999
0.244903997 0.132446006 0.010010000
0.322144002 0.136962995 0.006897000
0.400085002 0.144379005 0.009277000
0.475921988 0.154419005 0.014496000
0.547851980 0.166137993 0.022430001
0.615172982 0.178527996 0.032134999
0.677703977 0.191131994 0.043517999
0.737426996 0.204071000 0.054993000
0.800293028 0.217773005 0.067139000
0.869597971 0.232666001 0.081298999
0.941223025 0.247345001 0.096252002
0.971374989 0.252593994 0.102692001
0.000000000 0.140961006 0.029327000
0.028229000 0.145202994 0.017059000
0.071686000 0.152099997 0.003387000
0.105559997 0.159149006 0.002319000
0.157317996 0.166686997 0.002167000
0.229857996 0.175200999 0.001617000
0.310822010 0.181670994 0.002869000
0.391631991 0.188904002 0.006592000
0.468169987 0.197753996 0.012634000
0.539276004 0.206817999 0.020111000
0.605346978 0.215302005 0.029418999
0.667205989 0.223663002 0.040160999
0.726746023 0.232970998 0.051819000
0.786957026 0.243347004 0.063568003
0.851776004 0.255309999 0.077179000
0.920562983 0.268433005 0.091339000
0.972015023 0.278320014 0.102325000
0.000000000 0.169861004 0.023254000
0.019653000 0.173462003 0.003632000
0.065430000 0.186249003 0.000000000
0.101685002 0.199860007 0.000000000
0.153075993 0.211517006 0.000000000
0.223267004 0.223358005 0.000000000
0.306212991 0.233673006 0.001465000
0.391387999 0.242278993 0.005188000
0.470885992 0.251403987 0.010468000
0.541625977 0.260405988 0.018036000
0.604309022 0.267212003 0.027100001
0.661957026 0.271636993 0.036865000
0.718872011 0.276154011 0.048462000
0.777679026 0.282501012 0.060577001
0.839935005 0.290802002 0.073334001
0.906342030 0.300628990 0.087127998
0.971068978 0.310516000 0.101195998
0.000000000 0.214232996 0.014160000
0.016357001 0.215118006 0.000183000
0.065886997 0.231140003 0.000000000
0.104492001 0.250366002 0.000000000
0.157471001 0.264099002 0.000000000
0.224059999 0.277038991 0.000000000
0.301818997 0.289795011 0.000000000
0.387053996 0.300568014 0.003052000
0.470672995 0.310180992 0.008118000
0.544983029 0.320434988 0.015472000
0.608093023 0.329102010 0.024017001
0.663452029 0.333770990 0.033325002
0.716094971 0.335236013 0.044464000
0.770905018 0.337401986 0.056549001
0.830841005 0.342193991 0.068816997
0.896148980 0.349274009 0.083099000
0.962830007 0.356415004 0.097778000
0.000000000 0.263336003 0.004333000
0.012024000 0.261687994 0.000092000
0.070618004 0.277617991 0.000000000
0.111023001 0.304046988 0.000000000
0.165191993 0.322266012 0.000000000
0.231170997 0.335022002 0.000000000
0.302246004 0.348663002 0.000000000
0.380645990 0.361755013 0.000305000
0.463928014 0.372498006 0.003845000
0.542846978 0.382355005 0.011078000
0.610413015 0.392302990 0.019623000
0.667174995 0.400207996 0.028625000
0.718262017 0.403472990 0.039246000
0.769469976 0.403533995 0.051056001
0.825378001 0.404480010 0.063660003
0.888518989 0.408385992 0.077972002
0.954101980 0.412476003 0.093047999
0.000000000 0.314422995 0.001221000
0.005859000 0.310485989 0.000793000
0.075805999 0.323211998 0.000000000
0.118957996 0.356505990 0.000000000
0.171295002 0.384032995 0.000000000
0.238495007 0.398070991 0.000000000
0.307525992 0.409790009 0.000000000
0.377959996 0.423584014 0.000000000
0.454894990 0.436340004 0.000336000
0.534301996 0.445618004 0.004547000
0.606934011 0.453552008 0.012970000
0.668060005 0.462219000 0.022278000
0.720489979 0.469727010 0.032042999
0.770781994 0.472808987 0.044036999
0.823913991 0.472595006 0.057464998
0.883880973 0.472961009 0.071990997
0.948059022 0.474182010 0.087554999
0.000000000 0.368683010 0.002380000
0.001831000 0.363983005 0.002014000
0.079010002 0.371306986 0.000092000
0.127075002 0.406250000 0.000000000
0.174683005 0.444884986 0.000000000
0.240234002 0.464996010 0.000000000
0.311614990 0.474364996 0.000000000
0.380035013 0.485015988 0.000000000
0.449523985 0.497649997 0.000000000
0.523559988 0.507598996 0.000336000
0.597534001 0.513549984 0.005341000
0.663757026 0.519104004 0.013733000
0.720245004 0.527221978 0.023864999
0.771880984 0.535247982 0.034515001
0.824585021 0.539124012 0.048096001
0.882507026 0.539306998 0.063660003
0.945007026 0.538483024 0.080048002
0.000000000 0.427581996 0.003174000
0.000000000 0.423767000 0.002411000
0.077789001 0.425751001 0.000092000
0.134490997 0.455170006 0.000000000
0.178650007 0.500609994 0.000000000
0.237334996 0.530609012 0.000000000
0.309753001 0.541137993 0.000000000
0.381743997 0.546967030 0.000000000
0.449584991 0.555846989 0.000000000
0.517548025 0.565643013 0.000000000
0.587463021 0.571747005 0.000305000
0.655273020 0.574127018 0.005341000
0.716674984 0.578429997 0.014526000
0.771697998 0.587523997 0.024780000
0.825286984 0.597168028 0.037200999
0.881989002 0.602172971 0.053192001
0.943328977 0.602539003 0.070435002
0.000000000 0.491302013 0.004242000
0.000000000 0.488739014 0.004242000
0.072173998 0.487549007 0.000092000
0.139495999 0.506408989 0.000000000
0.185149997 0.550507009 0.000000000
0.235474005 0.589965999 0.000000000
0.303496987 0.606109977 0.000000000
0.378632009 0.609344006 0.000000000
0.450165004 0.612914979 0.000000000
0.517028987 0.619507015 0.000000000
0.582213998 0.625732005 0.000000000
0.647125006 0.627716005 0.000000000
0.709990978 0.627838016 0.005341000
0.769226015 0.633086979 0.015320000
0.825012028 0.644684017 0.027100001
0.880919993 0.656372011 0.040924001
0.940734982 0.662018001 0.059326001
0.000000000 0.558318973 0.006317000
0.000000000 0.556182981 0.006317000
0.063568003 0.553864002 0.000183000
0.139862001 0.561797976 0.000000000
0.193237007 0.596374989 0.000000000
0.238067999 0.640747011 0.000000000
0.297760010 0.665802002 0.000000000
0.371246010 0.670379996 0.000000000
0.446013987 0.669250011 0.000000000
0.515929997 0.670776010 0.000000000
0.580565989 0.674682975 0.000000000
0.641875982 0.676909983 0.000000000
0.702515006 0.675414979 0.000214000
0.762969971 0.675200999 0.006256000
0.822174013 0.683135986 0.017792000
0.879577994 0.697601020 0.030304000
0.938476980 0.710052013 0.047394000
0.000000000 0.626067996 0.007904000
0.000000000 0.623534977 0.007904000
0.054474000 0.620575011 0.000977000
0.135986000 0.620788991 0.000000000
0.200348005 0.641417980 0.000000000
0.245453000 0.683655024 0.000000000
0.295807004 0.717711985 0.000000000
0.362700999 0.727997005 0.000000000
0.437225014 0.724792004 0.000000000
0.509734988 0.720885992 0.000000000
0.576569021 0.720275998 0.000000000
0.637238026 0.720916986 0.000000000
0.694793999 0.718810976 0.000000000
0.753356993 0.714600027 0.000153000
0.813843012 0.715331972 0.008362000
0.875092030 0.725372016 0.021790000
0.936645985 0.740508974 0.037475999
0.000000000 0.692351997 0.009613000
0.000000000 0.688995004 0.009674000
0.045044001 0.684997976 0.000977000
0.129242003 0.681427002 0.000000000
0.204284996 0.688628972 0.000000000
0.255585015 0.721374989 0.000000000
0.299163997 0.761322021 0.000000000
0.356231987 0.780974984 0.000000000
0.426636010 0.779236019 0.000000000
0.499419987 0.770721018 0.000000000
0.568145990 0.764403999 0.000000000
0.630127013 0.761565983 0.000000000
0.685791016 0.758789003 0.000000000
0.741424978 0.752655029 0.000000000
0.800536990 0.746429026 0.000854000
0.863799989 0.746796012 0.013123000
0.929871023 0.757843018 0.029510001
0.000000000 0.756470025 0.011932000
0.000000000 0.752044976 0.011963000
0.035980001 0.746703982 0.001099000
0.121795997 0.741577029 0.000000000
0.204650998 0.739349008 0.000000000
0.266144007 0.758453012 0.000000000
0.307861000 0.797882020 0.000000000
0.353637993 0.827484012 0.000000000
0.415984988 0.831268013 0.000000000
0.487152010 0.819976985 0.000000000
0.556671023 0.807617009 0.000000000
0.620422006 0.800049007 0.000000000
0.676299989 0.796387017 0.000000000
0.728546023 0.790955007 0.000000000
0.785736024 0.781890988 0.000000000
0.848052979 0.774231017 0.002472000
0.915466011 0.777100027 0.019226000
0.000000000 0.818633974 0.014252000
0.000000000 0.813262999 0.014282000
0.028351000 0.806549013 0.001190000
0.114899002 0.800231993 0.000000000
0.201903999 0.793609977 0.000000000
0.273925990 0.798981011 0.000000000
0.319611013 0.830688000 0.000000000
0.355621010 0.866882026 0.000000000
0.406585991 0.879088998 0.000000000
0.473511010 0.868072987 0.000000000
0.543823004 0.851043999 0.000000000
0.610046029 0.838257015 0.000000000
0.668060005 0.832672000 0.000000000
0.718445003 0.829802990 0.000000000
0.771362007 0.822906017 0.000000000
0.833374023 0.813750982 0.000061000
0.899444997 0.811401010 0.005432000
0.000000000 0.878997982 0.016571000
0.000000000 0.872986019 0.016663000
0.018524000 0.865478992 0.001282000
0.105530001 0.858520985 0.000000000
0.193877995 0.850921988 0.000000000
0.272980005 0.847838998 0.000000000
0.325805992 0.869690001 0.000000000
0.357971013 0.907715023 0.000000000
0.398804009 0.928466976 0.000000000
0.460236013 0.921325982 0.000000000
0.530731022 0.902526975 0.000000000
0.599487007 0.886200011 0.000000000
0.661224008 0.877380013 0.000000000
0.712584972 0.875702024 0.000000000
0.762145996 0.873351991 0.000000000
0.821044981 0.866180003 0.000000000
0.886749029 0.859252989 0.000000000
0.024261000 0.041717999 0.154602006
0.089417003 0.034851000 0.148528993
0.147705004 0.030121000 0.139862001
0.192139000 0.026123000 0.133452997
0.254577994 0.021423001 0.129700005
0.329681009 0.019653000 0.126922995
0.407256991 0.020904999 0.125487998
0.482879996 0.025970001 0.124146000
0.555908024 0.034271002 0.123351999
0.625640988 0.045441002 0.122864000
0.692963004 0.057342999 0.122253001
0.759643972 0.069885001 0.119292997
0.827484012 0.082641996 0.111815996
0.896148980 0.099274002 0.102448002
0.957427979 0.130431995 0.105621003
0.987761974 0.149566993 0.105347000
0.984252989 0.155120999 0.104644999
0.010315000 0.094665997 0.115417004
0.063354000 0.091766000 0.111298002
0.121551998 0.087067001 0.109710999
0.163268998 0.083495997 0.110596001
0.218017995 0.082001001 0.111481003
0.288239002 0.081878997 0.110870004
0.365478992 0.084686004 0.109771997
0.442016989 0.091034003 0.108887002
0.515655994 0.099670000 0.107360996
0.583527029 0.112884998 0.108764999
0.645965993 0.129851997 0.114471003
0.706511974 0.146301001 0.120728001
0.767455995 0.163848996 0.126862004
0.832702994 0.180756003 0.131469995
0.903320014 0.196594000 0.132964998
0.975463986 0.200714007 0.115326002
0.978972971 0.196960002 0.105103001
0.000183000 0.127959996 0.095215000
0.047058001 0.130797997 0.091522001
0.100189000 0.132629007 0.090942003
0.137390003 0.130371004 0.094848998
0.184600994 0.128479004 0.099457003
0.249908000 0.129088998 0.101685002
0.325958014 0.134124994 0.104369998
0.403228998 0.143218994 0.108032003
0.477263987 0.154662997 0.112061001
0.546721995 0.167389005 0.116393998
0.611815989 0.180602998 0.121399000
0.672729015 0.194397002 0.125701994
0.731963992 0.208556995 0.128447995
0.795624018 0.222534001 0.129088998
0.867065012 0.236328006 0.129394993
0.941344976 0.248137996 0.128021002
0.977263987 0.244873002 0.105896004
0.000000000 0.141509995 0.087523997
0.036681999 0.148285002 0.085998997
0.084533997 0.159241006 0.086944997
0.119811997 0.164825007 0.091003001
0.167572007 0.168427005 0.094696000
0.235016003 0.173645005 0.097503997
0.313201994 0.179473996 0.100860998
0.392426014 0.187195003 0.106078997
0.467162997 0.196410999 0.112365998
0.536406994 0.205841005 0.119231999
0.600677013 0.215118006 0.126647994
0.660827994 0.225036994 0.134124994
0.718780994 0.236237004 0.139708996
0.779510021 0.248412997 0.141326994
0.847075999 0.261168987 0.139740005
0.919830024 0.273223996 0.136291996
0.979857981 0.271697998 0.105742998
0.000000000 0.168427005 0.082245000
0.025330000 0.173096001 0.081482001
0.076201998 0.188446000 0.087981999
0.112305000 0.202698007 0.093964003
0.161835000 0.212707996 0.098174997
0.228698999 0.222687006 0.099547997
0.307678014 0.232238993 0.101746000
0.389954001 0.240752995 0.105926998
0.467438012 0.249146000 0.111815996
0.537047982 0.256989002 0.118621998
0.598937988 0.263489008 0.126342997
0.655914009 0.269012004 0.135558993
0.711638987 0.275391012 0.145172000
0.770172000 0.284058005 0.152893007
0.834320009 0.294463992 0.155974999
0.904448986 0.304809988 0.153991997
0.977752984 0.306823999 0.130188003
0.000000000 0.210998997 0.076080002
0.008972000 0.211028993 0.075072996
0.072936997 0.227051005 0.082824998
0.114349000 0.247008994 0.092712000
0.166443005 0.261444002 0.100341998
0.230590999 0.274322987 0.104309000
0.304351985 0.287506014 0.106597997
0.384918004 0.298615009 0.109771997
0.465117991 0.307891995 0.113891996
0.537810981 0.316864014 0.119140998
0.600494027 0.324340999 0.125487998
0.655487001 0.328795999 0.132903993
0.707458019 0.331207007 0.142089993
0.762054026 0.335022002 0.152893007
0.823578000 0.341704994 0.162597999
0.891541004 0.349976003 0.168853998
0.961822987 0.355834991 0.165832996
0.000000000 0.259644002 0.068634003
0.002960000 0.256835997 0.066467002
0.073944002 0.270507991 0.069610998
0.120056003 0.295531988 0.083343998
0.174743995 0.315369010 0.095734000
0.239409998 0.329315007 0.103515998
0.307007015 0.343750000 0.109222002
0.380219012 0.358123988 0.113525003
0.458831996 0.369780988 0.117400996
0.534882009 0.379516989 0.121338002
0.601378977 0.388518989 0.126221001
0.657653987 0.395386010 0.132263005
0.707764030 0.398438007 0.139434993
0.758239985 0.399322987 0.148346007
0.815338016 0.401764005 0.159392998
0.880859017 0.406646997 0.171082005
0.948364019 0.411255002 0.177368000
0.000000000 0.311278999 0.060059000
0.000305000 0.306793004 0.055907998
0.075745001 0.316132009 0.052154999
0.126770005 0.344727010 0.067199998
0.180724993 0.373230010 0.085051998
0.247437000 0.389618009 0.096680000
0.314727992 0.402617991 0.104736000
0.381287009 0.418121010 0.112273999
0.453186005 0.432556003 0.117798001
0.528809011 0.443085015 0.121978998
0.599518001 0.451568991 0.126404002
0.659636974 0.459502995 0.132172003
0.710846007 0.465820014 0.139129996
0.759674013 0.468719006 0.146576002
0.812653005 0.469420999 0.155579001
0.874359012 0.470795006 0.166808993
0.940551996 0.472106993 0.172791004
0.000000000 0.366515994 0.049713001
0.000000000 0.362244010 0.045044001
0.077026002 0.366241008 0.025970001
0.134064004 0.393615991 0.043853998
0.184600994 0.430725008 0.069518998
0.249298006 0.454070985 0.087096997
0.320098996 0.465728998 0.096436001
0.386597008 0.477813989 0.104552999
0.452331990 0.492339998 0.113067999
0.522948980 0.504302979 0.119598001
0.594208002 0.511932015 0.124695003
0.658752024 0.518065989 0.130401999
0.713898003 0.525299013 0.137603998
0.763733029 0.532257020 0.145568997
0.815033019 0.536072016 0.153899997
0.873351991 0.536987007 0.162810996
0.937072992 0.536437988 0.166718006
0.000000000 0.426818997 0.038054999
0.000000000 0.423431009 0.033507999
0.076080002 0.423736989 0.006561000
0.141479000 0.444000006 0.015961001
0.189971998 0.483947992 0.046569999
0.247406006 0.516968012 0.074219003
0.318268001 0.531463981 0.087981999
0.389373988 0.538909972 0.094848998
0.455291986 0.549133003 0.103455000
0.520874023 0.560424984 0.113036998
0.588684022 0.568207026 0.121094003
0.654448986 0.572296023 0.127318993
0.713867009 0.576934993 0.133819997
0.767059028 0.585021973 0.141937003
0.818726003 0.593932986 0.151123002
0.874755979 0.599213004 0.159424007
0.936492980 0.599822998 0.161101997
0.000000000 0.491699010 0.025024001
0.000000000 0.489288002 0.020172000
0.071350001 0.487670988 0.001465000
0.145538002 0.498382986 0.000000000
0.198456004 0.532378972 0.017090000
0.247954994 0.572356999 0.053344999
0.311890006 0.594878972 0.077422999
0.384856999 0.601624012 0.085937999
0.455444008 0.605742991 0.091705002
0.521453977 0.612487972 0.101256996
0.586121023 0.619140983 0.113007002
0.649841011 0.622497976 0.122192003
0.710388005 0.624145985 0.128967002
0.767150998 0.629607975 0.135681003
0.820801020 0.640717030 0.144317999
0.875549018 0.652435005 0.153045997
0.935455024 0.658234000 0.153533995
0.000000000 0.559174001 0.013794000
0.000000000 0.556976020 0.009705000
0.063538000 0.554687977 0.000061000
0.143950999 0.557525992 0.000000000
0.206572995 0.579468012 0.000000000
0.253845006 0.618866026 0.021973001
0.307525992 0.650635004 0.056915000
0.375396997 0.662322998 0.074982002
0.448334008 0.662872016 0.079620004
0.518158019 0.663239002 0.085387997
0.584044993 0.665619016 0.097565003
0.646575987 0.667541981 0.111754999
0.706054986 0.667572021 0.122253001
0.763458014 0.669403017 0.128784001
0.819733024 0.678192019 0.134887993
0.875275016 0.692840993 0.141417995
0.934174001 0.705260992 0.140686005
0.000000000 0.626708984 0.008118000
0.000000000 0.623961985 0.007629000
0.054717999 0.620788991 0.000061000
0.138062000 0.619080007 0.000000000
0.210723996 0.628692985 0.000000000
0.263579994 0.659575999 0.000000000
0.309601009 0.696502984 0.023651000
0.366973996 0.717010021 0.052733999
0.436554015 0.718903005 0.062835999
0.508513987 0.714080989 0.065490998
0.577332020 0.710541010 0.074036002
0.641357005 0.708648980 0.090728998
0.700653017 0.706726015 0.108429000
0.756744027 0.705231011 0.119537003
0.813781977 0.708953977 0.125213996
0.872528017 0.720215023 0.127318993
0.933228016 0.735198975 0.121276997
0.000000000 0.692534983 0.007843000
0.000000000 0.688843012 0.007843000
0.045898002 0.684448004 0.000092000
0.130706996 0.680359006 0.000000000
0.211028993 0.680939019 0.000000000
0.272796988 0.699401975 0.000000000
0.317963004 0.734710991 0.000336000
0.364594012 0.763763011 0.017700000
0.425446004 0.771637022 0.035645001
0.495819002 0.764617980 0.039062999
0.566101015 0.755280018 0.042541999
0.631958008 0.748534977 0.056731999
0.691955984 0.743866026 0.079802997
0.747955024 0.739562988 0.101775996
0.803406000 0.737456977 0.112761997
0.863617003 0.740997016 0.113678001
0.928283989 0.752655029 0.101166002
0.000000000 0.755919993 0.010193000
0.000000000 0.751221001 0.010895000
0.038238999 0.745392025 0.000977000
0.123718001 0.739867985 0.000000000
0.208648995 0.735107005 0.000000000
0.279480010 0.741943002 0.000000000
0.329102010 0.769806027 0.000000000
0.368773997 0.803313971 0.002502000
0.418639988 0.818970025 0.009277000
0.483276010 0.813292980 0.012329000
0.553192019 0.799286008 0.011536000
0.620453000 0.787781000 0.015137000
0.681640983 0.780700982 0.033996999
0.737335026 0.775359988 0.067932002
0.791809022 0.769989014 0.088592999
0.849945009 0.766632020 0.095977999
0.915679991 0.771790028 0.078429997
0.000000000 0.817505002 0.013306000
0.000000000 0.811645985 0.013367000
0.030609000 0.804473996 0.001129000
0.117798001 0.797760010 0.000000000
0.204955995 0.790679991 0.000000000
0.282959014 0.788695991 0.000000000
0.339935005 0.806061029 0.000000000
0.376709014 0.838440001 0.000000000
0.415069997 0.860747993 0.002228000
0.471038997 0.859252989 0.007538000
0.539489985 0.843322992 0.008667000
0.608458996 0.827544987 0.008667000
0.672240973 0.817749023 0.010071000
0.728148997 0.813080013 0.016174000
0.780974984 0.808960021 0.038573999
0.837768972 0.804077029 0.058623999
0.901031017 0.804656982 0.027802000
0.000000000 0.877471983 0.015686000
0.000000000 0.871062994 0.016510000
0.020843999 0.863036990 0.001282000
0.108643003 0.855773985 0.000000000
0.196715996 0.848052979 0.000000000
0.278625011 0.841674984 0.000000000
0.343017995 0.850158989 0.000000000
0.381531000 0.878601015 0.000000000
0.412842005 0.905517995 0.000000000
0.460693002 0.909759998 0.000000000
0.526305974 0.895049989 0.000000000
0.596710026 0.877197027 0.000000000
0.663146973 0.864777029 0.000000000
0.721466005 0.859375000 0.002655000
0.773284972 0.857483029 0.010559000
0.828217030 0.854247987 0.014954000
0.889434993 0.850555003 0.015656000
0.028380999 0.041779000 0.201629996
0.080352999 0.036377002 0.201934993
0.143616006 0.032439999 0.195739999
0.199004993 0.029236000 0.191131994
0.263915986 0.026031001 0.187866002
0.337585002 0.024352999 0.183502004
0.414611995 0.026123000 0.180877998
0.490051001 0.031189000 0.181305006
0.561645985 0.039611999 0.183136001
0.630707026 0.049224999 0.184661999
0.698913991 0.061248999 0.186950997
0.767760992 0.073913999 0.191162005
0.837279975 0.087371998 0.194610998
0.906737983 0.101012997 0.192351997
0.969848990 0.117187999 0.184631005
0.995148003 0.136504993 0.177276999
0.994140983 0.135802999 0.167052999
0.020416001 0.089873999 0.170684993
0.063904002 0.087188996 0.171325997
0.130188003 0.083130002 0.172424003
0.182128996 0.080719002 0.171905994
0.236083999 0.079681002 0.171325997
0.302489996 0.079193003 0.169006005
0.378235012 0.082488999 0.166626006
0.454346001 0.089142002 0.166015998
0.526215017 0.097503997 0.165314004
0.593932986 0.106445000 0.163390994
0.659851015 0.115906000 0.162169993
0.725403011 0.126342997 0.163756996
0.791747987 0.137878001 0.166869998
0.860382020 0.148986995 0.166961998
0.929778993 0.160460994 0.161681995
0.990601003 0.173737004 0.152678996
0.993682981 0.167846993 0.138702005
0.011719000 0.123962000 0.147247002
0.052368000 0.129180998 0.149657995
0.112976000 0.133941993 0.149597004
0.160430998 0.129760996 0.153716996
0.206389993 0.124329001 0.157074004
0.266510010 0.122466996 0.159088001
0.340941995 0.126862004 0.160460994
0.418976009 0.136199996 0.161864996
0.492980987 0.147797003 0.161835000
0.559113026 0.162384003 0.162444994
0.618041992 0.180023000 0.166626006
0.675689995 0.196564004 0.172241002
0.735778987 0.210723996 0.177551001
0.800567985 0.225555003 0.183502004
0.872008979 0.239655003 0.187133998
0.945159972 0.249663994 0.182677999
0.993408024 0.220458999 0.122161999
0.001831000 0.140320003 0.134277001
0.046021000 0.150543004 0.137786999
0.099578999 0.166168004 0.141417995
0.138641000 0.171753004 0.144958004
0.183471993 0.170349002 0.146393001
0.245422006 0.169829994 0.151215002
0.320190012 0.174316004 0.156737998
0.398254007 0.182982996 0.163055003
0.472626001 0.194000006 0.170166001
0.540893972 0.206084996 0.176483005
0.602874994 0.217957005 0.181213006
0.660614014 0.229491994 0.184874997
0.716766000 0.241852000 0.189087003
0.777221978 0.256042004 0.193146005
0.846924007 0.270233005 0.194397002
0.923003972 0.279938012 0.187346995
0.993622005 0.255798012 0.120330997
0.000000000 0.166869998 0.127410993
0.040252998 0.173737004 0.132140994
0.092528999 0.193114996 0.141174003
0.128234997 0.208679006 0.148406997
0.172394007 0.217071995 0.150390998
0.236542001 0.222717002 0.151366994
0.313416004 0.229797006 0.154694006
0.392975003 0.238067999 0.161072001
0.468719006 0.246825993 0.170012996
0.538208008 0.255585015 0.180084005
0.600708008 0.263184011 0.188842997
0.657073975 0.270233005 0.196747005
0.710327029 0.278595001 0.204895005
0.766632020 0.289642006 0.211700007
0.832367003 0.302612007 0.212952003
0.907500982 0.312377989 0.202454001
