public/lut/82.cube
TITLE "17x17x17 Adobe/IRIDAS cube 3D LUT exported with GrossGrade v0.2.2 (beta) 64 bit"
DOMAIN_MIN 0 0 0
DOMAIN_MAX 1 1 1
LUT_3D_SIZE 5
0.011047000 0.039429002 0.073151000
0.250092000 0.018340999 0.047943000
0.550567985 0.036285002 0.024840999
0.804382026 0.128571004 0.070251003
0.969910026 0.183960006 0.103423998
0.000000000 0.169861004 0.023254000
0.153075993 0.211517006 0.000000000
0.470885992 0.251403987 0.010468000
0.718872011 0.276154011 0.048462000
0.971068978 0.310516000 0.101195998
0.000000000 0.368683010 0.002380000
0.174683005 0.444884986 0.000000000
0.449523985 0.497649997 0.000000000
0.720245004 0.527221978 0.023864999
0.945007026 0.538483024 0.080048002
0.000000000 0.626067996 0.007904000
0.200348005 0.641417980 0.000000000
0.437225014 0.724792004 0.000000000
0.694793999 0.718810976 0.000000000
0.936645985 0.740508974 0.037475999
0.000000000 0.878997982 0.016571000
0.193877995 0.850921988 0.000000000
0.398804009 0.928466976 0.000000000
0.661224008 0.877380013 0.000000000
0.886749029 0.859252989 0.000000000
0.030762000 0.042511001 0.235687003
0.256682992 0.030762000 0.255645990
0.579986989 0.046875000 0.245514005
0.841979980 0.092468001 0.248383000
0.994750977 0.142638996 0.275115997
0.011627000 0.158568993 0.182953000
0.166869998 0.218079001 0.228637993
0.479492009 0.232604995 0.239989996
0.722015023 0.283203006 0.249146000
0.996825993 0.292236000 0.210540995
0.000000000 0.343353003 0.154907003
0.199677005 0.399628013 0.226776004
0.465454012 0.488251001 0.266510010
0.705353022 0.523833990 0.275543004
0.913909972 0.558288991 0.342896014
0.000000000 0.609221995 0.149535999
0.218383998 0.617888987 0.188933998
0.470916986 0.708130002 0.264099002
0.708800972 0.710937977 0.326721013
0.906127989 0.759949028 0.375732005
0.000000000 0.866180003 0.159514993
0.202087000 0.833648980 0.111602999
0.511840999 0.812682986 0.088744998
0.677582026 0.847534001 0.279388011
0.916930974 0.826752007 0.304046988
0.033507999 0.045471001 0.339873999
0.244781002 0.039032001 0.436127007
0.546782970 0.058044001 0.415618986
0.782348990 0.097534001 0.433623999
0.994324028 0.157074004 0.408295006
0.027404999 0.164276004 0.335052013
0.156951994 0.207947001 0.406738013
0.474853992 0.250243992 0.435059011
0.744659007 0.277985007 0.400696009
0.996581972 0.290587991 0.358336985
0.004333000 0.311340004 0.313416004
0.187073007 0.396178991 0.384644002
0.424499989 0.484923989 0.443329006
0.691619992 0.485870004 0.425873011
0.938598990 0.502318978 0.430359006
0.000000000 0.583312988 0.299834996
0.233002007 0.613372982 0.319976985
0.457183987 0.666504025 0.399780005
0.685608029 0.715301991 0.453521997
0.911010981 0.773926020 0.456084996
0.000000000 0.832396984 0.234711006
0.242706001 0.817322016 0.318419993
0.515532970 0.801482975 0.346924007
0.691375971 0.869781017 0.491576999
0.918823004 0.874176025 0.564575016
0.037872002 0.061492998 0.529448986
0.347626001 0.048462000 0.543304026
0.510712028 0.072754003 0.638549984
0.767578006 0.109435998 0.571442008
0.993010998 0.195709005 0.657562017
0.033325002 0.207855001 0.522430003
0.218291998 0.200531006 0.554351985
0.475951999 0.262816995 0.649047971
0.744597971 0.302794993 0.569091976
0.965606987 0.313872993 0.570708990
0.027588001 0.323334008 0.558350027
0.199157998 0.366638005 0.593291998
0.437256008 0.447234988 0.632263005
0.697937012 0.480713010 0.650452018
0.936523020 0.488831013 0.610382020
0.000214000 0.529114008 0.510222971
0.245361000 0.583405018 0.551880002
0.468230993 0.664367974 0.624390006
0.647307992 0.729309022 0.674773991
0.899109006 0.731934011 0.682067990
0.000000000 0.805419981 0.496582001
0.270568997 0.804443002 0.519684017
0.481415004 0.830841005 0.566833019
0.710693002 0.863708019 0.648742974
0.900695980 0.909331977 0.717010021
0.058075000 0.102264002 0.757049978
0.352600008 0.069733001 0.755370975
0.482818991 0.105469003 0.875092030
0.751372993 0.137085006 0.803986013
0.992401004 0.213715002 0.747588992
0.049835000 0.222259998 0.707794011
0.286163002 0.178284004 0.708893001
0.484894007 0.210571006 0.795349002
0.679413021 0.319732994 0.721068978
0.954285026 0.319274992 0.670929015
0.063385002 0.363068014 0.811492980
0.212615997 0.378845006 0.718780994
0.442932010 0.400573999 0.745299995
0.704375982 0.447234988 0.779999018
0.934997976 0.498688012 0.773468018
0.044707999 0.551482975 0.793762028
0.225707993 0.554320991 0.761169016
0.479613990 0.625458002 0.799926996
0.688202024 0.691223025 0.822754025
0.897430003 0.721436024 0.841063976
0.000000000 0.786194026 0.758911014
0.247283995 0.784882009 0.770599008
0.486205995 0.822968006 0.809813976
0.713805974 0.861510992 0.858062983
0.888611019 0.913940012 0.883544981
