public/lut/83.cube
TITLE "17x17x17 Adobe/IRIDAS cube 3D LUT exported with GrossGrade v0.2.2 (beta) 64 bit"
DOMAIN_MIN 0 0 0
DOMAIN_MAX 1 1 1
LUT_3D_SIZE 17
0.023651000 0.054290999 0.033904999
0.024261000 0.060332999 0.036956999
0.067351997 0.077087000 0.041655999
0.114441000 0.091522001 0.042511001
0.167083994 0.102325000 0.042511001
0.225433007 0.115295000 0.038879000
0.282990009 0.124054000 0.038330000
0.332641989 0.138762996 0.047058001
0.386779994 0.153228998 0.062775001
0.445374012 0.165436000 0.080688000
0.499817014 0.178527996 0.100128002
0.552338004 0.188538000 0.120940998
0.602356017 0.202117994 0.138733000
0.655089974 0.218445003 0.153107002
0.712952018 0.233153999 0.162964001
0.764648020 0.244903997 0.170349002
0.806792974 0.259032995 0.171233997
0.023590000 0.073729999 0.033844002
0.024261000 0.074738003 0.037811000
0.068328999 0.083649002 0.036377002
0.117675997 0.098297000 0.039368000
0.170227006 0.110077001 0.041809000
0.228668004 0.117187999 0.038391002
0.288177013 0.123839997 0.040465999
0.340178996 0.137603998 0.051543999
0.392455995 0.152344003 0.067290999
0.448211998 0.165832996 0.084167004
0.503051996 0.179564998 0.101806998
0.556061029 0.192901999 0.119475998
0.606323004 0.208556995 0.133789003
0.659393013 0.221129999 0.145019993
0.717072010 0.236968994 0.157867000
0.769164979 0.254027992 0.166198999
0.807587028 0.265381008 0.167328000
0.023651000 0.106384002 0.034697998
0.022034001 0.113159001 0.035583001
0.059113000 0.112732001 0.028778000
0.128051996 0.111052997 0.025635000
0.188446000 0.122803003 0.024932999
0.243927002 0.138091996 0.025635000
0.301788002 0.150786996 0.026397999
0.354492009 0.163818002 0.033112001
0.407593012 0.174926996 0.053162001
0.462951988 0.185883000 0.077118002
0.516327024 0.198151007 0.094299003
0.569458008 0.208984002 0.108214997
0.620513976 0.221618995 0.121428996
0.671570003 0.235382006 0.135161996
0.730773985 0.252288997 0.145813003
0.782104015 0.267150998 0.152953997
0.820068002 0.279785007 0.157592997
0.023010001 0.144867003 0.030884000
0.021973001 0.158386007 0.025787000
0.060454998 0.157592997 0.023894999
0.121703997 0.151855007 0.027802000
0.198791996 0.144470006 0.024536001
0.270599008 0.155548006 0.024292000
0.327118009 0.171538994 0.025878999
0.378814995 0.186432004 0.026825000
0.432953000 0.199950993 0.041595001
0.485686988 0.213165000 0.065552004
0.537140012 0.228057995 0.080627002
0.591216981 0.243316993 0.091034003
0.643799007 0.257598996 0.103394002
0.697661996 0.272217005 0.113707997
0.752898991 0.287537009 0.124114998
0.801635981 0.301086009 0.131835997
0.841736019 0.311890006 0.134918004
0.022887999 0.182861000 0.028380999
0.021942001 0.198119998 0.024352999
0.059174001 0.205535993 0.022095000
0.122649997 0.195435002 0.041016001
0.199615002 0.189208999 0.027984999
0.278136998 0.182891995 0.024200000
0.345611989 0.189728007 0.026031001
0.407927990 0.202423006 0.028625000
0.466033995 0.218291998 0.045166001
0.520111024 0.234833002 0.066253997
0.571686029 0.250366002 0.077271000
0.622741997 0.268126994 0.084807999
0.676330984 0.285735995 0.091949001
0.727844000 0.305359006 0.098297000
0.780640006 0.328217000 0.099151999
0.824859977 0.346435994 0.100464001
0.857573986 0.356079012 0.102844000
0.022887999 0.218719006 0.028380999
0.021973001 0.231566995 0.025299000
0.052368000 0.246857002 0.022887999
0.125670999 0.239531994 0.028351000
0.209960997 0.234467000 0.025482001
0.282532007 0.223358005 0.024200000
0.353332996 0.215302005 0.026031001
0.423615009 0.220703006 0.028290000
0.492583990 0.235382006 0.044036999
0.555359006 0.254516989 0.064575002
0.608765006 0.273620993 0.075897001
0.656982005 0.291808993 0.082855001
0.705841005 0.311432004 0.085022002
0.756805003 0.330749989 0.089263998
0.807097971 0.354736000 0.086364999
0.852844000 0.376006991 0.073151000
0.873627007 0.388336003 0.065552004
0.022887999 0.254180998 0.026306000
0.021973001 0.262450993 0.026031001
0.049591001 0.278106987 0.023468001
0.130554006 0.282622993 0.022095000
0.214141995 0.277617991 0.022675000
0.295287997 0.281372011 0.024444999
0.365996987 0.268402010 0.026031001
0.437927008 0.259216011 0.028046001
0.511749029 0.264586985 0.035186999
0.577484012 0.277343988 0.046356000
0.634369016 0.295410007 0.060120001
0.687653005 0.314788997 0.073761001
0.735351980 0.333404988 0.075286999
0.783080995 0.353363007 0.071837999
0.833037972 0.377746999 0.062134001
0.876555979 0.402496010 0.058318999
0.891143978 0.411224008 0.054443002
0.022887999 0.286774009 0.027252000
0.021973001 0.291137993 0.026520001
0.055755999 0.306243986 0.022980001
0.140258998 0.321532995 0.022887999
0.223235995 0.318756014 0.022887999
0.312072992 0.331146002 0.023651000
0.386626989 0.338959008 0.026520001
0.455109000 0.322144002 0.028839000
0.527588010 0.310272008 0.031158000
0.593596995 0.312103003 0.035491999
0.651672006 0.321716011 0.043853998
0.707916021 0.338654011 0.053406000
0.758759022 0.355803996 0.056122001
0.806609988 0.378661990 0.055176001
0.855408013 0.403441995 0.051178001
0.897765994 0.428496987 0.054320998
0.902312994 0.435608000 0.054565001
0.022887999 0.315703988 0.036285002
0.021149000 0.324799001 0.028076001
0.069824003 0.338196009 0.022980001
0.157500997 0.357513011 0.022887999
0.241576999 0.357818991 0.022887999
0.326721013 0.369507015 0.022887999
0.404998988 0.389281988 0.025818000
0.473297000 0.396881014 0.029175000
0.542632997 0.379974008 0.031158000
0.609070003 0.364531994 0.035004001
0.666046023 0.363159001 0.038543999
0.720734000 0.369872987 0.041625999
0.773956001 0.383789003 0.045623999
0.823150992 0.404601991 0.049102999
0.872466981 0.428954989 0.052429002
0.908936024 0.452942014 0.053619001
0.904906988 0.459473014 0.052673001
0.022887999 0.346038997 0.036926001
0.026366999 0.360504001 0.026276000
0.088927999 0.371428996 0.022980001
0.178985998 0.388550013 0.022887999
0.261047006 0.391295999 0.022887999
0.337280005 0.401154011 0.022887999
0.417632997 0.422852010 0.024597000
0.485291004 0.447234988 0.028839000
0.550507009 0.455597013 0.031891000
0.617797971 0.438109994 0.033904999
0.677093983 0.420897990 0.037018001
0.732025027 0.415894002 0.041138001
0.785125971 0.420715004 0.045318998
0.833984017 0.432494998 0.048431002
0.883422971 0.453033000 0.051024999
0.909546018 0.475800008 0.051635999
0.904266000 0.478911996 0.051024999
0.022887999 0.382232994 0.029175000
0.035645001 0.394042999 0.022980001
0.104584001 0.404693991 0.022887999
0.195648000 0.416503996 0.022887999
0.276336998 0.421294987 0.022887999
0.347290009 0.429809988 0.022095000
0.423705995 0.453613013 0.023345999
0.492339998 0.477263987 0.026611000
0.552277029 0.502135992 0.031158000
0.615082026 0.515747011 0.034240998
0.679565012 0.498504996 0.036559999
0.739531994 0.478576988 0.038879000
0.791992009 0.469512999 0.042419001
0.843810976 0.470153987 0.046172999
0.889801025 0.479797006 0.049500000
0.908661008 0.498230010 0.050110001
0.903869987 0.498961985 0.049408000
0.022614000 0.418060005 0.030762000
0.042633001 0.426147014 0.022980001
0.113707997 0.436980993 0.022887999
0.205901995 0.444640994 0.022614000
0.288482994 0.451599002 0.021819999
0.356902987 0.460022002 0.021576000
0.425292999 0.479369998 0.022887999
0.497222990 0.508513987 0.024658000
0.560302973 0.534241021 0.028137000
0.612578988 0.561981022 0.033234000
0.671997011 0.580901980 0.036804002
0.736693978 0.561676025 0.038086001
0.792267025 0.536101997 0.040465999
0.848450005 0.522185981 0.043915000
0.894104004 0.518371999 0.047363002
0.908111989 0.527161002 0.048064999
0.903442025 0.525635004 0.047363002
0.025420999 0.441466987 0.032715000
0.057617001 0.447356999 0.023224000
0.127318993 0.459197998 0.022766000
0.219391003 0.466187000 0.025085000
0.301665992 0.474853992 0.028595001
0.366546988 0.484160990 0.028778000
0.432556003 0.505370975 0.024352999
0.498932004 0.535278022 0.023102000
0.566619992 0.567992985 0.025635000
0.623076975 0.594817996 0.028991999
0.667877018 0.623901010 0.032439999
0.724364996 0.648956001 0.036926001
0.784210026 0.625976980 0.040405001
0.843414009 0.592559993 0.042847000
0.894317985 0.575164974 0.045288000
0.904815972 0.567474008 0.045990001
0.901215017 0.562164009 0.045990001
0.037354000 0.461883992 0.035034001
0.076201998 0.468596995 0.024444999
0.143279999 0.483276010 0.022095000
0.231353998 0.494872987 0.031311002
0.309998006 0.505707026 0.045074001
0.378203988 0.520080984 0.047272000
0.442932010 0.544677973 0.029663000
0.505065978 0.572844982 0.021729000
0.566344976 0.605956972 0.023894999
0.627197027 0.638580024 0.026215000
0.675903022 0.660614014 0.028534001
0.715698004 0.686950982 0.030701000
0.772369027 0.715301991 0.035645001
0.833984017 0.687897027 0.043853998
0.891387999 0.648956001 0.045012999
0.896973014 0.624602973 0.044739000
0.895965993 0.616210997 0.044739000
0.037475999 0.515442014 0.029358000
0.075470001 0.525390983 0.022857999
0.137268007 0.548492014 0.022766000
0.223601997 0.567322016 0.021973001
0.303618997 0.577911019 0.021179000
0.374206990 0.598937988 0.021179000
0.440948009 0.627776980 0.021698000
0.503174007 0.654663026 0.022095000
0.562927008 0.676239014 0.022095000
0.618651986 0.695312977 0.023102000
0.672546029 0.715393007 0.024658000
0.723357975 0.733429015 0.026946999
0.764129996 0.752838016 0.029083000
0.820190012 0.778198004 0.034302000
0.882445991 0.745940983 0.046721999
0.901854992 0.703247011 0.046967000
0.895905018 0.686218023 0.046356000
0.023590000 0.586242974 0.037262000
0.054320998 0.597564995 0.024231000
0.130126998 0.611663997 0.022766000
0.214661002 0.634643972 0.022095000
0.292084008 0.660889030 0.022095000
0.367949992 0.691314995 0.022095000
0.438659996 0.716521978 0.022095000
0.501861989 0.738922000 0.022095000
0.562987983 0.756591976 0.021300999
0.620575011 0.768371999 0.021300999
0.670531988 0.777924001 0.022095000
0.718505979 0.786652029 0.023894999
0.765471995 0.795197010 0.026825000
0.808533013 0.808960021 0.028472999
0.865508974 0.830016971 0.034210000
0.899322987 0.786620975 0.046813998
0.894958019 0.753844976 0.048156999
0.022095000 0.713379025 0.049683001
0.021973001 0.721619010 0.051116999
0.036591001 0.733977973 0.024536001
0.169464007 0.750916004 0.021942001
0.278441995 0.762450993 0.022095000
0.365570009 0.771332026 0.022095000
0.440917999 0.781127989 0.022095000
0.505432010 0.788361013 0.021300999
0.563995004 0.794799984 0.021300999
0.619292974 0.802672982 0.021300999
0.668242991 0.809813976 0.021300999
0.714630008 0.814728022 0.022338999
0.765349984 0.819031000 0.025420999
0.809813976 0.828917980 0.027740000
0.858458996 0.854309022 0.030060001
0.895752013 0.854674995 0.034759998
0.894622982 0.828278005 0.038635001
0.022887999 0.062042002 0.050689999
0.032745000 0.071198002 0.057587001
0.081450999 0.080627002 0.060059000
0.128142998 0.086700000 0.061310001
0.175017998 0.086212002 0.056334998
0.228851005 0.103515998 0.052246001
0.282683998 0.116852000 0.051392000
0.332854986 0.130340993 0.057342999
0.387360007 0.143829003 0.071625002
0.444701999 0.157042995 0.090178996
0.496367991 0.171112001 0.110564999
0.545776010 0.182586998 0.130340993
0.598724008 0.197020993 0.144196004
0.650452018 0.215393007 0.156646997
0.706757009 0.229552999 0.166503996
0.761413991 0.241943002 0.174500003
0.802367985 0.256439000 0.181395993
0.023590000 0.074738003 0.055114999
0.024352999 0.077666998 0.059967000
0.061615001 0.091674998 0.067107998
0.114197001 0.106017999 0.066436999
0.170715004 0.118225001 0.065277003
0.230194002 0.126464993 0.057769999
0.291229010 0.138214007 0.045685001
0.344574004 0.150390998 0.045318998
0.397583008 0.162230998 0.061156999
0.452576011 0.172882006 0.081482001
0.505768001 0.181548998 0.099547997
0.558471978 0.192351997 0.118438996
0.608246028 0.207184002 0.135344997
0.660309017 0.220763996 0.146911994
0.716948986 0.235625997 0.159851000
0.769927979 0.250519007 0.167664006
0.810088992 0.264557004 0.170837000
0.022918999 0.108795002 0.055236999
0.022034001 0.110535003 0.057709001
0.056701999 0.114501998 0.063415997
0.120636001 0.117827997 0.060851999
0.180573002 0.134094000 0.061829001
0.242401004 0.143279999 0.052124001
0.302673012 0.150726005 0.040252998
0.356994987 0.161590993 0.040679999
0.410735995 0.172699004 0.058380000
0.465148985 0.183471993 0.080077998
0.517974973 0.194793999 0.096436001
0.570190012 0.206267998 0.111969002
0.619719982 0.218963996 0.124573000
0.671630979 0.233550996 0.137695000
0.729430974 0.250243992 0.147614002
0.780852973 0.264099002 0.153991997
0.820496023 0.276825011 0.160797000
0.023590000 0.145965993 0.042084001
0.022614000 0.158721998 0.048950002
0.046264999 0.160950005 0.049254999
0.117889002 0.157500997 0.057464998
0.201691002 0.150512993 0.039886001
0.267242014 0.159851000 0.028290000
0.325562000 0.174103007 0.026366999
0.377808005 0.188964993 0.027252000
0.430938989 0.202332005 0.039795000
0.484436005 0.213836998 0.062683001
0.536194026 0.227356002 0.080932997
0.590546012 0.242064998 0.091918997
0.641875982 0.254395008 0.104705997
0.692902029 0.267913997 0.116576999
0.749176025 0.281464010 0.127196997
0.797698975 0.295287997 0.134186000
0.837859988 0.305907995 0.140015006
0.022887999 0.182648003 0.034759998
0.022766000 0.196075007 0.042450000
0.042450000 0.206024006 0.026611000
0.116393998 0.202208996 0.054779001
0.202911004 0.195526004 0.038665999
0.282898009 0.186737001 0.023743000
0.350127995 0.192931995 0.024413999
0.406708002 0.205810994 0.026550001
0.462128013 0.221496999 0.039825000
0.517791986 0.237305000 0.060028002
0.568481028 0.252898991 0.073394999
0.618164003 0.270844012 0.081969999
0.669708014 0.286469012 0.088959001
0.719788015 0.303954989 0.095000997
0.773711979 0.324402004 0.100524999
0.822052002 0.342009991 0.103577003
0.855988026 0.353240997 0.104675002
0.022887999 0.218536004 0.033661000
0.022766000 0.228455007 0.036529999
0.037505999 0.248412997 0.022064000
0.118164003 0.244507000 0.033356000
0.211151004 0.242981002 0.030701000
0.288666010 0.230407998 0.038483001
0.363707989 0.221160993 0.031433001
0.435730010 0.225005999 0.027313000
0.500244021 0.241852000 0.039519999
0.556396008 0.260803014 0.058288999
0.605286002 0.276122987 0.071960002
0.651763976 0.294373006 0.078704998
0.700408995 0.312622011 0.082184002
0.751495004 0.332244992 0.085602000
0.802643001 0.356110007 0.080444001
0.848205984 0.377196997 0.064606003
0.872771978 0.390655994 0.065154999
0.022887999 0.254027992 0.034515001
0.022766000 0.259337991 0.034545999
0.035491999 0.283385992 0.023132000
0.120880000 0.288269013 0.022095000
0.212463006 0.283295006 0.037262000
0.294891000 0.285889000 0.034851000
0.372070014 0.275085002 0.028441999
0.450226009 0.264892995 0.028441999
0.525359988 0.269439995 0.035004001
0.589385986 0.284545988 0.043427002
0.641174018 0.301818997 0.055663999
0.686767995 0.318603992 0.068634003
0.731414974 0.335509986 0.069091998
0.781585991 0.356323004 0.065125003
0.831328988 0.382903993 0.059570000
0.873961985 0.406067014 0.053252999
0.890778005 0.416839987 0.053801998
0.022887999 0.286803991 0.035797000
0.022338999 0.289519995 0.035339002
0.041809000 0.312774986 0.023833999
0.130706996 0.327850014 0.021942001
0.219542995 0.322600991 0.031555001
0.309630990 0.333831996 0.025665000
0.386718988 0.342559993 0.025085000
0.461609006 0.328918010 0.028839000
0.539215028 0.316650003 0.031952001
0.607268989 0.318114996 0.035828002
0.663421988 0.329407007 0.042236000
0.714935005 0.345916986 0.051330999
0.761718988 0.361694008 0.053284001
0.805908024 0.382140994 0.051024999
0.853699028 0.407471001 0.051178001
0.896179020 0.431609988 0.054290999
0.902343988 0.439696997 0.054320998
0.022887999 0.316071004 0.045959000
0.021942001 0.323395014 0.035431001
0.058104999 0.342467993 0.023833999
0.148376003 0.362700999 0.022736000
0.236480996 0.361663997 0.022095000
0.323760986 0.372588992 0.021576000
0.404601991 0.391846001 0.025390999
0.475281000 0.401214987 0.029175000
0.548859000 0.386444002 0.031952001
0.618804991 0.371582001 0.035034001
0.675994992 0.371033013 0.038940001
0.730286002 0.377959996 0.042236000
0.783690989 0.390839010 0.046356000
0.828002989 0.409514993 0.049438000
0.872375011 0.432983011 0.051819000
0.907805979 0.455994010 0.053314000
0.904877007 0.463104010 0.052338000
0.022887999 0.344512999 0.051238999
0.021880999 0.361510992 0.031677000
0.079040997 0.374237001 0.023345999
0.168549001 0.392731011 0.022887999
0.255066007 0.394805998 0.022095000
0.333434999 0.404204994 0.021942001
0.417450011 0.425963998 0.024048001
0.486786008 0.449860007 0.028839000
0.552307010 0.459015012 0.031952001
0.622497976 0.444000006 0.034240998
0.684661984 0.428344995 0.037018001
0.739409983 0.422881991 0.041138001
0.792145014 0.426452994 0.045318998
0.842406988 0.438567996 0.048797999
0.887755990 0.458893001 0.051024999
0.909453988 0.479736000 0.051392000
0.904143989 0.484221995 0.050354000
0.022887999 0.379547000 0.045531999
0.023499001 0.398712009 0.026215000
0.092528999 0.408661008 0.022826999
0.184814006 0.420226991 0.022887999
0.270446986 0.423920006 0.021790000
0.343811005 0.431885004 0.024048001
0.422973990 0.456207007 0.023804000
0.494323999 0.480713010 0.026154000
0.553406000 0.505034983 0.030853000
0.615783989 0.517974973 0.034240998
0.682159007 0.502288997 0.036559999
0.743010998 0.484618992 0.038879000
0.795409977 0.475616008 0.042419001
0.847899973 0.475616008 0.046172999
0.895630002 0.485962003 0.049500000
0.908447027 0.502288997 0.049621999
0.903778017 0.503479004 0.048981000
0.021819999 0.418884009 0.046478000
0.031189000 0.428649992 0.022736000
0.100830004 0.439606011 0.022736000
0.196838006 0.447144002 0.021880999
0.280487001 0.452971995 0.023102000
0.352844000 0.461181998 0.032867000
0.424865991 0.481812000 0.026703000
0.498169005 0.511810005 0.023468001
0.560729980 0.536987007 0.028137000
0.613708019 0.563416004 0.032837000
0.672150016 0.582000971 0.036316000
0.734833002 0.565124989 0.038086001
0.795379996 0.542267025 0.041198999
0.851195991 0.527435005 0.043915000
0.898284972 0.523499012 0.047363002
0.907958984 0.529754996 0.048064999
0.903320014 0.528380990 0.047363002
0.027588001 0.444701999 0.056915000
0.049865998 0.446808010 0.025390999
0.120483004 0.457581013 0.022857999
0.211731002 0.466125011 0.026611000
0.292389005 0.475524992 0.036499001
0.362578988 0.486510992 0.053406000
0.432007015 0.508117974 0.033417001
0.500945985 0.538543999 0.021331999
0.568726003 0.571442008 0.025665000
0.623351991 0.597229004 0.028534001
0.668273985 0.625060976 0.032439999
0.724304020 0.649719000 0.036926001
0.783905029 0.628875971 0.040405001
0.845978022 0.597899973 0.043396000
0.900299013 0.578217030 0.045380000
0.904419005 0.569489002 0.045990001
0.900726020 0.564177990 0.045990001
0.045012999 0.465790004 0.062042002
0.065673999 0.469909996 0.032776002
0.136139005 0.483307004 0.024109000
0.223601997 0.494354010 0.039703000
0.304688007 0.505370975 0.050964002
0.373016000 0.519226015 0.058196999
0.440216005 0.543823004 0.033599999
0.504395008 0.575958014 0.020508001
0.566559017 0.610167980 0.023956001
0.627746999 0.641479015 0.025878999
0.675994992 0.664367974 0.027802000
0.715668023 0.688872993 0.030060001
0.771758974 0.713440001 0.035645001
0.832825005 0.688232005 0.043853998
0.896484017 0.653747976 0.045593001
0.896210015 0.627288997 0.044739000
0.894409001 0.616608024 0.044739000
0.032042999 0.525664985 0.036681999
0.064575002 0.531096995 0.021240000
0.130034998 0.549499989 0.021973001
0.216064006 0.569305003 0.021973001
0.298370004 0.581909001 0.021088000
0.370025992 0.595641971 0.020324999
0.437377989 0.623839974 0.021698000
0.500976980 0.654601991 0.022095000
0.562224984 0.680297971 0.022095000
0.618561029 0.700591981 0.022887999
0.672515988 0.717499018 0.024658000
0.723357975 0.732909977 0.026946999
0.763549984 0.751984000 0.029083000
0.818359017 0.776854992 0.033569001
0.881165028 0.746948004 0.046721999
0.901763976 0.707367003 0.046967000
0.895934999 0.688292980 0.046356000
0.022125000 0.598601997 0.040314000
0.039519999 0.602385998 0.024200000
0.124816999 0.613007009 0.022857999
0.210602000 0.632293999 0.022125000
0.286864996 0.654296994 0.022095000
0.361481011 0.680755973 0.022095000
0.433167011 0.710784972 0.022095000
0.497954994 0.736603022 0.022095000
0.561523020 0.757721007 0.021300999
0.620666981 0.772583008 0.021300999
0.670502007 0.780182004 0.022095000
0.718536019 0.786437988 0.023894999
0.765411019 0.793853998 0.026825000
0.808350027 0.805481017 0.029114000
0.864197016 0.829468012 0.033477999
0.899384022 0.787200987 0.046813998
0.894896984 0.756989002 0.048156999
0.022095000 0.721741021 0.050354000
0.022034001 0.725372016 0.050446000
0.031250000 0.737884998 0.032074001
0.165832996 0.749083996 0.023071000
0.272338986 0.763518989 0.021942001
0.355834991 0.774901986 0.022095000
0.431122005 0.784362972 0.022095000
0.497833014 0.791778982 0.021300999
0.559723020 0.798919976 0.021300999
0.616668999 0.806854010 0.021300999
0.666320980 0.813872993 0.021300999
0.713898003 0.817963004 0.022368999
0.762512028 0.820465028 0.025420999
0.808960021 0.831206977 0.027008001
0.856231987 0.854614019 0.029418999
0.895843983 0.858734012 0.034759998
0.894653022 0.828948975 0.038635001
0.022887999 0.079925999 0.073425002
0.025238000 0.083710000 0.074524000
0.080596998 0.094727002 0.088776000
0.139557004 0.100005999 0.085541002
0.195495993 0.106017999 0.087860003
0.252288997 0.108124003 0.082061999
0.310882986 0.115051001 0.076018997
0.356781006 0.123993002 0.076935001
0.401367009 0.138214007 0.088317998
0.452423006 0.153899997 0.103363000
0.503844976 0.167907998 0.119048998
0.553650022 0.183319002 0.137085006
0.602172971 0.197753996 0.150969997
0.651427984 0.214172006 0.161346003
0.704101980 0.227019995 0.171844006
0.752807975 0.240326002 0.180206001
0.797515988 0.253143013 0.185394004
0.022980001 0.085845999 0.073517002
0.023499001 0.090515003 0.079223998
0.071289003 0.100249998 0.094604000
0.127808005 0.111877002 0.094299003
0.188659996 0.115601003 0.090240002
0.248749003 0.111267000 0.076812997
0.306731999 0.114593998 0.069885001
0.353148997 0.126312003 0.072540000
0.401520014 0.141295999 0.083221003
0.454894990 0.156311005 0.100066997
0.505523980 0.170470998 0.117737003
0.556273997 0.184937000 0.132232994
0.604828000 0.199645996 0.145598993
0.654694021 0.215545997 0.158751994
0.711700022 0.229766995 0.168303996
0.763275027 0.244019002 0.175139993
0.802825987 0.256927013 0.181182995
0.022887999 0.107207999 0.087769002
0.022034001 0.110352002 0.092009999
0.058075000 0.115570001 0.097930998
0.108062997 0.130768001 0.100220002
0.173888996 0.144927993 0.097838998
0.242950007 0.154816002 0.084595002
0.307861000 0.159363002 0.069580004
0.367157012 0.163360998 0.060973998
0.418579012 0.170592993 0.066192999
0.467772990 0.178192005 0.084105998
0.519317985 0.186707005 0.103942998
0.570526004 0.199737996 0.119719997
0.619872987 0.213012993 0.132964998
0.669739008 0.227417007 0.143341005
0.727692008 0.243713006 0.152740002
0.778563976 0.259948999 0.161284998
0.817718983 0.272094995 0.164336994
0.022918999 0.156920999 0.099762000
0.022736000 0.156371996 0.086731002
0.044922002 0.160735995 0.090728998
0.106232002 0.165405005 0.094512999
0.187316999 0.165648997 0.089171998
0.257019013 0.173705995 0.078033000
0.318664998 0.184508994 0.066071004
0.378966987 0.192840993 0.054809999
0.435211003 0.199828997 0.053374998
0.485137999 0.206299007 0.067841001
0.534424007 0.215057001 0.088042997
0.586974978 0.228973001 0.101837002
0.637664974 0.243407995 0.112823002
0.688049018 0.256164998 0.123076998
0.743682981 0.270354986 0.133209005
0.792693973 0.286742985 0.140686005
0.833588004 0.299407989 0.143555000
0.022887999 0.195435002 0.085876003
0.022826999 0.192017004 0.072967999
0.025330000 0.210082993 0.072662003
0.096954003 0.214049995 0.077972002
0.195586994 0.204437003 0.076476999
0.280243009 0.193297997 0.056519002
0.346404999 0.199828997 0.038391002
0.404053003 0.214111000 0.031311002
0.458191007 0.227477998 0.031342000
0.508635998 0.240264997 0.044952001
0.557555974 0.254058987 0.065186001
0.608398020 0.268828988 0.078429997
0.658996999 0.282683998 0.088440001
0.709473014 0.298552990 0.096496999
0.764281988 0.317229986 0.103271000
0.814086974 0.333099008 0.109894000
