public/lut/83.cube
TITLE "17x17x17 Adobe/IRIDAS cube 3D LUT exported with GrossGrade v0.2.2 (beta) 64 bit"
DOMAIN_MIN 0 0 0
DOMAIN_MAX 1 1 1
LUT_3D_SIZE 5
0.023651000 0.054290999 0.033904999
0.167083994 0.102325000 0.042511001
0.386779994 0.153228998 0.062775001
0.602356017 0.202117994 0.138733000
0.806792974 0.259032995 0.171233997
0.022887999 0.182861000 0.028380999
0.199615002 0.189208999 0.027984999
0.466033995 0.218291998 0.045166001
0.676330984 0.285735995 0.091949001
0.857573986 0.356079012 0.102844000
0.022887999 0.315703988 0.036285002
0.241576999 0.357818991 0.022887999
0.542632997 0.379974008 0.031158000
0.773956001 0.383789003 0.045623999
0.904906988 0.459473014 0.052673001
0.025420999 0.441466987 0.032715000
0.301665992 0.474853992 0.028595001
0.566619992 0.567992985 0.025635000
0.784210026 0.625976980 0.040405001
0.901215017 0.562164009 0.045990001
0.022095000 0.713379025 0.049683001
0.278441995 0.762450993 0.022095000
0.563995004 0.794799984 0.021300999
0.765349984 0.819031000 0.025420999
0.894622982 0.828278005 0.038635001
0.026427999 0.123718001 0.124908000
0.226256996 0.144072995 0.145996004
0.461944997 0.172759995 0.134582996
0.634247005 0.212280005 0.141997993
0.811828971 0.260681003 0.176697001
0.022887999 0.192200005 0.169738993
0.155853003 0.230103001 0.211303994
0.456360012 0.238738999 0.165465996
0.666137993 0.245940998 0.138306007
0.845275998 0.313353986 0.137053996
0.022887999 0.360657007 0.195251003
0.120117001 0.391570985 0.094573997
0.531005979 0.415405005 0.105742998
0.764648020 0.414824992 0.039611999
0.902312994 0.488128990 0.042144999
0.022887999 0.397186011 0.203246996
0.214264005 0.488036990 0.101166002
0.551452994 0.578400016 0.112579003
0.779784977 0.632323980 0.041016001
0.900116026 0.574676991 0.045471001
0.022095000 0.725525022 0.040619001
0.185241997 0.775452018 0.026031001
0.531677008 0.814666986 0.021300999
0.757659972 0.839447021 0.019135000
0.889679015 0.834656000 0.030548001
0.033142000 0.222046003 0.252074987
0.140869007 0.223297000 0.264342993
0.526215017 0.255919993 0.224579006
0.704742014 0.272704989 0.216582999
0.833130002 0.323242009 0.247711003
0.030944999 0.246062994 0.267639011
0.079071000 0.290894002 0.327118009
0.504760981 0.305083990 0.288787991
0.693848014 0.312988013 0.271941990
0.818023980 0.352234006 0.291655988
0.022887999 0.375853986 0.367462009
0.019714000 0.434174001 0.418242991
0.412384003 0.474242985 0.443145990
0.658966005 0.479584008 0.426086009
0.807465017 0.474884003 0.383545011
0.022095000 0.593231022 0.497649997
0.018738000 0.551726997 0.436035007
0.428710997 0.579315007 0.364594012
0.721466005 0.640778005 0.327392995
0.842224002 0.607819021 0.341643989
0.022095000 0.790924013 0.430633992
0.022095000 0.795684993 0.347838998
0.388152987 0.873138011 0.190825999
0.676177979 0.822510004 0.330902010
0.841826975 0.814117014 0.323608011
0.033904999 0.309540004 0.359008998
0.108093001 0.305480987 0.343475014
0.455994010 0.345672995 0.323944002
0.722899973 0.346709996 0.300110012
0.781463981 0.394012004 0.382476985
0.033721998 0.321776986 0.372954994
0.033721998 0.349761993 0.416992009
0.422607005 0.364104986 0.408813000
0.700043023 0.383574992 0.389708996
0.776763976 0.422545999 0.444824010
0.031158000 0.403136998 0.452758998
0.032745000 0.450408995 0.512938976
0.331634998 0.480926991 0.574859977
0.675567985 0.480071992 0.536162972
0.761229992 0.512450993 0.542205989
0.025420999 0.550171018 0.588347971
0.023254000 0.591003001 0.619231999
0.226563007 0.641906977 0.672362983
0.569427013 0.657410026 0.620697021
0.753234982 0.642028987 0.583281994
0.021088000 0.787018001 0.747161984
0.021300999 0.849242985 0.755950987
0.031158000 0.875458002 0.634521008
0.568023980 0.824492991 0.491638005
0.784546018 0.796387017 0.526978016
0.033904999 0.410461009 0.480529994
0.060454998 0.403899997 0.454041004
0.368988007 0.422179997 0.470490009
0.660797000 0.438080013 0.511322021
0.795319021 0.465424001 0.607056022
0.036285002 0.419829994 0.513062000
0.038238999 0.436309993 0.553375006
0.289184988 0.419128001 0.531768978
0.673736989 0.429657012 0.602569997
0.807860970 0.471190989 0.655121028
0.039032001 0.479584008 0.588622987
0.042144999 0.512512028 0.638091981
0.208954006 0.521332026 0.695038021
0.569580019 0.485168010 0.710875988
0.800171018 0.518859982 0.714630008
0.045623999 0.570801020 0.694976985
0.049164001 0.608031988 0.735718012
0.142395005 0.618194997 0.753325999
0.539276004 0.625244021 0.698395014
0.781647027 0.616515994 0.743529975
0.051697001 0.704528987 0.808044016
0.047607001 0.742614985 0.827484012
0.030762000 0.781737983 0.849792004
0.495299995 0.759552002 0.772033989
0.733825982 0.803893983 0.758179009
