public/lut/84.cube
TITLE "17x17x17 Adobe/IRIDAS cube 3D LUT exported with GrossGrade v0.2.2 (beta) 64 bit"
DOMAIN_MIN 0 0 0
DOMAIN_MAX 1 1 1
LUT_3D_SIZE 17
0.032349002 0.029967999 0.043274000
0.067199998 0.029236000 0.036377002
0.100922003 0.026916999 0.032439999
0.122559004 0.024597000 0.030121000
0.142272994 0.023651000 0.029387999
0.163513005 0.022095000 0.028380999
0.186920002 0.021300999 0.028380999
0.213409007 0.021300999 0.028380999
0.243073002 0.020508001 0.028380999
0.276214987 0.020508001 0.029175000
0.315246999 0.020508001 0.029967999
0.361541986 0.021300999 0.031555001
0.415587991 0.023071000 0.034302000
0.477142006 0.026306000 0.040497001
0.544799984 0.031738002 0.047150001
0.616882026 0.039581001 0.054443002
0.687744021 0.048308998 0.062804997
0.019104000 0.055695001 0.022368999
0.056549001 0.054474000 0.019226000
0.095794998 0.052521002 0.018340999
0.124389999 0.050507002 0.018340999
0.152710006 0.048553001 0.016907001
0.184508994 0.048370000 0.016174000
0.215941995 0.049042001 0.015442000
0.247498006 0.049683001 0.015137000
0.278838992 0.048981000 0.015137000
0.312195003 0.048920002 0.015076000
0.348479986 0.047974002 0.015869001
0.389984012 0.046631001 0.016907001
0.438140988 0.044739000 0.019165000
0.494231999 0.044006001 0.022461001
0.557648003 0.044861000 0.027953999
0.627593994 0.048462000 0.036469001
0.697784007 0.054443002 0.044769000
0.002869000 0.089905001 0.006012000
0.041412000 0.088592999 0.003662000
0.083251998 0.087707996 0.002869000
0.124022998 0.088317998 0.001282000
0.166411996 0.088715002 0.001190000
0.211577997 0.089446999 0.001831000
0.257050008 0.091095001 0.002655000
0.299621999 0.093139999 0.003906000
0.339569002 0.095062003 0.005432000
0.377472013 0.096221998 0.006836000
0.415405005 0.096740998 0.009155000
0.454802990 0.097198002 0.012177000
0.497222990 0.097534001 0.015961001
0.544586003 0.097655997 0.021576000
0.598755002 0.097321004 0.028472999
0.660492003 0.097900003 0.037170000
0.724487007 0.100951999 0.047424000
0.000793000 0.114990003 0.003937000
0.038727000 0.115203999 0.000793000
0.081450999 0.116974004 0.000793000
0.126372993 0.121276997 0.000000000
0.177734002 0.125792995 0.000000000
0.232086003 0.129608005 0.000000000
0.288513005 0.133269995 0.000793000
0.343750000 0.136993006 0.002808000
0.394409001 0.140503004 0.005127000
0.440337986 0.143555000 0.008423000
0.482910007 0.145781994 0.011963000
0.524474978 0.147430003 0.016113000
0.567474008 0.149323002 0.021027001
0.613250971 0.150909007 0.026946999
0.663055003 0.152770996 0.034607001
0.718474984 0.154724002 0.043152001
0.777679026 0.157622993 0.052733999
0.000793000 0.138214007 0.003937000
0.037170000 0.140320003 0.000854000
0.084229000 0.146911994 0.001465000
0.132598996 0.155333996 0.000793000
0.187500000 0.163147002 0.000000000
0.245148003 0.171416998 0.000000000
0.306273997 0.178435996 0.000000000
0.368835002 0.184814006 0.002014000
0.429015994 0.190613002 0.005127000
0.483489990 0.195678994 0.009003000
0.531585991 0.199737996 0.013214000
0.575378001 0.203063995 0.017852999
0.618622005 0.205933005 0.023864999
0.664978027 0.208922997 0.030425999
0.716187000 0.212097004 0.038727000
0.772643983 0.215545997 0.048126001
0.832336009 0.218963996 0.058350001
0.000793000 0.169189006 0.003174000
0.035767000 0.171448007 0.000854000
0.087188996 0.181122005 0.001587000
0.139252007 0.193359002 0.002258000
0.195861995 0.203734994 0.000214000
0.256531000 0.212555006 0.000000000
0.316895008 0.222564995 0.000000000
0.381653011 0.231873006 0.000000000
0.447052002 0.240264997 0.003021000
0.508575022 0.247620001 0.007233000
0.562987983 0.253937006 0.012421000
0.610291004 0.259582996 0.018097000
0.653258979 0.264800996 0.023499001
0.697052002 0.269805998 0.030273000
0.746185005 0.274414003 0.037597999
0.802612007 0.278503001 0.047974002
0.863770008 0.281769007 0.058837999
0.001587000 0.207947001 0.003937000
0.032776002 0.209044993 0.001587000
0.087798998 0.219269007 0.001587000
0.142821997 0.234711006 0.003021000
0.203308001 0.246735007 0.002258000
0.265105993 0.255156994 0.000000000
0.327271014 0.263947010 0.000000000
0.389373988 0.274657995 0.000000000
0.455109000 0.284759998 0.000702000
0.520599008 0.294066995 0.004944000
0.581237972 0.302673012 0.010345000
0.634521008 0.310943991 0.016571000
0.680541992 0.319000006 0.021973001
0.722869992 0.327026010 0.028198000
0.767516971 0.334351003 0.035186999
0.820068002 0.340027004 0.044464000
0.879455984 0.343353003 0.055817001
0.002380000 0.251251012 0.005951000
0.028441999 0.250488013 0.002380000
0.085845999 0.258727998 0.002380000
0.143096998 0.276062012 0.003174000
0.205443993 0.291045994 0.005951000
0.271239996 0.299010992 0.001465000
0.335785002 0.305480987 0.000000000
0.397307992 0.314330995 0.000000000
0.460052013 0.324768007 0.000000000
0.525635004 0.334868997 0.001373000
0.589721978 0.344848990 0.006805000
0.648346007 0.355010986 0.013458000
0.699738026 0.365723014 0.019653000
0.744994998 0.376830995 0.025878999
0.788757026 0.387878001 0.032074001
0.838286996 0.396881014 0.040741000
0.895354986 0.402130008 0.051971000
0.003174000 0.296905994 0.008270000
0.023071000 0.294220001 0.003174000
0.081757002 0.298157007 0.003174000
0.140655994 0.315521002 0.003784000
0.203491002 0.334473014 0.006104000
0.271912009 0.344085991 0.006012000
0.339141995 0.348663002 0.000702000
0.404754996 0.354126006 0.000000000
0.465514988 0.363068014 0.000000000
0.528442025 0.372772008 0.000000000
0.592589974 0.382384986 0.002563000
0.653931022 0.392883003 0.009399000
0.709625006 0.405211985 0.016357001
0.759552002 0.419189006 0.022766000
0.806549013 0.433898985 0.028991999
0.856872976 0.447205007 0.036865000
0.913848996 0.455962986 0.047943000
0.003937000 0.343780994 0.011383000
0.017700000 0.340148985 0.003998000
0.076843001 0.338836998 0.003937000
0.136840999 0.353087991 0.004578000
0.199585006 0.375640988 0.006104000
0.267089993 0.390166998 0.010193000
0.337128013 0.394439995 0.005219000
0.404509991 0.397583008 0.000000000
0.471008003 0.402648985 0.000000000
0.531494021 0.410950005 0.000000000
0.593719006 0.419281006 0.000000000
0.655242980 0.428375006 0.003754000
0.713317990 0.440216005 0.010956000
0.766785026 0.455597013 0.018097000
0.817474008 0.473601997 0.023956001
0.870360970 0.490936011 0.031830002
0.928528011 0.503296018 0.043365002
0.005524000 0.392028987 0.014496000
0.011597000 0.387878001 0.005585000
0.071167000 0.382568002 0.005035000
0.132721007 0.390839010 0.005371000
0.195160002 0.414063007 0.006897000
0.260773003 0.435516000 0.009766000
0.329802990 0.443664998 0.013611000
0.399444997 0.445006996 0.004425000
0.467528999 0.447753996 0.000000000
0.534179986 0.452392995 0.000000000
0.594695985 0.459105998 0.000000000
0.655151010 0.465941995 0.000000000
0.714020014 0.475098014 0.003754000
0.769836009 0.489349008 0.011536000
0.823242009 0.508697987 0.018340999
0.877929986 0.529358029 0.025574001
0.936919987 0.544799984 0.036162999
0.007111000 0.442139000 0.018646000
0.007141000 0.437958002 0.008270000
0.065796003 0.430786014 0.006561000
0.128876001 0.432067990 0.006561000
0.191314995 0.451599002 0.007690000
0.255127013 0.478606999 0.010010000
0.321350008 0.494659007 0.014404000
0.390258998 0.497498006 0.014191000
0.459686011 0.497772008 0.004272000
0.528716981 0.500458002 0.000000000
0.595336974 0.503784001 0.000000000
0.654541016 0.508606017 0.000000000
0.712890983 0.514464974 0.000000000
0.770049989 0.524932981 0.002869000
0.825958014 0.542388976 0.010742000
0.882598996 0.563843012 0.018371999
0.942260981 0.581879020 0.028441999
0.008881000 0.494475991 0.024048001
0.008881000 0.490143001 0.018127000
0.061340000 0.483092993 0.008087000
0.125213996 0.479308993 0.008087000
0.188567996 0.491607994 0.008881000
0.251098990 0.519622982 0.010803000
0.314330995 0.544312000 0.014404000
0.380309999 0.553497016 0.020843999
0.449737996 0.553252995 0.014984000
0.519500971 0.553528011 0.004272000
0.588409007 0.555450022 0.000000000
0.653716981 0.556885004 0.000000000
0.710815012 0.560424984 0.000000000
0.767822027 0.566559017 0.000000000
0.825896978 0.578734994 0.001190000
0.885406017 0.596679986 0.009857000
0.946776986 0.614655018 0.020691000
0.011200000 0.548798025 0.030273000
0.011200000 0.544646978 0.026550001
0.056763001 0.538177013 0.010498000
0.121734999 0.532257020 0.010254000
0.186340004 0.536590993 0.010406000
0.248595998 0.560486019 0.012360000
0.309386998 0.591125011 0.015198000
0.372070014 0.609161019 0.019805999
0.438811988 0.612304986 0.028137000
0.509154975 0.610656977 0.015930001
0.578583002 0.610809028 0.004150000
0.645630002 0.611815989 0.000000000
0.708922982 0.611846983 0.000000000
0.764343023 0.615172982 0.000000000
0.822449028 0.621674001 0.000000000
0.884429991 0.632628977 0.000000000
0.948212028 0.646332026 0.011230000
0.013519000 0.605193973 0.037262000
0.013519000 0.601318002 0.035735998
0.052611999 0.595580995 0.013702000
0.118225001 0.589568973 0.012726000
0.184174001 0.588135004 0.012726000
0.247437000 0.604156017 0.013947000
0.306641012 0.635680974 0.016357001
0.365814000 0.662262022 0.020599000
0.429107994 0.671721995 0.026825000
0.497253001 0.670319021 0.034882002
0.568054020 0.668304026 0.017456001
0.636260986 0.668578982 0.004944000
0.699981987 0.669494987 0.000000000
0.760192990 0.669799984 0.000000000
0.817565978 0.672577024 0.000000000
0.878875971 0.677520990 0.000000000
0.944305003 0.684844971 0.000000000
0.016663000 0.663513005 0.045593001
0.016602000 0.660004020 0.043488000
0.048675999 0.655028999 0.016814999
0.114471003 0.649779975 0.015838999
0.181548998 0.645659983 0.015838999
0.246643007 0.653106987 0.016326999
0.305572987 0.680359006 0.018677000
0.361420006 0.712616026 0.021790000
0.421050996 0.730010986 0.026825000
0.486876994 0.731445014 0.034942999
0.557190001 0.728026986 0.037262000
0.627135992 0.726684988 0.018828999
0.691895008 0.727904975 0.005768000
0.751343012 0.730010986 0.000000000
0.810576975 0.730926991 0.000000000
0.872771978 0.732056022 0.000000000
0.937224984 0.735382020 0.000000000
0.020508001 0.724853992 0.053649999
0.020508001 0.721619010 0.053040002
0.042693999 0.717101991 0.020812999
0.108916998 0.712341011 0.019714000
0.176605001 0.707794011 0.018921001
0.243469000 0.709258974 0.018921001
0.303833008 0.730560005 0.020996001
0.358489990 0.764496028 0.024109000
0.415131003 0.788757026 0.028380999
0.478821009 0.794219971 0.034148999
0.547913015 0.790588021 0.045348998
0.619018972 0.788085997 0.040038999
0.685974002 0.788452029 0.021300999
0.745818973 0.790955007 0.008881000
0.803802013 0.793700993 0.000000000
0.865875006 0.794312000 0.000000000
0.932281017 0.793914974 0.000000000
0.031555001 0.030792000 0.078948997
0.067749001 0.029236000 0.073546998
0.103515998 0.026916999 0.070496000
0.127654999 0.025299000 0.067841001
0.149506003 0.023651000 0.066650003
0.172454998 0.022125000 0.065154999
0.198853001 0.021331999 0.065552004
0.227905005 0.020843999 0.066101000
0.258331001 0.020569000 0.066101000
0.291045994 0.020569000 0.065886997
0.327728003 0.021331999 0.065398999
0.370941013 0.022217000 0.064636000
0.422791004 0.024597000 0.064056002
0.482757986 0.028960999 0.064940996
0.550140023 0.031585999 0.063415997
0.619903982 0.040252998 0.065917999
0.689513981 0.048950002 0.070251003
0.019897001 0.054474000 0.057128999
0.057647999 0.051910002 0.069031000
0.091124997 0.051392000 0.064148001
0.122374997 0.049346998 0.062378000
0.153687000 0.049042001 0.062714003
0.186950997 0.049865998 0.063781999
0.220458999 0.051787999 0.065398999
0.252869010 0.053679999 0.066650003
0.285156012 0.054290999 0.067169003
0.317566007 0.054839998 0.067139000
0.351868004 0.053955000 0.065857001
0.390686005 0.052306999 0.063477002
0.436461985 0.050292999 0.060883000
0.492035002 0.048981000 0.058563001
0.556609988 0.049713001 0.056885000
0.627655029 0.052002002 0.056580000
0.698242009 0.057128999 0.060332999
0.006592000 0.086456001 0.040833000
0.043639999 0.086852998 0.047424000
0.090851001 0.084595002 0.044952001
0.131989002 0.083526999 0.042908002
0.173859000 0.084259003 0.045563001
0.219359994 0.084747002 0.046875000
0.265807986 0.087035999 0.048186999
0.309417993 0.089905001 0.049713001
0.349121004 0.092528999 0.051330999
0.385468006 0.094879001 0.052887000
0.419189006 0.096283004 0.053801998
0.451995999 0.097015001 0.053955000
0.487762004 0.097015001 0.052795000
0.531280994 0.096283004 0.051146999
0.585999012 0.095519997 0.050629001
0.651337028 0.095642000 0.052094001
0.718109012 0.098816000 0.056609999
0.000885000 0.111938000 0.033599999
0.036529999 0.115143001 0.035248000
0.081940003 0.117889002 0.038238999
0.132049993 0.121123999 0.037415002
0.182739004 0.125275001 0.035767000
0.235808998 0.128937006 0.038727000
0.291961998 0.132629007 0.040984999
0.347869992 0.136993006 0.043182001
0.399596989 0.141387999 0.045990001
0.445679009 0.145385996 0.049316000
0.486144990 0.148131996 0.052521002
0.522125006 0.149780005 0.054993000
0.556487978 0.150512993 0.056488000
0.593384027 0.150481999 0.056000002
0.638336003 0.150420994 0.055511001
0.694213986 0.151153997 0.056823999
0.755981028 0.153503001 0.061096001
0.000793000 0.136932001 0.029663000
0.034851000 0.141051993 0.028380999
0.084259003 0.148254007 0.031982001
0.134613007 0.157440007 0.034942999
0.191192999 0.165405005 0.031250000
0.247223005 0.173492000 0.031982001
0.306823999 0.180847004 0.034393001
0.368988007 0.187836006 0.037200999
0.429688007 0.194275007 0.040252998
0.485352010 0.200011998 0.044280998
0.534301996 0.204375997 0.049102999
0.576752007 0.207335994 0.053467002
0.615172982 0.209105998 0.057190001
0.653137028 0.209960997 0.059845001
0.695250988 0.210693002 0.061492998
0.745911002 0.211823002 0.063781999
0.804108024 0.214141995 0.068236999
0.000793000 0.168182001 0.025085000
0.032715000 0.171295002 0.015869001
0.087250002 0.180877998 0.022278000
0.140838996 0.194640994 0.031158000
0.198974997 0.206421003 0.031097000
0.260558993 0.215607002 0.024901999
0.318603992 0.226105005 0.028229000
0.381011993 0.236542001 0.031036001
0.445282012 0.245971993 0.034148999
0.506835997 0.254211009 0.037994001
0.562164009 0.260924995 0.043030001
0.610382020 0.266234994 0.048462000
0.653015018 0.270233005 0.053679999
0.694060981 0.273162991 0.058563001
0.737731993 0.275207996 0.062560998
0.787841976 0.276825011 0.066955999
0.844940007 0.278441995 0.072113000
0.001587000 0.206787005 0.019958001
0.030913999 0.207519993 0.003937000
0.088225998 0.216308996 0.007202000
0.145080999 0.233307004 0.015289000
0.206879005 0.248260006 0.025665000
0.270446986 0.258423001 0.025420999
0.332428008 0.267670006 0.019714000
0.391602010 0.279235989 0.024109000
0.454589993 0.291016012 0.027191000
0.518280029 0.301880002 0.030944999
0.578064024 0.311401010 0.035583001
0.631317019 0.319519013 0.041687001
0.677856028 0.326568991 0.047821000
0.720763981 0.332794011 0.053436000
0.765075982 0.337920994 0.059234999
0.815765023 0.341156006 0.065033004
0.873108029 0.342804015 0.070496000
0.002380000 0.249878004 0.013855000
0.028137000 0.248412997 0.002380000
0.086639002 0.254303008 0.002380000
0.144927993 0.272278011 0.003540000
0.208526999 0.291168004 0.014160000
0.276764005 0.302338004 0.017395001
0.342987001 0.309356987 0.013550000
0.403167993 0.318480998 0.012817000
0.462677002 0.330413997 0.018188000
0.525359988 0.342772990 0.022125000
0.587646008 0.354308993 0.026672000
0.644927979 0.364654988 0.032074001
0.695434988 0.374419987 0.039246000
0.740692019 0.384063989 0.046172999
0.785645008 0.393188000 0.053070001
0.836364985 0.400115997 0.059418000
0.893981993 0.403869987 0.059753001
0.003174000 0.295165986 0.009705000
0.023499001 0.292297006 0.003174000
0.082428001 0.294005990 0.003174000
0.141815007 0.310088992 0.003784000
0.205475003 0.332367003 0.006104000
0.276183993 0.347045988 0.010162000
0.346100003 0.353455007 0.008179000
0.412384003 0.358368009 0.000000000
0.470824987 0.367798001 0.001373000
0.530945003 0.379608005 0.006165000
0.592804015 0.391631991 0.010834000
0.652405024 0.403136998 0.016663000
0.706573009 0.414550990 0.023651000
0.755309999 0.426788002 0.030944999
0.802367985 0.439574987 0.038330000
0.853882015 0.450928003 0.046082001
0.911957026 0.458465993 0.050262000
0.003937000 0.341766000 0.010498000
0.017792000 0.338225991 0.003937000
0.077301003 0.335601985 0.003937000
0.137786999 0.346740991 0.004272000
0.200745001 0.370330989 0.006104000
0.270141989 0.390747011 0.010559000
0.343169987 0.399078012 0.005219000
0.412048012 0.402222008 0.000000000
0.477050990 0.406554997 0.000000000
0.535309017 0.415955007 0.000000000
0.595763981 0.426757991 0.000000000
0.655884027 0.437804997 0.003510000
0.712554991 0.449553996 0.011078000
0.764586985 0.463073999 0.018188000
0.814423025 0.478576988 0.024750000
0.867401004 0.493773997 0.033721998
0.926056027 0.505034983 0.045074001
0.005524000 0.389618009 0.014435000
0.011627000 0.385803014 0.005066000
0.071869001 0.380187988 0.005035000
0.133606002 0.384613007 0.005432000
0.196624994 0.405425996 0.006592000
0.263366997 0.431122005 0.009766000
0.334778011 0.445434988 0.012817000
0.406219006 0.449036002 0.004272000
0.473845989 0.450744987 0.000000000
0.538421988 0.454926014 0.000000000
0.597778022 0.463104010 0.000000000
0.657562017 0.472382009 0.000000000
0.715363026 0.482941002 0.002380000
0.769562006 0.496185005 0.010162000
0.821838021 0.513122976 0.017151000
0.876190007 0.531096995 0.025420999
0.935241997 0.545226991 0.035431001
0.007111000 0.439514011 0.018371999
0.006592000 0.435698986 0.007477000
0.066650003 0.428772002 0.006317000
0.130005002 0.427062988 0.006317000
0.193297997 0.441101015 0.007355000
0.258087009 0.468109012 0.010010000
0.325500011 0.490570009 0.015198000
0.395630002 0.498809993 0.013397000
0.464661002 0.499603003 0.003632000
0.532410026 0.500854015 0.000000000
0.598021984 0.504181027 0.000000000
0.657745004 0.510680974 0.000000000
0.715973020 0.518706977 0.000000000
0.771667004 0.530028999 0.000000000
0.825927973 0.546234012 0.007355000
0.881865978 0.565216005 0.015625000
0.941559017 0.581695974 0.024871999
0.008881000 0.491699010 0.023254000
0.008881000 0.487700999 0.016663000
0.061889999 0.480957001 0.008087000
0.126647994 0.475951999 0.008087000
0.190917999 0.481934011 0.008484000
0.254669011 0.504912972 0.010803000
0.318572998 0.533051014 0.014404000
0.384429991 0.549804986 0.021576000
0.453033000 0.553313971 0.014191000
0.521453977 0.552917004 0.003479000
0.590026975 0.553406000 0.000000000
0.656372011 0.555176020 0.000000000
0.715088010 0.560302973 0.000000000
0.771515012 0.568359017 0.000000000
0.827544987 0.581206977 0.000000000
0.885773003 0.597992003 0.007385000
0.946686029 0.614624023 0.018219000
0.011200000 0.546265006 0.029479999
0.011200000 0.542235970 0.025787000
0.057891998 0.536132991 0.010468000
0.123259999 0.530121028 0.010254000
0.188629001 0.530028999 0.010254000
0.252869010 0.545746028 0.011597000
0.314574987 0.574463010 0.015198000
0.376251012 0.599304020 0.020416001
0.440948009 0.609375000 0.028046001
0.509582996 0.609405994 0.015778000
0.578674018 0.608276010 0.004150000
0.647583008 0.608062983 0.000000000
0.713042974 0.608703971 0.000000000
0.769774973 0.613617003 0.000000000
0.826354980 0.621856987 0.000000000
0.886475027 0.633391976 0.000000000
0.949310005 0.646575987 0.010254000
0.013519000 0.602966011 0.036621001
0.013519000 0.599213004 0.035034001
0.053833000 0.593657970 0.013611000
0.119690001 0.588012993 0.012726000
0.186340004 0.584747016 0.012726000
0.251617014 0.592833996 0.013519000
0.312866002 0.617706001 0.016266000
0.371185005 0.647185981 0.020599000
0.431519002 0.664916992 0.027100001
0.497253001 0.668304026 0.034118999
0.567382991 0.666077018 0.017151000
0.636992991 0.664978027 0.003998000
0.704010010 0.665069997 0.000000000
0.767028987 0.665893972 0.000000000
0.823273003 0.670836985 0.000000000
0.882903993 0.677277029 0.000000000
0.947052002 0.685088992 0.000000000
0.016602000 0.661652029 0.045593001
0.016602000 0.658234000 0.043457001
0.049957000 0.653380990 0.016814999
0.116089001 0.648468018 0.015838999
0.183197007 0.644317985 0.015076000
0.250122011 0.646484017 0.015838999
0.312195003 0.664794981 0.017883001
0.368499994 0.694916010 0.021790000
0.424957007 0.719299018 0.026825000
0.487396002 0.727904975 0.034942999
0.556396008 0.726226985 0.037018001
0.627228022 0.723906994 0.018036000
0.694885015 0.724120975 0.004242000
0.757843018 0.725799978 0.000000000
0.818268001 0.727752984 0.000000000
0.878174007 0.730865002 0.000000000
0.941344976 0.735137999 0.000000000
0.020508001 0.723205984 0.053649999
0.020508001 0.720093012 0.052398998
0.044036999 0.715668023 0.020691000
0.110687003 0.711181998 0.019714000
0.178284004 0.707153022 0.018921001
0.246032998 0.705963016 0.018921001
0.309845001 0.718352973 0.020508001
0.366425008 0.746581972 0.023804000
0.420623988 0.775116026 0.028380999
0.480224997 0.788818002 0.034545999
0.547240973 0.788971007 0.045074001
0.618682981 0.786010981 0.039276000
0.687804997 0.785309017 0.020293999
0.751312017 0.787078977 0.006561000
0.811645985 0.790099978 0.000000000
0.873016000 0.792052984 0.000000000
0.937072992 0.793090999 0.000000000
0.030853000 0.030060001 0.120330997
0.065642998 0.028441999 0.118102998
0.104125999 0.026825000 0.114745997
0.132660002 0.024597000 0.112396002
0.159241006 0.023743000 0.110290997
0.189545006 0.022887999 0.109741002
0.223693997 0.022095000 0.110596001
0.258179009 0.021300999 0.111938000
0.293365002 0.021300999 0.113463998
0.329010010 0.021637000 0.114226997
0.366576999 0.021973001 0.114655003
0.406342000 0.023560001 0.113707997
0.450592011 0.025330000 0.110504001
0.502624989 0.029358000 0.106293000
0.562377989 0.035797000 0.102050997
0.628418028 0.044769000 0.100066997
0.696686029 0.051941000 0.099518001
0.022918999 0.051971000 0.101593003
0.056915000 0.049438000 0.104523003
0.096252002 0.046661001 0.104094997
0.131805003 0.044495001 0.104767002
0.166503996 0.045623999 0.104644999
0.203857005 0.047180001 0.105742998
0.242096007 0.049132999 0.107207999
0.279175013 0.050903000 0.109527998
0.314392000 0.052855998 0.111815996
0.348845989 0.054047000 0.113646999
0.384124994 0.055328000 0.114532001
0.420531988 0.056274001 0.114349000
0.460480005 0.057158999 0.112334996
0.508117974 0.058472000 0.108551003
0.566284001 0.061156999 0.104705997
0.633971989 0.063202001 0.100128002
0.702697992 0.066009998 0.097107001
0.013519000 0.081115998 0.078064002
0.045837000 0.081573002 0.086212002
0.089386001 0.079956003 0.101806998
0.128296003 0.082580999 0.101379000
0.173767000 0.083861999 0.101654001
0.221068993 0.086425997 0.104156002
0.269318014 0.090392999 0.107543997
0.315643013 0.095611997 0.111786000
0.358184993 0.099243000 0.114655003
0.396331996 0.102508999 0.117004000
0.430969000 0.104309000 0.117798001
0.463164985 0.104248002 0.116516002
0.494904011 0.102081001 0.112182997
0.532775998 0.097717002 0.103821002
0.584747016 0.091826998 0.092712000
0.649567008 0.091063999 0.086487003
0.717406988 0.095398001 0.086823002
0.001282000 0.108214997 0.065552004
0.041106999 0.112244003 0.075255997
0.081177004 0.119171001 0.085418999
0.140258998 0.120544001 0.085845999
0.190368995 0.124146000 0.083770998
0.242767006 0.127716005 0.087279998
0.298736989 0.131439000 0.090484999
0.355010986 0.136322007 0.094756998
0.408264011 0.142180994 0.099518001
0.455597013 0.147826999 0.104309000
0.495972008 0.152007997 0.108276002
0.529266000 0.154144004 0.110687003
0.556182981 0.154053003 0.110168003
0.581969976 0.152252004 0.105438001
0.617828012 0.149200007 0.097930998
0.672393978 0.147551998 0.092009999
0.737304986 0.149200007 0.091339000
0.000793000 0.135864004 0.060364000
0.039489999 0.140961006 0.068970002
0.080413997 0.153839007 0.074524000
0.130096003 0.164673001 0.081696004
0.192780003 0.171355993 0.080321997
0.249755993 0.178710997 0.079894997
0.308135986 0.185821995 0.084014997
0.369598001 0.192840993 0.088500999
0.430817008 0.199950993 0.094116002
0.488647014 0.206817999 0.100372002
0.539825022 0.212219000 0.106872998
0.582549989 0.215453997 0.112457000
0.616455019 0.216216996 0.116210997
0.643280029 0.214141995 0.115295000
0.671082020 0.210326999 0.109406002
0.712249994 0.207245007 0.102233998
