public/lut/84.cube
TITLE "17x17x17 Adobe/IRIDAS cube 3D LUT exported with GrossGrade v0.2.2 (beta) 64 bit"
DOMAIN_MIN 0 0 0
DOMAIN_MAX 1 1 1
LUT_3D_SIZE 5
0.032349002 0.029967999 0.043274000
0.142272994 0.023651000 0.029387999
0.243073002 0.020508001 0.028380999
0.415587991 0.023071000 0.034302000
0.687744021 0.048308998 0.062804997
0.000793000 0.138214007 0.003937000
0.187500000 0.163147002 0.000000000
0.429015994 0.190613002 0.005127000
0.618622005 0.205933005 0.023864999
0.832336009 0.218963996 0.058350001
0.003174000 0.296905994 0.008270000
0.203491002 0.334473014 0.006104000
0.465514988 0.363068014 0.000000000
0.709625006 0.405211985 0.016357001
0.913848996 0.455962986 0.047943000
0.008881000 0.494475991 0.024048001
0.188567996 0.491607994 0.008881000
0.449737996 0.553252995 0.014984000
0.710815012 0.560424984 0.000000000
0.946776986 0.614655018 0.020691000
0.020508001 0.724853992 0.053649999
0.176605001 0.707794011 0.018921001
0.415131003 0.788757026 0.028380999
0.685974002 0.788452029 0.021300999
0.932281017 0.793914974 0.000000000
0.030944999 0.030151000 0.159454003
0.172424003 0.024658000 0.183014005
0.368438989 0.025818000 0.213318005
0.543060005 0.037475999 0.223968998
0.732849002 0.060028002 0.190856993
0.006500000 0.135773003 0.135986000
0.188995004 0.183074996 0.222626001
0.427947998 0.207885996 0.223723993
0.622802973 0.228119001 0.237488002
0.772888005 0.207855001 0.198669001
0.003937000 0.306609988 0.118073002
0.182373002 0.338562012 0.159363002
0.468048006 0.419891000 0.212249994
0.693481028 0.477692008 0.231049001
0.907073975 0.493927002 0.285979986
0.009460000 0.499175996 0.098938003
0.193755999 0.474640012 0.087158002
0.450470001 0.576874018 0.191710994
0.725646973 0.593963981 0.200683996
0.930083990 0.662567019 0.276062012
0.020508001 0.717957020 0.093750000
0.179931998 0.704497993 0.058745999
0.454986989 0.719604015 0.068512000
0.701171994 0.791534007 0.187926993
0.963837028 0.803588986 0.079590000
0.029175000 0.028778000 0.287537009
0.171050996 0.025238000 0.382384986
0.423584014 0.029967999 0.402617991
0.605865002 0.054138001 0.451691002
0.838195980 0.090668000 0.442748994
0.016968001 0.141174003 0.353148997
0.183685005 0.189788997 0.431975991
0.444458008 0.229186997 0.450255990
0.643127024 0.257568002 0.447723001
0.833648980 0.272796988 0.450378001
0.003937000 0.320708990 0.341399997
0.168732002 0.386658013 0.412506014
0.440124989 0.471832007 0.518585026
0.686950982 0.475890994 0.500092030
0.910431027 0.498809993 0.511260986
0.008270000 0.508789003 0.322205007
0.186462000 0.541137993 0.358673006
0.415924013 0.587067008 0.423523009
0.721099973 0.665741026 0.498290986
0.933533013 0.730286002 0.526549995
0.025238000 0.746918023 0.293579012
0.181305006 0.726624012 0.312103003
0.459473014 0.733765006 0.314545006
0.680419981 0.834685981 0.493896008
0.957885981 0.861298025 0.584716976
0.022887999 0.029967999 0.521484017
0.184386998 0.024048001 0.549041986
0.416992009 0.029175000 0.632628977
0.655211985 0.061646000 0.593567014
0.832885981 0.106688999 0.659636974
0.015961001 0.157989994 0.534973025
0.152770996 0.178284004 0.563995004
0.444243997 0.246703997 0.662567019
0.664153993 0.274383992 0.619597971
0.837921023 0.291595012 0.630005002
0.006500000 0.343291998 0.581421018
0.162354007 0.393310994 0.610535026
0.445861995 0.469054997 0.691619992
0.687377989 0.504547000 0.710632026
0.904205024 0.544586003 0.701599002
0.000000000 0.529114008 0.554596007
0.179718003 0.550536990 0.588837028
0.441071004 0.627716005 0.670624018
0.670867980 0.698242009 0.779632986
0.908385992 0.714721978 0.739593983
0.014008000 0.756195009 0.538452029
0.152893007 0.738250971 0.551299989
0.446594000 0.794586003 0.623076975
0.688018978 0.850890994 0.694945991
0.935455024 0.907562017 0.755554020
0.025238000 0.054290999 0.772918999
0.133148000 0.027222000 0.787841976
0.385468006 0.059570000 0.891296029
0.643950999 0.078460999 0.851440012
0.893890023 0.139740005 0.826049984
0.019928001 0.174316004 0.743804991
0.093414001 0.175446004 0.743346989
0.388884991 0.217896000 0.851257026
0.608336985 0.285338998 0.831786990
0.854247987 0.314056009 0.808776975
0.014587000 0.375214010 0.826141000
0.110473998 0.404601991 0.787688971
0.398986995 0.451476991 0.832336009
0.684448004 0.515380979 0.893311024
0.918273985 0.568297982 0.880675972
0.018921001 0.565124989 0.809325993
0.181548998 0.574036002 0.808471978
0.443268001 0.631072998 0.869903982
0.706054986 0.693481028 0.898193002
0.908020020 0.725250006 0.916046023
0.000000000 0.775512993 0.805786014
0.215270996 0.774749994 0.808197021
0.443329006 0.806731999 0.851104975
0.722869992 0.862731993 0.905273020
0.939575016 0.932860970 0.953278005
