public/lut/85.cube
TITLE "17x17x17 Adobe/IRIDAS cube 3D LUT exported with GrossGrade v0.2.2 (beta) 64 bit"
DOMAIN_MIN 0 0 0
DOMAIN_MAX 1 1 1
LUT_3D_SIZE 5
0.022095000 0.018158000 0.032349002
0.097259998 0.037842002 0.045288000
0.276520014 0.125732005 0.107330002
0.502380013 0.216674998 0.182648003
0.726836979 0.296173006 0.253113002
0.009674000 0.139557004 0.009857000
0.125121996 0.154937997 0.066467002
0.324310005 0.205535993 0.134398997
0.562407970 0.279967993 0.207396999
0.804565012 0.346008003 0.266326994
0.060150001 0.314666986 0.025635000
0.173034996 0.335326999 0.104340002
0.377837986 0.381042004 0.147490993
0.626221001 0.434082001 0.225097999
0.867401004 0.472716987 0.237121999
0.059418000 0.530426025 0.045623999
0.219054997 0.547882020 0.155945003
0.411895990 0.590363026 0.174042001
0.675872982 0.631470025 0.215057001
0.871643007 0.660461009 0.232970998
0.051697001 0.738556027 0.136870995
0.203612998 0.765137017 0.166168004
0.439606011 0.792297006 0.173645005
0.710052013 0.826201975 0.092254996
0.881408989 0.838744998 0.066771999
0.073242001 0.058502000 0.111389004
0.125916004 0.064208999 0.138885006
0.314301014 0.124450997 0.162444994
0.549193978 0.203461006 0.207062006
0.767120004 0.283234000 0.271331996
0.068115003 0.171050996 0.151153997
0.140929997 0.182098001 0.160126001
0.352142006 0.219482005 0.197082996
0.585968018 0.290436000 0.259247005
0.878325999 0.313782007 0.273162991
0.053162001 0.354674995 0.136414006
0.162536994 0.373169005 0.164123997
0.395934999 0.402617991 0.232086003
0.643218994 0.450439006 0.293915004
0.890289009 0.475769013 0.290405005
0.066344999 0.564484000 0.176360995
0.183928996 0.586242974 0.196807995
0.427704006 0.612549007 0.267670006
0.688812017 0.647278011 0.301544011
0.890717030 0.667815983 0.267150998
0.063660003 0.766448975 0.253784001
0.169524997 0.795349002 0.243744001
0.444671988 0.813018978 0.281280994
0.717528999 0.841187000 0.250732005
0.895874023 0.857116997 0.152404994
0.129973993 0.104705997 0.218688995
0.161956996 0.112823002 0.231873006
0.353637993 0.140288994 0.306212991
0.576903999 0.216370001 0.328278005
0.795379996 0.292694002 0.377196997
0.148254007 0.201262996 0.309722990
0.198486000 0.211273000 0.320953012
0.401611000 0.237426996 0.349303991
0.642150998 0.295013011 0.378509998
0.893188000 0.345427990 0.432372987
0.104340002 0.403075993 0.325989008
0.186278999 0.416718006 0.354797006
0.404785007 0.440979004 0.367980987
0.663115978 0.475585997 0.426025003
0.900299013 0.495635986 0.457733005
0.076660000 0.614471018 0.350585997
0.202179000 0.629729986 0.377929986
0.442443997 0.645537972 0.422881991
0.700653017 0.670197010 0.450684011
0.900146008 0.682465017 0.452942014
0.058350001 0.805145025 0.421050996
0.165802002 0.831054986 0.426970989
0.446074992 0.841948986 0.451171994
0.731628001 0.857239008 0.470245004
0.906890988 0.870422006 0.370056003
0.193786994 0.160126001 0.361786008
0.216156006 0.168792993 0.358215004
0.384918004 0.186646000 0.455933005
0.617218018 0.241973996 0.501984000
0.837463021 0.314880013 0.541167974
0.212463006 0.239898995 0.488312006
0.253814995 0.251830995 0.494536996
0.438232005 0.278564006 0.520965993
0.677062988 0.329497993 0.561249018
0.900452018 0.409148991 0.617736995
0.197235003 0.444640994 0.526244998
0.256316990 0.457091987 0.544434011
0.451202005 0.475219995 0.564423025
0.710327029 0.501067996 0.605926991
0.906799018 0.539184988 0.647888005
0.089599997 0.666442990 0.563171029
0.208679006 0.677124023 0.588684022
0.421875000 0.687407970 0.644348025
0.697968006 0.704315007 0.632111013
0.910461009 0.705658019 0.656189024
0.000000000 0.850403011 0.615601003
0.117279001 0.870422006 0.628143013
0.449492991 0.873901010 0.646515012
0.748046994 0.877593994 0.655578971
0.915192008 0.884491026 0.624786019
0.261658013 0.223297000 0.525116026
0.278717011 0.232329994 0.509338021
0.420623988 0.253784001 0.585846007
0.654815972 0.293945014 0.672515988
0.876953006 0.369109988 0.720947027
0.276549995 0.293152004 0.653687000
0.313232005 0.306122005 0.657257020
0.476074010 0.340546012 0.667052984
0.710541010 0.389252007 0.734619021
0.907684028 0.498169005 0.779572010
0.273773015 0.486359000 0.707732975
0.325592011 0.498198986 0.724547982
0.499237001 0.516510010 0.749114990
0.742249012 0.548187017 0.786315978
0.912932992 0.608887017 0.810302973
0.194763005 0.706695974 0.752807975
0.269775003 0.715851009 0.768341005
0.449707001 0.725432992 0.801666021
0.750427008 0.728302002 0.816192985
0.916718006 0.746276975 0.827392995
0.000000000 0.888611019 0.802338004
0.102721997 0.900726020 0.816588998
0.415161014 0.907348990 0.822052002
0.755890012 0.899078012 0.834473014
0.919250011 0.899474978 0.832611024
