public/lut/85.cube
TITLE "17x17x17 Adobe/IRIDAS cube 3D LUT exported with GrossGrade v0.2.2 (beta) 64 bit"
DOMAIN_MIN 0 0 0
DOMAIN_MAX 1 1 1
LUT_3D_SIZE 17
0.022095000 0.018158000 0.032349002
0.020447001 0.016571000 0.029967999
0.032531999 0.017242000 0.035309002
0.061340000 0.024932999 0.040070001
0.097259998 0.037842002 0.045288000
0.136902004 0.055847000 0.055206001
0.178558007 0.077666998 0.069977000
0.225250006 0.101837002 0.088348001
0.276520014 0.125732005 0.107330002
0.332031012 0.149811000 0.126708999
0.389191002 0.173217997 0.145813003
0.445984006 0.195495993 0.164673001
0.502380013 0.216674998 0.182648003
0.557892025 0.237029999 0.199615002
0.613036990 0.257324010 0.218048006
0.669403017 0.277251989 0.236359000
0.726836979 0.296173006 0.253113002
0.017456001 0.042022999 0.039337002
0.016602000 0.041260000 0.038543999
0.033172999 0.043427002 0.032471001
0.065063000 0.048920002 0.040497001
0.100037001 0.059386998 0.050934002
0.137999997 0.075378001 0.063293003
0.180389002 0.094788000 0.078735001
0.228545994 0.115753002 0.095825002
0.281311005 0.137603998 0.114014000
0.337738007 0.160004005 0.132721007
0.395812988 0.182403997 0.151703000
0.454223990 0.203949004 0.170196995
0.511870980 0.224456996 0.187438995
0.568665028 0.244811997 0.204742000
0.624907970 0.264708996 0.222930998
0.682219982 0.284545988 0.241089001
0.740325987 0.303649992 0.257903993
0.006592000 0.073669001 0.028778000
0.005707000 0.072662003 0.027313000
0.033599999 0.075562000 0.034393001
0.071106002 0.078887999 0.046721999
0.105926998 0.087127998 0.057799999
0.144775003 0.099151999 0.071258999
0.189667001 0.114990003 0.086548001
0.238769993 0.133331001 0.103210002
0.292602986 0.153167993 0.120667003
0.350219995 0.174011007 0.138946995
0.409148991 0.195281997 0.157654002
0.468201011 0.216370001 0.175872996
0.526580989 0.236725003 0.193054006
0.583679020 0.256897002 0.211089998
0.640564024 0.276672006 0.229461998
0.698853016 0.296416998 0.247100994
0.756989002 0.315582007 0.264708996
0.005371000 0.105651997 0.018585000
0.004486000 0.105194002 0.016998000
0.039337002 0.109008998 0.031250000
0.079986997 0.111846998 0.051849000
0.117187999 0.118865997 0.061554000
0.156982005 0.128845006 0.076049998
0.202605993 0.142029002 0.092864998
0.253235012 0.157622993 0.109985001
0.308288991 0.175354004 0.127654999
0.366210997 0.194763005 0.145905003
0.425751001 0.215027004 0.164306998
0.485381991 0.235291004 0.182251006
0.544128001 0.255156994 0.199982002
0.601348996 0.274841011 0.218353003
0.658478022 0.294281006 0.236297995
0.717254996 0.313232005 0.253417999
0.774078012 0.332976997 0.272949010
0.009674000 0.139557004 0.009857000
0.008759000 0.139679000 0.009003000
0.045807000 0.144684002 0.027892999
0.089873999 0.147705004 0.055388998
0.125121996 0.154937997 0.066467002
0.167632997 0.163910002 0.078217000
0.215911999 0.175384998 0.096527003
0.268249989 0.189484000 0.115966998
0.324310005 0.205535993 0.134398997
0.383300990 0.223358005 0.152832001
0.443695009 0.242064998 0.171173006
0.503844976 0.261047006 0.189117000
0.562407970 0.279967993 0.207396999
0.619324028 0.298859000 0.225250006
0.677062988 0.317229986 0.242493004
0.735870004 0.335083008 0.259368986
0.804565012 0.346008003 0.266326994
0.023773000 0.176543996 0.011322000
0.022857999 0.177338004 0.010498000
0.054108001 0.184052005 0.026825000
0.100555003 0.187041998 0.061218001
0.134124994 0.194823995 0.071471997
0.176422000 0.204437003 0.082976997
0.227874994 0.215270996 0.099059999
0.282501012 0.228240997 0.118835002
0.339812994 0.242950007 0.139495999
0.399993986 0.259063989 0.158629999
0.461273015 0.276122987 0.177306995
0.521362007 0.293639988 0.195739999
0.579620004 0.311278999 0.213836998
0.637176991 0.328552008 0.230865002
0.694671988 0.345642000 0.247741997
0.753203988 0.362121999 0.264313012
0.833617985 0.364165992 0.253966987
0.039519999 0.217833996 0.015472000
0.040160999 0.219849005 0.015137000
0.067962997 0.227111995 0.032226998
0.113707997 0.230469003 0.070373997
0.145781994 0.238830999 0.080048002
0.184753001 0.249480993 0.088134997
0.237946004 0.260161996 0.104125999
0.295134991 0.272278011 0.121978998
0.353973001 0.285889000 0.142578006
0.415221989 0.300507009 0.163451999
0.476837009 0.315825999 0.182616994
0.537292004 0.331786990 0.201141000
0.596252024 0.347595006 0.218383998
0.654052973 0.363341987 0.235045999
0.710418999 0.379516989 0.252501994
0.768585026 0.394867003 0.267791986
0.857697010 0.390839010 0.238952994
0.051849000 0.264434993 0.020172000
0.052368000 0.267639011 0.019774999
0.083251998 0.274291992 0.041809000
0.127563000 0.277588010 0.081177004
0.158935994 0.286011010 0.091705002
0.195526004 0.297179997 0.096832000
0.246307001 0.308380008 0.109618999
0.305999994 0.319701999 0.125884995
0.367065012 0.332152992 0.144805998
0.428649992 0.345703006 0.166198999
0.491118997 0.359802008 0.186340004
0.552550972 0.374206990 0.204650998
0.611877024 0.388794005 0.222075999
0.669372976 0.403472990 0.238892004
0.725555003 0.418549001 0.256439000
0.783936024 0.432464987 0.270172000
0.867156982 0.428191990 0.234496996
0.060150001 0.314666986 0.025635000
0.062073000 0.318695009 0.024750000
0.096375003 0.324310005 0.051941000
0.139954001 0.327515006 0.091034003
0.173034996 0.335326999 0.104340002
0.208068997 0.346190989 0.108521000
0.255248994 0.358092993 0.116699003
0.313903987 0.369507015 0.131134003
0.377837986 0.381042004 0.147490993
0.441376001 0.393768013 0.167206004
0.504271984 0.407043010 0.188567996
0.566497982 0.420410007 0.207367003
0.626221001 0.434082001 0.225097999
0.683745980 0.447876006 0.241881996
0.740966976 0.461517006 0.257934988
0.799438000 0.473906994 0.270264000
0.867401004 0.472716987 0.237121999
0.067718998 0.367004007 0.031433001
0.069977000 0.371490002 0.030151000
0.108093001 0.376006991 0.061981000
0.150390998 0.379395008 0.099151999
0.186035007 0.386139005 0.116760001
0.220978007 0.396605998 0.121642999
0.265747011 0.408630013 0.126953006
0.321411014 0.420807004 0.138274997
0.385742009 0.432343006 0.153075993
0.452666998 0.444153011 0.169464007
0.516846001 0.456726015 0.188964993
0.579192996 0.469482005 0.209044993
0.639586985 0.482208014 0.226379007
0.698090017 0.494720012 0.242004007
0.756012022 0.507018983 0.256592005
0.813598990 0.518341005 0.268126994
0.867766976 0.519469976 0.238617003
0.070129000 0.420592993 0.036559999
0.072540000 0.425659001 0.034851000
0.116180003 0.429291010 0.070525996
0.158875003 0.432799995 0.107391000
0.197998002 0.438872993 0.129791006
0.234191999 0.448792011 0.135528997
0.277527004 0.460601985 0.138946995
0.331054986 0.472992003 0.146819994
0.393462986 0.484955013 0.159789994
0.461517006 0.496246010 0.175017998
0.528503001 0.507903993 0.190276995
0.591338992 0.520049989 0.208159998
0.651978016 0.531830013 0.225310996
0.711364985 0.543242991 0.239655003
0.769469976 0.554291010 0.253203988
0.826171994 0.564666986 0.264068991
0.868164003 0.567047000 0.239960000
0.066040002 0.475158989 0.040465999
0.070618004 0.480987996 0.039276000
0.120117001 0.484344006 0.078704998
0.165710002 0.487762004 0.115417004
0.209808007 0.492949992 0.143004999
0.247466996 0.502166986 0.149657995
0.289855987 0.513611019 0.151764005
0.341919005 0.525817990 0.157042995
0.402222008 0.537810981 0.166168004
0.469420999 0.549072027 0.179870993
0.538421988 0.559723020 0.194183007
0.603209972 0.570770025 0.206512004
0.663878977 0.581909001 0.222046003
0.722899973 0.592499018 0.235504001
0.781554997 0.602447987 0.246674001
0.838409007 0.611481011 0.254913002
0.868927002 0.614380002 0.239989996
0.059418000 0.530426025 0.045623999
0.066284001 0.536713004 0.044403002
0.122192003 0.539916992 0.085814998
0.170410007 0.543426991 0.123108000
0.219054997 0.547882020 0.155945003
0.258881003 0.556366026 0.163513005
0.301757991 0.567077994 0.164245993
0.352936000 0.578643978 0.167632997
0.411895990 0.590363026 0.174042001
0.477936000 0.601348996 0.183136001
0.547424018 0.611359000 0.194060996
0.614531994 0.621185005 0.204864994
0.675872982 0.631470025 0.215057001
0.734528005 0.641205013 0.227294996
0.793762028 0.650177002 0.234528005
0.851409972 0.657927990 0.238037005
0.871643007 0.660461009 0.232970998
0.047028001 0.585693002 0.056304999
0.048583999 0.592224002 0.049377002
0.115082003 0.595947027 0.088988997
0.170258000 0.599242985 0.128356993
0.225585997 0.602783024 0.166961998
0.268036008 0.610413015 0.175812006
0.311798006 0.620239019 0.175322995
0.363860995 0.630797982 0.177001998
0.422363013 0.641815007 0.180510998
0.486815989 0.652465999 0.185791001
0.555206001 0.662262022 0.192963004
0.623016000 0.671325982 0.199890003
0.687072992 0.680266976 0.204833999
0.746307015 0.689208984 0.212189004
0.806244016 0.697327018 0.214447007
0.864226997 0.704253972 0.210357994
0.875945985 0.705841005 0.209259003
0.050507002 0.638549984 0.086823002
0.048218001 0.645416021 0.076447003
0.099091001 0.651610970 0.089417003
0.162872002 0.654784977 0.129791006
0.228394002 0.657166004 0.174957007
0.275573999 0.663604975 0.185852006
0.320953012 0.672393978 0.184235007
0.372345001 0.682281017 0.183837995
0.430664003 0.692505002 0.184295997
0.494812012 0.702575982 0.186035007
0.562377989 0.712036014 0.188109994
0.630950987 0.720611989 0.189941004
0.696594000 0.728699028 0.189758003
0.758361995 0.736724973 0.185089007
0.817870975 0.744476020 0.180298001
0.876281977 0.750458002 0.164551005
0.881012022 0.750945985 0.162597999
0.053619001 0.689788997 0.109802000
0.050995000 0.696442008 0.100555003
0.072021000 0.706206977 0.085998997
0.145843998 0.709685981 0.124785997
0.222595006 0.711364985 0.176666006
0.275085002 0.716705024 0.191009998
0.323119998 0.724518001 0.188567996
0.376769990 0.733429015 0.185454994
0.436798006 0.742736995 0.182403997
0.501343012 0.752197027 0.179810002
0.569000006 0.761200011 0.176025003
0.638091981 0.769439995 0.169189006
0.703705013 0.777374029 0.159058005
0.768280029 0.784668028 0.140380993
0.829375982 0.791594982 0.114226997
0.882263005 0.796203971 0.091918997
0.883086979 0.796112001 0.093200997
0.051697001 0.738556027 0.136870995
0.050384998 0.744812012 0.128325999
0.043731999 0.755890012 0.107330002
0.111023001 0.763458014 0.113311999
0.203612998 0.765137017 0.166168004
0.269286990 0.768981993 0.188690007
0.322234988 0.775635004 0.186707005
0.377929986 0.783721983 0.180602998
0.439606011 0.792297006 0.173645005
0.506042004 0.801086009 0.164673001
0.573913991 0.809937000 0.152344003
0.642302990 0.818450987 0.133514002
0.710052013 0.826201975 0.092254996
0.774291992 0.832396984 0.036713000
0.834411979 0.835937977 0.055388998
0.881165028 0.839020014 0.066832997
0.881408989 0.838744998 0.066771999
0.033661000 0.026672000 0.048675999
0.033661000 0.026672000 0.048675999
0.041260000 0.027344000 0.051300000
0.068297997 0.032683998 0.061400998
0.102844000 0.042389002 0.066223003
0.143066004 0.058440998 0.072327003
0.189879999 0.076447003 0.080352999
0.237579003 0.098724000 0.094177000
0.287261993 0.123687997 0.111908004
0.341187000 0.147980005 0.130371004
0.397491008 0.171661004 0.149260998
0.453705013 0.194122002 0.167846993
0.509734988 0.215393007 0.185424998
0.564818978 0.235900998 0.202483997
0.619629025 0.256287009 0.220734000
0.675445974 0.276428014 0.239380002
0.732146978 0.295897990 0.256469995
0.035248000 0.048431002 0.061096001
0.035156000 0.047729000 0.060516000
0.045410000 0.049132999 0.058777001
0.074676998 0.054047000 0.062042002
0.112273999 0.060759999 0.068145998
0.153075993 0.073700003 0.074828997
0.195189998 0.092743002 0.086639002
0.240661994 0.114014000 0.101989999
0.291718006 0.136047006 0.118988000
0.347229004 0.158751994 0.136932001
0.404266000 0.181305006 0.155730993
0.461670011 0.203308001 0.174071997
0.518646002 0.224273995 0.191620007
0.574310005 0.244843006 0.209229007
0.629912972 0.265166998 0.227782995
0.686767995 0.285338998 0.246154994
0.744171023 0.304839998 0.263610989
0.022980001 0.079406999 0.060120001
0.022857999 0.078918003 0.059478998
0.043090999 0.081115998 0.064879999
0.076293997 0.084716998 0.063019000
0.110625997 0.091797002 0.072844997
0.150238007 0.102875002 0.084656000
0.194732994 0.117675997 0.097626001
0.243652001 0.135741994 0.112792999
0.296844006 0.155365005 0.129485995
0.354155988 0.176146999 0.147156000
0.413239002 0.197356999 0.165160999
0.472106993 0.218262002 0.182922006
0.530364990 0.238738999 0.200103998
0.587189019 0.258881003 0.218170002
0.644195974 0.278625011 0.236359000
0.702422976 0.298157007 0.253814995
0.760192990 0.317840993 0.272156000
0.015838999 0.112915002 0.050292999
0.014923000 0.112517998 0.049683001
0.040679999 0.115814000 0.055388998
0.086731002 0.116668999 0.071686000
0.121613003 0.123138003 0.079071000
0.160247996 0.133209005 0.091278002
0.205963001 0.145538002 0.105834998
0.256927013 0.160918996 0.121063001
0.311951011 0.178406000 0.137633994
0.370086998 0.197601005 0.155333996
0.429688007 0.217650995 0.172851995
0.489410013 0.237854004 0.190338001
0.547760010 0.257629007 0.208221003
0.605132997 0.277191013 0.226227000
0.662322998 0.296539009 0.243988007
0.721161008 0.315369010 0.261016995
0.782836974 0.331786990 0.276520014
0.015442000 0.147339001 0.040984999
0.014526000 0.147705004 0.040222000
0.041138001 0.152953997 0.044677999
0.094727002 0.153045997 0.075622998
0.130829006 0.159301996 0.087279998
0.171844006 0.168427005 0.095581003
0.219879001 0.179352000 0.110625997
0.272430003 0.193023995 0.127899006
0.328491002 0.208831996 0.145172000
0.387511998 0.226593003 0.162933007
0.447876006 0.245086998 0.180542007
0.507903993 0.263947010 0.198364004
0.566314995 0.282806009 0.216308996
0.623444021 0.301544011 0.233916998
0.681122005 0.319824010 0.250916004
0.740203977 0.337493986 0.267760992
0.818726003 0.341277987 0.264647990
0.017883001 0.185149997 0.033172999
0.016998000 0.186187997 0.032318000
0.048797999 0.192351997 0.041625999
0.102966003 0.193389997 0.078185998
0.140015006 0.199950993 0.092772998
0.181182995 0.209229007 0.102721997
0.232086003 0.219788000 0.115020998
0.286621004 0.232299998 0.132385001
0.344024986 0.246795997 0.151641995
0.404083014 0.262573004 0.169738993
0.465270996 0.279480010 0.187866002
0.525421023 0.296875000 0.205779999
0.583770990 0.314301014 0.223358005
0.641448975 0.331389993 0.240081996
0.698485970 0.348601997 0.257355005
0.757445991 0.364654988 0.273193002
0.849700987 0.358489990 0.249146000
0.023743000 0.227539003 0.027069001
0.023102000 0.229736000 0.026703000
0.062194999 0.235687003 0.044585999
0.113219999 0.237822995 0.082549997
0.151306003 0.244415000 0.099914998
0.190308005 0.254547000 0.108825997
0.242096007 0.264954001 0.121886998
0.299560994 0.276733011 0.136962995
0.358429015 0.290039003 0.155333996
0.419373006 0.304351985 0.175292999
0.480834991 0.319550008 0.193909004
0.541472971 0.335144013 0.211639002
0.600463986 0.350800008 0.228606999
0.657898009 0.366454989 0.245269999
0.714142025 0.382721007 0.262816995
0.772614002 0.397675008 0.277312994
0.869324028 0.387299001 0.236754999
0.032776002 0.274199992 0.027008001
0.033417001 0.277556986 0.026154000
0.075653002 0.282927990 0.051543999
0.124389999 0.285706013 0.089294001
0.163788006 0.292084008 0.109954998
0.201294005 0.302460015 0.117095999
0.250701994 0.313324004 0.127868995
0.310393989 0.324248999 0.141967997
0.371490002 0.336517006 0.158508003
0.432830989 0.349761993 0.178710997
0.495117009 0.363555998 0.198273003
0.556396008 0.377808005 0.216308996
0.615783989 0.392181009 0.233153999
0.673156977 0.406859994 0.250030994
0.729369998 0.421967000 0.267212003
0.788085997 0.435425013 0.280182004
0.874907970 0.426849008 0.235045999
0.042785998 0.323913991 0.031342000
0.044066999 0.328186005 0.030456999
0.088287003 0.332854986 0.059997998
0.135070994 0.335938007 0.096709996
0.176758006 0.341522008 0.121184997
0.213866994 0.351532012 0.128296003
0.259887993 0.363097996 0.135070994
0.318176001 0.374237001 0.147980005
0.381927013 0.385529011 0.162627995
0.445434988 0.397918999 0.180510998
0.508453012 0.410950005 0.201202005
0.570403993 0.424225003 0.219909996
0.630034983 0.437774986 0.237151995
0.687682986 0.451355010 0.253448009
0.744903982 0.464843988 0.269196004
0.803435981 0.477019995 0.281096995
0.874176025 0.472382009 0.237976000
0.048889000 0.375977010 0.035980001
0.051360998 0.380706996 0.035094999
0.099395998 0.384368986 0.068512000
0.144775003 0.387634009 0.104217999
0.188995004 0.392547995 0.132903993
0.226256996 0.402251989 0.140594006
0.270538002 0.413910002 0.144927993
0.325713992 0.425781012 0.155333996
0.389831990 0.437011987 0.169128001
0.456757009 0.448424995 0.183928996
0.520905018 0.460815012 0.202392995
0.583159983 0.473358005 0.221984997
0.643341005 0.485900998 0.239197001
0.701812983 0.498322010 0.254547000
0.759674013 0.510406017 0.268950999
0.817200005 0.521575987 0.280059993
0.873932004 0.519867003 0.239258006
0.047791000 0.429412991 0.041076999
0.052154999 0.434570014 0.039673001
0.106078997 0.437622011 0.076416001
0.152527004 0.441040009 0.111908004
0.200470001 0.445434988 0.145172000
0.238922000 0.454558998 0.153839007
0.282043010 0.466064006 0.156616002
0.335326999 0.478148997 0.164001003
0.397552013 0.489684999 0.176300004
0.465424001 0.500671029 0.190734997
0.532257020 0.512085021 0.205017000
0.595184028 0.523956001 0.221892998
0.655640006 0.535552979 0.239014000
0.714690983 0.546752989 0.253325999
0.772765994 0.557739019 0.266754001
0.829528987 0.567870975 0.276641995
0.873656988 0.568085015 0.240204006
0.045441002 0.483550996 0.049072001
0.050322998 0.489594012 0.046478000
0.108916998 0.492523015 0.084167004
0.157897994 0.495972008 0.119658999
0.211273000 0.499572992 0.157592997
0.251953006 0.508056998 0.167541996
0.293976009 0.519226015 0.169249997
0.345824987 0.530945003 0.174408004
0.406035990 0.542663991 0.183105007
0.473114014 0.553497016 0.196502998
0.542145014 0.563843012 0.210051998
0.606872976 0.574615002 0.221191004
0.667479992 0.585448980 0.236328006
0.726257026 0.595916986 0.249724999
0.784820974 0.605742991 0.260895014
0.841705024 0.614502013 0.268310994
0.873901010 0.615752995 0.239318997
0.049957000 0.537994027 0.066742003
0.050811999 0.544616997 0.059723001
0.108733997 0.548096001 0.090911999
0.160980001 0.551575005 0.126739994
0.218291998 0.554749012 0.168212995
0.261902004 0.562346995 0.180634007
0.305388987 0.572570980 0.181762993
0.356628001 0.583800972 0.184998006
0.415466011 0.595122993 0.191376001
0.481537014 0.605713010 0.200133994
0.550872982 0.615417004 0.210938007
0.617676020 0.625000000 0.221466005
0.679138005 0.634917974 0.230620995
0.737945974 0.644500971 0.242188007
0.796844006 0.653320014 0.250000000
0.854552984 0.660797000 0.253051996
0.875397027 0.662292004 0.235016003
0.051116999 0.592224002 0.090178996
0.049591001 0.598999023 0.083007999
0.099243000 0.604094982 0.095734000
0.157805994 0.607391000 0.131409004
0.221221998 0.610046029 0.175384998
0.269867003 0.616424978 0.191742003
0.315246999 0.625609994 0.193419993
0.366820991 0.635955989 0.194672003
0.425476015 0.646515012 0.198090002
0.490051001 0.656737983 0.203551993
0.558197021 0.666199028 0.210754007
0.626160026 0.674956977 0.217377007
0.690093994 0.683745980 0.222075999
0.749328971 0.692474008 0.229094997
0.808838010 0.700408995 0.232512996
0.866791010 0.707062006 0.229401007
0.877106011 0.708312988 0.224701002
0.054290999 0.644927979 0.113799997
0.052216001 0.651703000 0.106628001
0.089446999 0.658874989 0.105042003
0.149169996 0.662627995 0.133910999
0.218871996 0.664794981 0.179260001
0.274780005 0.669768989 0.200499997
0.323668987 0.677734017 0.202728003
0.375030994 0.687286019 0.201965004
0.433227986 0.697174013 0.202698007
0.497498006 0.706848025 0.204497993
0.565155029 0.715911984 0.207001001
0.633635998 0.724152029 0.209319994
0.699096978 0.732056022 0.209777996
0.761169016 0.739777029 0.204895005
0.820496023 0.747344971 0.202148005
0.878997982 0.753325999 0.186858997
0.881775022 0.753570974 0.185912997
0.056090999 0.695891976 0.135376006
0.053557999 0.702515006 0.128204003
0.074553996 0.712249994 0.116974004
0.131560996 0.717132986 0.131775007
0.208434999 0.719054997 0.177886993
0.272644013 0.722809017 0.205321997
0.324829012 0.729828000 0.207916006
0.378509998 0.738341987 0.204407007
0.439148009 0.747223020 0.201782003
0.503966987 0.756255984 0.199585006
0.571380973 0.764984012 0.196594000
0.640349984 0.773041010 0.191131994
0.706359982 0.780731022 0.182982996
0.770690978 0.787781000 0.168487996
0.832122982 0.794586003 0.143126994
0.885559022 0.799866021 0.102477998
0.886382997 0.799651980 0.100739002
0.054260001 0.744292974 0.161010996
0.052368000 0.750549018 0.153839007
0.045898002 0.761413991 0.137390003
0.104584001 0.769622982 0.134552002
0.188079998 0.772521973 0.170196995
0.265228003 0.774901986 0.202880993
0.324036002 0.780669987 0.207184002
0.379424989 0.788513005 0.200745001
0.441101015 0.796814024 0.194672003
0.507843018 0.805266976 0.186554000
0.576233029 0.813812017 0.176177993
0.644257009 0.822082996 0.160889000
0.712372005 0.829773009 0.132172003
0.777801991 0.836700022 0.085906997
0.839203000 0.840668023 0.051819000
0.884582996 0.843047976 0.065734997
0.884705007 0.842804015 0.066223003
0.046539001 0.037475999 0.068847999
0.045775998 0.036773998 0.067780003
0.051665999 0.037475999 0.069335997
0.077271000 0.040405001 0.083282001
0.110443003 0.048705999 0.089965999
0.149657995 0.062531002 0.093964003
0.195006996 0.079558998 0.099945001
0.246337995 0.098907001 0.108521000
0.301270008 0.120086998 0.120177999
0.355742991 0.143799007 0.135741994
0.409545988 0.168487996 0.154113993
0.464569002 0.191467002 0.172424003
0.519836009 0.212738007 0.189513996
0.574280024 0.233367994 0.206481993
0.628692985 0.253966987 0.224761993
0.684143007 0.274078012 0.243102998
0.740478992 0.293731987 0.259948999
0.051116999 0.055573002 0.086731002
0.050476000 0.054962002 0.085876003
0.058318999 0.056701999 0.083313003
0.084533997 0.059570000 0.089538999
0.117858998 0.066620000 0.093964003
0.159118995 0.077666998 0.097838998
0.205566004 0.092743002 0.103577003
0.256469995 0.111206003 0.112853996
0.308319002 0.132355005 0.126250997
0.361236989 0.155517995 0.143004999
0.416747987 0.178772002 0.161133006
0.473114014 0.200928003 0.179047003
0.529388011 0.221954003 0.196135998
0.584442019 0.242736995 0.213898003
0.639586985 0.263184011 0.232238993
0.696135998 0.283203006 0.250274986
0.753112972 0.303101003 0.267913997
0.046448000 0.086121000 0.089996003
0.045775998 0.085297003 0.089233004
0.055939000 0.086516999 0.090820000
0.084991001 0.090728998 0.080871999
0.124329001 0.094939999 0.090576001
0.167511001 0.102752998 0.100493997
0.212219000 0.116180003 0.109771997
0.259918004 0.133910999 0.122374997
0.311432004 0.153656006 0.137482002
0.366730005 0.174743995 0.154387996
0.424315989 0.196198002 0.171813995
0.482178003 0.217467993 0.189392000
0.539246023 0.238251001 0.207030997
0.595275998 0.258605987 0.225127995
0.651458979 0.278777987 0.243407995
0.709075987 0.298615009 0.260986000
0.765197992 0.319092005 0.280640006
0.033020001 0.119842999 0.083649002
0.032226998 0.119475998 0.083191000
0.054230001 0.121399000 0.089478001
0.083557002 0.125336006 0.093200997
0.123749003 0.130096003 0.097594999
0.165222004 0.138183996 0.108704001
0.211273000 0.149780005 0.121703997
0.262421012 0.164398000 0.135193005
0.317351997 0.181457996 0.150115997
0.375243992 0.200348005 0.166718006
0.434570014 0.220367000 0.184052005
0.493865997 0.240417004 0.201569006
0.552277029 0.260223001 0.219086006
0.609497011 0.279632986 0.236693993
0.666778982 0.299041986 0.254242003
0.725646973 0.317595989 0.271301001
0.797546029 0.326813012 0.277527004
0.027313000 0.155425996 0.074188001
0.026427999 0.155853003 0.074157998
0.052246001 0.159363002 0.079833999
0.089354999 0.162476003 0.090942003
0.134186000 0.165832996 0.107634999
0.176422000 0.174011007 0.115814000
0.223418996 0.184783995 0.128601000
0.276367009 0.197723001 0.144072995
0.332764000 0.213043004 0.159575999
0.391663015 0.230315998 0.176146999
0.451903999 0.248717993 0.193419993
0.511901975 0.267334014 0.210846007
0.570526004 0.286040992 0.228302002
0.627776980 0.304657012 0.245544001
0.685028017 0.322937012 0.262665004
0.744597971 0.340056986 0.278869987
