public/lut/86.cube
TITLE "17x17x17 Adobe/IRIDAS cube 3D LUT exported with GrossGrade v0.2.2 (beta) 64 bit"
DOMAIN_MIN 0 0 0
DOMAIN_MAX 1 1 1
LUT_3D_SIZE 17
0.018158000 0.073151000 0.037872002
0.044250000 0.077056997 0.043152001
0.078093998 0.083159998 0.049500000
0.097167999 0.092101999 0.052887000
0.119811997 0.099914998 0.056030001
0.149719000 0.108306997 0.055144999
0.184937000 0.117858998 0.051514000
0.228057995 0.128754005 0.056701999
0.276946992 0.140015006 0.068664998
0.325836003 0.148102000 0.079650998
0.371796012 0.152069002 0.088653997
0.415648997 0.156158000 0.096954003
0.454528987 0.162933007 0.104156002
0.485900998 0.170166001 0.109558001
0.511780024 0.175751001 0.113342002
0.531525016 0.180084005 0.115722999
0.544861019 0.182861000 0.116729997
0.001038000 0.088042997 0.027008001
0.028137000 0.093079001 0.034697998
0.080840997 0.098632999 0.053711001
0.102294996 0.106109999 0.055023000
0.125946000 0.113922000 0.056030001
0.158263996 0.122405998 0.053893998
0.196381003 0.132629007 0.051727001
0.243073002 0.145385996 0.058502000
0.295715004 0.158875003 0.071014002
0.348266989 0.170898005 0.082213998
0.396820009 0.180602998 0.091797002
0.441588998 0.187621996 0.100464001
0.479126006 0.191559002 0.107024997
0.509247005 0.193146005 0.111602999
0.534057975 0.193847999 0.114684999
0.553008974 0.196472004 0.116393998
0.565612972 0.198424995 0.117400996
0.000000000 0.102569997 0.022186000
0.003448000 0.107391000 0.021545000
0.079223998 0.111327998 0.054016002
0.106049001 0.118529998 0.059296001
0.132446006 0.126862004 0.055877998
0.167632997 0.136414006 0.051514000
0.209808007 0.148651004 0.051941000
0.260132015 0.162842005 0.060851999
0.316864014 0.177521005 0.073821999
0.372130990 0.190856993 0.085785002
0.422881991 0.201782003 0.095917001
0.470001012 0.210571006 0.103912003
0.510254025 0.216858000 0.109131001
0.541504025 0.221375003 0.112334996
0.566619992 0.224639997 0.114716001
0.585205019 0.227448002 0.116393998
0.597625971 0.229889005 0.117737003
0.000000000 0.115722999 0.019866999
0.000000000 0.119140998 0.016602000
0.075928003 0.124114998 0.051605001
0.107207999 0.132935002 0.056274001
0.137939006 0.142029002 0.050507002
0.177093998 0.153687000 0.044036999
0.223663002 0.168060005 0.047759999
0.278625011 0.184265003 0.061096001
0.338470012 0.200378001 0.076293997
0.396270990 0.214782998 0.089111000
0.450011998 0.226256996 0.098938003
0.500487983 0.235107005 0.105590999
0.542632997 0.241730005 0.109894000
0.574340999 0.246674001 0.113342002
0.599213004 0.250640988 0.116057999
0.617950022 0.253998011 0.118317001
0.630370975 0.257019013 0.119690001
0.000000000 0.131409004 0.012421000
0.000000000 0.134215996 0.009277000
0.032501001 0.142120004 0.017944001
0.097900003 0.151183993 0.038054999
0.140320003 0.161896005 0.028778000
0.185424998 0.176514000 0.027710000
0.238129005 0.194183007 0.041839998
0.296813995 0.212249994 0.061218001
0.359131008 0.229583994 0.078125000
0.420044005 0.244659007 0.090728998
0.477050990 0.256316990 0.099030003
0.529632986 0.265471995 0.105377004
0.572601020 0.272552013 0.110687003
0.604462028 0.277648985 0.114349000
0.629395008 0.281708002 0.117156997
0.648193002 0.285187006 0.118835002
0.661010981 0.288239002 0.119263001
0.000000000 0.149292007 0.002319000
0.000000000 0.152435005 0.001343000
0.004150000 0.156494007 0.001190000
0.086304002 0.170044005 0.007629000
0.139220998 0.185454994 0.005219000
0.193572998 0.203704998 0.009705000
0.252227992 0.224639997 0.034545999
0.313598990 0.244781002 0.060059000
0.378753990 0.262939006 0.077301003
0.442169011 0.278290004 0.089263998
0.501281977 0.290497005 0.097717002
0.555266976 0.300231993 0.105255000
0.599518001 0.307433993 0.110596001
0.632598996 0.312285990 0.112853996
0.658599973 0.316009998 0.114044003
0.678070009 0.319427013 0.114471003
0.691161990 0.322723001 0.113922000
0.000000000 0.169556007 0.000000000
0.001984000 0.172729000 0.000000000
0.016052000 0.172913000 0.000000000
0.080352999 0.189362004 0.000000000
0.137970001 0.212645993 0.000000000
0.198853001 0.236968994 0.000061000
0.264526010 0.260863990 0.025420999
0.330597013 0.282898009 0.055023000
0.398681998 0.302338004 0.073700003
0.464691013 0.318816990 0.086883999
0.525664985 0.331878990 0.096008003
0.582031012 0.341735989 0.102020003
0.628539979 0.348877013 0.104613997
0.663025022 0.353668004 0.104888998
0.689758003 0.357329994 0.104858004
0.709473014 0.361023009 0.104675002
0.722106993 0.364470989 0.104156002
0.012207000 0.192780003 0.000000000
0.020354999 0.195769995 0.000000000
0.038054999 0.197723001 0.000000000
0.077118002 0.215911999 0.000000000
0.137603998 0.245666996 0.000000000
0.203003004 0.276244998 0.000000000
0.275299013 0.303710997 0.015472000
0.348174989 0.328125000 0.044983000
0.420379996 0.350219995 0.068024002
0.490051001 0.368622005 0.080994003
0.554229975 0.382263005 0.088196002
0.612793028 0.392242014 0.091826998
0.660950005 0.399628013 0.092804000
0.696747005 0.405120999 0.092804000
0.724395990 0.409363002 0.092377000
0.744629025 0.413300008 0.091674998
0.757171988 0.416503996 0.090178996
0.031158000 0.217833996 0.000000000
0.042296998 0.220580995 0.000000000
0.052887000 0.227691993 0.000000000
0.071625002 0.246185005 0.000000000
0.135498002 0.279938012 0.000000000
0.206879005 0.315917999 0.000000000
0.283630013 0.347900003 0.003143000
0.363799989 0.375274986 0.030609000
0.442261010 0.400207996 0.059570000
0.516022027 0.421112001 0.071258999
0.583159983 0.435974002 0.075591996
0.643523991 0.446442008 0.076720998
0.693542004 0.454315007 0.073578000
0.732025027 0.460388005 0.064940996
0.761963010 0.464965999 0.054198999
0.783356011 0.468780994 0.044036999
0.796112001 0.471863002 0.039825000
0.044220001 0.241852000 0.000000000
0.054595999 0.245940998 0.000000000
0.062438998 0.256958008 0.000000000
0.069426998 0.274475008 0.000000000
0.133209005 0.311217993 0.000000000
0.210876003 0.351745993 0.000000000
0.290008992 0.388152987 0.000000000
0.375243992 0.418945014 0.014313000
0.460785002 0.446442008 0.042877000
0.538483024 0.469848990 0.057312001
0.608336985 0.486694008 0.054625999
0.671539009 0.498290986 0.042571999
0.724273980 0.506896973 0.031005999
0.764586985 0.513489008 0.022583000
0.795867980 0.518646002 0.011139000
0.817932010 0.522827029 0.001617000
0.830474973 0.526062012 0.000000000
0.050841998 0.264434993 0.000000000
0.061523002 0.270172000 0.000000000
0.068604000 0.283416986 0.000000000
0.072327003 0.301910013 0.000000000
0.134032995 0.340117991 0.000000000
0.214203000 0.383605987 0.000000000
0.295563012 0.423949987 0.000000000
0.383056998 0.458588004 0.002808000
0.474059999 0.488707989 0.017852999
0.556885004 0.514464974 0.028991999
0.629791021 0.533661008 0.022278000
0.696319997 0.547179997 0.006195000
0.750823975 0.557343006 0.000000000
0.791260004 0.565033019 0.000000000
0.822174013 0.570984006 0.000000000
0.842315972 0.575286984 0.000000000
0.849945009 0.577057004 0.000000000
0.050597999 0.286163002 0.000000000
0.063385002 0.292479992 0.000000000
0.071319997 0.306793004 0.000000000
0.075653002 0.326903999 0.000000000
0.135070994 0.364960015 0.000000000
0.216095001 0.410858005 0.000000000
0.299896002 0.454468012 0.000000000
0.389037997 0.492278993 0.000000000
0.483458996 0.524994016 0.000946000
0.571044981 0.552734017 0.000885000
0.646851003 0.574401975 0.000000000
0.715393007 0.590546012 0.000000000
0.770690978 0.602752984 0.000000000
0.811737001 0.611388981 0.000000000
0.841278017 0.617249012 0.000000000
0.854309022 0.618927002 0.000000000
0.854523003 0.618010998 0.000000000
0.040222000 0.306030005 0.000000000
0.054352000 0.313324004 0.000000000
0.070006996 0.325287014 0.000000000
0.076903999 0.345214993 0.000000000
0.134307995 0.382750988 0.000000000
0.217499003 0.430359006 0.000000000
0.303406000 0.476195991 0.000000000
0.393615991 0.516052008 0.000000000
0.489807010 0.550567985 0.000000000
0.579833984 0.580016971 0.000000000
0.657867014 0.603851020 0.000000000
0.727936029 0.622223020 0.000000000
0.785216987 0.636107981 0.000000000
0.826569021 0.645537972 0.000000000
0.851257026 0.649779975 0.000000000
0.854156017 0.647888005 0.000000000
0.853942990 0.646728992 0.000000000
0.022461001 0.323119998 0.000000000
0.035735998 0.332854986 0.000000000
0.062194999 0.342132986 0.000000000
0.075226001 0.359649986 0.000000000
0.132415995 0.395415992 0.000000000
0.218628004 0.443664998 0.000000000
0.306549013 0.491088986 0.000000000
0.396423012 0.532410026 0.000000000
0.492675990 0.568268001 0.000000000
0.584502995 0.598906994 0.000000000
0.664429009 0.624267995 0.000000000
0.735535026 0.644836009 0.000000000
0.794586003 0.660247982 0.000000000
0.835815012 0.670226991 0.000000000
0.855041981 0.673003972 0.000000000
0.854400992 0.669891000 0.000000000
0.854340017 0.668609977 0.000000000
0.001373000 0.338775992 0.000000000
0.014099000 0.349640012 0.000000000
0.040192001 0.361449987 0.000000000
0.067566000 0.373717993 0.000000000
0.129517004 0.405730993 0.000000000
0.218536004 0.453368992 0.000000000
0.308257997 0.501343012 0.000000000
0.398315012 0.543518007 0.000000000
0.494049013 0.580413997 0.000000000
0.586609006 0.611846983 0.000000000
0.667937994 0.638244987 0.000000000
0.739684999 0.660369992 0.000000000
0.799773991 0.676940978 0.000000000
0.840240002 0.687469006 0.000000000
0.855315983 0.689270020 0.000000000
0.854767025 0.686156988 0.000000000
0.854735970 0.684753001 0.000000000
0.000000000 0.352234006 0.006805000
0.000000000 0.364226997 0.001343000
0.016998000 0.377319008 0.000092000
0.050292999 0.389007986 0.000000000
0.123259999 0.416321009 0.000000000
0.217377007 0.460785002 0.000000000
0.308319002 0.507538021 0.000000000
0.398528993 0.550018013 0.000000000
0.494293004 0.587737978 0.000000000
0.587372005 0.619781017 0.000000000
0.669556022 0.646575987 0.000000000
0.741455019 0.669312000 0.000000000
0.801117003 0.686371028 0.000000000
0.840789974 0.697112978 0.000000000
0.855408013 0.698822021 0.000000000
0.854583979 0.696135998 0.000000000
0.854523003 0.694885015 0.000000000
0.000000000 0.365844995 0.042511001
0.000000000 0.378906012 0.033386000
0.000000000 0.393188000 0.007080000
0.011139000 0.407561988 0.000000000
0.107086003 0.431946009 0.001373000
0.214599997 0.469909996 0.000244000
0.307036996 0.512268007 0.000000000
0.397460997 0.553070009 0.000000000
0.492949992 0.590668023 0.000000000
0.585968018 0.623108029 0.000000000
0.668090999 0.649994016 0.000000000
0.739257991 0.672637999 0.000000000
0.798247993 0.689818978 0.000000000
0.838347971 0.700927973 0.000000000
0.855560005 0.703765988 0.000000000
0.854735970 0.701201975 0.000000000
0.854735970 0.699950993 0.000000000
0.028198000 0.077056997 0.069489002
0.049132999 0.081786998 0.071594000
0.082672000 0.089630000 0.064392000
0.099945001 0.097838998 0.069335997
0.122589000 0.106232002 0.077789001
0.154724002 0.114593998 0.083526999
0.191314995 0.122772001 0.087006003
0.232512996 0.129120007 0.087769002
0.278259009 0.130889997 0.089661002
0.326873988 0.132629007 0.093139999
0.375427008 0.140198007 0.096984997
0.420379996 0.151855007 0.102600001
0.459625006 0.163025007 0.108978003
0.491333008 0.170929000 0.114074998
0.516785026 0.176909998 0.117706001
0.536224008 0.181244001 0.119719997
0.549438000 0.183990002 0.121642999
0.012634000 0.094269000 0.064514004
0.033599999 0.098266996 0.071442001
0.082367003 0.105071999 0.072173998
0.104828000 0.112548999 0.076447003
0.129210994 0.119965002 0.081177004
0.163939998 0.128905997 0.086456001
0.203429997 0.138031006 0.090088002
0.248108000 0.147551998 0.090484999
0.298126012 0.157074004 0.092560001
0.347259998 0.164519995 0.094788000
0.393341005 0.168182001 0.097534001
0.438048989 0.171325997 0.104613997
0.476624012 0.174926996 0.110687003
0.507812977 0.179138005 0.114776999
0.533538997 0.184020996 0.117431998
0.552672982 0.187346995 0.120026000
0.565124989 0.189605996 0.121642999
0.003998000 0.109833002 0.062775001
0.013397000 0.113646999 0.065125003
0.072205000 0.119629003 0.074005000
0.109039001 0.124785997 0.082549997
0.137053996 0.133575007 0.084259003
0.173705995 0.143584996 0.088898003
0.216370001 0.153899997 0.091888003
0.264618009 0.164673001 0.092009999
0.318268001 0.175812006 0.094391003
0.371062994 0.186278999 0.096954003
0.420502007 0.195098996 0.099976003
0.467316002 0.202362001 0.106780998
0.507263005 0.207702994 0.110168003
0.538452029 0.211669996 0.112700999
0.563202024 0.215027004 0.115082003
0.581085026 0.216858000 0.116760001
0.592437983 0.218596995 0.118102998
0.000092000 0.124756001 0.059418000
0.000305000 0.127776995 0.058777001
0.053619001 0.135070994 0.065978996
0.110413000 0.139983997 0.084076002
0.144470006 0.149811000 0.086914003
0.183502004 0.161621004 0.090178996
0.229186997 0.173125997 0.089111000
0.281585991 0.185424998 0.091034003
0.338744998 0.198151007 0.093842000
0.394897014 0.210114002 0.096984997
0.448181003 0.220672995 0.102936000
0.498382986 0.228973001 0.107299998
0.540344000 0.235137999 0.109802000
0.571898997 0.239563003 0.112915002
0.596283019 0.243102998 0.115966998
0.613922000 0.245666996 0.117889002
0.624877989 0.247771993 0.119202003
0.000000000 0.142792001 0.051024999
0.000000000 0.146026999 0.050322998
0.010681000 0.152770996 0.046172999
0.103638001 0.159332007 0.080596998
0.148131996 0.171265006 0.088165000
0.191131994 0.184540004 0.084595002
0.242188007 0.198333994 0.083893001
0.298034996 0.212555006 0.087462999
0.358276010 0.226898000 0.091614000
0.418273985 0.240234002 0.096375003
0.475219995 0.251251012 0.101775996
0.527893007 0.259918004 0.105469003
0.571013987 0.266815007 0.110260002
0.602630973 0.271697998 0.114074998
0.626891971 0.275420994 0.116974004
0.644469976 0.278472990 0.118683003
0.655609012 0.280914009 0.119384997
0.000000000 0.163025007 0.044464000
0.000000000 0.166656002 0.043030001
0.000000000 0.171783000 0.034790002
0.086944997 0.181793004 0.065796003
0.145080999 0.195769995 0.077454001
0.197815001 0.210785002 0.074492998
0.254058987 0.227539003 0.075774997
0.313170999 0.244110003 0.079894997
0.376922995 0.259887993 0.086304002
0.440369010 0.274383992 0.092896000
0.499451011 0.286040992 0.098357998
0.553833008 0.295441002 0.104736000
0.598174989 0.302704006 0.110352002
0.630797982 0.307404011 0.113128997
0.655884027 0.310638011 0.114349000
0.674346983 0.313811988 0.114776999
0.685608029 0.316314995 0.114501998
0.000000000 0.185944006 0.037262000
0.000000000 0.190551996 0.035491999
0.000000000 0.195435002 0.027313000
0.049072001 0.208159998 0.030701000
0.133667007 0.223938003 0.053406000
0.200866997 0.242644995 0.059540000
0.263823986 0.262145996 0.060637999
0.328583002 0.281493992 0.069061004
0.396393001 0.299773991 0.079314999
0.462859988 0.315643013 0.087952003
0.524169981 0.328491002 0.095490001
0.580718994 0.338348001 0.102050997
0.627318978 0.345427990 0.105042003
0.661406994 0.349976003 0.105834998
0.687407970 0.353271008 0.105590999
0.706023991 0.356384009 0.105224997
0.717254996 0.359252989 0.104796998
0.000153000 0.213989004 0.028380999
0.000946000 0.219146997 0.025024001
0.000336000 0.225464001 0.014252000
0.019897001 0.237060994 0.003540000
0.120880000 0.256103992 0.028870000
0.200133994 0.280487001 0.026672000
0.271544993 0.304412991 0.036651999
0.344879001 0.327147990 0.055511001
0.417847008 0.348816007 0.069580004
0.488555998 0.367065012 0.080077998
0.553192019 0.380706996 0.087646000
0.611877024 0.390563995 0.091766000
0.659973025 0.397796988 0.093200997
0.695465028 0.402924001 0.093383998
0.722504020 0.406859994 0.093139999
0.741608024 0.410216987 0.092468001
0.752838016 0.413085997 0.090942003
0.001190000 0.243652001 0.020020001
0.001678000 0.249512002 0.015015000
0.000946000 0.257416010 0.003265000
0.016998000 0.266144007 0.000000000
0.114684999 0.289458990 0.012726000
0.199493006 0.319213986 0.003693000
0.277496010 0.348632991 0.007996000
0.359375000 0.375000000 0.034393001
0.439514011 0.399962991 0.057891998
0.514617980 0.421294987 0.070037998
0.582427979 0.436156988 0.074707001
0.642760992 0.446350008 0.076599002
0.692687988 0.453978986 0.073546998
0.730713010 0.459686011 0.065459996
0.760039985 0.464141995 0.055328000
0.780426025 0.467559993 0.045074001
0.791962028 0.470153987 0.041533999
0.001740000 0.270720989 0.015778000
0.002258000 0.277496010 0.008881000
0.001831000 0.286682010 0.000153000
0.024780000 0.295197010 0.000000000
0.113219999 0.320313007 0.006317000
0.200439006 0.354095012 0.000793000
0.282074004 0.388610989 0.000000000
0.369170994 0.418915004 0.010437000
0.456847996 0.446594000 0.038483001
0.536377013 0.470672995 0.055328000
0.606812000 0.487610012 0.053619001
0.670135021 0.499022990 0.042296998
0.722716987 0.507385015 0.030944999
0.762664974 0.513763011 0.022705000
0.793304026 0.518646002 0.012268000
0.814301014 0.522430003 0.001984000
0.825744987 0.525237978 0.000000000
0.002258000 0.294647008 0.015320000
0.002350000 0.302673012 0.007599000
0.003815000 0.312927008 0.000092000
0.029755000 0.324036002 0.000000000
0.109862998 0.348389000 0.002869000
0.200653002 0.385345012 0.000397000
0.285889000 0.423889011 0.000000000
0.375122011 0.458130002 0.000000000
0.468201011 0.488463998 0.012421000
0.552856028 0.514648020 0.026520001
0.626372993 0.534210026 0.021729000
0.693390012 0.547851980 0.006165000
0.748016000 0.558013976 0.000000000
0.788055003 0.565551996 0.000000000
0.818328977 0.571197987 0.000000000
0.838257015 0.575286984 0.000000000
0.846771002 0.577392995 0.000000000
0.002258000 0.315979004 0.020691000
0.002350000 0.325255990 0.012512000
0.003540000 0.337067008 0.000458000
0.029114000 0.349730998 0.000000000
0.100616001 0.373504996 0.000000000
0.197998002 0.412230998 0.000000000
0.288910002 0.453673989 0.000000000
0.379364014 0.490723014 0.000000000
0.475342005 0.523499012 0.000000000
0.564239979 0.551787972 0.000000000
0.641112983 0.574005008 0.000000000
0.710418999 0.590424001 0.000000000
0.766022027 0.602814019 0.000000000
0.806702018 0.611510992 0.000000000
0.836516976 0.617371023 0.000000000
0.852203012 0.620087028 0.000000000
0.854674995 0.619750977 0.000000000
0.001373000 0.334015012 0.034210000
0.002258000 0.344420999 0.027496001
0.001587000 0.357726991 0.008362000
0.018585000 0.371154994 0.000000000
0.088013001 0.394286990 0.000000000
0.194549993 0.432738990 0.000000000
0.290802002 0.475098014 0.000000000
0.381866008 0.513489008 0.000000000
0.478698999 0.547667980 0.000000000
0.570068002 0.577453971 0.000000000
0.649658024 0.601715028 0.000000000
0.720427990 0.620728016 0.000000000
0.777953982 0.634765983 0.000000000
0.819427013 0.644286990 0.000000000
0.847136974 0.649719000 0.000000000
0.854492009 0.649414003 0.000000000
0.853911996 0.647918999 0.000000000
0.001099000 0.349487007 0.051575001
0.001251000 0.360900998 0.047088999
0.002258000 0.374969006 0.031005999
0.004395000 0.389221013 0.005524000
0.075989000 0.411285013 0.000000000
0.190979004 0.449126989 0.003021000
0.291565001 0.490601003 0.000244000
0.382903993 0.529266000 0.000000000
0.479218006 0.564055979 0.000000000
0.571838021 0.594177008 0.000000000
0.653168023 0.619903982 0.000000000
0.724883974 0.641143978 0.000000000
0.783966005 0.656677008 0.000000000
0.826294005 0.667023003 0.000000000
0.851440012 0.672028005 0.000000000
0.854614019 0.670319021 0.000000000
0.854340017 0.668823004 0.000000000
0.000000000 0.364044011 0.069824003
0.000793000 0.376159996 0.067261003
0.001282000 0.390471995 0.056182999
0.000580000 0.406250000 0.029266000
0.060577001 0.427489996 0.001129000
0.185729995 0.464141995 0.015442000
0.291565001 0.503723025 0.007690000
0.382232994 0.541015983 0.000000000
0.478363007 0.575713992 0.000000000
0.571564019 0.605590999 0.000000000
0.653869987 0.631470025 0.000000000
0.725768983 0.654052973 0.000000000
0.785645008 0.670807004 0.000000000
0.828278005 0.682036996 0.000000000
0.852539003 0.687224984 0.000000000
0.854828000 0.685302973 0.000000000
0.854583979 0.683685005 0.000000000
0.000000000 0.377166986 0.087707996
0.000000000 0.389831990 0.085083000
0.000854000 0.404480010 0.076080002
0.000458000 0.420441002 0.061462000
0.036010999 0.443908989 0.006226000
0.178650007 0.476684988 0.040497001
0.291900992 0.515320003 0.032471001
0.380279988 0.551270008 0.005920000
0.477203012 0.583893001 0.000153000
0.570891976 0.613341987 0.000000000
0.653320014 0.638701975 0.000000000
0.724364996 0.660645008 0.000000000
0.783752024 0.677643001 0.000000000
0.826416016 0.689391971 0.000000000
0.850983024 0.695221007 0.000000000
0.854430974 0.694031000 0.000000000
0.854247987 0.692565978 0.000000000
0.000000000 0.391083002 0.108551003
0.000000000 0.404235989 0.105988003
0.000000000 0.419158995 0.097961001
0.000000000 0.434845001 0.088927999
0.005859000 0.460449010 0.013641000
0.172241002 0.491149992 0.072815001
0.296265006 0.525909007 0.083374001
0.380219012 0.560364008 0.046967000
0.476653993 0.591826975 0.019714000
0.569580019 0.618834972 0.001923000
0.650817990 0.642211974 0.000000000
0.721283019 0.663543999 0.000000000
0.779326975 0.679778993 0.000000000
0.821686029 0.691375971 0.000000000
0.848541021 0.698180974 0.000000000
0.855408013 0.698517025 0.000000000
0.855346978 0.697082996 0.000000000
0.042022999 0.081359997 0.089050002
0.054443002 0.085418999 0.092009999
0.087523997 0.093902998 0.078002997
0.104828000 0.103240997 0.081023999
0.133972004 0.108672999 0.092254996
0.169403002 0.115447998 0.099486999
0.207367003 0.123657003 0.104309000
0.252380013 0.128021002 0.107422002
0.308990002 0.119507000 0.105713002
0.365875006 0.112182997 0.103882000
0.413695991 0.120819002 0.107268997
0.456450999 0.135864004 0.113707997
0.492920011 0.148926005 0.120330997
0.522185981 0.157317996 0.125061005
0.547362983 0.163085997 0.128417999
0.567200005 0.166443005 0.130585000
0.581604004 0.167664006 0.132355005
0.034912001 0.099822998 0.091399997
0.042114001 0.102904998 0.093597002
0.078064002 0.111450002 0.091034003
0.107299998 0.118010998 0.086577997
0.133148000 0.125336006 0.094696000
0.168303996 0.133972004 0.104796998
0.209105998 0.143433005 0.111633003
0.255340993 0.152710006 0.117035002
0.305938989 0.161590993 0.121978998
0.356171012 0.165039003 0.124420002
0.406890988 0.161193997 0.123199001
0.458220989 0.155883998 0.120819002
0.499664009 0.156829998 0.121246003
0.528900027 0.165588006 0.125336006
0.554229975 0.170470998 0.127533004
0.574921012 0.172974005 0.129973993
0.590546012 0.173247993 0.132049993
0.026306000 0.115722999 0.091766000
0.028930999 0.118377998 0.093506001
0.066376001 0.125061005 0.099976003
0.109375000 0.131194994 0.095825002
0.138153002 0.140380993 0.099303998
0.176055998 0.150512993 0.108916998
0.221496999 0.160889000 0.116149999
0.271789998 0.171082005 0.121367998
0.325562000 0.181061000 0.126433998
0.377196997 0.189513996 0.130309999
0.425354004 0.195435002 0.132813007
0.470490009 0.199248999 0.133727998
0.508331001 0.201508000 0.132415995
0.536773980 0.203125000 0.132232994
0.559570014 0.202849999 0.134032995
0.577789009 0.203155994 0.136657998
0.590363026 0.204833999 0.141266003
0.014099000 0.132232994 0.088898003
0.011963000 0.135436997 0.089752004
0.046539001 0.141295999 0.094756998
0.102020003 0.149384007 0.099884003
0.144256994 0.157683998 0.107239000
0.186858997 0.169220001 0.113128997
0.235351995 0.181244001 0.118988000
0.289214998 0.192718998 0.124541998
0.346100003 0.203644007 0.129088998
0.400725991 0.213501006 0.133239999
0.451537997 0.221343994 0.135619998
0.498901010 0.227081001 0.135040000
0.537994027 0.231140003 0.133301005
0.567169011 0.233916998 0.134215996
0.589995980 0.235930994 0.136047006
0.607177973 0.238189995 0.139434993
0.618377984 0.240784004 0.144287005
0.001953000 0.153381005 0.084807999
0.001038000 0.157134995 0.084899999
0.005035000 0.162169993 0.080811001
0.082305998 0.171630993 0.091430999
0.146210000 0.180602998 0.110352002
0.196227998 0.193604007 0.114380002
0.248199001 0.207855001 0.119354002
0.304749012 0.220886007 0.125487998
0.364531994 0.233092993 0.130463004
0.422576994 0.243652001 0.134002998
0.476471007 0.251556009 0.134582996
0.526305974 0.257660002 0.132843003
0.567229986 0.262665004 0.133239999
0.597106993 0.266234994 0.134215996
0.620177984 0.269226015 0.135894999
0.637299001 0.272307992 0.139862001
