public/lut/86.cube
TITLE "17x17x17 Adobe/IRIDAS cube 3D LUT exported with GrossGrade v0.2.2 (beta) 64 bit"
DOMAIN_MIN 0 0 0
DOMAIN_MAX 1 1 1
LUT_3D_SIZE 5
0.018158000 0.073151000 0.037872002
0.119811997 0.099914998 0.056030001
0.276946992 0.140015006 0.068664998
0.454528987 0.162933007 0.104156002
0.544861019 0.182861000 0.116729997
0.000000000 0.131409004 0.012421000
0.140320003 0.161896005 0.028778000
0.359131008 0.229583994 0.078125000
0.572601020 0.272552013 0.110687003
0.661010981 0.288239002 0.119263001
0.031158000 0.217833996 0.000000000
0.135498002 0.279938012 0.000000000
0.442261010 0.400207996 0.059570000
0.693542004 0.454315007 0.073578000
0.796112001 0.471863002 0.039825000
0.040222000 0.306030005 0.000000000
0.134307995 0.382750988 0.000000000
0.489807010 0.550567985 0.000000000
0.785216987 0.636107981 0.000000000
0.853942990 0.646728992 0.000000000
0.000000000 0.365844995 0.042511001
0.107086003 0.431946009 0.001373000
0.492949992 0.590668023 0.000000000
0.798247993 0.689818978 0.000000000
0.854735970 0.699950993 0.000000000
0.070129000 0.082184002 0.142089993
0.154510006 0.110779002 0.153107002
0.336578012 0.113342002 0.160460994
0.536835015 0.133086994 0.166991994
0.626434028 0.145080999 0.178406000
0.058623999 0.173614994 0.167052999
0.132873997 0.203704998 0.174621999
0.375640988 0.250977010 0.194915995
0.579497993 0.275023997 0.208130002
0.659210026 0.287230998 0.223418996
0.000000000 0.312346995 0.174713001
0.007294000 0.358855993 0.146911994
0.439453006 0.434814006 0.214599997
0.682250977 0.469848990 0.216858000
0.774841011 0.484252989 0.226836994
0.000000000 0.414063007 0.218413994
0.000000000 0.476990014 0.202117994
0.453857005 0.589538991 0.233521000
0.755156994 0.650604010 0.195618004
0.876830995 0.667357981 0.019317999
0.000000000 0.467987001 0.293671012
0.000000000 0.532989979 0.275146008
0.455321997 0.646820009 0.309570014
0.766205013 0.716948986 0.279083014
0.899901986 0.735565007 0.000000000
0.118073002 0.083801001 0.207396999
0.182556003 0.103790000 0.258545011
0.380371004 0.108795002 0.335449010
0.577544987 0.146576002 0.350311011
0.663878977 0.162322998 0.373778999
0.135894999 0.200439006 0.348145008
0.168243006 0.238251001 0.360199004
0.426849008 0.273315012 0.387360007
0.647552013 0.278412014 0.395110995
0.727783024 0.287292004 0.415100008
0.104340002 0.385315001 0.407561988
0.050262000 0.439850003 0.411193997
0.410308987 0.508513987 0.440674007
0.689666986 0.535309017 0.468750000
0.839600027 0.526610970 0.468353003
0.024261000 0.500122011 0.462554991
0.000000000 0.572296023 0.459930003
0.416503996 0.667937994 0.510468006
0.758148015 0.728546023 0.478087991
0.908263981 0.734833002 0.429230005
0.015778000 0.540893972 0.513885021
0.000000000 0.616302013 0.510559022
0.406127989 0.716125011 0.576018989
0.757996023 0.788971007 0.543365002
0.921112001 0.802765012 0.457489014
0.152373999 0.109618999 0.291045994
0.203766003 0.127258003 0.328949004
0.410827994 0.132415995 0.455565989
0.616393983 0.166045994 0.497101009
0.701294005 0.188141003 0.520385981
0.171112001 0.203094006 0.475769013
0.186798006 0.255127013 0.499022990
0.447723001 0.294434011 0.527984977
0.666137993 0.306975991 0.560181022
0.748809993 0.319550008 0.578612983
0.146148995 0.419250011 0.540374994
0.117339998 0.479736000 0.556151986
0.410461009 0.548859000 0.595245004
0.733489990 0.571289003 0.661255002
0.850768983 0.576690972 0.683776975
0.089690998 0.534882009 0.584716976
0.000000000 0.616698980 0.603057981
0.335541010 0.716491997 0.680603027
0.734070003 0.778809011 0.712768972
0.900817990 0.784393013 0.705658019
0.069610998 0.566833019 0.607208014
0.000000000 0.649016976 0.619659007
0.331450999 0.754181027 0.703338981
0.748016000 0.825653017 0.728760004
0.911773980 0.840270996 0.704253972
0.165344000 0.119415000 0.325011998
0.211700007 0.138519004 0.357879996
0.416961998 0.147918999 0.494567990
0.629822016 0.180542007 0.555724978
0.715911984 0.203429997 0.576447010
0.182159007 0.205901995 0.510924995
0.192505002 0.261626989 0.544036984
0.449860007 0.307983011 0.571929991
0.671935976 0.324005008 0.617981017
0.754760981 0.337677002 0.636322021
0.156188995 0.429199010 0.579528987
0.130980998 0.491333008 0.599822998
0.413269013 0.561767995 0.644867003
0.729797006 0.591736019 0.727997005
0.855163991 0.597564995 0.746703982
0.097717002 0.543395996 0.614624023
0.002350000 0.625609994 0.637238026
0.305144995 0.728606999 0.718140006
0.740478992 0.791046023 0.779784977
0.897827029 0.800261974 0.770690978
0.073151000 0.572479010 0.628844976
0.000000000 0.654448986 0.643158019
0.307343006 0.761749029 0.729004025
0.755919993 0.831268013 0.775786996
0.907471001 0.849883974 0.758911014
