public/lut/87.cube
TITLE "17x17x17 Adobe/IRIDAS cube 3D LUT exported with GrossGrade v0.2.2 (beta) 64 bit"
DOMAIN_MIN 0 0 0
DOMAIN_MAX 1 1 1
LUT_3D_SIZE 17
0.039429002 0.097930998 0.099518001
0.039429002 0.097136997 0.097992003
0.037567001 0.098266996 0.096465997
0.086700000 0.097534001 0.073242001
0.133301005 0.100128002 0.076263003
0.178650007 0.107330002 0.079925999
0.230652004 0.118835002 0.086577997
0.285522014 0.131835997 0.097717002
0.334746987 0.142700002 0.109160997
0.379761010 0.148681998 0.117798001
0.423004001 0.152985007 0.125061005
0.459807992 0.160400003 0.133361995
0.488586009 0.169189006 0.141295999
0.512145996 0.177031994 0.147490993
0.530273020 0.183228001 0.152435005
0.542877018 0.187408000 0.155974999
0.551666021 0.190459996 0.158234000
0.043915000 0.121978998 0.105194002
0.042450000 0.121947996 0.102264002
0.040649001 0.121367998 0.095000997
0.100860998 0.120728001 0.082824998
0.148314998 0.125946000 0.084991001
0.199370995 0.134978995 0.086852998
0.257384986 0.148010001 0.093597002
0.317321986 0.164093003 0.106476001
0.372803003 0.180084005 0.121032998
0.421142995 0.193726003 0.134155005
0.463409007 0.204589993 0.145385996
0.499022990 0.212952003 0.154449001
0.527283013 0.219726995 0.161743000
0.549499989 0.225159004 0.167389005
0.566649973 0.229278997 0.171691999
0.579223990 0.232727006 0.174683005
0.588469982 0.235474005 0.177063003
0.044739000 0.142700002 0.104979999
0.043274000 0.144042999 0.101654001
0.042022999 0.143493995 0.091370001
0.113311999 0.140533000 0.089417003
0.165802002 0.145996004 0.090178996
0.222106993 0.156982005 0.092589997
0.284485012 0.171813995 0.101227000
0.347075999 0.189117000 0.115630999
0.405059993 0.206389993 0.131164998
0.456054986 0.220978007 0.144684002
0.501586974 0.232879996 0.156433001
0.539703012 0.242431998 0.165955007
0.569305003 0.249755993 0.173187003
0.592528999 0.255463004 0.179076999
0.610260010 0.260161996 0.183745995
0.623413026 0.264068991 0.187255993
0.633239985 0.267426014 0.189910993
0.043274000 0.171355993 0.101318002
0.041901000 0.175659001 0.098632999
0.039886001 0.175079003 0.085449003
0.121642999 0.168549001 0.090117998
0.183166996 0.174500003 0.093262002
0.247100994 0.187896997 0.097992003
0.314056009 0.204558998 0.109650001
0.379303008 0.222197995 0.125519007
0.439514011 0.238708004 0.140961006
0.492949992 0.252685994 0.154266000
0.540161014 0.264221013 0.166106999
0.579559028 0.273651004 0.176269993
0.609650016 0.281219006 0.184143007
0.633056998 0.286926001 0.190154999
0.651703000 0.291595012 0.194426998
0.665648997 0.295684993 0.197693005
0.676024973 0.299163997 0.199920997
0.041198999 0.204803005 0.095917001
0.040405001 0.210723996 0.092345998
0.033112001 0.213469997 0.076263003
0.125946000 0.203674003 0.081665002
0.199737996 0.211181998 0.091003001
0.272278011 0.226501003 0.102875002
0.343750000 0.243622005 0.117706001
0.411406994 0.260437012 0.133910999
0.473450005 0.275757015 0.149169996
0.528106987 0.289092988 0.163115993
0.576416016 0.300170988 0.175751001
0.617096007 0.308959991 0.185883000
0.648375988 0.315582007 0.193023995
0.672546029 0.320769995 0.198486000
0.691619992 0.325165004 0.202515006
0.705932975 0.329376012 0.205383003
0.716643989 0.333191007 0.207519993
0.039673001 0.242981002 0.087798998
0.038695998 0.249816999 0.082061999
0.027557001 0.258666992 0.060028002
0.131439000 0.245697007 0.074524000
0.214172006 0.255248994 0.085175000
0.296112001 0.272002995 0.108002000
0.373474002 0.288879007 0.126464993
0.444000006 0.305083990 0.141967997
0.507690012 0.319701999 0.157989994
0.564208984 0.332091987 0.172150001
0.614838004 0.342101991 0.183960006
0.657195985 0.350098014 0.193542004
0.689453006 0.356171012 0.200225994
0.714263976 0.361023009 0.205200002
0.733672976 0.365386993 0.209044993
0.748046994 0.369690001 0.211639002
0.758635998 0.373932004 0.213927999
0.038635001 0.287537009 0.077758998
0.035828002 0.294860989 0.065490998
0.025024001 0.310698986 0.040160999
0.136993006 0.296204001 0.073578000
0.228668004 0.307586998 0.078491002
0.318816990 0.325805992 0.104767002
0.402588010 0.342987001 0.132721007
0.478087991 0.359192014 0.150726005
0.545836985 0.373566002 0.165802002
0.605072021 0.385405988 0.179260001
0.657348990 0.394378990 0.190582007
0.700896978 0.401549995 0.200195000
0.734221995 0.407561988 0.207458004
0.760284007 0.412322998 0.212738007
0.780762017 0.416442990 0.216187000
0.795502007 0.420471013 0.218750000
0.805969000 0.424560994 0.221251994
0.037415002 0.332581013 0.065094002
0.035186999 0.341553003 0.043182001
0.037659001 0.361694008 0.030853000
0.123993002 0.356415004 0.067901999
0.238037005 0.364715993 0.071350001
0.339630008 0.383574992 0.096436001
0.429412991 0.401825011 0.137115002
0.511749029 0.418549001 0.160278007
0.584685981 0.433441013 0.173522994
0.646820009 0.445098996 0.186523005
0.700531006 0.453186005 0.197448999
0.745666981 0.459412009 0.206084996
0.780945003 0.465056986 0.212707996
0.808960021 0.469727010 0.217590004
0.830536008 0.473877013 0.221863002
0.846405029 0.477692008 0.224304006
0.859557986 0.480316013 0.218933001
0.037475999 0.372101009 0.052979000
0.043090999 0.383208990 0.033020001
0.053528000 0.406188995 0.030853000
0.117095999 0.412079006 0.066284001
0.245697007 0.416718006 0.068787001
0.356171012 0.435974002 0.088988997
0.451263011 0.456207007 0.130188003
0.539672971 0.473816007 0.165039003
0.617340028 0.489531994 0.182098001
0.683135986 0.501372993 0.192656994
0.739409983 0.509186029 0.202271000
0.786530018 0.515044987 0.209656000
0.823607981 0.520569026 0.215393007
0.853911996 0.525116026 0.217987001
0.878632009 0.528473020 0.212738007
0.889190972 0.531403005 0.208130002
0.896332026 0.533936024 0.203400001
0.037872002 0.406096995 0.044829998
0.052673001 0.419250011 0.035186999
0.062560998 0.445282012 0.032134999
0.125487998 0.455902010 0.070373997
0.255919993 0.460723996 0.071014002
0.369109988 0.481873006 0.083251998
0.467864990 0.504700005 0.117645003
0.560546994 0.523590028 0.163422003
0.642333984 0.540009022 0.190338001
0.712158024 0.552734017 0.198302999
0.771515012 0.561461985 0.206299007
0.820770025 0.567963004 0.213073999
0.859588981 0.573729992 0.218474999
0.889159977 0.578400016 0.221680000
0.905457020 0.581481993 0.213989004
0.907593012 0.583832026 0.208710000
0.906952024 0.585846007 0.210022002
0.039429002 0.435730010 0.046509001
0.057342999 0.451141000 0.036377002
0.069854997 0.479369998 0.033599999
0.132538006 0.492035002 0.072144002
0.263702005 0.498840004 0.073059000
0.379577994 0.522490978 0.078644000
0.480621010 0.547913015 0.109710999
0.576690972 0.568542004 0.156769007
0.661987007 0.585968018 0.193268001
0.734679997 0.599915028 0.206970006
0.797179997 0.610107005 0.212127998
0.849395990 0.617554009 0.216613993
0.887786984 0.623901010 0.224822998
0.907775998 0.629424989 0.243530005
0.908263981 0.632628977 0.244536996
0.907805979 0.633666992 0.246185005
0.907836974 0.633606017 0.246277004
0.042236000 0.459778011 0.061919998
0.056334998 0.477111995 0.038451999
0.073821999 0.506012022 0.035431001
0.135010004 0.520049989 0.072082996
0.268218994 0.528137028 0.074401997
0.387665004 0.553680003 0.075378001
0.490355998 0.581146002 0.103882000
0.588593006 0.603271008 0.145019993
0.675812006 0.621856987 0.189513996
0.750518978 0.636932015 0.215118006
0.816132009 0.648315012 0.216553003
0.870299995 0.657104015 0.224822998
0.903961003 0.664641976 0.247894004
0.909729004 0.670776010 0.278167993
0.908905029 0.672272027 0.277862996
0.908843994 0.670166016 0.276183993
0.908843994 0.669312000 0.275635004
0.046356000 0.479034007 0.080750003
0.047821000 0.498169005 0.046112001
0.071990997 0.525940001 0.037842002
0.132660002 0.539489985 0.070220999
0.270873994 0.547607005 0.074799001
0.394531012 0.574249029 0.073486000
0.497375011 0.603179991 0.100341998
0.595885992 0.626465023 0.138977006
0.683990002 0.646117985 0.183990002
0.759887993 0.662262022 0.216064006
0.828064024 0.674744010 0.218780994
0.880585015 0.685516000 0.241301998
0.906647027 0.695038021 0.296539009
0.909820974 0.699615002 0.301849008
0.909424007 0.698669016 0.300812006
0.909362972 0.696228027 0.298492014
0.909393013 0.695374012 0.297607005
0.049805000 0.495696992 0.099609002
0.045531999 0.516570985 0.067596003
0.065277003 0.542786002 0.041533999
0.125519007 0.555114985 0.068236999
0.272125006 0.561859012 0.076018997
0.399138987 0.588744998 0.072783999
0.502288997 0.618713021 0.097838998
0.600432992 0.642943978 0.136016995
0.688721001 0.663483024 0.177826002
0.765380979 0.680510998 0.213866994
0.834625006 0.694153011 0.223572001
0.886078000 0.706299007 0.253021002
0.906768978 0.716888011 0.327576011
0.909759998 0.720916986 0.323273003
0.909484982 0.718810976 0.321166992
0.909453988 0.716431022 0.318480998
0.909484982 0.715301991 0.317321986
0.053070001 0.510132015 0.118683003
0.050476000 0.532715023 0.098236002
0.047667999 0.559508979 0.051086001
0.115295000 0.569060981 0.067962997
0.273467988 0.572997987 0.078735001
0.402556986 0.599182010 0.073608004
0.505432010 0.629486024 0.096008003
0.603362978 0.654358029 0.133881003
0.691649973 0.675536990 0.173462003
0.768523991 0.693145990 0.212311000
0.838012993 0.707336009 0.227448002
0.889221013 0.720153987 0.259460002
0.907745004 0.731171012 0.343535990
0.909515023 0.735167980 0.340088010
0.909271002 0.732849002 0.337615997
0.909301996 0.730651975 0.334991008
0.909301996 0.729247987 0.333252013
0.056274001 0.523223996 0.139374003
0.053162001 0.546661019 0.118988000
0.045959000 0.574310005 0.085449003
0.106322996 0.581634998 0.074982002
0.274872005 0.582274973 0.089325003
0.404967993 0.606200993 0.078612998
0.506408989 0.635864019 0.095702998
0.604705989 0.661224008 0.132751003
0.693207026 0.683013976 0.170775995
0.770111024 0.700927973 0.210663006
0.839354992 0.715301991 0.229218006
0.890075982 0.728209972 0.263733000
0.907775998 0.739440978 0.353789985
0.909331977 0.743713021 0.350342005
0.909119010 0.741791010 0.348358005
0.909148991 0.739684999 0.345734000
0.909179986 0.738372982 0.344177008
0.061066002 0.539093018 0.167724997
0.057464998 0.562377989 0.147368997
0.050841998 0.589843988 0.123778999
0.094543003 0.596343994 0.097198002
0.277617991 0.592194021 0.113678001
0.409485012 0.612396002 0.099547997
0.506958008 0.639496028 0.102600001
0.604065001 0.664000988 0.132751003
0.692382991 0.685882986 0.169312000
0.768768013 0.703827024 0.209136993
0.837067008 0.718140006 0.229369998
0.887573004 0.730956972 0.265778005
0.906219006 0.742340028 0.358642995
0.909393013 0.747375011 0.354339987
0.909057975 0.746276975 0.353363007
0.909088016 0.744171023 0.350951999
0.909119010 0.742859006 0.349669993
0.047455002 0.101410002 0.114044003
0.046753000 0.099518001 0.112334996
0.045044001 0.100616001 0.111052997
0.096588001 0.099945001 0.089050002
0.156433001 0.098021999 0.094208002
0.210174993 0.102966003 0.101256996
0.262665004 0.109985001 0.106017999
0.310759991 0.109527998 0.111115001
0.354187012 0.109618999 0.116516002
0.399719000 0.118133999 0.121978998
0.445037991 0.132751003 0.129517004
0.480652004 0.147918999 0.139434993
0.508544981 0.159241006 0.147826999
0.531768978 0.167023003 0.153991997
0.551086009 0.171753004 0.159424007
0.566284001 0.173980996 0.163543999
0.578002989 0.174926996 0.166840002
0.048859000 0.125121996 0.124146000
0.048156999 0.125396997 0.122284003
0.047088999 0.124785997 0.117827997
0.105011001 0.125641003 0.093718998
0.154204994 0.131072998 0.099243000
0.206146002 0.140746996 0.110321000
0.262665004 0.152007997 0.119263001
0.318268001 0.163543999 0.128571004
0.368256003 0.173950002 0.136565998
0.411406994 0.180939004 0.142670006
0.449950993 0.183807001 0.147674993
0.482208014 0.185760006 0.150635004
0.507049978 0.190338001 0.153748006
0.529754996 0.192260996 0.157622993
0.546570003 0.189208999 0.158538997
0.559020996 0.191833004 0.161559999
0.573760986 0.191437006 0.166045994
0.052733999 0.147217005 0.131194994
0.052673001 0.149994001 0.129668996
0.051024999 0.148773000 0.120513998
0.118988000 0.146179006 0.102844000
0.170104995 0.153381005 0.108825997
0.226989999 0.163696006 0.119567998
0.288024992 0.175476000 0.128754005
0.346953988 0.188904002 0.138366997
0.400451988 0.202148005 0.146851003
0.447815001 0.213257000 0.154266000
0.490020990 0.222137004 0.160400003
0.525299013 0.229248002 0.164519995
0.553161979 0.235565007 0.169249997
0.575562000 0.240569994 0.174591005
0.592072010 0.243895993 0.178558007
0.603393972 0.246643007 0.181610003
0.611846983 0.248962000 0.185211003
0.054076999 0.178864002 0.132995993
0.054016002 0.183685005 0.131286994
0.047974002 0.184661999 0.120544001
0.126404002 0.177184999 0.111450002
0.188933998 0.183014005 0.118529998
0.252074987 0.194214001 0.129668996
0.316466987 0.206847996 0.138854995
0.378113002 0.220458999 0.146972999
0.434601009 0.233642995 0.154785007
0.484984994 0.245026007 0.161926001
0.529572010 0.254456013 0.167754993
0.567412972 0.262695014 0.173705995
0.596953988 0.269744992 0.181244001
0.619354010 0.275269002 0.187224999
0.636200011 0.279509991 0.191528007
0.648041010 0.282714993 0.194640994
0.656067014 0.285277992 0.196898997
0.054687999 0.216033995 0.132660002
0.053436000 0.221863002 0.129851997
0.045653999 0.228210002 0.119446002
0.130768001 0.215636998 0.115722999
0.204772994 0.220154002 0.124633998
0.274993986 0.231749997 0.138916001
0.343383998 0.244536996 0.147643998
0.408142000 0.257445991 0.153656006
0.467438012 0.269836009 0.160675004
0.519439995 0.280669987 0.167052999
0.565948009 0.290313989 0.174103007
0.605988026 0.298889011 0.183777004
0.636749029 0.305388987 0.191009998
0.660004020 0.310180992 0.196227998
0.677672982 0.314087003 0.200256005
0.689940989 0.317351997 0.203094006
0.698242009 0.320068002 0.205017000
0.053436000 0.257384986 0.131469995
0.052154999 0.263947010 0.127350003
0.044799998 0.275757015 0.117035002
0.123016000 0.261260986 0.111175999
0.213257000 0.264281988 0.122680999
0.294768989 0.275664985 0.146636993
0.369354010 0.288361013 0.154845998
0.438293010 0.301117003 0.158875003
0.500000000 0.313080013 0.164917007
0.555023015 0.323882997 0.172301993
0.604950011 0.333373994 0.182219997
0.647033989 0.341125011 0.191955999
0.678864002 0.346953988 0.198486000
0.702971995 0.351410002 0.203246996
0.721161008 0.355163991 0.206970006
0.733765006 0.358642995 0.209656000
0.742340028 0.361725003 0.211639002
0.052733999 0.304749012 0.129639000
0.050811999 0.311890006 0.123259999
0.044891000 0.326903999 0.111389004
0.090911999 0.322266012 0.097900003
0.215973005 0.318298012 0.114074998
0.314788997 0.328307986 0.141571000
0.395233005 0.341980010 0.157714993
0.470275998 0.355071992 0.161956996
0.537322998 0.367583990 0.167664006
0.596466005 0.378722996 0.177917004
0.648651004 0.387450993 0.189087003
0.692047000 0.394165009 0.198181003
0.724915028 0.399780005 0.205200002
0.750182986 0.404235989 0.210448995
0.769439995 0.407990009 0.214264005
0.782500982 0.411163002 0.216613993
0.791260004 0.414124012 0.218353003
0.052703999 0.353148997 0.128296003
0.050781000 0.362029999 0.119354002
0.046204001 0.379729986 0.104979999
0.072052002 0.384856999 0.086516999
0.219451994 0.375670999 0.107666001
0.331328988 0.385803014 0.129517004
0.418700993 0.400817990 0.152129993
0.502228022 0.415039003 0.163910002
0.576111019 0.429107994 0.172516003
0.639099002 0.440643013 0.185028002
0.692902029 0.448455989 0.195586994
0.737671018 0.454102010 0.204041004
0.772583008 0.459412009 0.210663006
0.799926996 0.463744998 0.215607002
0.820526004 0.467346013 0.219054997
0.834075987 0.470490009 0.222472996
0.843352973 0.473174989 0.223663002
0.053711001 0.395020008 0.129485995
0.051849000 0.406280994 0.119048998
0.047455002 0.426880002 0.102631003
0.065307997 0.436675996 0.079650998
0.223358005 0.426422000 0.106964000
0.344024986 0.438232005 0.120056003
0.437958002 0.455199987 0.136322007
0.528320014 0.470977992 0.163665995
0.608002007 0.486481011 0.181244001
0.675049007 0.498351991 0.190917999
0.731476009 0.505950987 0.200195000
0.778533995 0.511382997 0.207825005
0.815429986 0.516387999 0.213501006
0.844573975 0.520781994 0.217987001
0.866973996 0.524169981 0.219269007
0.882263005 0.525940001 0.209167004
0.887695014 0.528258979 0.207855001
0.054931998 0.430206001 0.134247005
0.052917000 0.443877995 0.122345001
0.049713001 0.466888011 0.103973001
0.048920002 0.483123988 0.073486000
0.222412005 0.470642000 0.108887002
0.354218006 0.483215004 0.114136003
0.451965004 0.503143013 0.121002004
0.546692014 0.520721018 0.158600003
0.631012022 0.537109017 0.187958002
0.702148020 0.549744010 0.196227998
0.762238026 0.558440983 0.203887999
0.811737001 0.564758003 0.211151004
0.850432992 0.570098996 0.215820000
0.880309999 0.574432015 0.218291998
0.898163021 0.577820003 0.220489994
0.906677008 0.579315007 0.208710000
0.907135010 0.581085026 0.207488999
0.056152001 0.460631996 0.142180994
0.054504000 0.476929009 0.129271999
0.052765001 0.501984000 0.109618999
0.037659001 0.525299013 0.074492998
0.221435994 0.510161996 0.113707997
0.362334996 0.522979975 0.111725003
0.461760998 0.545531988 0.113342002
0.559783995 0.564849973 0.148498997
0.647796988 0.582122982 0.187926993
0.721924007 0.596068978 0.205017000
0.785645008 0.606505990 0.209534004
0.838286996 0.614135981 0.214935005
0.877655029 0.620270014 0.222930998
0.902679026 0.625244021 0.237091005
0.909362972 0.628448009 0.239623994
0.907836974 0.630675972 0.242736995
0.907775998 0.631500006 0.243622005
0.058563001 0.484618992 0.154266000
0.056945998 0.503601015 0.141234994
0.055054002 0.530211985 0.121765003
0.040771000 0.556061029 0.088776000
0.225922003 0.540679991 0.124297999
0.369628996 0.554413021 0.116547003
0.469909996 0.578307986 0.113403000
0.568970025 0.598479986 0.138549998
0.658630013 0.616698980 0.182403997
0.734740973 0.631927013 0.211944997
0.801604986 0.643706977 0.215149000
0.857330024 0.652435005 0.217162997
0.895476997 0.659729004 0.233124003
0.909210026 0.666442990 0.276428014
0.908813000 0.669005990 0.274628013
0.908813000 0.669463992 0.275054991
0.908813000 0.668609977 0.274291992
0.062073000 0.503296018 0.170624003
0.059386998 0.523773015 0.157562003
0.057098001 0.551146984 0.138366997
0.042847000 0.577666998 0.107422002
0.230164006 0.562377989 0.138854995
0.375762999 0.576569021 0.128234997
0.476256996 0.601226985 0.124939002
0.574158013 0.620971978 0.141417995
0.663573980 0.639343023 0.175597996
0.741057992 0.655517995 0.209960997
0.809906006 0.668242991 0.219909996
0.866851985 0.678406000 0.221283004
0.902893007 0.686797976 0.245544001
0.910216987 0.694031000 0.298705995
0.909393013 0.696259022 0.297791004
0.909362972 0.695038021 0.296692014
0.909331977 0.693633974 0.295318991
0.065978996 0.519104004 0.189055994
0.062652998 0.540832996 0.176330999
0.059418000 0.568328977 0.157134995
0.044769000 0.594666004 0.127654999
0.234954998 0.579528987 0.156676993
0.381531000 0.593780994 0.142120004
0.481720001 0.618987978 0.139708996
0.577697992 0.638306022 0.154021993
0.665436029 0.655457020 0.176697001
0.743072987 0.671570003 0.209044993
0.812713981 0.685181022 0.225982994
0.870117009 0.696411014 0.229156002
0.904419005 0.705871999 0.263671994
0.910125971 0.713317990 0.317474008
0.909453988 0.715301991 0.316711009
0.909484982 0.713715017 0.315001994
0.909484982 0.712158024 0.313416004
0.069824003 0.532927990 0.207793996
0.066071004 0.556061029 0.195739999
0.061554000 0.583648980 0.176848993
0.046813998 0.609710991 0.149109006
0.240875006 0.594177008 0.175171003
0.387847990 0.608307004 0.162414998
0.486205995 0.633239985 0.154387996
0.580841005 0.652710021 0.172058001
0.667999029 0.669036984 0.192351997
0.744354010 0.683257997 0.215607002
0.812958002 0.696197987 0.231232002
0.870270014 0.707947016 0.235930994
0.904114008 0.717987001 0.276825011
0.910004020 0.725708008 0.332123011
0.909301996 0.727997005 0.331634998
0.909331977 0.726500988 0.330139011
0.909424007 0.724915028 0.328491002
0.073882997 0.545197010 0.227325007
0.069335997 0.568786979 0.214232996
0.064361997 0.596953988 0.197723001
0.049957000 0.622375011 0.170502007
0.246948004 0.606200993 0.193329006
0.393584996 0.619690001 0.182343006
0.490081996 0.644409001 0.174225003
0.583922982 0.663818002 0.187958002
0.671020985 0.680083990 0.209105998
0.746674001 0.693450987 0.233704001
0.813049018 0.704315007 0.244019002
0.868651986 0.714294016 0.240722999
0.903137028 0.724030018 0.277343988
0.910004020 0.732268989 0.341399997
0.909301996 0.735291004 0.341369987
0.909301996 0.734375000 0.340485007
0.909271002 0.732726991 0.338593006
0.078795999 0.559387028 0.252074987
0.073455997 0.583405018 0.238646999
0.068236999 0.610596001 0.223235995
0.052460000 0.634612978 0.197052002
0.254669011 0.617554009 0.214478001
0.400238007 0.630156994 0.204680994
0.494720012 0.654448986 0.198028997
0.587432981 0.673766971 0.213195994
0.673705995 0.689301014 0.228698999
0.748627007 0.701843023 0.248229995
0.813872993 0.712249994 0.264984012
0.866515994 0.721221983 0.274688989
0.898406982 0.729523003 0.315613002
0.910583019 0.736176014 0.352416992
0.909546018 0.739531994 0.353210002
0.909546018 0.740020990 0.354492009
0.909606993 0.739014030 0.354369998
0.055328000 0.103058003 0.129791006
0.054687999 0.102904998 0.128784001
0.053070001 0.103271000 0.127013996
0.105896004 0.101166002 0.114165999
0.162047997 0.101287998 0.116425000
0.218048006 0.105103001 0.121063001
0.272980005 0.110931002 0.125244007
0.320769995 0.110564999 0.130463004
0.363983005 0.110748000 0.136687994
0.410400003 0.118988000 0.144256994
0.457764000 0.132689998 0.152495995
0.497040004 0.145538002 0.160460994
0.526794016 0.154633000 0.167052999
0.550414979 0.161101997 0.172211006
0.568603992 0.165832996 0.177489996
0.581573009 0.169036999 0.182036996
0.591003001 0.171265006 0.186615005
0.058258001 0.127625003 0.142029002
0.057677999 0.129333004 0.141174003
0.054352000 0.128509998 0.137450993
0.106720001 0.129639000 0.111327998
0.165374994 0.133056998 0.114226997
0.224944994 0.140686005 0.124268003
0.282012999 0.151153997 0.132080004
0.336517006 0.162597999 0.141144007
0.386992991 0.172150001 0.149657995
0.433319002 0.176392004 0.156036004
0.476471007 0.174774006 0.159821004
0.512848020 0.172241002 0.162476003
0.540099978 0.172211006 0.165282995
0.560241997 0.170470998 0.167541996
0.574615002 0.169312000 0.170532003
0.588104010 0.173096001 0.174988002
0.598267019 0.175017998 0.179168999
0.060180999 0.153136998 0.155059993
0.060608000 0.157042995 0.155974999
0.056182999 0.156311005 0.150573999
0.116881996 0.153687000 0.121002004
0.173553005 0.160064995 0.121947996
0.233184993 0.170592993 0.134369001
0.294647008 0.182708994 0.145355001
0.353484988 0.195281997 0.155425996
0.407103986 0.207488999 0.165282995
0.454497993 0.217650995 0.173980996
0.497162014 0.225372002 0.181335002
0.532531977 0.231323004 0.187316999
0.559325993 0.235870004 0.192108005
0.580138981 0.238860995 0.195831001
0.596953988 0.241515994 0.199677005
0.610656977 0.245177999 0.204346001
0.621978998 0.248932004 0.209229007
0.065521002 0.187012002 0.166473001
0.065582000 0.191802993 0.166290000
0.059753001 0.195556998 0.159088001
0.121246003 0.188567996 0.129608005
0.190246999 0.192566007 0.133881003
0.257201999 0.203369007 0.147705004
0.322356999 0.215758994 0.159209996
0.384460002 0.228270993 0.168945000
0.440735012 0.240172997 0.177917004
0.490294993 0.250548989 0.186309993
0.533996999 0.259216011 0.193847999
0.570190012 0.266144007 0.200470001
0.597504020 0.271575987 0.205963001
0.618439019 0.275940001 0.210571006
0.635192990 0.280059993 0.214873999
0.648559988 0.284393013 0.219909996
0.659241021 0.288879007 0.224730998
0.067841001 0.226928994 0.170775995
0.067322001 0.232696995 0.169249997
0.061462000 0.242401004 0.162964001
0.113678001 0.232178003 0.132049993
0.203551993 0.231903002 0.144927993
0.280364990 0.242461994 0.161651999
0.349640012 0.254516989 0.173004001
0.415282995 0.266295999 0.181640998
0.473937988 0.277465999 0.189270005
0.524901986 0.287018001 0.196838006
0.569580019 0.294647008 0.203887999
0.606994987 0.300812006 0.210297003
0.635590017 0.305725008 0.214904994
0.657622993 0.309753001 0.218842000
0.675140023 0.313811988 0.223021999
0.688903987 0.318390012 0.227997005
