public/lut/87.cube
TITLE "17x17x17 Adobe/IRIDAS cube 3D LUT exported with GrossGrade v0.2.2 (beta) 64 bit"
DOMAIN_MIN 0 0 0
DOMAIN_MAX 1 1 1
LUT_3D_SIZE 5
0.039429002 0.097930998 0.099518001
0.133301005 0.100128002 0.076263003
0.334746987 0.142700002 0.109160997
0.488586009 0.169189006 0.141295999
0.551666021 0.190459996 0.158234000
0.041198999 0.204803005 0.095917001
0.199737996 0.211181998 0.091003001
0.473450005 0.275757015 0.149169996
0.648375988 0.315582007 0.193023995
0.716643989 0.333191007 0.207519993
0.037475999 0.372101009 0.052979000
0.245697007 0.416718006 0.068787001
0.617340028 0.489531994 0.182098001
0.823607981 0.520569026 0.215393007
0.896332026 0.533936024 0.203400001
0.046356000 0.479034007 0.080750003
0.270873994 0.547607005 0.074799001
0.683990002 0.646117985 0.183990002
0.906647027 0.695038021 0.296539009
0.909393013 0.695374012 0.297607005
0.061066002 0.539093018 0.167724997
0.277617991 0.592194021 0.113678001
0.692382991 0.685882986 0.169312000
0.906219006 0.742340028 0.358642995
0.909119010 0.742859006 0.349669993
0.070800997 0.087494001 0.170653999
0.171691999 0.098021999 0.174011007
0.375396997 0.108337000 0.186829001
0.541504025 0.156311005 0.220550999
0.602020025 0.171721995 0.243347004
0.097900003 0.244415000 0.258118004
0.207030997 0.253235012 0.201324001
0.483947992 0.295410007 0.244262993
0.647765994 0.320160002 0.268920988
0.710723996 0.336365014 0.288513005
0.105194002 0.448150992 0.316345006
0.140991002 0.497925013 0.257293999
0.601531982 0.524811029 0.330841005
0.809906006 0.539856017 0.333465993
0.895232975 0.548676014 0.323395014
0.113342002 0.555969000 0.378021002
0.109710999 0.643188000 0.323424995
0.636992991 0.686737001 0.356842011
0.872375011 0.717987001 0.440429986
0.913635015 0.731812000 0.431885004
0.127410993 0.601898015 0.449829012
0.129302993 0.687835991 0.393646002
0.648956001 0.734650016 0.404358000
0.878509998 0.774596989 0.518065989
0.914551020 0.789489985 0.511932015
0.094879001 0.071044996 0.186707005
0.165527001 0.068542004 0.220062003
0.410492003 0.102631003 0.311401010
0.573242009 0.156371996 0.344543010
0.632628977 0.172394007 0.371856987
0.158691004 0.254608005 0.391846001
0.209777996 0.277924001 0.383148015
0.525054991 0.299591005 0.393005013
0.702332020 0.313140988 0.405975014
0.765075982 0.329102010 0.429015994
0.167023003 0.487273991 0.514403999
0.144379005 0.558867991 0.512085021
0.591948986 0.570159972 0.472869992
0.827453971 0.584258974 0.505463004
0.903625011 0.596741021 0.529388011
0.162993997 0.591796994 0.577270985
0.133910999 0.705231011 0.575226009
0.628997982 0.731171012 0.534546018
0.864777029 0.772705019 0.626586974
0.921599984 0.786773980 0.617125988
0.167023003 0.627838016 0.619292974
0.132721007 0.741150022 0.616150022
0.628448009 0.772979975 0.571106017
0.871245980 0.821411014 0.679596007
0.922240973 0.838317990 0.675476015
0.116547003 0.085297003 0.226439998
0.176788002 0.082886003 0.255585015
0.438048989 0.099792004 0.397765994
0.600555003 0.154571995 0.431457996
0.658447027 0.170775995 0.454010010
0.185577005 0.251740009 0.460114002
0.223267004 0.288085997 0.470183998
0.530028999 0.306641012 0.501403987
0.714142025 0.322144002 0.520905018
0.778046012 0.337219000 0.538390994
0.203949004 0.499298006 0.598267019
0.180847004 0.583007991 0.626953006
0.583922982 0.597382009 0.533568978
0.835143983 0.609252989 0.627898991
0.912140012 0.620422006 0.653411984
0.191039994 0.601776004 0.651031017
0.157958999 0.718384027 0.680359006
0.601013005 0.754851997 0.631896973
0.866546988 0.799010992 0.718750000
0.927155018 0.814025998 0.719910026
0.187224999 0.634064019 0.672667980
0.152770996 0.750335991 0.695526004
0.607849002 0.787994027 0.660156012
0.871613026 0.841979980 0.744934022
0.926604986 0.859772027 0.753632009
0.124968998 0.090911999 0.242004007
0.184874997 0.091003001 0.272826999
0.447113007 0.100676998 0.428833008
0.612700999 0.152832001 0.465362996
0.668609977 0.169158995 0.483794987
0.195129007 0.258819997 0.485413015
0.222717002 0.297210991 0.501953006
0.531737983 0.315124989 0.536072016
0.720245004 0.327942014 0.563080013
0.784179986 0.342377007 0.577727973
0.212340996 0.503844976 0.621643007
0.193847999 0.588469982 0.656647027
0.582642019 0.602509022 0.592072010
0.834685981 0.620025992 0.675078988
0.914215028 0.631042004 0.696869016
0.197448999 0.603026986 0.666778982
0.162933007 0.720458984 0.706023991
0.592406988 0.759674013 0.664885998
0.866088986 0.807494998 0.746948004
0.928833008 0.822112978 0.750304997
0.192108005 0.634765983 0.684265018
0.156616002 0.751648009 0.713409007
0.602966011 0.790130973 0.682860970
0.869292974 0.847106993 0.761901975
0.927765012 0.865143001 0.773499012
