public/lut/88.cube
TITLE "17x17x17 Adobe/IRIDAS cube 3D LUT exported with GrossGrade v0.2.2 (beta) 64 bit"
DOMAIN_MIN 0 0 0
DOMAIN_MAX 1 1 1
LUT_3D_SIZE 5
0.000000000 0.000000000 0.000000000
0.149352998 0.015381000 0.043242998
0.448424995 0.000000000 0.117371000
0.643676996 0.000000000 0.184631005
0.753051996 0.008667000 0.226410002
0.000000000 0.198333994 0.036681999
0.190125003 0.208098993 0.069945998
0.491973996 0.207153007 0.149566993
0.704010010 0.232178003 0.222626001
0.807097971 0.266570985 0.266510010
0.000000000 0.487762004 0.117889002
0.217010006 0.507721007 0.143921003
0.525512993 0.509459972 0.201141000
0.728820980 0.521697998 0.259826988
0.815765023 0.536101997 0.292755008
0.059661999 0.749877989 0.215240002
0.280548006 0.755768001 0.231933996
0.571654975 0.740783989 0.264557004
0.759459972 0.734435976 0.303528011
0.822968006 0.714995980 0.321868986
0.135406002 0.822815001 0.270873994
0.345916986 0.823517025 0.290740997
0.608887017 0.820221007 0.336791992
0.763336003 0.807739019 0.400848001
0.816711009 0.800171018 0.471863002
0.007111000 0.015778000 0.077698000
0.169189006 0.011841000 0.177826002
0.455565989 0.000000000 0.204895005
0.647002995 0.000000000 0.250092000
0.759369016 0.014984000 0.296600014
0.000000000 0.202515006 0.193726003
0.198333994 0.216248006 0.214629993
0.502228022 0.217345998 0.253479004
0.712249994 0.240752995 0.311829001
0.807403982 0.274688989 0.355468988
0.001984000 0.497375011 0.241058007
0.225768998 0.516937017 0.266052008
0.534301996 0.518311024 0.299621999
0.734557986 0.527465999 0.344603986
0.816161990 0.539794981 0.374938995
0.065063000 0.754639030 0.334289998
0.283080995 0.758239985 0.345306009
0.571747005 0.741057992 0.356292993
0.757690012 0.732757986 0.381958008
0.820403993 0.712921023 0.401917011
0.138611004 0.822997987 0.394439995
0.354126006 0.823729992 0.410674989
0.614349008 0.815643013 0.444976985
0.763000011 0.804473996 0.503754020
0.814880013 0.799408019 0.558350027
0.002777000 0.017761000 0.270965993
0.170441002 0.002747000 0.411864996
0.450195014 0.000000000 0.417694002
0.646667004 0.000000000 0.444427013
0.762450993 0.016968001 0.485626012
0.000000000 0.201782003 0.437408000
0.201262996 0.219176993 0.456328988
0.506896973 0.221892998 0.475616008
0.715851009 0.243865997 0.514832020
0.808135986 0.277556986 0.549133003
0.003143000 0.501343012 0.475921988
0.228973001 0.520934999 0.498443991
0.537292004 0.521210015 0.515532970
0.735107005 0.527831972 0.540862978
0.857056022 0.516968012 0.544341981
0.064056002 0.754486024 0.555969000
0.279693991 0.755797982 0.561218023
0.566497982 0.736114979 0.556824028
0.751038015 0.726257026 0.568207026
0.823485970 0.706664979 0.552307010
0.141021997 0.823517025 0.602997005
0.360168010 0.824249029 0.603179991
0.593047976 0.815674007 0.589630008
0.756989002 0.803130984 0.619262993
0.816406012 0.798614979 0.648528993
0.000000000 0.015594000 0.464843988
0.172394007 0.000977000 0.596374989
0.451873988 0.000000000 0.586578012
0.652893007 0.000000000 0.610992014
0.770630002 0.024444999 0.648223996
0.000000000 0.208281994 0.615783989
0.210510001 0.228363007 0.636413991
0.515442014 0.230774000 0.650299013
0.724669993 0.252319008 0.683166981
0.809325993 0.285674989 0.710236013
0.010254000 0.507721007 0.653075993
0.234924003 0.525023997 0.672455013
0.537963986 0.522063971 0.682007015
0.740143001 0.532989979 0.705231011
0.856049001 0.515778005 0.731658995
0.067413002 0.758606017 0.728148997
0.280701011 0.757598996 0.730163991
0.566314995 0.735503972 0.720305979
0.755828977 0.722504020 0.720000982
0.835174978 0.699463010 0.706543028
0.152832001 0.824065983 0.755614996
0.373077005 0.825073004 0.740478992
0.596862972 0.812041998 0.730956972
0.753937006 0.801757991 0.736846983
0.813507020 0.797729015 0.755432010
0.000000000 0.016571000 0.604462028
0.178222999 0.003540000 0.687012017
0.459412009 0.000000000 0.674408019
0.663146973 0.001984000 0.700255990
0.783874989 0.037872002 0.738129020
0.002167000 0.220763996 0.705871999
0.223541006 0.241240993 0.725494027
0.523468018 0.242401004 0.736510992
0.731140018 0.263823986 0.768127024
0.810302973 0.300110012 0.793304026
0.021300999 0.514984012 0.739715993
0.244353995 0.529784977 0.755859017
0.539947987 0.523956001 0.764069021
0.743744016 0.530762017 0.788909972
0.855835021 0.521453977 0.829742014
0.074127004 0.751495004 0.799621999
0.279846013 0.746856987 0.799713016
0.552215993 0.723419011 0.789611995
0.741820991 0.709838986 0.806854010
0.832244992 0.702086985 0.796112001
0.173308998 0.824280024 0.796692014
0.393310994 0.825286984 0.801787972
0.605835021 0.811767995 0.797028005
0.758513987 0.801726997 0.797362983
0.813598990 0.800018013 0.800354004
