public/lut/88.cube
TITLE "17x17x17 Adobe/IRIDAS cube 3D LUT exported with GrossGrade v0.2.2 (beta) 64 bit"
DOMAIN_MIN 0 0 0
DOMAIN_MAX 1 1 1
LUT_3D_SIZE 17
0.000000000 0.000000000 0.000000000
0.020111000 0.013214000 0.017852999
0.047882002 0.018738000 0.027313000
0.089111000 0.019714000 0.033752002
0.149352998 0.015381000 0.043242998
0.222106993 0.007599000 0.055847000
0.297607005 0.001099000 0.073242001
0.373688012 0.000000000 0.093750000
0.448424995 0.000000000 0.117371000
0.513184011 0.000000000 0.139832005
0.564728022 0.000000000 0.157714993
0.607573986 0.000000000 0.172301993
0.643676996 0.000000000 0.184631005
0.673461974 0.000000000 0.195251003
0.701294005 0.000000000 0.206024006
0.727692008 0.001678000 0.216399997
0.753051996 0.008667000 0.226410002
0.003174000 0.048126001 0.029510001
0.036285002 0.050903000 0.031250000
0.071594000 0.052917000 0.034453999
0.119934000 0.051819000 0.039763998
0.183777004 0.045959000 0.048186999
0.255614996 0.035889000 0.061432000
0.325011998 0.028380999 0.079558998
0.392058998 0.023468001 0.099730998
0.457794011 0.019623000 0.121123999
0.518646002 0.018463001 0.142029002
0.571624994 0.019226000 0.160217002
0.616668999 0.022583000 0.176025003
0.654388011 0.028137000 0.190093994
0.686523020 0.035186999 0.202483997
0.716094971 0.044952001 0.214081004
0.743834972 0.055388998 0.225372002
0.769989014 0.065734997 0.236022994
0.000092000 0.096436001 0.033142000
0.035004001 0.095275998 0.033142000
0.076720998 0.096038997 0.036865000
0.126678005 0.094543003 0.043488000
0.189818993 0.089354999 0.053314000
0.261748999 0.082275003 0.068420000
0.332733005 0.076018997 0.087371998
0.402038991 0.071808003 0.107910000
0.470122993 0.069489002 0.129639000
0.533538997 0.069672003 0.150726005
0.589416981 0.073242001 0.170258000
0.636536002 0.079681002 0.187378004
0.674956977 0.088104002 0.201782003
0.708648980 0.098236002 0.214995995
0.738677979 0.109283000 0.227202997
0.765869021 0.120421998 0.238708004
0.790832996 0.130889997 0.249480993
0.000000000 0.143584996 0.033142000
0.030396000 0.142700002 0.034545999
0.073425002 0.144745007 0.040497001
0.125336006 0.145508006 0.048889000
0.190368995 0.143126994 0.060394000
0.265105993 0.138916001 0.076691002
0.338898003 0.135498002 0.095946997
0.411590993 0.133849993 0.117431998
0.482879996 0.133727998 0.139800996
0.549010992 0.136047006 0.161651999
0.606872976 0.141417995 0.181702003
0.654754996 0.149048001 0.198882997
0.693542004 0.158112004 0.213531002
0.727020025 0.168365002 0.227111995
0.756226003 0.178740993 0.239318997
0.781921029 0.188750997 0.250640988
0.804229975 0.197693005 0.260589987
0.000000000 0.198333994 0.036681999
0.025085000 0.199127004 0.040375002
0.068726003 0.203979000 0.048004001
0.122680999 0.207672000 0.057556000
0.190125003 0.208098993 0.069945998
0.267181009 0.206572995 0.086487003
0.343627989 0.205596998 0.105713002
0.418731987 0.205871999 0.127167001
0.491973996 0.207153007 0.149566993
0.559783995 0.210814998 0.171448007
0.618072987 0.216613993 0.191254005
0.665436029 0.223876998 0.208098993
0.704010010 0.232178003 0.222626001
0.736298025 0.241089001 0.235504001
0.764129996 0.250000000 0.247070000
0.788390994 0.258361995 0.257660002
0.807097971 0.266570985 0.266510010
0.000000000 0.262787014 0.049500000
0.023712000 0.266295999 0.054076999
0.068268001 0.273285002 0.062378000
0.123718001 0.278930992 0.072356999
0.192351997 0.281342000 0.084259003
0.270660013 0.281372011 0.099609002
0.348419011 0.281616002 0.117889002
0.424560994 0.282622993 0.138396993
0.498382986 0.284209996 0.159637004
0.566375971 0.287627995 0.180573002
0.624023020 0.292663991 0.199340999
0.670073986 0.298615009 0.215270996
0.708130002 0.305999994 0.229278997
0.740143001 0.314087003 0.241881996
0.767486989 0.322113007 0.253113002
0.791382015 0.329802990 0.263489008
0.808533013 0.337249994 0.271789998
0.000000000 0.334778011 0.070435002
0.028534001 0.339873999 0.075286999
0.075043000 0.348022014 0.083526999
0.130919993 0.354492009 0.092528999
0.199860007 0.357208014 0.103027001
0.278014988 0.357329994 0.116547003
0.355560005 0.357268989 0.132781997
0.431365997 0.357757986 0.151427999
0.505218983 0.359100014 0.171142995
0.573242009 0.362244010 0.191101000
0.630645990 0.366881996 0.209136993
0.676117003 0.372070014 0.224426001
0.713958979 0.378906012 0.237976000
0.745575011 0.386382997 0.250153005
0.772369027 0.393494010 0.261108011
0.795471013 0.400115997 0.270904988
0.810729980 0.406830013 0.278472990
0.000000000 0.411224008 0.094177000
0.036469001 0.416350991 0.098784998
0.083953999 0.424315989 0.106261998
0.139403999 0.430115014 0.114044003
0.208038002 0.432372987 0.122893997
0.285950005 0.431946009 0.134644002
0.363525003 0.431701988 0.149200007
0.439635992 0.432190001 0.166290000
0.513976991 0.433715999 0.184966996
0.582000971 0.436706990 0.203795999
0.638947010 0.440703988 0.220946997
0.684234977 0.445374012 0.235596001
0.721466005 0.451384991 0.248595998
0.752075016 0.457489014 0.260010004
0.777770996 0.463225991 0.270110995
0.799713016 0.468140006 0.279114008
0.813232005 0.473601997 0.285797000
0.000000000 0.487762004 0.117889002
0.044983000 0.492339998 0.121947996
0.093047999 0.500122011 0.128784001
0.148285002 0.505768001 0.135894999
0.217010006 0.507721007 0.143921003
0.295379996 0.507233024 0.154358000
0.373627007 0.507111013 0.167786002
0.450500011 0.507750988 0.183502004
0.525512993 0.509459972 0.201141000
0.592833996 0.511536002 0.218628004
0.648315012 0.513823986 0.234253004
0.692963004 0.517364979 0.247924998
0.728820980 0.521697998 0.259826988
0.757874012 0.526000977 0.270110995
0.782104015 0.529694021 0.279114008
0.802643001 0.532593012 0.287018001
0.815765023 0.536101997 0.292755008
0.004181000 0.563018978 0.141997993
0.056549001 0.567200005 0.145813003
0.105011001 0.574615002 0.152312994
0.160675004 0.580291986 0.159332007
0.229766995 0.582184017 0.166656002
0.308501989 0.581511974 0.176055998
0.386931986 0.580963016 0.188232005
0.463714987 0.580994010 0.202515006
0.538390994 0.581939995 0.218688995
0.605225027 0.583099008 0.234771997
0.659453988 0.583648980 0.248778999
0.702301025 0.585021973 0.260955989
0.736236989 0.587005973 0.271331996
0.763336003 0.588958979 0.280151010
0.785767019 0.590393007 0.287903011
0.804778993 0.591063976 0.294434011
0.818207026 0.592101991 0.299468994
0.017242000 0.634247005 0.167023003
0.073546998 0.638000011 0.170929000
0.122101001 0.644806027 0.177031994
0.177338004 0.649567008 0.183471993
0.246032998 0.650695980 0.190063000
0.324158013 0.649078012 0.198273003
0.401854992 0.647614002 0.208710000
0.477631003 0.646484017 0.221496999
0.550934017 0.645905018 0.235747993
0.617309988 0.646362007 0.250458002
0.671539009 0.646606028 0.263518989
0.712523997 0.645569026 0.274078012
0.743927002 0.644684017 0.282775998
0.768921018 0.644073009 0.290131003
0.789429009 0.643127024 0.296265006
0.806945980 0.641632020 0.301636010
0.820250988 0.640380979 0.305725008
0.036437999 0.697112978 0.191833004
0.094756998 0.699981987 0.195403993
0.142517000 0.705596983 0.201141000
0.196502998 0.709167004 0.206787005
0.263855010 0.709137022 0.212280005
0.340606987 0.706481993 0.219116002
0.416839987 0.703734994 0.228027001
0.491028011 0.701233029 0.239014000
0.562560976 0.699036002 0.251495004
0.627533019 0.698302984 0.264495999
0.681824028 0.698517025 0.276854992
0.722716987 0.697143972 0.286559999
0.751861989 0.693603992 0.293549001
0.774749994 0.690491021 0.299315989
0.793609977 0.687500000 0.304259986
0.809630990 0.684143007 0.308593988
0.821929991 0.681061029 0.312133998
0.059661999 0.749877989 0.215240002
0.117431998 0.751465023 0.218079001
0.162993997 0.755249023 0.222960994
0.215118006 0.757140994 0.227539003
0.280548006 0.755768001 0.231933996
0.355408013 0.752044976 0.237366006
0.429749012 0.748138011 0.244628996
0.502044976 0.744324028 0.253845006
0.571654975 0.740783989 0.264557004
0.634459972 0.738403022 0.275878996
0.687744021 0.738007009 0.286956996
0.729950011 0.737945974 0.296783000
0.759459972 0.734435976 0.303528011
0.780333996 0.729156017 0.308380008
0.797272027 0.724364996 0.312866002
0.811523020 0.719512999 0.317321986
0.822968006 0.714995980 0.321868986
0.082886003 0.790679991 0.235442996
0.137633994 0.790893972 0.237488002
0.181213006 0.792846978 0.241210997
0.231140003 0.793182015 0.244598001
0.294158995 0.790679991 0.247711003
0.366973996 0.786072016 0.251769990
0.439269990 0.781342030 0.257690012
0.509734988 0.776732981 0.265502989
0.577820003 0.772338986 0.275023997
0.639099002 0.768950999 0.285156012
0.690460026 0.767028987 0.295441002
0.732116997 0.766785026 0.305480987
0.764252007 0.766205013 0.314574987
0.784424007 0.760680974 0.321074992
0.799041986 0.754517019 0.327026010
0.811309993 0.748839974 0.333373994
0.822112978 0.743194997 0.340178996
0.102050997 0.818877995 0.251495004
0.154785007 0.818054020 0.252532989
0.196075007 0.818755984 0.255248994
0.243773997 0.818145990 0.257568002
0.304931998 0.815307975 0.259887993
0.375824004 0.810822010 0.263244987
0.446503013 0.805969000 0.268433005
0.515929997 0.800719976 0.275848001
0.583159983 0.795471013 0.285614014
0.643401980 0.790984988 0.296875000
0.693114996 0.787810981 0.308501989
0.732268989 0.786132991 0.320037991
0.763062000 0.785645008 0.331512004
0.786284983 0.784546018 0.342498988
0.799713016 0.778258979 0.351074010
0.810393989 0.772338986 0.360228986
0.819671988 0.766692996 0.369964987
0.119690001 0.823028982 0.261810005
0.170898005 0.823119998 0.262511998
0.210968003 0.823212028 0.264526010
0.257445991 0.823302984 0.266692996
0.317992985 0.823729992 0.269989014
0.388213992 0.824158013 0.275635004
0.458770990 0.821838021 0.283569008
0.527831972 0.816528022 0.293639988
0.593505979 0.810486019 0.305449992
0.651093006 0.805419981 0.318419993
0.697906017 0.801849008 0.331909001
0.734099984 0.799621999 0.345611989
0.762023985 0.798552990 0.359557986
0.783966005 0.798096001 0.373901010
0.800567985 0.796630979 0.388184011
0.809875011 0.790771008 0.400725991
0.817780018 0.785521984 0.414032012
0.135406002 0.822815001 0.270873994
0.188324004 0.822937012 0.272765994
0.232238993 0.823059022 0.277678996
0.283051014 0.823242009 0.283661008
0.345916986 0.823517025 0.290740997
0.416229010 0.823913991 0.299407989
0.484039009 0.824401975 0.310241997
0.548035026 0.823975027 0.322753996
0.608887017 0.820221007 0.336791992
0.662567019 0.815033019 0.351806998
0.705474973 0.811401010 0.367554009
0.738312006 0.809051991 0.383911014
0.763336003 0.807739019 0.400848001
0.782867014 0.807129025 0.418487996
0.798523009 0.806792974 0.436798006
0.810028017 0.804992974 0.454955995
0.816711009 0.800171018 0.471863002
0.003876000 0.006195000 0.010101000
0.023193000 0.015594000 0.029479999
0.052429002 0.019623000 0.043976001
0.095306002 0.019714000 0.055144999
0.155762002 0.015381000 0.064087003
0.228606999 0.007050000 0.074859999
0.303802013 0.001099000 0.089111000
0.379608005 0.000000000 0.107207999
0.452454001 0.000000000 0.127563000
0.514862001 0.000000000 0.146819994
0.565825999 0.000000000 0.163422003
0.608794987 0.000000000 0.178130999
0.645142019 0.000000000 0.190887004
0.675200999 0.000000000 0.202025995
0.703094006 0.000092000 0.212798998
0.729552984 0.003204000 0.223327994
0.755156994 0.010986000 0.233795002
0.003174000 0.050140001 0.051360998
0.036285002 0.051605001 0.055298001
0.073517002 0.053589001 0.061278999
0.121947996 0.052460000 0.065886997
0.185608000 0.046112001 0.071135998
0.257050008 0.036621001 0.080596998
0.326050013 0.029175000 0.094481997
0.393218994 0.024261000 0.111969002
0.459259003 0.021149000 0.131042004
0.520294011 0.019226000 0.150177002
0.573517025 0.020293999 0.167877004
0.618744016 0.024109000 0.183532998
0.656554997 0.029663000 0.197510004
0.688872993 0.038238999 0.209930003
0.718719006 0.047699001 0.222137004
0.746367991 0.058350001 0.233916998
0.772338986 0.068908997 0.245208994
0.000092000 0.097534001 0.062743999
0.035675000 0.096038997 0.062194999
0.077666998 0.097167999 0.065978996
0.127959996 0.095734000 0.070281997
0.191222996 0.090607002 0.076629996
0.263305992 0.083649002 0.087523997
0.334351003 0.077881001 0.102385998
0.403930992 0.073761001 0.120330997
0.472382009 0.071471997 0.140320003
0.535827994 0.071898997 0.160309002
0.592132986 0.076080002 0.179168999
0.639464974 0.082641996 0.196198002
0.677765012 0.091003001 0.210814998
0.711578012 0.101287998 0.224609002
0.741424978 0.112427004 0.237366006
0.768523991 0.123291001 0.249420002
0.793213010 0.133819997 0.260803014
0.000000000 0.144653007 0.062346999
0.031830002 0.144012004 0.062804997
0.075286999 0.146239996 0.068176001
0.127045006 0.147247002 0.075043000
0.192443997 0.145202994 0.083313003
0.267150998 0.141083002 0.095611997
0.341338992 0.137999997 0.111846998
0.414368004 0.136627004 0.130859002
0.485808998 0.136565998 0.151641995
0.552215993 0.139069006 0.172516003
0.609955013 0.144622996 0.192047000
0.657805979 0.152312994 0.209380999
0.696594000 0.161316007 0.224456996
0.729857981 0.171448007 0.238312006
0.758819997 0.181731999 0.250885010
0.784148991 0.191559002 0.262511998
0.804749012 0.200531006 0.272399992
0.000000000 0.199982002 0.062743999
0.026611000 0.201477006 0.065796003
0.071198002 0.206267998 0.072967999
0.125366002 0.209990993 0.081482001
0.192871004 0.210754007 0.091705002
0.269867003 0.209442005 0.105286002
0.346740991 0.208771005 0.121947996
0.421967000 0.209014997 0.141357005
0.495330989 0.210480005 0.162201002
0.563232005 0.214141995 0.183136001
0.621398985 0.219849005 0.202392995
0.668426991 0.226928994 0.219329998
0.706757009 0.235045999 0.233916998
0.738892019 0.243835002 0.247100994
0.766448975 0.252501994 0.259063989
0.790404975 0.260895014 0.269867003
0.807281017 0.269286990 0.278656006
0.000000000 0.265381008 0.071563996
0.026031001 0.269104004 0.076018997
0.071258999 0.276244998 0.084533997
0.126800999 0.282135010 0.094116002
0.195769995 0.284514993 0.104523003
0.273925990 0.284698009 0.117798001
0.351776004 0.284972996 0.134094000
0.427794993 0.285797000 0.152557001
0.501586974 0.287414998 0.172394007
0.569549978 0.290710002 0.192351997
0.627106011 0.295623988 0.210663006
0.672882020 0.301422000 0.226471007
0.710846007 0.308715999 0.240601003
0.742583990 0.316742003 0.253387004
0.769774973 0.324676991 0.265015006
0.793335021 0.332213998 0.275573999
0.808624029 0.340027004 0.283813000
0.000000000 0.338012993 0.089386001
0.030792000 0.343109012 0.094879001
0.077941999 0.351348996 0.103577003
0.134124994 0.357757986 0.112579003
0.203063995 0.360381991 0.122284003
0.281127989 0.360413015 0.134094000
0.358612001 0.360320985 0.148528993
0.434509009 0.360808998 0.165374994
0.508270025 0.362060994 0.183928996
0.576233029 0.365173012 0.202820003
0.633513987 0.369720012 0.220367000
0.678955019 0.374938995 0.235565007
0.716643989 0.381713986 0.249298006
0.747986019 0.388976991 0.261687994
0.774627984 0.395934999 0.272857994
0.797393978 0.402373999 0.282837003
0.810882986 0.409514993 0.290405005
0.000000000 0.414519995 0.111846998
0.039214998 0.419555992 0.116760001
0.086975001 0.427428991 0.124785997
0.142425999 0.433257997 0.132721007
0.210906997 0.435485989 0.141051993
0.288818002 0.434967011 0.151306003
0.366515994 0.434722990 0.164489999
0.442687988 0.435180992 0.180114999
0.517059028 0.436737001 0.197601005
0.584960997 0.439666986 0.215636998
0.641785026 0.443542004 0.232178003
0.686981022 0.448150992 0.246765003
0.723999023 0.453949004 0.259795994
0.754242003 0.459899992 0.271423012
0.779754996 0.465332001 0.281677008
0.801330984 0.470061988 0.290740997
0.813354015 0.475890994 0.297484994
0.000000000 0.490996987 0.134430006
0.047759999 0.495543987 0.139008000
0.095886000 0.503143013 0.146239996
0.151244998 0.508849978 0.153564006
0.219940007 0.510802984 0.161072001
0.298370004 0.510344982 0.170441002
0.376677990 0.510254025 0.182648003
0.453521997 0.510833979 0.197295994
0.528563976 0.512543023 0.213866994
0.595734000 0.514464974 0.230407998
0.650909007 0.516448975 0.245482996
0.695343018 0.519774973 0.258911014
0.730988026 0.523864985 0.270844012
0.759734988 0.527924001 0.281158000
0.783690989 0.531432986 0.290192008
0.803924978 0.534088016 0.298096001
0.815948009 0.537872016 0.304015994
0.005310000 0.566070974 0.158203006
0.059264999 0.570190012 0.162444994
0.108032003 0.577697992 0.169433996
0.163635001 0.583343983 0.176605001
0.232604995 0.585174978 0.183502004
0.311370999 0.584411979 0.191925004
0.389708996 0.583800972 0.202941999
0.466430992 0.583832026 0.216124997
0.541046023 0.584656000 0.231292993
0.607697010 0.585541010 0.246399000
0.661652029 0.585875988 0.259918004
0.704253972 0.587005973 0.271728992
0.737884998 0.588715017 0.282012999
0.764708996 0.590424001 0.290802002
0.786925972 0.591643989 0.298431009
0.805724978 0.592132986 0.305023015
0.818237007 0.593231022 0.309967011
0.019562000 0.637115002 0.183715999
0.076476999 0.640778005 0.187744007
0.124816999 0.647521973 0.194365993
0.179931998 0.652252018 0.200836003
0.248474002 0.653198004 0.207030997
0.326599002 0.651549995 0.214172006
0.404114008 0.649932981 0.223601997
0.479828000 0.648681998 0.235199004
0.552978992 0.647918999 0.248352006
0.619202018 0.648253977 0.262053996
0.673278987 0.648284972 0.274719000
0.713958979 0.647002995 0.284759998
0.745117009 0.645812988 0.293181986
0.769836009 0.645049989 0.300231993
0.790161014 0.643921018 0.306335002
0.807494998 0.642242014 0.311614990
0.820250988 0.640960991 0.315613002
0.038727000 0.699615002 0.209411994
0.097411998 0.702392995 0.213012993
0.144684002 0.707825005 0.218994007
0.198639005 0.711273015 0.224456996
0.265807986 0.711090028 0.229461998
0.342498988 0.708343983 0.235167995
0.418549001 0.705413997 0.243010998
0.492615014 0.702789009 0.252746999
0.563965023 0.700469971 0.264007986
0.628754020 0.699554026 0.276183993
0.682892025 0.699615002 0.287781000
0.723572016 0.698028982 0.296997011
0.752593994 0.694305003 0.303649992
0.775268972 0.691039979 0.309174001
0.793945014 0.687835991 0.313964993
0.809813976 0.684418023 0.318237007
0.821991026 0.681244016 0.321898997
0.062011998 0.751770020 0.233367994
0.119354002 0.753174007 0.236205995
0.164825007 0.756805003 0.241027996
0.216736004 0.758575022 0.245482996
0.281951994 0.757080019 0.249083996
0.356689006 0.753203988 0.253509998
0.430846989 0.749145985 0.259705007
0.502960026 0.745239019 0.267609000
0.572387993 0.741577029 0.277038991
0.635070980 0.739014030 0.287414998
0.688262999 0.738494992 0.297820985
0.730286002 0.738312006 0.307159007
0.759705007 0.734740973 0.313782007
0.780364990 0.729309022 0.318480998
0.797210991 0.724395990 0.323089987
0.811339974 0.719604015 0.327942014
0.822875977 0.714905024 0.333038002
0.084229000 0.791869998 0.254058987
0.139069006 0.791930974 0.255798012
0.182433993 0.793793023 0.259368986
0.231964007 0.794005990 0.262450993
0.294921994 0.791382015 0.264831990
0.367583990 0.786682010 0.267852992
0.439788997 0.781859994 0.272675008
0.510254025 0.777161002 0.279358000
0.578155994 0.772643983 0.287689000
0.639374018 0.769104004 0.297057986
0.690674007 0.767090023 0.306793004
0.732208014 0.766692996 0.316803008
0.764038026 0.766022027 0.326171994
0.784088016 0.760497987 0.333068997
0.798523009 0.754302979 0.339630008
0.810698986 0.748749018 0.346709996
0.821349978 0.743286014 0.354187012
0.102813996 0.819427013 0.270202994
0.155487001 0.818572998 0.270996004
0.196655005 0.819182992 0.273467988
0.244231999 0.818542004 0.275420994
0.305328012 0.815612972 0.277038991
0.376159996 0.811065972 0.279419005
0.446868986 0.806061029 0.283630013
0.516448975 0.800689995 0.290374994
0.583648980 0.795197010 0.299499989
0.643799007 0.790679991 0.310425013
0.693390012 0.787476003 0.322174013
0.732299984 0.785736024 0.334015012
0.762786984 0.785187006 0.346069008
0.785889030 0.784119010 0.357697010
0.799133003 0.777953982 0.366881996
0.809723020 0.772156000 0.376677990
0.818970025 0.766663015 0.387023985
0.120056003 0.822997987 0.281403005
0.171387002 0.823090017 0.281554997
0.211181998 0.823180974 0.283295006
0.258148015 0.823395014 0.285369992
0.319031000 0.823791981 0.288329989
0.389434993 0.824218988 0.293365002
0.460175008 0.821533024 0.300841987
0.529205024 0.815979004 0.310577005
0.594604015 0.809937000 0.322113007
0.651916981 0.804901004 0.335083008
0.698364019 0.801299989 0.348724008
0.734221995 0.799072027 0.362700999
0.761932015 0.798003972 0.377106011
0.783630013 0.797546029 0.391997993
0.800049007 0.796234012 0.406738013
0.809234977 0.790526986 0.419647008
0.817169011 0.785431027 0.433227986
0.136536002 0.822875977 0.291473001
0.190154999 0.822968006 0.293457001
0.234467000 0.823119998 0.298552990
0.285461009 0.823273003 0.304688007
0.348389000 0.823547006 0.311554015
0.418579012 0.823943973 0.319824010
0.486084014 0.824523985 0.330109000
0.549896002 0.823669016 0.342285007
0.610565007 0.819518983 0.355987996
0.663757026 0.814330995 0.371093988
0.706299007 0.810791016 0.386963010
0.738770008 0.808471978 0.403412014
0.763549984 0.807219982 0.420592993
0.782805979 0.806702018 0.438353986
0.798218012 0.806396008 0.456786990
0.809570014 0.804656982 0.474976003
0.816161990 0.800109982 0.491791010
0.006195000 0.010956000 0.024750000
0.027069001 0.017242000 0.049286000
0.056853998 0.020416001 0.067657001
0.100066997 0.019805999 0.080504999
0.161926001 0.015381000 0.091003001
0.234375000 0.006256000 0.099547997
0.309143007 0.000885000 0.110198997
0.384247005 0.000000000 0.124695003
0.454955995 0.000000000 0.141326994
0.515990973 0.000000000 0.157958999
0.566771984 0.000000000 0.173430994
0.610107005 0.000000000 0.187775001
0.646422982 0.000000000 0.200653002
0.676726997 0.000000000 0.212189004
0.704833984 0.000092000 0.223267004
0.731567025 0.004883000 0.234496996
0.757293999 0.012634000 0.245453000
0.002411000 0.052216001 0.079712003
0.037078999 0.052855998 0.086029001
0.074524000 0.054198999 0.092926003
0.123259999 0.052551001 0.097900003
0.186767995 0.046112001 0.100891002
0.257813007 0.037170000 0.105988003
0.326781988 0.029906999 0.115355998
0.394196004 0.025024001 0.128784001
0.460570991 0.021942001 0.145202994
0.521697998 0.020752000 0.162536994
0.575255990 0.021850999 0.179230005
0.620697021 0.025878999 0.194763005
0.658599973 0.031952001 0.208954006
0.691132009 0.040008999 0.221863002
0.721008003 0.049835000 0.234619007
0.748839974 0.060759999 0.246948004
0.774719000 0.071471997 0.258850008
0.000092000 0.098357998 0.097655997
0.035735998 0.096892998 0.097778000
0.077698000 0.097259998 0.100432999
0.128296003 0.096221998 0.103546001
0.192168996 0.091826998 0.107116997
0.264191002 0.084930003 0.113525003
0.335693002 0.079590000 0.124512002
0.405730993 0.075745001 0.139191002
0.474335015 0.073761001 0.156433001
0.538177013 0.074340999 0.174834996
0.594757020 0.078429997 0.193176001
0.642180979 0.085266002 0.209990993
0.680541992 0.093993999 0.224854007
0.714142025 0.104309000 0.238860995
0.744018972 0.115203999 0.252227992
0.770905018 0.126372993 0.264739990
0.795562983 0.136687994 0.276306003
0.000000000 0.145476997 0.096557997
0.032623000 0.144835994 0.097259998
0.076293997 0.147551998 0.101989999
0.128509998 0.148803994 0.107360996
0.194183007 0.146789998 0.113190003
0.269042999 0.143218994 0.122101001
0.343535990 0.140380993 0.134918004
0.416900992 0.139129996 0.151123002
0.488525003 0.139342993 0.169586003
0.555054009 0.142058998 0.189055994
0.612945974 0.147614002 0.207885996
0.660614014 0.155273005 0.224976003
0.699370980 0.164306998 0.240081996
0.732666016 0.174346998 0.254272014
0.761260986 0.184448004 0.267089993
0.786162972 0.194000006 0.278748006
0.805054009 0.203186005 0.288513005
0.000000000 0.201446995 0.094788000
0.028748000 0.203125000 0.097411998
0.073242001 0.208434999 0.104767002
0.127533004 0.212432995 0.112427004
0.195526004 0.213501006 0.120604999
0.272704989 0.212219000 0.131409004
0.349518001 0.211609006 0.145325005
0.425018013 0.212097004 0.162322998
0.498382986 0.213593006 0.181122005
0.566344976 0.217194006 0.200623006
0.624450982 0.222838998 0.219146997
0.671203971 0.229828000 0.235474005
0.709351003 0.237731993 0.250030994
0.741302013 0.246368006 0.263366997
0.768646002 0.255005002 0.275330007
0.792328000 0.263184011 0.286224008
