public/lut/89.cube
TITLE "17x17x17 Adobe/IRIDAS cube 3D LUT exported with GrossGrade v0.2.2 (beta) 64 bit"
DOMAIN_MIN 0 0 0
DOMAIN_MAX 1 1 1
LUT_3D_SIZE 5
0.000000000 0.030762000 0.010254000
0.140900001 0.076416001 0.000000000
0.368927002 0.125916004 0.000000000
0.618286014 0.161133006 0.088379003
0.815093994 0.204009995 0.074157998
0.000000000 0.155517995 0.003357000
0.174133003 0.163025007 0.000000000
0.457641989 0.191863999 0.000000000
0.684234977 0.256927013 0.000000000
0.844512999 0.331847996 0.000000000
0.000000000 0.281096995 0.009460000
0.216003001 0.328918010 0.000000000
0.541106999 0.359497011 0.000000000
0.768311024 0.365570009 0.000000000
0.877776980 0.451599002 0.000000000
0.004730000 0.411621004 0.000000000
0.274780005 0.454712003 0.000000000
0.561981022 0.562041998 0.000000000
0.769043028 0.623992980 0.000000000
0.869903982 0.563750982 0.000000000
0.000000000 0.676024973 0.000000000
0.251556009 0.720093012 0.000000000
0.557708979 0.760315001 0.000000000
0.745850027 0.787963986 0.000000000
0.856262028 0.799499989 0.000000000
0.000000000 0.113159001 0.114624001
0.216858000 0.120880000 0.128021002
0.464293987 0.137024000 0.096923999
0.651122987 0.170349002 0.087615997
0.820068002 0.205078006 0.083893001
0.000000000 0.186675996 0.163390994
0.155548006 0.219604000 0.203857005
0.459778011 0.208922997 0.131683007
0.681304991 0.207396999 0.071442001
0.840179026 0.277191013 0.005524000
0.000000000 0.346985012 0.176269993
0.092620999 0.366638005 0.042938001
0.532104015 0.398009986 0.037505999
0.757874012 0.400451988 0.000000000
0.873534977 0.484221995 0.000000000
0.000000000 0.384460002 0.181915000
0.181945994 0.471222013 0.041839998
0.548888981 0.574676991 0.028137000
0.765106022 0.629944026 0.000000000
0.868591011 0.576507986 0.000000000
0.000000000 0.685576975 0.000000000
0.163727000 0.728209972 0.000000000
0.522858024 0.774109006 0.000000000
0.738372982 0.803252995 0.000000000
0.851867974 0.804596007 0.000000000
0.000000000 0.214478001 0.247040004
0.137695000 0.211974993 0.263184011
0.548065007 0.223968998 0.195251003
0.726989985 0.231475994 0.171599999
0.845673025 0.276672006 0.185120001
0.000000000 0.240814000 0.264403999
0.067443997 0.288666010 0.329865009
0.535767019 0.281585991 0.270812988
0.724425972 0.277770996 0.237060994
0.838379025 0.312958002 0.244048998
0.000000000 0.389923006 0.380524009
0.000000000 0.461212009 0.441985995
0.466064006 0.490996987 0.466338992
0.717072010 0.483673006 0.426514000
0.840728998 0.466553003 0.355803996
0.000000000 0.648132026 0.537415028
0.000000000 0.593780994 0.457305998
0.449707001 0.596313000 0.356353998
0.742492974 0.650481999 0.268157989
0.857116997 0.614380002 0.256866008
0.000000000 0.791382015 0.425139993
0.000000000 0.774779975 0.322753996
0.343872011 0.830596983 0.058166999
0.691742003 0.817505002 0.209197998
0.845763981 0.810119987 0.071898997
0.000000000 0.309783995 0.366638005
0.103302002 0.304412991 0.348937988
0.490723014 0.331512004 0.316284001
0.755402029 0.315124989 0.266815007
0.822296023 0.368591011 0.364441007
0.000000000 0.323486000 0.382874012
0.001770000 0.355224997 0.435516000
0.463164985 0.360320985 0.421967000
0.745971978 0.367859006 0.385315001
0.822205007 0.414458990 0.453368992
0.000000000 0.419555992 0.480590999
0.000000000 0.477234006 0.553893983
0.352905005 0.507659972 0.634521008
0.747588992 0.499908000 0.578094006
0.825531006 0.532226980 0.580718994
0.000793000 0.598267019 0.642242014
0.000397000 0.644684017 0.676056027
0.239776999 0.697234988 0.731078982
0.707153022 0.686828971 0.669434011
0.828369021 0.672913015 0.633666992
0.000793000 0.841979980 0.805877984
0.000000000 0.900390983 0.816192985
0.000000000 0.904296994 0.680755973
0.616668999 0.834716976 0.493317008
0.833588004 0.811767995 0.521027029
0.000000000 0.427399009 0.513611019
0.047058001 0.420044005 0.482024997
0.412353992 0.430725008 0.501221001
0.728972971 0.449340999 0.548430979
0.858856022 0.482329994 0.658661008
0.000000000 0.438201994 0.552215993
0.000000000 0.457610995 0.598662972
0.301788002 0.431304991 0.584380984
0.739777029 0.440093994 0.650390983
0.869903982 0.488617003 0.708312988
0.000000000 0.511658013 0.639586985
0.000793000 0.551575005 0.692565978
0.213958994 0.559448004 0.750640988
0.646148980 0.506591976 0.751465023
0.866973996 0.546661019 0.766327024
0.000000000 0.619719982 0.750518978
0.000793000 0.660889030 0.790130973
0.127013996 0.671112001 0.807036996
0.631653011 0.664429009 0.778106987
0.850739002 0.663208008 0.789611995
0.000793000 0.760742009 0.858794987
0.000000000 0.797851980 0.877044976
0.000000000 0.834595025 0.897307992
0.563843012 0.807953000 0.830016971
0.833832026 0.837737978 0.797637999
