public/lut/89.cube
TITLE "17x17x17 Adobe/IRIDAS cube 3D LUT exported with GrossGrade v0.2.2 (beta) 64 bit"
DOMAIN_MIN 0 0 0
DOMAIN_MAX 1 1 1
LUT_3D_SIZE 17
0.000000000 0.030762000 0.010254000
0.000000000 0.038483001 0.013428000
0.042358000 0.050597999 0.001190000
0.090240002 0.064331003 0.000000000
0.140900001 0.076416001 0.000000000
0.196686000 0.090545997 0.000000000
0.254851997 0.099730998 0.000000000
0.307525992 0.113555998 0.000000000
0.368927002 0.125916004 0.000000000
0.438293010 0.133881003 0.000000000
0.503356993 0.142638996 0.020385999
0.563690007 0.150145993 0.071258999
0.618286014 0.161133006 0.088379003
0.672820985 0.175079003 0.099335000
0.729034007 0.186095998 0.100311004
0.777374029 0.193114996 0.095581003
0.815093994 0.204009995 0.074157998
0.000000000 0.051238999 0.010254000
0.000000000 0.053222999 0.012634000
0.044434000 0.058715999 0.001190000
0.094237998 0.072692998 0.000000000
0.144317999 0.085114002 0.000000000
0.200195000 0.092468001 0.000000000
0.260558993 0.099457003 0.000000000
0.316193014 0.112365998 0.000000000
0.375916004 0.124573000 0.000000000
0.442261010 0.133514002 0.005615000
0.507202029 0.143401995 0.033234000
0.567505002 0.154937997 0.067718998
0.621674001 0.168610007 0.080292001
0.676117003 0.178467005 0.086304002
0.732391000 0.190582007 0.091155998
0.780731022 0.204132006 0.085631996
0.815216005 0.212219000 0.060302999
0.000000000 0.083984002 0.010254000
0.000000000 0.091522001 0.011200000
0.037262000 0.089782998 0.001190000
0.102966003 0.086304002 0.000000000
0.159851000 0.097992003 0.000000000
0.214294001 0.113463998 0.000000000
0.273651004 0.126404002 0.000000000
0.330413997 0.138977006 0.000000000
0.391478986 0.148528993 0.000000000
0.457367003 0.156158000 0.000092000
0.520599008 0.164611995 0.008484000
0.580413997 0.172607005 0.031647000
0.634979010 0.183044001 0.052611999
0.686859012 0.194275007 0.063781999
0.743651986 0.207764000 0.055266999
0.790679991 0.219482005 0.022125000
0.823943973 0.231749997 0.004822000
0.000000000 0.120604999 0.006592000
0.000000000 0.132964998 0.002075000
0.039124001 0.132781997 0.000092000
0.100311004 0.127868995 0.000000000
0.171142995 0.119598001 0.000000000
0.241150007 0.130585000 0.000000000
0.300568014 0.146605998 0.000000000
0.357147008 0.161284998 0.000000000
0.419434011 0.173980996 0.000000000
0.481628001 0.185271993 0.000000000
0.540955007 0.198516995 0.000305000
0.600372016 0.212219000 0.003265000
0.655059993 0.225127995 0.006195000
0.707672000 0.238372996 0.008179000
0.758971989 0.252411008 0.006714000
0.802489996 0.265228003 0.001099000
0.836884022 0.276549995 0.000000000
0.000000000 0.155517995 0.003357000
0.000000000 0.169524997 0.000061000
0.037964001 0.176025003 0.000000000
0.102752998 0.168945000 0.000000000
0.174133003 0.163025007 0.000000000
0.249358997 0.156829998 0.000000000
0.320282012 0.164185002 0.000000000
0.390166998 0.176880002 0.000000000
0.457641989 0.191863999 0.000000000
0.520354986 0.207213998 0.000000000
0.577666998 0.221924007 0.000000000
0.631317019 0.239501998 0.000000000
0.684234977 0.256927013 0.000000000
0.732208014 0.276977986 0.000000000
0.778869987 0.301575005 0.000000000
0.816681027 0.321319997 0.000000000
0.844512999 0.331847996 0.000000000
0.000000000 0.188292995 0.003174000
0.000000000 0.200470001 0.000061000
0.032042999 0.214416996 0.000000000
0.104979999 0.209625006 0.000000000
0.184508994 0.206389993 0.000000000
0.254364014 0.195952997 0.000000000
0.328644007 0.188721001 0.000000000
0.407898009 0.194640994 0.000000000
0.487639993 0.208771005 0.000000000
0.558898985 0.227356002 0.000000000
0.616150022 0.246277004 0.000000000
0.664489985 0.264679015 0.000000000
0.710448980 0.285064995 0.000000000
0.756531000 0.305541992 0.000000000
0.799804986 0.332091987 0.000000000
0.837830007 0.356200993 0.000000000
0.854857981 0.370209008 0.000000000
0.000000000 0.221618995 0.001099000
0.000000000 0.229552999 0.000000000
0.030060001 0.244140998 0.000000000
0.109343998 0.250640988 0.000000000
0.188690007 0.248046994 0.000000000
0.268157989 0.253143013 0.000000000
0.342346013 0.241180003 0.000000000
0.423736989 0.232787997 0.000000000
0.508759022 0.238312006 0.000000000
0.581848025 0.251190007 0.000000000
0.640747011 0.269591987 0.000000000
0.692627013 0.289673001 0.000000000
0.736236989 0.309448004 0.000000000
0.778168023 0.331207007 0.000000000
0.820496023 0.358368009 0.000000000
0.856445014 0.386444002 0.000000000
0.868317008 0.396544993 0.000000000
0.000000000 0.252837986 0.001221000
0.000000000 0.257111013 0.000000000
0.036713000 0.271697998 0.000000000
0.118652001 0.288818002 0.000000000
0.197753996 0.288787991 0.000000000
0.285735995 0.303618997 0.000000000
0.365051001 0.313019007 0.000000000
0.443024009 0.296752989 0.000000000
0.525695980 0.285277992 0.000000000
0.597747982 0.287598014 0.000000000
0.656554997 0.297728986 0.000000000
0.710083008 0.315735012 0.000000000
0.755919993 0.334320009 0.000000000
0.797302008 0.359710991 0.000000000
0.838317990 0.387634009 0.000000000
0.873169005 0.416229010 0.000000000
0.876770020 0.424315989 0.000000000
0.000000000 0.281096995 0.009460000
0.000000000 0.290192008 0.000092000
0.051146999 0.303467005 0.000000000
0.135132000 0.325439006 0.000000000
0.216003001 0.328918010 0.000000000
0.300720006 0.343811005 0.000000000
0.385253996 0.366241008 0.000000000
0.463073999 0.376038015 0.000000000
0.541106999 0.359497011 0.000000000
0.612244010 0.343627989 0.000000000
0.669128001 0.342498988 0.000000000
0.720580995 0.349976003 0.000000000
0.768311024 0.365570009 0.000000000
0.810516000 0.388855010 0.000000000
0.851776004 0.416626006 0.000000000
0.881438971 0.444213986 0.000000000
0.877776980 0.451599002 0.000000000
0.000000000 0.311522990 0.008514000
0.006500000 0.326050013 0.000153000
0.070464998 0.337615997 0.000000000
0.155273005 0.357971013 0.000000000
0.234801993 0.364104986 0.000000000
0.311675996 0.377411008 0.000000000
0.398743004 0.402862996 0.000000000
0.475708008 0.431091011 0.000000000
0.548492014 0.441956013 0.000000000
0.619292974 0.424438000 0.000000000
0.677887022 0.406554997 0.000000000
0.729278982 0.401428014 0.000000000
0.776794016 0.407103986 0.000000000
0.818695009 0.420563012 0.000000000
0.860015988 0.444213986 0.000000000
0.880737007 0.470122993 0.000000000
0.876160026 0.473663002 0.000000000
0.000000000 0.348724008 0.000000000
0.019774999 0.360686988 0.000000000
0.086608998 0.372619987 0.000000000
0.171050996 0.387878001 0.000000000
0.249603003 0.396270990 0.000000000
0.322205007 0.408538997 0.000000000
0.405151010 0.436767995 0.000000000
0.482726991 0.464354992 0.000000000
0.549530029 0.493194997 0.000000000
0.615203977 0.509369016 0.000000000
0.678192019 0.491973996 0.000000000
0.734039009 0.471832007 0.000000000
0.780822992 0.462372005 0.000000000
0.825531006 0.463409007 0.000000000
0.864044011 0.474640012 0.000000000
0.878906012 0.495361000 0.000000000
0.874846995 0.495941013 0.000000000
0.000000000 0.386444002 0.000000000
0.027953999 0.394744992 0.000000000
0.095794998 0.407227010 0.000000000
0.180847004 0.418213010 0.000000000
0.261536002 0.429138005 0.000000000
0.332275003 0.441253990 0.000000000
0.406951994 0.464873999 0.000000000
0.487304986 0.498382986 0.000000000
0.556914985 0.527495980 0.000000000
0.611510992 0.557770014 0.000000000
0.669128001 0.578307986 0.000000000
0.729065001 0.559783995 0.000000000
0.778656006 0.534851015 0.000000000
0.827239990 0.520965993 0.000000000
0.865906000 0.517242014 0.000000000
0.877135992 0.526978016 0.000000000
0.873229980 0.525268972 0.000000000
0.004730000 0.411621004 0.000000000
0.043853998 0.417755008 0.000000000
0.108764999 0.431519002 0.000000000
0.193909004 0.441832989 0.000000000
0.274780005 0.454712003 0.000000000
0.342743009 0.467559993 0.000000000
0.415039003 0.492920011 0.000000000
0.488799989 0.526580989 0.000000000
0.561981022 0.562041998 0.000000000
0.620270014 0.590270996 0.000000000
0.663299978 0.619324028 0.000000000
0.715393007 0.644409001 0.000000000
0.769043028 0.623992980 0.000000000
0.820648015 0.593169987 0.000000000
0.863708019 0.576903999 0.000000000
0.872681022 0.569182992 0.000000000
0.869903982 0.563750982 0.000000000
0.025818000 0.433654994 0.000000000
0.062958002 0.440825999 0.000000000
0.123901002 0.457428008 0.000000000
0.205871999 0.472534001 0.000000000
0.283477992 0.487578988 0.000000000
0.355498999 0.505492985 0.000000000
0.426514000 0.533263981 0.000000000
0.495270014 0.564117014 0.000000000
0.561004996 0.598632991 0.000000000
0.622437000 0.631438971 0.000000000
0.669281006 0.653046012 0.000000000
0.705413997 0.677489996 0.000000000
0.755737007 0.703948975 0.000000000
0.810241997 0.681580007 0.000000000
0.859221995 0.647796988 0.000000000
0.864349008 0.625182986 0.000000000
0.863799989 0.617249012 0.000000000
0.028472999 0.490204006 0.000000000
0.063629001 0.500518978 0.000000000
0.119719997 0.524841011 0.000000000
0.198151007 0.545898020 0.000000000
0.275299013 0.559448004 0.000000000
0.349151999 0.582672000 0.000000000
0.423644990 0.612976015 0.000000000
0.493194997 0.640502989 0.000000000
0.556945980 0.662445009 0.000000000
0.613219976 0.681427002 0.000000000
0.664398015 0.700469971 0.000000000
0.710723996 0.717406988 0.000000000
0.746520996 0.734740973 0.000000000
0.794768989 0.757354975 0.000000000
0.849669993 0.732544005 0.000000000
0.866851985 0.696991026 0.000000000
0.862182975 0.681792974 0.000000000
0.003784000 0.561371028 0.000000000
0.046753000 0.571869016 0.000000000
0.115601003 0.585875988 0.000000000
0.190856993 0.609039009 0.000000000
0.264068991 0.635344982 0.000000000
0.341919005 0.665314019 0.000000000
0.419768989 0.690551996 0.000000000
0.491302013 0.712432981 0.000000000
0.557036996 0.729919016 0.000000000
0.614409983 0.742003977 0.000000000
0.661620975 0.751830995 0.000000000
0.705260992 0.760712028 0.000000000
0.746581972 0.769286990 0.000000000
0.783325016 0.781554997 0.000000000
0.831450999 0.799987972 0.000000000
0.862487972 0.766205013 0.000000000
0.859924018 0.739349008 0.000000000
0.000000000 0.676024973 0.000000000
0.000000000 0.682922006 0.000000000
0.038940001 0.692870975 0.000000000
0.153564006 0.708007991 0.000000000
0.251556009 0.720093012 0.000000000
0.339203000 0.730988026 0.000000000
0.421386987 0.742736995 0.000000000
0.494262993 0.752197027 0.000000000
0.557708979 0.760315001 0.000000000
0.613067985 0.769134998 0.000000000
0.659057975 0.776885986 0.000000000
0.701049984 0.782593012 0.000000000
0.745850027 0.787963986 0.000000000
0.783966005 0.797333002 0.000000000
0.824401975 0.818786979 0.000000000
0.855988026 0.820221007 0.000000000
0.856262028 0.799499989 0.000000000
0.000000000 0.041565001 0.029633000
0.002960000 0.049346998 0.034302000
0.059386998 0.052795000 0.030486999
0.108002000 0.056701999 0.017639000
0.151794001 0.056244001 0.001526000
0.202148005 0.076110996 0.000000000
0.255890012 0.091095001 0.000000000
0.308898985 0.103790000 0.000000000
0.371154994 0.114197001 0.000000000
0.439269990 0.122680999 0.016266000
0.500609994 0.133759007 0.058685001
0.557617009 0.143066004 0.084686004
0.615234017 0.155090004 0.096465997
0.668762028 0.171844006 0.105103001
0.723906994 0.182281002 0.107360996
0.774872005 0.189696997 0.103882000
0.812164009 0.200957999 0.098755002
0.000000000 0.056366000 0.034240998
0.000000000 0.059356999 0.039673001
0.041687001 0.070129000 0.041106999
0.096161000 0.081817999 0.033752002
0.149323002 0.091797002 0.006256000
0.204650998 0.100708000 0.000000000
0.264007986 0.113555998 0.000000000
0.320250988 0.125670999 0.000000000
0.380919993 0.135344997 0.000000000
0.446716011 0.141479000 0.000000000
0.509887993 0.145659998 0.021545000
0.569976985 0.154144004 0.065582000
0.623839974 0.166626006 0.082275003
0.677338004 0.177826002 0.089354999
0.732573986 0.189025998 0.094818003
0.781708002 0.199799001 0.088744998
0.817627013 0.210631996 0.069824003
0.000000000 0.089233004 0.032867000
0.000000000 0.092041001 0.035918999
0.029724000 0.097382002 0.030884000
0.100432999 0.095550999 0.014496000
0.158263996 0.108368002 0.001373000
0.215545997 0.117706001 0.000000000
0.275391012 0.125854000 0.000000000
0.333434999 0.136657998 0.000000000
0.395386010 0.145905003 0.000000000
0.460449010 0.153198004 0.000000000
0.522827029 0.160430998 0.012817000
0.581664979 0.169128001 0.046967000
0.634429991 0.179839998 0.060913000
0.687164009 0.192139000 0.070189998
0.742614985 0.205535993 0.062316999
0.789978027 0.215607002 0.028870000
0.825073004 0.226776004 0.005615000
0.000000000 0.122070000 0.017792000
0.000000000 0.134613007 0.025970001
0.014740000 0.137360007 0.007538000
0.096619003 0.135284007 0.001251000
0.175322995 0.125396997 0.000000000
0.238037005 0.134247005 0.000000000
0.299163997 0.149231002 0.000000000
0.356079012 0.163756996 0.000000000
0.416961998 0.176330999 0.000000000
0.480042011 0.186127007 0.000000000
0.539978027 0.197693005 0.001343000
0.599792004 0.210906997 0.005707000
0.653442025 0.221404999 0.007843000
0.703734994 0.233275995 0.009216000
0.756286979 0.245026007 0.007874000
0.799682975 0.258087009 0.002167000
0.834685981 0.268462986 0.000000000
0.000000000 0.155212000 0.010101000
0.000000000 0.167998999 0.018097000
0.018340999 0.176726997 0.000397000
0.096648999 0.177031994 0.000000000
0.177643001 0.169403002 0.000000000
0.254303008 0.160767004 0.000000000
0.325195014 0.167419001 0.000000000
0.388702005 0.180389002 0.000000000
0.452820003 0.195313007 0.000000000
0.517120004 0.210114002 0.000000000
0.573882997 0.224976003 0.000000000
0.626465023 0.242676005 0.000000000
0.677582026 0.258056998 0.000000000
0.724700987 0.275757015 0.000000000
0.773010015 0.297118992 0.000000000
0.814758003 0.316071004 0.000000000
0.843505979 0.328368992 0.000000000
0.000000000 0.188201994 0.008972000
0.000000000 0.197632000 0.011230000
0.016968001 0.215790004 0.000183000
0.098236002 0.214752004 0.000000000
0.185883000 0.214721993 0.000000000
0.261168987 0.202758998 0.000000000
0.340424001 0.194701999 0.000000000
0.421539009 0.198914006 0.000000000
0.496215999 0.215424001 0.000000000
0.559570014 0.233948007 0.000000000
0.612091005 0.249146000 0.000000000
0.658966005 0.267699987 0.000000000
0.705016971 0.286682010 0.000000000
0.751372993 0.307556003 0.000000000
0.795440972 0.333862007 0.000000000
0.833617985 0.357697010 0.000000000
0.853972971 0.372833014 0.000000000
0.000000000 0.221588001 0.009216000
0.000000000 0.226623997 0.008514000
0.015656000 0.249207005 0.000153000
0.100097999 0.255829006 0.000000000
0.187713996 0.253753990 0.000000000
0.268126994 0.257750988 0.000000000
0.349364996 0.247863993 0.000000000
0.437835991 0.238372996 0.000000000
0.524109006 0.243347004 0.000000000
0.594208002 0.258789003 0.000000000
0.647247016 0.276488990 0.000000000
0.691344976 0.293853998 0.000000000
0.732208014 0.311890006 0.000000000
0.776549995 0.334625006 0.000000000
0.818695009 0.364257991 0.000000000
0.853972971 0.390625000 0.000000000
0.867706001 0.402770996 0.000000000
0.000000000 0.252837986 0.009766000
0.000000000 0.255614996 0.008972000
0.022857999 0.278075993 0.000183000
0.109467000 0.294739008 0.000000000
0.194793999 0.292694002 0.000000000
0.283385992 0.306427002 0.000000000
0.365112007 0.316711009 0.000000000
0.450500011 0.303833008 0.000000000
0.538695991 0.292145014 0.000000000
0.611908019 0.294005990 0.000000000
0.667815983 0.306030005 0.000000000
0.716278017 0.323700011 0.000000000
0.758270025 0.340880990 0.000000000
0.796477973 0.363617003 0.000000000
0.836700022 0.392181009 0.000000000
0.871734977 0.419739008 0.000000000
0.876555979 0.429015994 0.000000000
0.000000000 0.281708002 0.019135000
0.000000000 0.288726985 0.008179000
0.039795000 0.307678014 0.000153000
0.126495004 0.330383003 0.000000000
0.210938007 0.332672000 0.000000000
0.297637999 0.346863002 0.000000000
0.384674013 0.368927002 0.000000000
0.465301991 0.380798012 0.000000000
0.547729015 0.366515994 0.000000000
0.622008979 0.351410002 0.000000000
0.678528011 0.351195991 0.000000000
0.729004025 0.358886987 0.000000000
0.776610970 0.373382986 0.000000000
0.814575016 0.394501001 0.000000000
0.851531982 0.421294987 0.000000000
0.880340993 0.447632015 0.000000000
0.877563000 0.455718994 0.000000000
0.000000000 0.310119987 0.023163000
0.000000000 0.327118009 0.003296000
0.060883000 0.340393007 0.000000000
0.145476997 0.361907989 0.000000000
0.228911996 0.367583990 0.000000000
0.307678014 0.380585015 0.000000000
0.398651004 0.406342000 0.000000000
0.477324992 0.434112996 0.000000000
0.550231993 0.445769995 0.000000000
0.623871028 0.430999994 0.000000000
0.684844971 0.414885998 0.000000000
0.735687017 0.409271002 0.000000000
0.782745004 0.413695991 0.000000000
0.825775027 0.427612007 0.000000000
0.863434017 0.450958014 0.000000000
0.880492985 0.474579006 0.000000000
0.875792980 0.479645014 0.000000000
0.000000000 0.345946997 0.015869001
0.003601000 0.365723014 0.000000000
0.075011998 0.376769990 0.000000000
0.160858005 0.391387999 0.000000000
0.243682995 0.398894995 0.000000000
0.318664998 0.410674989 0.000000000
0.404419005 0.439606011 0.000000000
0.484771997 0.468140006 0.000000000
0.550841987 0.496367991 0.000000000
0.615845025 0.511749029 0.000000000
0.680572987 0.496123999 0.000000000
0.736938000 0.478545994 0.000000000
0.783599973 0.469269007 0.000000000
0.828827024 0.469695985 0.000000000
0.868622005 0.481566995 0.000000000
0.878539979 0.499785990 0.000000000
0.874572992 0.501067996 0.000000000
0.000000000 0.387299001 0.015838999
0.015625000 0.397491008 0.000000000
0.084045000 0.409729004 0.000000000
0.172301993 0.420471013 0.000000000
0.253387004 0.430236995 0.000000000
0.328307986 0.442474008 0.000000000
0.406646997 0.467559993 0.000000000
0.488251001 0.501830995 0.000000000
0.557219982 0.530333996 0.000000000
0.612487972 0.559203982 0.000000000
0.669281006 0.579406977 0.000000000
0.727263987 0.563292980 0.000000000
0.781219006 0.541320980 0.000000000
0.829346001 0.526580989 0.000000000
0.869171023 0.523010015 0.000000000
0.876984000 0.529754996 0.000000000
0.873076975 0.528228998 0.000000000
0.000061000 0.415282995 0.023894999
0.037292000 0.417113990 0.000061000
0.103087999 0.429565012 0.000000000
0.186707005 0.441527992 0.000000000
0.265625000 0.455078006 0.000000000
0.339203000 0.470153987 0.000000000
0.414611995 0.495849997 0.000000000
0.490967005 0.530059993 0.000000000
0.564177990 0.565581977 0.000000000
0.620392025 0.592621028 0.000000000
0.663666010 0.620392025 0.000000000
0.715331972 0.645080984 0.000000000
0.768706977 0.626739979 0.000000000
0.822632015 0.598510981 0.000000000
0.868651986 0.580016971 0.000000000
0.872283995 0.571259022 0.000000000
0.869445980 0.565886974 0.000000000
0.003601000 0.438782007 0.025085000
0.055298001 0.442169011 0.000092000
0.118865997 0.457336009 0.000000000
0.198791996 0.471893013 0.000000000
0.278106987 0.487152010 0.000000000
0.350158989 0.504822016 0.000000000
0.423736989 0.532622993 0.000000000
0.494507015 0.567139030 0.000000000
0.561096013 0.602661014 0.000000000
0.622864008 0.634064019 0.000000000
0.669188976 0.656403005 0.000000000
0.705260992 0.679168999 0.000000000
0.755309999 0.702270985 0.000000000
0.809296012 0.681792974 0.000000000
0.863312006 0.652283013 0.000000000
0.863708019 0.627807975 0.000000000
0.862426996 0.617583990 0.000000000
0.016357001 0.500945985 0.001282000
0.054076999 0.506377995 0.000000000
0.113525003 0.525817990 0.000000000
0.191222996 0.547667980 0.000000000
0.270110995 0.563109994 0.000000000
0.344635010 0.579497993 0.000000000
0.419739008 0.609130979 0.000000000
0.490783989 0.640442014 0.000000000
0.556122005 0.665955007 0.000000000
0.613098025 0.685944021 0.000000000
0.664398015 0.702332020 0.000000000
0.710753977 0.716948986 0.000000000
0.746002018 0.733977973 0.000000000
0.793213010 0.756195009 0.000000000
0.848601997 0.733336985 0.000000000
0.866608024 0.700531006 0.000000000
0.862121999 0.683655024 0.000000000
0.000061000 0.573180974 0.000000000
0.033661000 0.576323986 0.000000000
0.110321000 0.587067008 0.000000000
0.186980993 0.606781006 0.000000000
0.258881003 0.629302979 0.000000000
0.335022002 0.655945003 0.000000000
0.413605005 0.685333014 0.000000000
0.486938000 0.710327029 0.000000000
0.555419981 0.730651975 0.000000000
0.614502013 0.745422006 0.000000000
0.661559999 0.753570974 0.000000000
0.705260992 0.760590017 0.000000000
0.746581972 0.768218994 0.000000000
0.783263981 0.778687000 0.000000000
0.830322027 0.799468994 0.000000000
0.862487972 0.766632020 0.000000000
0.859740973 0.742034972 0.000000000
0.000000000 0.683044016 0.000000000
0.000000000 0.686034977 0.000000000
0.026916999 0.696013987 0.000000000
0.149169996 0.706450999 0.000000000
0.245971993 0.720763981 0.000000000
0.328949004 0.733307004 0.000000000
0.410522014 0.744781017 0.000000000
0.485596001 0.754424989 0.000000000
0.553101003 0.763336003 0.000000000
0.610656977 0.772247016 0.000000000
0.657257020 0.779906988 0.000000000
0.700317025 0.785064995 0.000000000
0.743317008 0.789000988 0.000000000
0.783080995 0.799133003 0.000000000
0.822539985 0.818908989 0.000000000
0.855835021 0.823364019 0.000000000
0.856200993 0.800018013 0.000000000
0.000000000 0.063202001 0.056030001
0.002228000 0.067688003 0.057312001
0.070618004 0.071898997 0.068207003
0.125366002 0.073853001 0.058014002
0.177764997 0.076568998 0.054474000
0.232086003 0.074584998 0.037445001
0.289947987 0.080596998 0.009766000
0.338806003 0.089478001 0.000000000
0.389984012 0.102508999 0.017456001
0.449921012 0.117095999 0.051849000
0.510254025 0.129333004 0.072632000
0.567047000 0.143096998 0.092896000
0.619507015 0.155333996 0.104858004
0.670319021 0.170044005 0.111267000
0.721984982 0.179076999 0.115874998
0.767760992 0.188538000 0.115355998
0.808318973 0.197448999 0.108185001
0.000000000 0.070343003 0.056641001
0.001434000 0.076720998 0.064087003
0.058166999 0.081115998 0.076720998
0.115630999 0.088684000 0.071777001
0.171416998 0.087798998 0.057983000
0.226868004 0.079590000 0.021880999
0.284575999 0.082153000 0.001831000
0.334136993 0.093902998 0.000000000
0.389586985 0.107207999 0.010986000
0.452454001 0.119873002 0.043365002
0.511687994 0.132201999 0.069335997
0.569153011 0.145019993 0.085693002
0.621520996 0.157500997 0.097290002
0.673096001 0.171355993 0.107086003
0.728667974 0.181945994 0.109099999
0.776520014 0.192139000 0.104309000
0.812622011 0.201599002 0.098419003
0.000000000 0.095031999 0.073974997
0.000000000 0.099335000 0.078429997
0.041046001 0.102112003 0.081817999
0.099243000 0.111754999 0.078918003
0.158843994 0.121155001 0.068512000
0.222046003 0.127410993 0.038024999
0.284821004 0.131652996 0.005219000
0.346863002 0.136261001 0.000000000
0.405304015 0.142609000 0.000000000
0.464264005 0.146393001 0.004913000
0.525635004 0.150726005 0.030548001
0.582854986 0.161590993 0.064971998
0.635406017 0.172667995 0.077087000
0.686004996 0.184783995 0.081757002
0.741668999 0.197570994 0.077728003
0.788726985 0.210205004 0.063629001
0.823669016 0.219451994 0.019714000
0.000000000 0.142517000 0.083953999
0.000000000 0.139252007 0.068420000
0.004730000 0.144104004 0.068328999
0.089813001 0.146697998 0.069518998
0.169861004 0.142058998 0.056671001
0.234313995 0.146911994 0.023224000
0.295044005 0.157317996 0.000793000
0.359008998 0.166503996 0.000000000
0.422423989 0.173553005 0.000000000
0.481505990 0.178101003 0.000000000
0.539367974 0.183745995 0.001678000
0.597687006 0.195098996 0.007599000
0.650817990 0.207916006 0.011230000
0.700591981 0.218719006 0.008789000
0.752869010 0.230957001 0.008575000
0.796814024 0.246765003 0.007446000
0.832000971 0.259795994 0.000702000
0.000000000 0.173034996 0.065186001
0.000000000 0.167694002 0.050964002
0.000000000 0.184357002 0.050903000
0.074767999 0.192291006 0.026154000
0.174071997 0.180144995 0.017548000
0.254303008 0.166594997 0.002625000
0.321655005 0.173279002 0.000000000
0.385529011 0.188170999 0.000000000
0.447632015 0.201508000 0.000000000
0.506165028 0.213776007 0.000000000
0.561554015 0.226623997 0.000000000
0.616302013 0.240601003 0.000000000
0.667450011 0.253845006 0.000000000
0.715575993 0.269623011 0.000000000
0.765289009 0.288756996 0.000000000
0.808867991 0.305388987 0.000000000
