public/lut/90.cube
TITLE "17x17x17 Adobe/IRIDAS cube 3D LUT exported with GrossGrade v0.2.2 (beta) 64 bit"
DOMAIN_MIN 0 0 0
DOMAIN_MAX 1 1 1
LUT_3D_SIZE 17
0.000000000 0.000000000 0.000000000
0.036437999 0.000793000 0.000000000
0.097838998 0.003052000 0.000793000
0.154816002 0.009003000 0.002228000
0.213898003 0.018921001 0.003754000
0.280822992 0.037689000 0.008179000
0.353942990 0.059967000 0.015656000
0.431793004 0.084412001 0.029022001
0.511870980 0.113219999 0.047210999
0.589172006 0.144379005 0.066680998
0.660156012 0.174713001 0.085937999
0.723021984 0.201782003 0.103058003
0.775757015 0.223663002 0.117310002
0.818297982 0.241393998 0.128722996
0.841674984 0.254516989 0.133698002
0.858062983 0.265502989 0.136322007
0.872375011 0.271423012 0.139465004
0.001526000 0.037108999 0.000732000
0.037018001 0.033996999 0.000793000
0.094360001 0.039978001 0.002258000
0.150757000 0.046478000 0.002319000
0.209960997 0.058228001 0.003754000
0.276854992 0.074584998 0.007629000
0.349700987 0.092072003 0.014893000
0.427581996 0.113770001 0.027953999
0.508117974 0.141295999 0.045837000
0.585937977 0.171142995 0.065613002
0.657958984 0.200286999 0.085205004
0.721679986 0.226196006 0.102783002
0.774994016 0.246978998 0.117583998
0.817840993 0.263550013 0.128784001
0.841858029 0.275635004 0.134002998
0.857971013 0.285400003 0.136902004
0.872344971 0.290344000 0.139740005
0.011444000 0.102721997 0.000793000
0.060028002 0.102660999 0.000793000
0.100891002 0.094208002 0.003052000
0.145996004 0.095245004 0.005280000
0.198578000 0.101775996 0.003937000
0.262755990 0.112121999 0.006073000
0.335938007 0.127808005 0.012634000
0.414153993 0.148620993 0.024506001
0.495667011 0.174713001 0.042266998
0.575806022 0.203491002 0.062896997
0.650452018 0.231720001 0.083038002
0.716979980 0.256743997 0.101685002
0.772247016 0.276306003 0.117310002
0.816437006 0.291473001 0.129363999
0.842132986 0.302551001 0.135132000
0.858031988 0.310912997 0.137756005
0.872161984 0.315063000 0.140808001
0.030517999 0.160278007 0.002228000
0.074767999 0.160095006 0.002228000
0.122711003 0.158508003 0.002380000
0.155791998 0.146880999 0.005371000
0.199677005 0.145110995 0.011139000
0.248657003 0.149048001 0.008881000
0.311522990 0.160430998 0.009949000
0.388733000 0.181273997 0.019286999
0.472503990 0.208008006 0.036162999
0.555877984 0.236785993 0.057098001
0.635315001 0.265594006 0.078827001
0.707184017 0.291168004 0.099547997
0.766601980 0.310546994 0.116637997
0.813416004 0.324889988 0.129760996
0.842957020 0.335052013 0.136902004
0.857971013 0.341766000 0.139465004
0.871796012 0.345427990 0.142242000
0.056915000 0.221008003 0.003937000
0.093018003 0.220580995 0.003937000
0.141509995 0.219971001 0.003754000
0.187041998 0.217071995 0.004578000
0.216582999 0.201049998 0.011444000
0.259521008 0.197753996 0.021545000
0.311035007 0.203491002 0.016479000
0.364960015 0.212463006 0.014496000
0.435822010 0.232666001 0.026794000
0.523163021 0.263947010 0.047516000
0.610900998 0.296600014 0.071808003
0.690186024 0.324921012 0.094788000
0.756805003 0.346740991 0.114899002
0.808380008 0.361510992 0.129760996
0.843384027 0.371338010 0.139160007
0.858093023 0.376861989 0.141846001
0.871367991 0.380187988 0.144592002
0.088257000 0.291411996 0.008179000
0.120453000 0.291045994 0.008179000
0.166808993 0.290069997 0.008423000
0.220580995 0.289734006 0.008179000
0.261444002 0.283874989 0.010651000
0.287842005 0.264586985 0.016814999
0.330413997 0.260132015 0.022522001
0.379516989 0.265320003 0.021454001
0.429535002 0.272857994 0.025787000
0.490447998 0.288147002 0.039032001
0.570586979 0.316588998 0.059631001
0.662383974 0.352600008 0.086577997
0.740966976 0.381103992 0.111144997
0.800445974 0.398773015 0.129333004
0.843445003 0.409332007 0.141967997
0.858276010 0.414337009 0.144835994
0.870911002 0.417113990 0.147277996
0.128479004 0.370422006 0.018250000
0.158751994 0.370148003 0.018250000
0.203094006 0.369231999 0.018524000
0.256164998 0.367644995 0.017731000
0.308562994 0.369262993 0.018524000
0.343811005 0.358916998 0.020660000
0.368010998 0.337188989 0.023864999
0.409453988 0.330718994 0.028472999
0.457336009 0.334412009 0.035186999
0.503448009 0.339417011 0.044585999
0.557403982 0.350800008 0.057250999
0.627318978 0.373535007 0.076599002
0.711181998 0.406158000 0.102660999
0.786530018 0.433501989 0.126953006
0.837646008 0.447052002 0.142853007
0.858794987 0.452942014 0.148102000
0.870330989 0.455231011 0.150603995
0.177521005 0.457123011 0.036224000
0.205383003 0.456878990 0.036224000
0.246674001 0.455933005 0.036224000
0.297149986 0.454102010 0.035889000
0.351958990 0.453247011 0.035431001
0.402161002 0.455291986 0.037108999
0.432525992 0.440551996 0.039429002
0.454926014 0.415374994 0.041320998
0.494567990 0.405853003 0.048737001
0.541594982 0.407959014 0.059021000
0.584442019 0.410735995 0.068542004
0.633331001 0.419342011 0.081359997
0.697632015 0.439574987 0.100464001
0.765625000 0.462859988 0.122222997
0.825103998 0.481505990 0.141601995
0.859161019 0.491180003 0.151947007
0.869843006 0.494049013 0.154204994
0.229340002 0.546112001 0.060699001
0.254669011 0.545746028 0.060699001
0.292694002 0.544768989 0.060424998
0.340972990 0.542999029 0.060120001
0.394713998 0.539916992 0.059509002
0.450042993 0.541260004 0.059631001
0.495972008 0.540648997 0.062011998
0.522156000 0.521728992 0.064452998
0.542693973 0.493988007 0.066132002
0.579528987 0.481292993 0.074157998
0.624602973 0.481597990 0.085235998
0.668883979 0.485473990 0.096863002
0.714935005 0.492309988 0.110016003
0.764221013 0.503021002 0.125244007
0.817017019 0.517028987 0.142364994
0.858551025 0.527465999 0.155762002
0.869292974 0.532562017 0.158234000
0.279724002 0.630585015 0.086700000
0.302855998 0.630249023 0.086700000
0.338073999 0.629271984 0.086516999
0.383911014 0.627440989 0.086273000
0.435882986 0.624634027 0.085479997
0.491149992 0.621734977 0.084930003
0.543518007 0.623992980 0.085906997
0.585388005 0.621093988 0.088776000
0.608551025 0.599487007 0.090851001
0.626953006 0.569763005 0.093139999
0.661652029 0.554809988 0.101410002
0.703064024 0.552155018 0.112640001
0.742888987 0.552825987 0.123931997
0.782836974 0.555328012 0.135956004
0.821838021 0.559265018 0.148102000
0.858672976 0.565186024 0.159942999
0.868682981 0.570374012 0.162476003
0.326752007 0.705841005 0.111969002
0.347716987 0.705565989 0.111969002
0.380005002 0.704680979 0.111969002
0.422913015 0.702911019 0.111450002
0.472503990 0.700408995 0.110900998
0.525909007 0.696564019 0.110045999
0.580048025 0.695648015 0.110260002
0.628325999 0.696898997 0.111298002
0.666534007 0.691802979 0.114837997
0.687560976 0.668976009 0.117493004
0.702759027 0.637023985 0.119354002
0.733062983 0.618651986 0.126953006
0.767059028 0.610718012 0.136536002
0.800598025 0.607177973 0.146544993
0.833588004 0.605620980 0.156708002
0.860229015 0.606140018 0.164428994
0.868255973 0.608458996 0.164489999
0.367157012 0.768096983 0.133972004
0.385895014 0.767822027 0.133972004
0.415221989 0.766937017 0.133727998
0.454650998 0.765289009 0.133606002
0.501250982 0.762878001 0.132995993
0.552124023 0.759765983 0.132568002
0.605193973 0.755432010 0.131592005
0.655121028 0.754639030 0.131714001
0.699096978 0.755005002 0.133606002
0.733977973 0.747741997 0.137573004
0.752563000 0.724090993 0.140929997
0.764069021 0.690460026 0.141875997
0.788513005 0.668456972 0.148376003
0.816466987 0.657348990 0.156128004
0.844025016 0.651122987 0.163482994
0.861510992 0.647460997 0.172699004
0.868224978 0.647705019 0.187469006
0.400330007 0.817107975 0.152039006
0.416992009 0.816833019 0.152039006
0.443237007 0.816009998 0.151886001
0.479155988 0.814484000 0.151641995
0.522400022 0.812195003 0.151244998
0.570190012 0.809234977 0.150818005
0.620818973 0.805328012 0.150085002
0.671570003 0.801604986 0.149657995
0.716552973 0.800171018 0.149657995
0.756531000 0.799408019 0.151978001
0.788818002 0.790741026 0.157226995
0.804168999 0.765807986 0.160309002
0.812835991 0.732056022 0.160889000
0.831511974 0.707732975 0.168915004
0.853302002 0.695617974 0.189239994
0.863007009 0.688843012 0.210388005
0.868713021 0.687439024 0.258026004
0.428618997 0.857177973 0.166382000
0.443114996 0.856903017 0.166015998
0.466461003 0.856140018 0.165802002
0.499022990 0.854674995 0.165527001
0.538695991 0.852539003 0.165222004
0.583312988 0.849609017 0.164642006
0.630981028 0.846099973 0.164001003
0.680846989 0.841491997 0.163299993
0.727509022 0.838317990 0.164489999
0.767426014 0.836456001 0.165191993
0.804749012 0.834258974 0.167877004
0.834290028 0.824950993 0.174866006
0.843903005 0.797362983 0.175629005
0.849883974 0.764679015 0.183960006
0.860107005 0.739929020 0.240844995
0.865143001 0.729400992 0.295105010
0.869597971 0.727356017 0.336638987
0.456238002 0.887755990 0.193847999
0.468261987 0.887664974 0.191467002
0.488860995 0.886992991 0.191497996
0.518065989 0.885712028 0.191833004
0.554168999 0.883880973 0.192260996
0.595305979 0.881377995 0.192718998
0.639708996 0.878325999 0.192931995
0.686096013 0.874602973 0.192322001
0.732819021 0.870330989 0.183532998
0.774719000 0.867249012 0.177093998
0.810576975 0.864867985 0.177551001
0.842742980 0.860870004 0.179626003
0.862304986 0.850036979 0.186066002
0.863463998 0.821135998 0.184357002
0.864929020 0.789947987 0.197876006
0.867523015 0.768065989 0.339141995
0.869629025 0.765502989 0.426544011
0.497253001 0.895874023 0.305510998
0.507628977 0.895905018 0.306243986
0.524932981 0.895874023 0.308685005
0.549987972 0.895812988 0.313170999
0.581511974 0.895752013 0.320098996
0.617583990 0.895690978 0.328094006
0.656799018 0.895599008 0.336304009
0.697234988 0.895569026 0.336822987
0.736572027 0.894774973 0.262084991
0.776184022 0.891997993 0.194092005
0.813965023 0.888580024 0.201294005
0.845398009 0.885680974 0.202941999
0.866973996 0.880370975 0.200714007
0.869597971 0.866546988 0.192901999
0.869903982 0.836516976 0.204589993
0.870055974 0.809203982 0.327086985
0.870208979 0.796599984 0.478118986
0.511078000 0.899963021 0.311706990
0.519562006 0.899963021 0.312500000
0.534789979 0.899841011 0.314545006
0.557281017 0.899658024 0.318634003
0.586151004 0.899474978 0.324889988
0.619934022 0.899200022 0.333496004
0.657288015 0.898864985 0.344909996
0.696898997 0.898468018 0.359710991
0.737761974 0.898041010 0.378661990
0.779724002 0.897643983 0.403961003
0.817200005 0.897185981 0.434204012
0.846953988 0.896697998 0.461548001
0.869690001 0.896332026 0.411651999
0.874023020 0.891417980 0.222075999
0.873474002 0.868346989 0.221038997
0.870087028 0.840789974 0.458770990
0.872313976 0.828979015 0.558593988
0.000732000 0.001526000 0.036224000
0.037903000 0.000000000 0.037170000
0.099335000 0.000793000 0.034790002
0.156005993 0.004639000 0.031036001
0.216095001 0.015076000 0.031585999
0.283356011 0.033904999 0.034697998
0.356384009 0.057647999 0.041198999
0.434204012 0.082396999 0.054443002
0.513854980 0.110808998 0.071898997
0.590546012 0.142089993 0.089934997
0.661284983 0.172729000 0.108002000
0.723601997 0.199707001 0.124176003
0.776275992 0.221832007 0.137573004
0.818512022 0.239563003 0.147980005
0.841552973 0.252777010 0.151549995
0.857909977 0.263855010 0.153595001
0.872528017 0.271697998 0.155396000
0.001526000 0.036285002 0.036316000
0.037078999 0.037018001 0.036316000
0.097809002 0.038605001 0.034118999
0.154113993 0.045074001 0.031799000
0.213135004 0.056000002 0.030944999
0.279327005 0.072265998 0.033904999
0.352234006 0.090301998 0.040436000
0.430054009 0.112090997 0.053436000
0.510161996 0.139374003 0.070343003
0.587646008 0.169128001 0.089080997
0.659057975 0.198273003 0.107299998
0.722351015 0.224364996 0.123870999
0.775390983 0.245026007 0.137573004
0.818023980 0.261748999 0.147980005
0.841674984 0.273773015 0.151794001
0.857909977 0.283782989 0.153624997
0.872406006 0.290618986 0.155913994
0.006165000 0.103423998 0.037903000
0.050507002 0.103455000 0.033417001
0.101104997 0.095734000 0.037749998
0.147460997 0.096771002 0.039337002
0.201508000 0.103271000 0.035004001
0.266295999 0.113159001 0.032471001
0.338928014 0.127991006 0.037415002
0.416900992 0.148314998 0.049621999
0.498108000 0.173888996 0.066711001
0.577637017 0.202271000 0.085724004
0.651732981 0.230254993 0.104919001
0.717864990 0.255309999 0.122620001
0.772705019 0.274719000 0.137085006
0.816619992 0.289977998 0.148010001
0.842072010 0.300994992 0.152802005
0.857849002 0.309417993 0.154602006
0.872070014 0.315308005 0.156403005
0.015228000 0.160950005 0.029724000
0.068359002 0.160552993 0.028839000
0.121094003 0.158325002 0.028870000
0.156494007 0.148010001 0.040649001
0.200562000 0.146514997 0.046997000
0.250243992 0.150420994 0.042603001
0.314209014 0.161835000 0.036681999
0.391876012 0.182251006 0.042938001
0.475371987 0.208405003 0.059540000
0.558104992 0.236663997 0.079406999
0.636932015 0.264892995 0.100249998
0.708221018 0.290253013 0.119690001
0.767180979 0.309386998 0.135802999
0.813721001 0.323608011 0.147918999
0.842864990 0.333649009 0.154113993
0.857940972 0.340514988 0.155823007
0.871765018 0.345580995 0.157654002
0.048004001 0.221221998 0.028380999
0.089263998 0.220763996 0.028595001
0.139374003 0.219940007 0.027740000
0.186615005 0.217224002 0.029877000
0.216827005 0.201812997 0.046875000
0.260132015 0.198944002 0.058166999
0.311798006 0.204346001 0.048981000
0.366607994 0.213378996 0.039886001
0.438782007 0.234038994 0.048889000
0.526062012 0.264892995 0.069182999
0.612884998 0.296721995 0.092377000
0.691588998 0.324523985 0.114593998
0.757568002 0.345977992 0.133331001
0.808776975 0.360504001 0.147277996
0.843262017 0.370148003 0.155853003
0.857971013 0.375640988 0.157409996
0.871338010 0.379608005 0.159332007
0.083618000 0.291289985 0.031585999
0.116791002 0.291106999 0.031647000
0.164306998 0.290100008 0.031433001
0.219116002 0.289703012 0.030609000
0.261321992 0.284209996 0.035186999
0.288329989 0.265289009 0.048767000
0.330962986 0.260650992 0.058685001
0.380035013 0.265655994 0.048340000
0.430054009 0.273041010 0.045196999
0.491638005 0.288574010 0.058899000
0.572815001 0.317321986 0.079406999
0.664246023 0.352874994 0.105590999
0.741913021 0.380768001 0.128876001
0.800872982 0.398009986 0.146118000
0.843414009 0.408477992 0.157714993
0.858184993 0.413421988 0.159575999
0.870818973 0.416168004 0.161284998
0.124329001 0.370453000 0.040192001
0.154937997 0.370209008 0.039733998
0.200165004 0.369354010 0.039733998
0.254303008 0.367736995 0.039489999
0.307770014 0.369049013 0.038635001
0.343811005 0.359160990 0.043334998
0.368438989 0.337615997 0.049896002
0.409882009 0.331084996 0.051238999
0.457367003 0.334351003 0.053619001
0.503509998 0.339293987 0.063170999
0.557953000 0.350739002 0.075255997
0.628356993 0.373688012 0.094054997
0.712677002 0.406464010 0.119629003
0.787262022 0.433135986 0.142792001
0.837921023 0.446442008 0.157805994
0.858672976 0.452208996 0.162169993
0.870270014 0.454407007 0.163727000
0.173157007 0.457275003 0.056488000
0.201446995 0.457001001 0.056488000
0.243530005 0.455994010 0.056090999
0.295013011 0.454223990 0.055511001
0.350647002 0.453155994 0.055450000
0.401580989 0.455231011 0.056122001
0.432525992 0.440735012 0.058014002
0.455260992 0.415740997 0.059509002
0.494933993 0.406158000 0.066284001
0.541687012 0.407898009 0.076141000
0.584167004 0.410338998 0.085266002
0.633179009 0.418945014 0.097259998
0.698059022 0.439392000 0.116028003
0.766143978 0.462646008 0.137053996
0.825562000 0.481200993 0.155670002
0.859130979 0.490631014 0.165009007
0.869750977 0.493346989 0.166473001
0.225067005 0.546142995 0.078979000
0.250670999 0.545929015 0.078979000
0.289429009 0.544951975 0.078979000
0.338501006 0.543151975 0.078491002
0.393097013 0.540039003 0.077271000
0.448974997 0.541167974 0.077271000
0.495604992 0.540709972 0.079346001
0.522247016 0.522033989 0.081329003
0.542999029 0.494323999 0.082764000
0.579833984 0.481537014 0.089934997
0.624724984 0.481597990 0.100616001
0.668700993 0.485137999 0.111571997
0.714600027 0.491820991 0.124054000
0.764252007 0.502655029 0.138641000
0.817107975 0.516692996 0.155059993
0.858458996 0.527100027 0.167724997
0.869202018 0.532104015 0.169524997
0.275786996 0.630707026 0.103790000
0.299071997 0.630402029 0.103606999
0.334807992 0.629455984 0.103240997
0.381377995 0.627563000 0.102904998
0.434051991 0.624786019 0.101929002
0.489838004 0.621703982 0.100860998
0.542846978 0.623901010 0.101685002
0.585174978 0.621185005 0.104156002
0.608703971 0.599700987 0.105865002
0.627197027 0.569976985 0.107697003
0.661835015 0.554992974 0.115203999
0.703032970 0.552062988 0.126067996
0.742766976 0.552582026 0.136627004
0.782745004 0.554992974 0.148102000
0.821686029 0.558898985 0.159546003
0.858582020 0.564818978 0.170837000
0.868682981 0.570159972 0.172851995
0.323029011 0.706023991 0.127105996
0.344146997 0.705749989 0.127105996
0.376892000 0.704833984 0.127105996
0.420349002 0.703064024 0.126495004
0.470580995 0.700562000 0.125732005
0.524505973 0.696747005 0.124603003
0.579070985 0.695586979 0.124481000
0.627776980 0.696807981 0.125121996
0.666320980 0.691924989 0.128142998
0.687622011 0.669158995 0.130523995
0.702880979 0.637206972 0.131926998
0.733124018 0.618744016 0.139008000
0.767059028 0.610687017 0.148040995
0.800567985 0.607025027 0.157317996
0.833557010 0.605437994 0.166778997
0.860229015 0.605926991 0.173920006
0.868286014 0.608336985 0.173462003
0.363739014 0.768280029 0.147614002
0.382660002 0.768036008 0.147551998
0.412261993 0.767150998 0.147339001
0.452208996 0.765471995 0.146851003
0.499329001 0.763062000 0.146239996
0.550629020 0.759917974 0.145538002
0.604125977 0.755523980 0.144196004
0.654479980 0.754639030 0.144164994
0.698760986 0.755005002 0.145416006
0.733825982 0.747833014 0.149139002
0.752624989 0.724213004 0.152069002
0.764099002 0.690612972 0.152527004
0.788573980 0.668578982 0.158478007
0.816406012 0.657410026 0.166228995
0.843932986 0.651184022 0.174346998
0.861510992 0.647460997 0.181976005
0.868255973 0.647705019 0.196044996
0.397278011 0.817291021 0.163848996
0.413971007 0.817047000 0.163848996
0.440490991 0.816223025 0.163848996
0.476806998 0.814697027 0.163482994
0.520385981 0.812377989 0.162964001
0.568665028 0.809387028 0.162109002
0.619597971 0.805481017 0.161346003
0.670746028 0.801635981 0.160460994
0.716125011 0.800200999 0.160126001
0.756286979 0.799468994 0.161987007
0.788666010 0.790862978 0.166808993
0.804168999 0.765900016 0.169678003
0.812835991 0.732208014 0.169495001
0.831543028 0.707916021 0.178375006
0.853302002 0.695770025 0.203338996
0.863036990 0.689025998 0.221435994
0.868804991 0.687622011 0.268433005
0.425841987 0.857299984 0.177429006
0.440308005 0.857116997 0.176483005
0.463836998 0.856353998 0.176146999
0.496735007 0.854888976 0.175720006
0.536804020 0.852721989 0.175231993
0.581757009 0.849822998 0.174529999
0.629700005 0.846252024 0.173614994
0.679840028 0.841643989 0.172484994
0.726836979 0.838409007 0.173339993
0.767090023 0.836456001 0.173828006
0.804534972 0.834351003 0.176117003
0.834167004 0.825043023 0.182433993
0.843963981 0.797515988 0.182891995
0.849883974 0.764832020 0.191131994
0.860107005 0.740143001 0.251159996
0.865172982 0.729705989 0.304625988
0.869629025 0.727721989 0.345001012
0.454192996 0.887878001 0.206542999
0.465880990 0.887786984 0.201752007
0.486420006 0.887145996 0.200286999
0.515869021 0.885864019 0.200378001
0.552245975 0.884002984 0.200623006
0.593719006 0.881531000 0.200896993
0.638396978 0.878479004 0.200928003
0.685028017 0.874724984 0.200133994
0.732056022 0.870422006 0.191162005
0.774231017 0.867309988 0.184295997
0.810271978 0.864929020 0.184112996
0.842559993 0.860961974 0.185912997
0.862304986 0.850188971 0.191925004
0.863463998 0.821259022 0.190033004
0.864898980 0.790039003 0.204346001
0.867554009 0.768401980 0.348174989
0.869719982 0.765900016 0.433472008
0.494933993 0.895905018 0.312164009
0.505340993 0.895905018 0.312988013
0.522765994 0.895843983 0.315246999
0.547973990 0.895781994 0.319611013
0.579711974 0.895752013 0.326294005
0.616088986 0.895690978 0.334412009
0.655609012 0.895630002 0.342406988
0.696349978 0.895569026 0.343993992
0.735778987 0.894774973 0.270354986
0.775542974 0.892090023 0.201202005
0.813628972 0.888671994 0.206359997
0.845184028 0.885742009 0.207672000
0.866913021 0.880402029 0.205200002
0.869597971 0.866668999 0.196960002
0.869843006 0.836578012 0.208679006
0.870117009 0.809448004 0.335296988
0.870330989 0.797088981 0.483916998
0.508759022 0.899963021 0.316619992
0.517302990 0.899963021 0.317413002
0.532531977 0.899841011 0.319427013
0.555236995 0.899658024 0.323242009
0.584351003 0.899444997 0.329376012
0.618346989 0.899200022 0.337951988
0.655945003 0.898833990 0.349121004
0.695801020 0.898468018 0.363739014
0.736877024 0.898070991 0.382506996
0.778991997 0.897643983 0.407532007
0.816711009 0.897156000 0.437285990
0.846710026 0.896697998 0.464599997
0.869629025 0.896270990 0.416016012
0.874023020 0.891448975 0.226531997
0.873565972 0.868591011 0.223450005
0.870148003 0.841094971 0.463836998
0.872437000 0.829375982 0.562439024
0.003052000 0.006897000 0.093262002
0.036377002 0.001526000 0.091187000
0.098511003 0.001465000 0.096161000
0.159058005 0.003021000 0.087738000
0.221435994 0.006317000 0.076568998
0.289550990 0.012482000 0.067474000
0.364136010 0.032318000 0.068878002
0.442656994 0.063689999 0.081482001
0.521515012 0.099395998 0.098082997
0.596710026 0.133819997 0.115264997
0.665619016 0.165222004 0.131683007
0.726226985 0.192596003 0.146210000
0.777740002 0.214995995 0.158325002
0.819213986 0.233429000 0.167266995
0.841156006 0.246735007 0.169586003
0.857604980 0.258148015 0.170684993
0.872192025 0.268126994 0.171661004
0.004578000 0.046448000 0.090424001
0.037108999 0.040894002 0.093535997
0.099701002 0.034148999 0.096252002
0.158172995 0.032745000 0.083587997
0.219909996 0.042815998 0.077941999
0.287903011 0.056061000 0.068816997
0.361236989 0.075714000 0.068328999
0.439148009 0.101685002 0.080169998
0.518036008 0.131194994 0.096892998
0.593932986 0.162047997 0.114074998
0.663573980 0.191376001 0.130829006
0.725036979 0.217407003 0.145905003
0.777038991 0.238708004 0.158080995
0.818908989 0.255676001 0.167266995
0.841216981 0.267975003 0.169829994
0.857573986 0.278136998 0.170745999
0.872130990 0.287048012 0.171875000
0.007599000 0.101104997 0.097046003
0.039519999 0.101685002 0.096984997
0.101898000 0.100739002 0.096344002
0.154816002 0.102020003 0.092804000
0.211303994 0.106964000 0.088134997
0.277191013 0.114745997 0.076782003
0.349274009 0.126892000 0.067199998
0.426514000 0.145781994 0.074951001
0.506531000 0.170349002 0.092712000
0.584442019 0.197784007 0.110687003
0.656615973 0.225159004 0.128264993
0.720825016 0.249878004 0.144164994
0.774505973 0.269318014 0.157349005
0.817534983 0.284485012 0.167114004
0.841674984 0.295502007 0.170441002
0.857513011 0.304138005 0.171204001
0.871796012 0.311401010 0.172333002
0.014435000 0.160126001 0.101439998
0.043609999 0.160644993 0.096344002
0.114105001 0.160217002 0.090545997
0.158112004 0.151764005 0.098053001
0.203125000 0.150635004 0.098174997
0.256897002 0.155028999 0.092528999
0.324981987 0.166351005 0.076935001
0.402801991 0.184966996 0.071044996
0.484710991 0.208862007 0.084076002
0.565674007 0.235474005 0.103821002
0.642578006 0.262389988 0.123108000
0.711914003 0.286651999 0.141144007
0.769226015 0.305054009 0.155700997
0.814697027 0.319153011 0.166534007
0.842406988 0.328918010 0.171204001
0.857544005 0.335785002 0.172058001
0.871398985 0.341399997 0.173004001
0.027008001 0.221984997 0.087341003
0.054871000 0.222106993 0.075530998
0.129120007 0.220550999 0.080169998
0.185424998 0.218170002 0.080963001
0.217925996 0.204192996 0.099426001
0.262847990 0.201842993 0.103790000
0.314056009 0.206055000 0.095245004
0.372925013 0.216187000 0.078156002
0.448944002 0.237914994 0.075562000
0.535399973 0.267150998 0.092681997
0.619507015 0.296600014 0.114716001
0.696106017 0.322876006 0.135436997
0.760070980 0.342956990 0.152649000
0.810028017 0.356963992 0.165527001
0.843047976 0.366272002 0.172362998
0.857697010 0.371674001 0.173217997
