public/lut/90.cube
TITLE "17x17x17 Adobe/IRIDAS cube 3D LUT exported with GrossGrade v0.2.2 (beta) 64 bit"
DOMAIN_MIN 0 0 0
DOMAIN_MAX 1 1 1
LUT_3D_SIZE 5
0.000000000 0.000000000 0.000000000
0.213898003 0.018921001 0.003754000
0.511870980 0.113219999 0.047210999
0.775757015 0.223663002 0.117310002
0.872375011 0.271423012 0.139465004
0.056915000 0.221008003 0.003937000
0.216582999 0.201049998 0.011444000
0.435822010 0.232666001 0.026794000
0.756805003 0.346740991 0.114899002
0.871367991 0.380187988 0.144592002
0.229340002 0.546112001 0.060699001
0.394713998 0.539916992 0.059509002
0.542693973 0.493988007 0.066132002
0.714935005 0.492309988 0.110016003
0.869292974 0.532562017 0.158234000
0.400330007 0.817107975 0.152039006
0.522400022 0.812195003 0.151244998
0.716552973 0.800171018 0.149657995
0.812835991 0.732056022 0.160889000
0.868713021 0.687439024 0.258026004
0.511078000 0.899963021 0.311706990
0.586151004 0.899474978 0.324889988
0.737761974 0.898041010 0.378661990
0.869690001 0.896332026 0.411651999
0.872313976 0.828979015 0.558593988
0.011230000 0.023651000 0.200531006
0.220428005 0.005341000 0.209351003
0.555603027 0.069122002 0.160247996
0.784301996 0.153778002 0.200591996
0.870208979 0.236450002 0.203155994
0.031342000 0.216674998 0.208405003
0.222351000 0.215911999 0.201660007
0.500092030 0.243407995 0.157989994
0.772063971 0.324158013 0.193480998
0.869324028 0.353637993 0.203063995
0.169707999 0.550293028 0.198333994
0.348206013 0.545684993 0.128417999
0.547729015 0.500304997 0.181488007
0.709869027 0.482697010 0.161773995
0.868224978 0.523193002 0.202941999
0.331481993 0.821991026 0.199615002
0.476776004 0.816132009 0.198791996
0.705596983 0.800781012 0.191588998
0.812835991 0.734802008 0.214629993
0.869140983 0.691039979 0.338196009
0.454650998 0.899901986 0.324097008
0.547272027 0.899322987 0.336333990
0.718689024 0.897888005 0.385834008
0.867706001 0.896332026 0.445342988
0.874695003 0.836914003 0.611999989
0.091461003 0.108948000 0.490355998
0.245299995 0.045929000 0.489196986
0.555724978 0.072296001 0.511475027
0.800231993 0.145202994 0.431212991
0.867003977 0.163513005 0.348663002
0.116118997 0.321532995 0.479369998
0.203734994 0.251830995 0.485473990
0.557190001 0.153961003 0.501434028
0.800872982 0.218108997 0.411101997
0.862793028 0.219512999 0.321776986
0.194549993 0.542725027 0.512726009
0.264403999 0.546782970 0.510590017
0.559174001 0.536346018 0.469635010
0.767578006 0.484100014 0.372741997
0.863159001 0.464965999 0.296081990
0.350219995 0.824585021 0.546294987
0.391570985 0.825378001 0.497772008
0.625640988 0.811034977 0.370178014
0.810302973 0.753966987 0.504059017
0.871155024 0.699981987 0.472900003
0.441864014 0.899779975 0.446655005
0.461365014 0.899231017 0.396544993
0.631317019 0.897583008 0.407195985
0.850830019 0.895476997 0.497375011
0.880890012 0.856934011 0.719330013
0.183136001 0.195709005 0.752013981
0.274322987 0.115845002 0.740265012
0.550445974 0.126770005 0.758728027
0.795958996 0.146911994 0.740783989
0.871093988 0.163055003 0.643371999
0.214447007 0.398315012 0.759186029
0.291321009 0.325255990 0.751953006
0.534942985 0.205779999 0.754333019
0.796509027 0.219299003 0.736572027
0.870087028 0.293426991 0.647095025
0.279083014 0.629639030 0.756591976
0.379150003 0.634186029 0.754974008
0.566497982 0.588593006 0.761687994
0.804871023 0.550445974 0.738098025
0.883453012 0.624207020 0.691924989
0.364470989 0.802520990 0.771820009
0.412079006 0.805023015 0.771697998
0.569427013 0.810333014 0.769622982
0.800903022 0.790955007 0.740050972
0.877838016 0.734375000 0.661377013
0.478576988 0.899231017 0.750335991
0.495543987 0.898742974 0.734772027
0.541137993 0.897521973 0.693207026
0.812286019 0.897643983 0.727630973
0.887938976 0.878844976 0.816466987
0.219086006 0.307770014 0.919494987
0.299926996 0.232086003 0.917725027
0.455871999 0.144226000 0.874481022
0.725494027 0.164673001 0.889679015
0.878143013 0.170775995 0.862640023
0.238830999 0.451447010 0.914734006
0.315185994 0.414032012 0.913268983
0.460388005 0.296355993 0.908538997
0.717711985 0.233673006 0.885497987
0.875030994 0.220000997 0.859650016
0.440154999 0.687377989 0.904754996
0.536925972 0.691314995 0.904541016
0.612518013 0.654632986 0.902526975
0.726440012 0.510650992 0.897614002
0.886138976 0.604218006 0.867187977
0.421631008 0.794799984 0.892364979
0.526427984 0.801726997 0.890929997
0.715453982 0.827179015 0.886169016
0.808960021 0.822234988 0.886169016
0.893341005 0.819733024 0.871978998
0.505249023 0.896973014 0.880645990
0.523590028 0.896973014 0.880065978
0.570159972 0.896697998 0.878814995
0.825195014 0.897460997 0.878051996
0.893036008 0.896728992 0.878875971
