public/lut/91.cube
TITLE "17x17x17 Adobe/IRIDAS cube 3D LUT exported with GrossGrade v0.2.2 (beta) 64 bit"
DOMAIN_MIN 0 0 0
DOMAIN_MAX 1 1 1
LUT_3D_SIZE 5
0.054931998 0.068389997 0.075684004
0.200499997 0.086639002 0.065063000
0.387115002 0.087402001 0.043639999
0.631072998 0.097626001 0.053649999
0.851288021 0.116393998 0.011047000
0.054443002 0.177855998 0.074401997
0.258240014 0.174254999 0.043639999
0.475158989 0.190856993 0.048981000
0.711731017 0.234467000 0.024261000
0.889343023 0.295929015 0.000000000
0.048308998 0.319489002 0.061066002
0.267150998 0.370361000 0.050537001
0.545044005 0.331726015 0.037445001
0.751617014 0.376892000 0.000000000
0.915344000 0.456299007 0.000000000
0.050537001 0.530852973 0.061066002
0.293213010 0.595580995 0.050841998
0.554503977 0.649353027 0.046691999
0.766052008 0.622833014 0.000000000
0.939940989 0.663604975 0.000000000
0.059875000 0.801117003 0.061066002
0.343109012 0.848999023 0.044372998
0.568268001 0.883971989 0.000000000
0.770659983 0.910645008 0.000000000
0.956543028 0.899963021 0.000000000
0.063660003 0.105742998 0.180510998
0.144012004 0.116118997 0.175963998
0.335631996 0.113617003 0.167603001
0.613617003 0.135681003 0.182677999
0.866364002 0.166534007 0.170898005
0.064361997 0.185181007 0.213409007
0.163085997 0.225281000 0.241638005
0.442809999 0.258208990 0.223968998
0.724487007 0.292205989 0.199036002
0.906799018 0.336760998 0.173065007
0.070251003 0.411621004 0.318268001
0.165191993 0.411255002 0.253845006
0.508880973 0.412169993 0.177276999
0.746093988 0.472961009 0.209044993
0.921539009 0.535278022 0.169433996
0.067566000 0.629242003 0.332336009
0.194610998 0.627502024 0.256743997
0.505280018 0.676819026 0.242919996
0.768523991 0.683440983 0.154541001
0.942229986 0.712707996 0.114074998
0.062652998 0.846068978 0.328949004
0.288605005 0.879364014 0.278198004
0.551787972 0.899932981 0.279846013
0.770202994 0.924926996 0.211914003
0.960875988 0.916411996 0.147064000
0.075165004 0.145598993 0.304901004
0.120148003 0.150940001 0.297913015
0.253722996 0.152312994 0.294555992
0.580169976 0.150726005 0.281188995
0.844299018 0.207122996 0.335265994
0.077271000 0.217682004 0.359710991
0.148681998 0.261505008 0.426726997
0.333160013 0.297576994 0.396331996
0.676330984 0.350463986 0.397278011
0.897307992 0.400757015 0.432586998
0.072875999 0.340698004 0.408813000
0.171599999 0.397857994 0.472229004
0.386687994 0.484008998 0.507568002
0.739867985 0.543823004 0.498108000
0.929229975 0.578032970 0.500916004
0.088959001 0.654236019 0.578765988
0.212157995 0.704406977 0.614044011
0.447753996 0.713744998 0.527405024
0.768218994 0.726288021 0.436309993
0.949768007 0.749328971 0.469879001
0.105286002 0.906677008 0.643950999
0.242553994 0.913878977 0.598297000
0.543242991 0.920929015 0.501984000
0.770020008 0.936614990 0.491454989
0.965758979 0.929931998 0.289153993
0.088500999 0.203246996 0.510680974
0.136199996 0.205261007 0.492859006
0.208801001 0.201049998 0.487731993
0.515106022 0.194701999 0.423370004
0.832947016 0.218413994 0.458983988
0.092072003 0.285582989 0.575255990
0.162354007 0.328795999 0.645721018
0.253571004 0.341888011 0.636382997
0.640075982 0.388092011 0.559387028
0.886260986 0.431212991 0.615508974
0.087952003 0.389739990 0.631896973
0.182922006 0.438872993 0.687804997
0.312835991 0.497040004 0.735870004
0.714478016 0.570403993 0.684906006
0.921325982 0.605590999 0.714661002
0.085051998 0.579773009 0.687041998
0.208679006 0.626677990 0.730103016
0.365478992 0.682982981 0.761901975
0.764953971 0.765411019 0.747528017
0.950927973 0.773711979 0.745270014
0.104248002 0.863861024 0.780609012
0.252045006 0.886992991 0.795836985
0.425751001 0.924744010 0.811554015
0.772247016 0.948273003 0.742096007
0.970885992 0.947021008 0.695891976
0.111511000 0.286590993 0.755370975
0.165863007 0.287566990 0.744476020
0.234801993 0.276611000 0.741028011
0.400420994 0.300873011 0.757812977
0.824218988 0.290832996 0.697387993
0.118164003 0.373169005 0.798798025
0.196381003 0.408234000 0.842041016
0.278595001 0.416321009 0.849822998
0.535034001 0.472411990 0.847594976
0.878051996 0.453247011 0.801909983
0.114501998 0.469817996 0.843536019
0.214904994 0.508484006 0.877288997
0.335326999 0.546630979 0.907348990
0.664306998 0.621734977 0.899932981
0.916504025 0.605560005 0.875122011
0.108887002 0.622771978 0.888947010
0.234375000 0.659301996 0.912567019
0.381592005 0.700958014 0.932434022
0.742340028 0.776305974 0.932799995
0.945984006 0.781310976 0.925445974
0.103027001 0.837158024 0.927582026
0.253082007 0.860077024 0.942351997
0.424499989 0.889343023 0.952789009
0.753112972 0.943572998 0.955260992
0.964905024 0.962890983 0.945374012
