public/lut/91.cube
TITLE "17x17x17 Adobe/IRIDAS cube 3D LUT exported with GrossGrade v0.2.2 (beta) 64 bit"
DOMAIN_MIN 0 0 0
DOMAIN_MAX 1 1 1
LUT_3D_SIZE 17
0.054931998 0.068389997 0.075684004
0.076233000 0.078460999 0.079071000
0.110625997 0.082305998 0.076782003
0.154937997 0.086364999 0.072815001
0.200499997 0.086639002 0.065063000
0.246399000 0.085326999 0.056793001
0.294494987 0.084259003 0.049500000
0.340088010 0.084503002 0.044342000
0.387115002 0.087402001 0.043639999
0.442413002 0.091278002 0.046478000
0.503661990 0.094420999 0.049927000
0.567565978 0.096436001 0.052551001
0.631072998 0.097626001 0.053649999
0.692351997 0.099182002 0.053649999
0.748778999 0.102448002 0.051514000
0.800629020 0.109099999 0.042084001
0.851288021 0.116393998 0.011047000
0.057404000 0.094208002 0.084137000
0.077239998 0.097473003 0.080565996
0.117554002 0.100616001 0.079163000
0.162444994 0.104401000 0.074951001
0.211364999 0.105988003 0.065215997
0.259948999 0.106415004 0.056334998
0.307953000 0.106628001 0.048370000
0.355773985 0.108825997 0.043579001
0.406830013 0.113495000 0.043639999
0.464233011 0.119323999 0.046478000
0.528106987 0.125762999 0.049927000
0.594452024 0.132843003 0.050811999
0.656830013 0.139525995 0.047545999
0.716552973 0.146301001 0.036804002
0.771239996 0.153350994 0.010437000
0.820708990 0.163176998 0.001343000
0.865906000 0.173034996 0.000153000
0.057434000 0.123047002 0.083861999
0.073363997 0.129425004 0.082886003
0.124664001 0.122741997 0.070648000
0.179413006 0.121734999 0.067199998
0.229523003 0.123595998 0.060089000
0.278290004 0.125153005 0.051208001
0.326476991 0.127746999 0.045104999
0.375824004 0.132781997 0.043274000
0.429717988 0.139495999 0.045012999
0.489136010 0.147094995 0.047821000
0.552460015 0.155396000 0.049224999
0.616333008 0.164428994 0.047455002
0.678955019 0.173828006 0.038543999
0.737091005 0.183562994 0.019135000
0.787598014 0.194763005 0.000092000
0.833434999 0.207122996 0.000000000
0.875458002 0.219146997 0.000000000
0.056212999 0.148926005 0.078887999
0.071686000 0.160583004 0.080750003
0.119019002 0.163422003 0.067382999
0.187621996 0.148040995 0.057007000
0.248474002 0.142120004 0.047913000
0.298462003 0.144745007 0.044403002
0.346527010 0.150757000 0.044617001
0.398375988 0.157532007 0.045715000
0.453247011 0.164856002 0.047455002
0.512268007 0.173400998 0.049286000
0.575896978 0.183044001 0.048981000
0.638671994 0.193604007 0.045134999
0.697205007 0.204375997 0.029479999
0.751128972 0.216156006 0.000732000
0.799072027 0.230072007 0.000000000
0.842528999 0.244019002 0.000000000
0.882263005 0.258697987 0.000000000
0.054443002 0.177855998 0.074401997
0.071686000 0.189667001 0.077301003
0.107787997 0.201354995 0.064148001
0.188659996 0.195160002 0.052338000
0.258240014 0.174254999 0.043639999
0.317229986 0.169738993 0.042328000
0.369231999 0.175109997 0.045012999
0.420989990 0.182586998 0.047272000
0.475158989 0.190856993 0.048981000
0.533325016 0.200195000 0.049683001
0.594695985 0.210693002 0.048218001
0.655028999 0.222106993 0.041992001
0.711731017 0.234467000 0.024261000
0.763184011 0.248016000 0.000000000
0.808135986 0.263641000 0.000000000
0.850250006 0.279846013 0.000000000
0.889343023 0.295929015 0.000000000
0.051879998 0.209289998 0.070343003
0.071686000 0.218323007 0.073974997
0.103271000 0.235565007 0.059142999
0.185821995 0.238860995 0.050048999
0.261139005 0.225219995 0.048492000
0.328155994 0.205626994 0.042236000
0.387878001 0.203003004 0.043396000
0.442595989 0.210051998 0.046905998
0.496490002 0.218596995 0.049316000
0.553070009 0.228577003 0.049683001
0.612578988 0.240112007 0.046569999
0.670746028 0.252411008 0.035828002
0.724059999 0.265410990 0.014587000
0.772918999 0.281006008 0.000000000
0.816619992 0.297881991 0.000000000
0.857268989 0.315308005 0.000000000
0.895569026 0.332733005 0.000000000
0.049927000 0.242339998 0.066405997
0.072021000 0.251221001 0.070739999
0.105682001 0.267852992 0.056731999
0.184325993 0.275481999 0.049102999
0.261658013 0.279448986 0.053070001
0.337493986 0.258545011 0.047180001
0.401946992 0.240722999 0.041779000
0.459960997 0.241301998 0.044647001
0.515869021 0.249450997 0.048218001
0.571166992 0.259308010 0.047851998
0.628112972 0.271301001 0.043731999
0.683715999 0.284545988 0.027344000
0.733916998 0.298889011 0.002075000
0.780547976 0.315887004 0.000000000
0.823607981 0.334381014 0.000000000
0.863372982 0.352813989 0.000000000
0.901642025 0.371154994 0.000000000
0.048583999 0.279480010 0.063049003
0.072632000 0.288818002 0.067199998
0.110443003 0.302123994 0.056580000
0.185608000 0.312714010 0.049805000
0.264954001 0.325836003 0.053436000
0.337462991 0.323668987 0.054839998
0.410277992 0.300384998 0.045898002
0.474579006 0.283203006 0.041320998
0.531737983 0.284424007 0.043915000
0.587401986 0.293884009 0.044312000
0.642426014 0.305633992 0.038451999
0.694640994 0.319732994 0.020293999
0.743134022 0.335938007 0.000000000
0.787750006 0.354126006 0.000000000
0.829468012 0.373566002 0.000000000
0.869049013 0.393433005 0.000000000
0.908294976 0.411895990 0.000000000
0.048308998 0.319489002 0.061066002
0.073394999 0.330321997 0.064240001
0.115447998 0.342009991 0.056519002
0.189087003 0.354918987 0.051483002
0.267150998 0.370361000 0.050537001
0.339417011 0.380950987 0.057587001
0.408661008 0.374969006 0.055573002
0.482360989 0.349700987 0.044220001
0.545044005 0.331726015 0.037445001
0.600220025 0.333954006 0.036285002
0.655457020 0.344788015 0.025635000
0.705565989 0.358916998 0.006744000
0.751617014 0.376892000 0.000000000
0.794494987 0.396544993 0.000000000
0.835143983 0.417358011 0.000000000
0.874846995 0.437866002 0.000000000
0.915344000 0.456299007 0.000000000
0.048308998 0.364104986 0.060486000
0.074615002 0.376311988 0.061370999
0.121674001 0.389129996 0.056426998
0.195006996 0.403046012 0.052460000
0.268371999 0.418976009 0.048981000
0.346161008 0.432738990 0.055114999
0.410919011 0.442169011 0.060577001
0.478850991 0.434845001 0.055084001
0.550231993 0.411193997 0.041901000
0.610229015 0.392944008 0.024597000
0.664641976 0.392852992 0.007111000
0.714874029 0.404998988 0.000000000
0.759124994 0.422302008 0.000000000
0.800812006 0.442871004 0.000000000
0.840820014 0.465454012 0.000000000
0.881042004 0.485504001 0.000000000
0.922179997 0.504059017 0.000000000
0.048981000 0.415405005 0.060486000
0.076263003 0.428223014 0.060486000
0.129851997 0.442474008 0.056366000
0.203734994 0.457428008 0.053130999
0.273559988 0.473082989 0.049408000
0.350403011 0.490173012 0.050781000
0.420379996 0.501861989 0.056885000
0.479918987 0.512145996 0.060028002
0.544158995 0.508759022 0.054047000
0.612366021 0.484252989 0.029205000
0.669861019 0.463257015 0.002747000
0.719666004 0.464020014 0.000000000
0.764862001 0.476776004 0.000000000
0.806427002 0.495270014 0.000000000
0.846068978 0.516846001 0.000000000
0.887390018 0.535919011 0.000000000
0.928466976 0.554108024 0.000000000
0.049683001 0.471161008 0.061066002
0.079223998 0.486663997 0.059905998
0.140838996 0.500335991 0.056366000
0.214141995 0.516937017 0.053771999
0.282379001 0.532958984 0.050537001
0.354369998 0.549773991 0.047607001
0.426207989 0.564423025 0.050964002
0.490204006 0.575958014 0.054535002
0.544768989 0.586914003 0.054962002
0.604583979 0.584900022 0.046875000
0.669098020 0.562012017 0.020843999
0.720367014 0.542145014 0.000000000
0.766846001 0.544005990 0.000000000
0.809937000 0.556273997 0.000000000
0.850615978 0.573517025 0.000000000
0.893127024 0.590575993 0.000000000
0.934296012 0.607056022 0.000000000
0.050537001 0.530852973 0.061066002
0.083405003 0.549835026 0.059723001
0.154082999 0.562560976 0.056366000
0.225067005 0.579132020 0.053771999
0.293213010 0.595580995 0.050841998
0.360168010 0.610442996 0.046783000
0.429351985 0.626221001 0.045104999
0.496154994 0.639007986 0.046753000
0.554503977 0.649353027 0.046691999
0.606109977 0.660767019 0.041443001
0.661162972 0.660278022 0.021392999
0.718657970 0.638947010 0.000000000
0.766052008 0.622833014 0.000000000
0.811249018 0.624664009 0.000000000
0.854735970 0.635619998 0.000000000
0.898621023 0.649444997 0.000000000
0.939940989 0.663604975 0.000000000
0.051819000 0.594390988 0.061066002
0.091522001 0.615570009 0.058594000
0.167511001 0.629119992 0.056274001
0.237822995 0.644226015 0.053771999
0.304565012 0.659575999 0.050689999
0.369446009 0.673676014 0.046967000
0.434906006 0.687530994 0.040649001
0.499695003 0.700500011 0.037262000
0.560576975 0.711028993 0.033752002
0.614409983 0.720275998 0.021637000
0.663115978 0.730315983 0.005615000
0.713469982 0.730926991 0.000000000
0.765380979 0.712279975 0.000000000
0.812530994 0.699981987 0.000000000
0.857879996 0.700438976 0.000000000
0.902679026 0.709167004 0.000000000
0.945007026 0.721161008 0.000000000
0.053009000 0.661530018 0.060973998
0.107818998 0.683166981 0.057464998
0.183289006 0.696013987 0.055663999
0.251801014 0.710327029 0.053040002
0.317719012 0.723541021 0.049743999
0.380980998 0.736236989 0.045104999
0.442840993 0.748108029 0.037842002
0.504271984 0.759917974 0.025574001
0.563385010 0.769927979 0.009857000
0.619202018 0.778900027 0.000458000
0.670684993 0.788330019 0.000000000
0.717742980 0.796875000 0.000000000
0.765655994 0.798156977 0.000000000
0.814117014 0.782135010 0.000000000
0.860167980 0.771544993 0.000000000
0.905762017 0.772796988 0.000000000
0.949828982 0.778473020 0.000000000
0.054382000 0.730468988 0.060486000
0.128325999 0.750916004 0.056244001
0.200133994 0.762848020 0.054320998
0.267547995 0.775481999 0.051238999
0.331481993 0.787200987 0.047729000
0.391846001 0.797667980 0.042144999
0.451476991 0.807982981 0.033356000
0.509612978 0.817596018 0.010803000
0.566070974 0.826354980 0.000000000
0.621155024 0.835143983 0.000000000
0.674286008 0.843963981 0.000000000
0.723662972 0.851958990 0.000000000
0.768523991 0.858672976 0.000000000
0.813781977 0.859588981 0.000000000
0.862182975 0.847534001 0.000000000
0.908508003 0.838715017 0.000000000
0.952942014 0.838927984 0.000000000
0.059875000 0.801117003 0.061066002
0.143616006 0.822510004 0.055023000
0.215850994 0.829132020 0.052429002
0.281342000 0.839203000 0.049102999
0.343109012 0.848999023 0.044372998
0.401825011 0.858551025 0.037811000
0.458801001 0.867461979 0.023071000
0.513671994 0.875580013 0.005676000
0.568268001 0.883971989 0.000000000
0.622650027 0.891968012 0.000000000
0.675171018 0.898986995 0.000000000
0.724792004 0.905395985 0.000000000
0.770659983 0.910645008 0.000000000
0.815186024 0.915436029 0.000000000
0.860535026 0.916869998 0.000000000
0.909301996 0.908568978 0.000000000
0.956543028 0.899963021 0.000000000
0.057404000 0.076995999 0.098724000
0.071837999 0.081817999 0.098755002
0.103882000 0.087188996 0.102112003
0.143981993 0.089873999 0.100005999
0.186890006 0.092712000 0.097900003
0.231415004 0.093750000 0.093627997
0.277862996 0.094085999 0.090117998
0.328368992 0.093842000 0.086608998
0.384887993 0.093718998 0.083343998
0.443024009 0.094146997 0.079285003
0.502655029 0.096129999 0.077972002
0.567322016 0.099303998 0.081115998
0.632996023 0.102448002 0.082732998
0.694823980 0.107268997 0.081298999
0.752318978 0.112884998 0.077026002
0.805510998 0.118346997 0.063506998
0.855926991 0.123870999 0.020203000
0.058623999 0.089690998 0.101410002
0.075286999 0.099335000 0.108276002
0.112609997 0.109589003 0.109833002
0.158325002 0.114257999 0.105682001
0.206421003 0.116425000 0.100066997
0.255248994 0.117218003 0.094085999
0.305602998 0.118317001 0.088959001
0.361236989 0.118652001 0.083007999
0.419402987 0.118500002 0.076110996
0.477019995 0.120453000 0.072662003
0.538635015 0.125304997 0.075072996
0.604950011 0.130797997 0.077728003
0.667267025 0.136932001 0.075562000
0.724915028 0.143859997 0.069243997
0.778046012 0.150481999 0.051665999
0.826416016 0.158172995 0.018279999
0.870117009 0.169006005 0.018616000
0.059813999 0.131835997 0.121886998
0.076201998 0.134124994 0.118988000
0.116699003 0.134827003 0.105896004
0.167786002 0.135833994 0.106109999
0.216308996 0.139374003 0.102660999
0.267302990 0.142455995 0.095764004
0.319671988 0.144592002 0.089050002
0.376006991 0.146056995 0.081359997
0.434264988 0.147308007 0.073608004
0.494141012 0.151276007 0.070037998
0.558715999 0.158721998 0.070708998
0.625640988 0.167603001 0.070037998
0.688232005 0.176941007 0.062652998
0.744292974 0.186492994 0.044403002
0.793976009 0.198058993 0.017792000
0.838042974 0.212189004 0.017548000
0.878844976 0.225922003 0.019257000
0.058136001 0.166718006 0.122589000
0.075745001 0.165039003 0.114593998
0.102356002 0.173308998 0.106688999
0.178497002 0.159789994 0.092620999
0.236420006 0.158417001 0.092285000
0.286469012 0.162810996 0.090088002
0.339691013 0.166594997 0.083649002
0.395233005 0.169189006 0.075255997
0.452454001 0.173096001 0.069945998
0.513976991 0.180176005 0.068816997
0.579346001 0.189818993 0.069091998
0.643676996 0.200745001 0.065490998
0.703400016 0.212707996 0.049469002
0.756775022 0.225922003 0.020172000
0.802643001 0.242553994 0.016602000
0.844848990 0.259766012 0.018585000
0.884827018 0.275177002 0.019378999
0.054565001 0.198181003 0.116364002
0.074738003 0.194000006 0.108062997
0.094116002 0.208343998 0.104919001
0.173034996 0.206634998 0.086121000
0.248992994 0.187530994 0.077422999
0.310546994 0.182433993 0.073394999
0.364104986 0.186707005 0.071837999
0.415526986 0.192200005 0.070464998
0.470611989 0.199036002 0.069945998
0.532195985 0.207916006 0.070496000
0.597229004 0.218780994 0.069182999
0.659729004 0.231475994 0.062958002
0.716461003 0.245697007 0.043853998
0.766692996 0.261687994 0.014404000
0.811127007 0.280669987 0.017944001
0.852172971 0.299438000 0.019226000
0.891417980 0.316558987 0.020172000
0.051849000 0.229218006 0.110413000
0.073853001 0.225433007 0.103179999
0.093291998 0.241760001 0.103485003
0.161651999 0.249267995 0.087341003
0.247437000 0.242676005 0.075409003
0.321808010 0.219604000 0.068207003
0.383087009 0.213073999 0.067139000
0.437743992 0.218811005 0.069274999
0.491759986 0.227173001 0.070983998
0.550567985 0.237305000 0.071442001
0.613250971 0.249329001 0.068695001
0.673096001 0.263062000 0.059845001
0.727020025 0.279083014 0.039581001
0.774963021 0.297179997 0.015778000
0.818359017 0.317382991 0.019165000
0.858276010 0.337401986 0.020111000
0.897918999 0.354858011 0.020904999
0.049224999 0.261931986 0.105286002
0.074157998 0.259918004 0.101256996
0.095581003 0.275725991 0.102050997
0.156769007 0.287627995 0.087615997
0.242644995 0.291655988 0.075745001
0.321837991 0.278687000 0.073882997
0.393615991 0.255524009 0.068664998
0.456328988 0.249724999 0.068053998
0.512908995 0.257416010 0.071075000
0.569244027 0.268523991 0.070952997
0.627593994 0.282012999 0.067351997
0.684325993 0.297089010 0.055573002
0.735961974 0.314361989 0.033325002
0.782135010 0.334381014 0.017456001
0.824187994 0.356353998 0.020172000
0.864684999 0.376587003 0.020935001
0.904388011 0.394257009 0.022186000
0.048248000 0.297455013 0.101379000
0.075438999 0.296600014 0.100432999
0.098328002 0.312743992 0.101166002
0.157104000 0.328033000 0.085541002
0.239014000 0.332915992 0.075409003
0.319916010 0.337615997 0.079529002
0.395415992 0.321776986 0.076476999
0.466248006 0.298247993 0.069489002
0.529754996 0.293457001 0.068145998
0.587189019 0.303314000 0.068420000
0.641815007 0.317535013 0.064452998
0.694763005 0.334838986 0.048675999
0.744109988 0.354034007 0.023254000
0.788695991 0.375030994 0.019409001
0.829559028 0.397888005 0.021392999
0.870850027 0.417571992 0.022125000
0.910521984 0.436127007 0.023193000
0.047545999 0.336730987 0.098938003
0.076355003 0.337157995 0.099030003
0.100983001 0.354187012 0.099822998
0.160309002 0.370696992 0.084472999
0.238342002 0.375824004 0.076080002
0.321197987 0.388671994 0.079254001
0.392975003 0.391936988 0.083557002
0.468811005 0.372130990 0.077393003
0.540374994 0.349303991 0.068145998
0.600830019 0.345824987 0.063202001
0.655669987 0.357329994 0.058014002
0.705109000 0.375793010 0.041260000
0.751250982 0.397949010 0.018371999
0.794494987 0.420134991 0.021179000
0.835448980 0.442351997 0.022583000
0.876891971 0.461517006 0.023314999
0.916565001 0.480437994 0.024444999
0.046905998 0.381377995 0.098724000
0.077728003 0.382874012 0.098389000
0.104309000 0.402007997 0.097382002
0.166869998 0.417389005 0.084716998
0.241973996 0.423920006 0.077849999
0.322144002 0.438751012 0.076782003
0.395264000 0.452605993 0.083770998
0.466735989 0.453278005 0.085814998
0.539856017 0.434845001 0.077483997
0.606536984 0.412719995 0.064971998
0.665161014 0.409087986 0.048096001
0.715057015 0.422973990 0.029266000
0.758361995 0.445006996 0.020293999
0.799926996 0.468780994 0.022736000
0.841858029 0.489776999 0.024109000
0.882965028 0.508819997 0.024840999
0.922698975 0.526916981 0.025574001
0.047607001 0.431946009 0.100066997
0.079163000 0.433623999 0.097503997
0.107818998 0.456054986 0.094573997
0.176208004 0.469971001 0.085022002
0.249512002 0.478516012 0.080200002
0.323029011 0.493378013 0.077118002
0.400115997 0.509949028 0.080261000
0.469024986 0.523163021 0.086212002
0.534546018 0.526093006 0.086364999
0.603515983 0.508971989 0.076720998
0.666930974 0.486297995 0.051635999
0.720305979 0.484070003 0.024901999
0.764403999 0.499083996 0.022675000
0.805664003 0.520325005 0.024292000
0.848174989 0.540069997 0.025665000
0.888976991 0.558593988 0.026366999
0.928893983 0.575591981 0.027100001
0.048308998 0.486786008 0.101593003
0.081023999 0.489257991 0.096984997
0.113495000 0.514801025 0.092620999
0.187103003 0.527465999 0.086181998
0.259705007 0.537810981 0.082520001
0.329254001 0.552184999 0.079558998
0.402373999 0.569671988 0.077483997
0.475861013 0.584015012 0.080871999
0.539246023 0.597015023 0.084076002
0.598968983 0.601806998 0.081848003
0.662322998 0.585693002 0.068878002
0.718719006 0.564697027 0.041992001
0.766663015 0.565063000 0.023345999
0.810608029 0.577544987 0.026520001
0.853789985 0.594330013 0.027222000
0.894653022 0.611083984 0.027892999
0.935088992 0.626281977 0.028625000
0.049835000 0.545135021 0.104033999
0.083374001 0.549133003 0.098145001
0.124847002 0.578705013 0.091614000
0.200103998 0.589080989 0.087462999
0.271362007 0.599487007 0.084624998
0.339293987 0.613403022 0.081573002
0.407348990 0.629607975 0.077362001
0.478606999 0.645294011 0.075530998
0.546020985 0.657257020 0.076874003
0.603026986 0.668945014 0.075043000
0.657745004 0.673645020 0.065613002
0.715301991 0.659026980 0.046326000
0.766265988 0.642273009 0.025146000
0.813538015 0.642760992 0.028076001
0.858153999 0.652924001 0.028778000
0.899200022 0.666199028 0.029418999
0.940796018 0.678497016 0.030212000
0.052460000 0.604919016 0.108672999
0.086577997 0.613341987 0.100555003
0.138488993 0.645569026 0.092437997
0.215362996 0.655395985 0.088684000
0.286406994 0.664520025 0.086121000
0.352416992 0.676514030 0.082976997
0.417113990 0.690369010 0.077941999
0.483855993 0.704742014 0.071471997
0.550323009 0.716705024 0.068297997
0.609802008 0.726500988 0.063170999
0.662415028 0.737487972 0.044220001
0.714416981 0.742431998 0.025146000
0.766387999 0.729187012 0.029418999
0.815002024 0.715179026 0.029572001
0.860930979 0.715210021 0.030365000
0.903503001 0.722656012 0.031036001
0.945708990 0.732788026 0.031738002
0.054962002 0.667541981 0.113159001
0.091247998 0.681762993 0.105042003
0.156188995 0.715301991 0.094299003
0.231933996 0.724242985 0.091643997
0.302184999 0.730255008 0.089111000
0.366241008 0.739226997 0.086089998
0.429138005 0.750580013 0.079865001
0.491302013 0.762481987 0.071777001
0.554015994 0.773773015 0.058715999
0.614960015 0.784057975 0.039337002
0.669616997 0.793640018 0.027344000
0.718810976 0.802947998 0.030304000
0.766753972 0.807036996 0.031005999
0.815155029 0.795073986 0.031158000
0.862335026 0.782805979 0.031891000
0.907195985 0.782867014 0.032593001
0.950348020 0.787109017 0.033325002
0.057434000 0.729369998 0.117126003
0.096771002 0.756560981 0.109252997
0.175079003 0.784119010 0.098663002
0.250458002 0.789276004 0.098328002
0.318358988 0.795653999 0.095917001
0.380401999 0.802062988 0.092528999
0.440917999 0.810424984 0.089142002
0.499785990 0.819823980 0.080871999
0.558440983 0.829773009 0.050322998
0.616913021 0.839690983 0.028046001
0.672424018 0.848479986 0.031250000
0.722564995 0.855926991 0.032042999
0.767791986 0.861999989 0.032593001
0.813690007 0.865112007 0.033356000
0.861846983 0.856383979 0.033417001
0.909331977 0.846343994 0.034148999
0.954253972 0.845427990 0.034912001
0.060486000 0.793182015 0.121918000
0.109131001 0.836028993 0.110290997
0.195556998 0.848174989 0.106201001
0.268218994 0.852966011 0.107483000
0.333007991 0.857604980 0.107543997
0.392517000 0.862609982 0.106812000
0.450011998 0.870208979 0.102385998
0.506622016 0.879119992 0.090424001
0.562897027 0.888184011 0.058136001
0.618377984 0.896117985 0.031952001
0.671814024 0.902526975 0.031891000
0.722625971 0.908447027 0.034118999
0.770476997 0.913818002 0.034302000
0.815369010 0.918456972 0.034851000
0.860747993 0.920807004 0.035645001
0.909148991 0.914124012 0.035675000
0.957702994 0.904846013 0.036437999
0.059875000 0.086669996 0.123870999
0.070281997 0.089690998 0.122893997
0.093566999 0.095490001 0.123259999
0.138245001 0.093810998 0.121521004
0.180816993 0.094788000 0.118865997
0.220122993 0.097900003 0.119231999
0.260650992 0.100066997 0.120544001
0.305115014 0.102813996 0.121918000
0.357605010 0.104767002 0.121582001
0.422089010 0.106140003 0.119202003
0.497711003 0.107116997 0.115601003
0.571289003 0.108124003 0.110198997
0.635039985 0.113007002 0.106964000
0.700438976 0.119019002 0.105103001
0.759949028 0.124724999 0.099639997
0.813232005 0.129394993 0.087462999
0.861176014 0.133881003 0.054871000
0.060973998 0.098511003 0.130431995
0.074767999 0.106049001 0.136504993
0.098816000 0.114197001 0.136414006
0.145202994 0.119934000 0.136078000
0.191559002 0.124603003 0.134002998
0.236205995 0.129088998 0.133209005
0.282593012 0.132172003 0.131317005
0.336243004 0.133698002 0.127868995
0.397522002 0.134094000 0.123383000
0.467620999 0.133544996 0.117095999
0.540648997 0.133484006 0.109343998
0.606750011 0.136504993 0.103363000
0.668304026 0.142425999 0.099792004
0.728148997 0.148803994 0.094971001
0.781708002 0.154754996 0.081848003
0.830505013 0.161010996 0.050629001
0.873076975 0.171233997 0.036469001
0.061066002 0.119171001 0.135468006
0.076782003 0.127776995 0.142578006
0.100493997 0.136779994 0.147034004
0.152953997 0.148498997 0.148193002
0.207184002 0.153503001 0.144042999
0.258484006 0.155396000 0.138306007
0.312743992 0.156525001 0.132080004
0.372162014 0.157074004 0.124816999
0.436309993 0.157166004 0.117400996
0.505675972 0.157196000 0.108306997
0.573760986 0.159332007 0.099457003
0.635559022 0.165863007 0.094146997
0.696106017 0.174957007 0.088988997
0.750732005 0.183745995 0.074036002
0.800293028 0.194000006 0.041565001
0.843078971 0.207396999 0.034912001
0.882750988 0.221160993 0.037842002
0.060394000 0.165832996 0.160064995
0.077758998 0.177184999 0.166534007
0.097594999 0.182007000 0.162139997
0.163756996 0.176788002 0.138366997
0.220917001 0.176909998 0.139129996
0.271881014 0.182098001 0.140198007
0.325073004 0.186370999 0.135468006
0.384247005 0.189575002 0.127563000
0.447845012 0.192260996 0.119567998
0.516815007 0.194610998 0.109252997
0.586578012 0.199310005 0.097900003
0.649505973 0.208954006 0.088988997
0.708190978 0.221251994 0.077910997
0.760985970 0.235199004 0.057007000
0.806366026 0.251801014 0.031342000
0.847899973 0.268371999 0.034759998
0.887603998 0.283416986 0.039489999
0.059723001 0.213531002 0.175567999
0.077362001 0.219208002 0.172699004
0.096892998 0.216308996 0.156769007
0.144896999 0.219788000 0.137878001
0.232849002 0.202300996 0.119994998
0.294434011 0.202515006 0.127318993
0.344420999 0.209900007 0.130066007
0.401854992 0.215057001 0.123383000
0.465148985 0.218750000 0.113830999
0.531280994 0.223755002 0.102844000
0.597564995 0.233032003 0.093414001
0.659668028 0.246886998 0.086425997
0.716766000 0.263366997 0.074859999
0.767669976 0.282103986 0.053222999
0.812317014 0.301636010 0.031342000
0.852966011 0.320313007 0.035431001
