public/lut/92.cube
TITLE "17x17x17 Adobe/IRIDAS cube 3D LUT exported with GrossGrade v0.2.2 (beta) 64 bit"
DOMAIN_MIN 0 0 0
DOMAIN_MAX 1 1 1
LUT_3D_SIZE 5
0.054931998 0.068389997 0.075684004
0.196349993 0.093750000 0.070525996
0.367370993 0.102813996 0.051697001
0.596831977 0.125824004 0.069214001
0.788085997 0.165588006 0.015778000
0.062224999 0.167419001 0.085175000
0.259734988 0.161072001 0.051360998
0.469298989 0.176514000 0.061066002
0.698455989 0.229003996 0.032318000
0.836486995 0.317840993 0.000000000
0.064240001 0.258423001 0.081726000
0.273254007 0.323974997 0.068542004
0.563934028 0.261902004 0.052979000
0.752349973 0.314087003 0.000000000
0.861176014 0.428314000 0.000000000
0.081482001 0.397217005 0.098236002
0.320374012 0.498504996 0.082886003
0.591919005 0.580322027 0.078979000
0.778687000 0.523193002 0.000000000
0.884247005 0.583221018 0.000000000
0.121399000 0.598479986 0.124022998
0.440216005 0.691802979 0.091095001
0.644164979 0.755156994 0.000000000
0.796172976 0.800536990 0.000000000
0.895172000 0.758361995 0.000000000
0.066467002 0.110321000 0.177734002
0.134277001 0.127013996 0.169066995
0.305572987 0.134277001 0.152557001
0.573517025 0.175567999 0.162902996
0.808960021 0.238280997 0.136870995
0.073913999 0.175049007 0.207580999
0.147735998 0.220825002 0.240112007
0.428710997 0.260132015 0.217437997
0.715515018 0.307067990 0.181213006
0.861724973 0.378753990 0.135864004
0.094269000 0.381256014 0.341675013
0.134247005 0.378937006 0.255187988
0.512633979 0.375366002 0.146636993
0.744049013 0.459044993 0.188079998
0.870940983 0.558044016 0.117218003
0.109527998 0.554931998 0.382995993
0.159514993 0.549835026 0.261016995
0.509002984 0.626190007 0.237976000
0.783080995 0.631012022 0.078552000
0.888306022 0.677703977 0.000000000
0.127105996 0.688323975 0.409943014
0.329070985 0.753081977 0.307922006
0.609740973 0.788239002 0.313140988
0.795257986 0.832000971 0.164673001
0.905304015 0.797455013 0.000000000
0.081482001 0.158080995 0.288239002
0.104248002 0.169495001 0.273254007
0.203491002 0.183197007 0.252624989
0.527374029 0.197601005 0.213135004
0.774901986 0.299499989 0.261718988
0.090790004 0.211914003 0.335083008
0.128417999 0.263763011 0.412108988
0.288666010 0.310211003 0.368622005
0.649260998 0.387389988 0.359589010
0.846008003 0.476134986 0.398894995
0.098938003 0.283203006 0.375945985
0.141997993 0.359039009 0.461670011
0.337523997 0.477019995 0.510680974
0.734497011 0.567169011 0.497222990
0.882416010 0.629760981 0.501525998
0.145416006 0.593750000 0.628386974
0.187592000 0.674713016 0.688232005
0.411011010 0.688018978 0.546692014
0.782898009 0.707306027 0.385284007
0.902007997 0.748656988 0.441193014
0.215515003 0.809387028 0.794434011
0.234650001 0.822082996 0.703400016
0.592499018 0.831146002 0.504211009
0.795349002 0.856903017 0.480713010
0.916382015 0.828552008 0.000000000
0.100616001 0.230620995 0.478332996
0.117645003 0.238922000 0.451018989
0.140166998 0.248291001 0.425781012
0.435516000 0.260773003 0.312653005
0.754119992 0.321563989 0.321471989
0.111419998 0.292998999 0.538543999
0.141937003 0.347106993 0.621490002
0.180450007 0.369109988 0.602721989
0.596466005 0.442627013 0.484221995
0.826447010 0.526549995 0.544646978
0.121886998 0.346953988 0.586151004
0.155670002 0.414000988 0.662688971
0.226043999 0.495667011 0.729369998
0.694611013 0.609650016 0.648742974
0.867125988 0.678435981 0.690216005
0.140808001 0.467743009 0.645690978
0.180664003 0.543120980 0.716643989
0.266205013 0.633635998 0.770690978
0.777405024 0.778137028 0.745330989
0.902679026 0.797150016 0.740570009
0.216278002 0.717346013 0.813567996
0.254303008 0.762695014 0.846313000
0.338562012 0.836731017 0.883789003
0.801146984 0.881377995 0.731903017
0.927825987 0.868439019 0.615265012
0.132721007 0.340606987 0.709563971
0.147857994 0.348601997 0.690216005
0.160950005 0.353576988 0.668914974
0.268646002 0.414581001 0.666442990
0.734710991 0.439240009 0.543242991
0.148346007 0.404419005 0.747833014
0.181670994 0.451781988 0.798461974
0.204192996 0.472198009 0.799377024
0.442261010 0.568603992 0.781830013
0.809356987 0.567780018 0.690398991
0.163055003 0.457001001 0.777221978
0.199340999 0.512206972 0.822937012
0.253051996 0.569854975 0.861145020
0.613372982 0.694000006 0.840606987
0.855742991 0.682403982 0.784210026
0.184783995 0.534148991 0.811676025
0.223235995 0.594330013 0.850127995
0.289763987 0.662872016 0.880156994
0.735503972 0.799315989 0.873961985
0.890532970 0.813416004 0.848784983
0.218566999 0.654266000 0.846405029
0.256561011 0.699706972 0.876403987
0.332244992 0.754424989 0.895354986
0.757293999 0.867583990 0.895049989
0.910950005 0.905791998 0.861145020
