public/lut/92.cube
TITLE "17x17x17 Adobe/IRIDAS cube 3D LUT exported with GrossGrade v0.2.2 (beta) 64 bit"
DOMAIN_MIN 0 0 0
DOMAIN_MAX 1 1 1
LUT_3D_SIZE 17
0.054931998 0.068389997 0.075684004
0.076720998 0.079925999 0.080475003
0.109985001 0.085510001 0.079650998
0.152802005 0.091522001 0.077331997
0.196349993 0.093750000 0.070525996
0.239563003 0.094116002 0.062378000
0.284545988 0.094696000 0.055633999
0.325226009 0.097167999 0.050659001
0.367370993 0.102813996 0.051697001
0.418121010 0.109618999 0.056122001
0.475829989 0.115997002 0.061492998
0.536682010 0.121399000 0.065978996
0.596831977 0.125824004 0.069214001
0.653931022 0.130859002 0.071075000
0.704315007 0.138916001 0.069397002
0.747313976 0.151276007 0.058623999
0.788085997 0.165588006 0.015778000
0.059234999 0.095062003 0.086823002
0.077728003 0.098632999 0.083313003
0.117248997 0.102539003 0.083313003
0.160430998 0.107024997 0.079833999
0.207976997 0.109710999 0.071167000
0.254088998 0.111206003 0.062378000
0.299163997 0.112457000 0.054412998
0.343201011 0.116149999 0.050384998
0.390044987 0.122680999 0.051360998
0.444061011 0.130980998 0.056122001
0.505585015 0.140655994 0.061127000
0.569885015 0.151123002 0.063995004
0.629700005 0.162079006 0.061646000
0.685546994 0.173583999 0.048981000
0.734130979 0.185974002 0.014374000
0.774932981 0.202849999 0.002258000
0.808533013 0.220642000 0.000977000
0.061584000 0.122528002 0.089203000
0.073913999 0.129822001 0.089050002
0.124633998 0.122466996 0.076233000
0.178558007 0.121184997 0.073028997
0.227173001 0.123443998 0.066467002
0.274230987 0.125061005 0.057739001
0.319243997 0.128174007 0.051605001
0.365204006 0.134032995 0.050719999
0.416045994 0.142242000 0.053557999
0.473206013 0.152039006 0.057891998
0.534636974 0.162842005 0.061278999
0.597015023 0.175262004 0.060759999
0.657500982 0.188690007 0.050232001
0.711944997 0.203186005 0.025330000
0.755523980 0.220489994 0.000092000
0.791382015 0.240204006 0.000000000
0.820984006 0.260405988 0.000000000
0.062103000 0.144835994 0.087035999
0.072783999 0.157592997 0.089233004
0.118438996 0.161072001 0.075165004
0.187592000 0.143218994 0.063660003
0.248352006 0.135864004 0.054230001
0.296326011 0.138123006 0.051392000
0.341430992 0.144379005 0.052094001
0.390839010 0.151703000 0.054412998
0.443329006 0.160095006 0.057526000
0.500487983 0.170044005 0.060883000
0.562958002 0.181915000 0.062011998
0.624419987 0.195403993 0.058196999
0.680266976 0.209808007 0.038483001
0.729523003 0.226288006 0.001038000
0.769806027 0.246368006 0.000000000
0.802612007 0.267731011 0.000000000
0.828674018 0.291168004 0.000000000
0.062224999 0.167419001 0.085175000
0.073242001 0.180847004 0.088408999
0.105347000 0.194060996 0.073821999
0.188750997 0.186370999 0.060547002
0.259734988 0.161072001 0.051360998
0.318145990 0.154816002 0.050140001
0.368133992 0.159942999 0.053893998
0.417358011 0.167664006 0.057647999
0.469298989 0.176514000 0.061066002
0.525542974 0.186858997 0.063231997
0.585875988 0.199219003 0.062378000
0.644836009 0.213226005 0.055358998
0.698455989 0.229003996 0.032318000
0.744567990 0.247283995 0.000000000
0.780762017 0.269196004 0.000000000
0.811523020 0.293029994 0.000000000
0.836486995 0.317840993 0.000000000
0.062224999 0.189941004 0.083495997
0.073394999 0.200408995 0.087981999
0.099151999 0.220672995 0.070435002
0.185454994 0.223968998 0.059783999
0.263550013 0.206787005 0.058899000
0.331573009 0.181395993 0.051453002
0.390929997 0.176788002 0.053557999
0.443908989 0.183654994 0.059326001
0.495604992 0.192566007 0.062927000
0.550231993 0.203551993 0.064514004
0.608582020 0.216674998 0.061554000
0.664978027 0.231506005 0.048064999
0.714294016 0.247741997 0.020538000
0.756744027 0.268218994 0.000000000
0.790984988 0.291503996 0.000000000
0.819182992 0.316588998 0.000000000
0.842468023 0.343017995 0.000000000
0.061646000 0.211394995 0.081969999
0.074371003 0.222106993 0.087096997
0.100922003 0.242188007 0.070464998
0.183440998 0.250885010 0.061066002
0.264557004 0.254913002 0.066803001
0.344269007 0.227417007 0.059478998
0.409514993 0.202728003 0.053649999
0.466583014 0.201233000 0.058044001
0.520843983 0.209472999 0.063110001
0.574096978 0.220092997 0.064148001
0.629242003 0.233765006 0.059631001
0.682190001 0.249450997 0.037903000
0.727234006 0.267334014 0.002655000
0.766357005 0.289703012 0.000000000
0.799163997 0.314972013 0.000000000
0.825469971 0.341522008 0.000000000
0.848052979 0.368927002 0.000000000
0.062560998 0.234711006 0.081023999
0.075622998 0.246277004 0.086487003
0.106201001 0.262908995 0.072906002
0.184966996 0.275757015 0.064788997
0.269562006 0.291869998 0.069458000
0.345153987 0.287750006 0.071869001
0.421905994 0.255219012 0.061096001
0.487488002 0.229828000 0.055573002
0.543151975 0.228637993 0.059753001
0.597015023 0.238738999 0.061310001
0.649567008 0.251953006 0.053893998
0.697784007 0.268828988 0.029114000
0.739929020 0.289306998 0.000000000
0.775695980 0.313416004 0.000000000
0.805817008 0.340301991 0.000000000
0.830994010 0.368988007 0.000000000
0.854340017 0.396789998 0.000000000
0.064240001 0.258423001 0.081726000
0.077087000 0.272675008 0.085814998
0.112090997 0.287689000 0.075774997
0.189605996 0.304291010 0.069122002
0.273254007 0.323974997 0.068542004
0.349395990 0.336944997 0.078918003
0.421355993 0.327392995 0.077209003
0.500244021 0.289947987 0.062011998
0.563934028 0.261902004 0.052979000
0.616760015 0.261597008 0.052002002
0.669372976 0.273712009 0.037108999
0.714232981 0.290863007 0.010040000
0.752349973 0.314087003 0.000000000
0.784820974 0.340759009 0.000000000
0.812377989 0.370238990 0.000000000
0.836760998 0.400269002 0.000000000
0.861176014 0.428314000 0.000000000
0.067534998 0.285400003 0.084412001
0.079437003 0.302123994 0.086089998
0.120238997 0.319366008 0.079071000
0.198058993 0.338012993 0.073761001
0.276093006 0.359252989 0.069305003
0.360596001 0.377440989 0.078644000
0.426849008 0.389191002 0.087279998
0.497527987 0.376892000 0.080077998
0.573882997 0.339935005 0.061554000
0.633911014 0.309509009 0.036254998
0.685059011 0.305510998 0.010895000
0.729674995 0.320098996 0.000000000
0.764312983 0.342896014 0.000000000
0.793853998 0.371551991 0.000000000
0.819396973 0.404480010 0.000000000
0.843474984 0.434417993 0.000000000
0.867828012 0.463257015 0.000000000
0.071442001 0.318695009 0.088623002
0.082886003 0.337219000 0.088196002
0.132140994 0.357391000 0.082549997
0.211486995 0.378295988 0.077972002
0.284821004 0.400146008 0.072936997
0.369049013 0.424102992 0.076172002
0.443237007 0.439911008 0.085602000
0.502075016 0.453613013 0.091399997
0.567840993 0.446442008 0.083282001
0.639953971 0.406219006 0.045959000
0.695831001 0.369751006 0.004944000
0.739075005 0.366820991 0.000000000
0.774260998 0.383361995 0.000000000
0.802338004 0.409575999 0.000000000
0.825958014 0.441803008 0.000000000
0.850646973 0.470916986 0.000000000
0.873687983 0.499756008 0.000000000
0.075989000 0.356049001 0.092987001
0.087981999 0.379639000 0.092162997
0.149323002 0.399841011 0.086975001
0.228545994 0.424376994 0.082641996
0.300200999 0.447845012 0.078185998
0.377869010 0.472443014 0.074309997
0.455626994 0.493773997 0.080596998
0.521300972 0.510254025 0.086792000
0.572052002 0.525726020 0.088165000
0.631042004 0.520476997 0.076172002
0.697570980 0.480621010 0.034759998
0.742645025 0.444213986 0.000000000
0.778625011 0.443176001 0.000000000
0.807982981 0.459991008 0.000000000
0.831879020 0.486084014 0.000000000
0.857330024 0.512755990 0.000000000
0.879059017 0.539215028 0.000000000
0.081482001 0.397217005 0.098236002
0.096129999 0.427551001 0.095764004
0.172058001 0.447418004 0.091278002
0.248444006 0.473082989 0.087462999
0.320374012 0.498504996 0.082886003
0.390747011 0.521179020 0.076874003
0.464812994 0.545409977 0.074280001
0.535399973 0.564818978 0.078339003
0.591919005 0.580322027 0.078979000
0.637023985 0.597656012 0.070068002
0.687622011 0.594542980 0.036926001
0.742034972 0.555083990 0.000000000
0.778687000 0.523193002 0.000000000
0.810181022 0.522247016 0.000000000
0.837463021 0.538115978 0.000000000
0.863861024 0.559966981 0.000000000
0.884247005 0.583221018 0.000000000
0.088165000 0.442656994 0.103302002
0.112090997 0.478363007 0.099335000
0.197356999 0.500640988 0.095764004
0.273528993 0.525330007 0.091797002
0.343688995 0.550140023 0.087006003
0.410889000 0.572815001 0.081207000
0.479279011 0.595031977 0.071075000
0.546721995 0.615783989 0.065459996
0.607544005 0.632385015 0.060089000
0.655700982 0.646880984 0.038422000
0.694427013 0.662872016 0.009460000
0.735596001 0.661652029 0.000000000
0.778869987 0.624481022 0.000000000
0.812592030 0.597716987 0.000000000
0.841643989 0.594421029 0.000000000
0.868134022 0.607239008 0.000000000
0.888611019 0.627075016 0.000000000
0.095306002 0.492462009 0.108795002
0.144012004 0.531096995 0.103210002
0.229736000 0.553435981 0.099762000
0.303436011 0.578094006 0.095427997
0.372833014 0.600615978 0.089690998
0.437469006 0.621978998 0.081786998
0.499695003 0.641846001 0.069701999
0.561371028 0.661559999 0.047424000
0.618713021 0.678008974 0.018524000
0.670044005 0.692749023 0.000458000
0.712768972 0.708374023 0.000000000
0.746551991 0.722656012 0.000000000
0.781005979 0.722594976 0.000000000
0.815703988 0.687835991 0.000000000
0.844666004 0.662598014 0.000000000
0.870728016 0.660857975 0.000000000
0.892700016 0.668213010 0.000000000
0.103698999 0.543976009 0.114471003
0.187836006 0.582764030 0.106964000
0.268279999 0.604645014 0.103912003
0.340575993 0.627686024 0.098266996
0.406524986 0.648621023 0.091430999
0.465941995 0.667114019 0.081786998
0.523926020 0.685059011 0.065186001
0.579253972 0.701659977 0.021300999
0.631226003 0.716583014 0.000000000
0.680419981 0.731598020 0.000000000
0.725372016 0.746825993 0.000000000
0.762115002 0.760559022 0.000000000
0.788848996 0.771667004 0.000000000
0.815246999 0.770630002 0.000000000
0.847136974 0.741455019 0.000000000
0.872741997 0.717742980 0.000000000
0.893280029 0.713409007 0.000000000
0.121399000 0.598479986 0.124022998
0.226653993 0.641387999 0.110992000
0.309082001 0.654143989 0.106201001
0.378051996 0.673309028 0.099884003
0.440216005 0.691802979 0.091095001
0.496093988 0.709502995 0.077056997
0.548583984 0.725677013 0.047363002
0.596710026 0.740234017 0.012115000
0.644164979 0.755156994 0.000000000
0.691070974 0.769257009 0.000000000
0.733612001 0.781432986 0.000000000
0.769439995 0.792235970 0.000000000
0.796172976 0.800536990 0.000000000
0.818512022 0.808044016 0.000000000
0.841431022 0.807555974 0.000000000
0.870422006 0.783905029 0.000000000
0.895172000 0.758361995 0.000000000
0.058014002 0.077483997 0.098724000
0.071837999 0.083587997 0.099547997
0.103148997 0.091003001 0.103638001
0.141144007 0.094848998 0.101989999
0.181915000 0.100220002 0.100708000
0.223113999 0.103515998 0.096954003
0.265471995 0.105957001 0.093781002
0.311919987 0.107910000 0.090178996
0.364623994 0.109924003 0.086975001
0.419066995 0.113280997 0.082915999
0.474364996 0.118285999 0.081450999
0.536284983 0.125061005 0.085968003
0.599059999 0.132201999 0.088408999
0.657104015 0.141479000 0.087402001
0.708984017 0.152678996 0.081969999
0.754149973 0.164336994 0.064056002
0.794646978 0.176514000 0.001678000
0.060394000 0.090972997 0.103271000
0.075774997 0.101256996 0.110413000
0.111938000 0.112061001 0.112334996
0.156219006 0.117737003 0.108672999
0.202240005 0.121063001 0.103210002
0.249146000 0.123351999 0.097778000
0.296265006 0.125732005 0.092437997
0.349364996 0.127410993 0.086243004
0.404906988 0.128539994 0.078644000
0.459351003 0.132446006 0.074828997
0.518554986 0.140045002 0.077910997
0.583159983 0.148803994 0.081726000
0.643158019 0.158629999 0.079712003
0.696594000 0.170074001 0.071381003
0.743408024 0.181823999 0.047516000
0.782805979 0.195861995 0.001526000
0.814544976 0.214812994 0.000061000
0.063842997 0.132446006 0.125976995
0.077239998 0.134490997 0.122893997
0.116089001 0.135498002 0.109527998
0.166015998 0.136779994 0.110106997
0.212707996 0.140838996 0.106841996
0.261413991 0.144501001 0.100158997
0.311583996 0.147582993 0.092956997
0.365631014 0.149657995 0.084656000
0.421447992 0.151641995 0.075774997
0.479155988 0.157074004 0.071319997
0.542510986 0.167023003 0.072692998
0.608612001 0.179198995 0.072173998
0.669494987 0.192688003 0.062683001
0.721374989 0.207184002 0.038208000
0.764312983 0.225005999 0.001770000
0.798003972 0.247253001 0.000000000
0.825713992 0.270141989 0.000000000
0.063904002 0.164276004 0.128845006
0.077271000 0.162567005 0.120269999
0.099518001 0.171691999 0.111725003
0.177551001 0.156311005 0.096496999
0.234558001 0.154358000 0.096100003
0.282683998 0.159058005 0.094299003
0.333588004 0.162902996 0.087096997
0.387023985 0.165527001 0.077972002
0.442229986 0.170012996 0.071625002
0.502471983 0.178497002 0.070496000
0.567382991 0.190491006 0.070862003
0.630828977 0.204589993 0.066620000
0.688507020 0.220734000 0.045044001
0.737151980 0.239531994 0.005432000
0.774719000 0.263702005 0.000000000
0.805846989 0.290069997 0.000000000
0.832367003 0.315154999 0.000000000
0.062346999 0.190582007 0.124268003
0.076447003 0.185791001 0.114593998
0.089294001 0.201874003 0.111450002
0.170775995 0.199828997 0.089844003
0.248900995 0.176605001 0.080017000
0.310333014 0.169829994 0.075591996
0.361938000 0.173675999 0.074065998
0.410706013 0.179352000 0.072571002
0.463530988 0.186675996 0.071898997
0.524169981 0.196715996 0.072632000
0.589110970 0.209685996 0.070983998
0.650879025 0.225525007 0.063049003
0.704864979 0.244231999 0.037108999
0.749450982 0.266234994 0.000000000
0.785034001 0.293303996 0.000000000
0.814330995 0.321350008 0.000000000
0.839447021 0.348419011 0.000000000
0.061188001 0.213501006 0.119629003
0.075897001 0.208922997 0.110900998
0.087188996 0.227997005 0.111511000
0.156371996 0.236603007 0.092620999
0.247008994 0.228027001 0.078400001
0.323974997 0.198547006 0.069426998
0.384948999 0.188995004 0.067962997
0.437896997 0.194701999 0.070952997
0.489502013 0.203461006 0.073486000
0.547088981 0.214812994 0.074097000
0.609435976 0.228760004 0.070679002
0.668090999 0.245728001 0.059113000
0.718262017 0.266387999 0.030853000
0.759612978 0.290955007 0.000000000
0.793488026 0.319640994 0.000000000
0.820617974 0.349121004 0.000000000
0.845885992 0.376403987 0.000000000
0.061005000 0.235504001 0.115326002
0.077118002 0.232727006 0.110504001
0.088684000 0.251922995 0.111786000
0.149077997 0.266083002 0.093535997
0.240752995 0.270354986 0.079102002
0.324310005 0.252959996 0.077147998
0.398833990 0.221680000 0.070404001
0.462036014 0.212157995 0.069762997
0.516968012 0.219971001 0.073669001
0.571654975 0.232361004 0.073729999
0.628570974 0.248352006 0.069397002
0.683104992 0.266907007 0.052855998
0.730132997 0.289214998 0.020904999
0.768616021 0.316376001 0.000000000
0.799956977 0.347534001 0.000000000
0.827362001 0.377380013 0.000000000
0.852203012 0.404754996 0.000000000
0.061615001 0.257782012 0.112365998
0.079010002 0.256348014 0.111298002
0.090576001 0.276611000 0.112305000
0.148254007 0.295653999 0.092377000
0.235596001 0.301055998 0.079223998
0.322295994 0.306091011 0.084807999
0.402130008 0.283722013 0.081207000
0.476105005 0.250030994 0.071808003
0.540557981 0.240935996 0.070464998
0.596679986 0.251617014 0.070587002
0.648651004 0.268646002 0.065490998
0.697815001 0.290497005 0.042541999
0.741364002 0.315643013 0.005615000
0.777068973 0.344482005 0.000000000
0.805969000 0.377288997 0.000000000
0.833739996 0.406493992 0.000000000
0.857819021 0.435303003 0.000000000
0.063629001 0.281493992 0.111511000
0.081329003 0.281890988 0.111633003
0.092712000 0.304046988 0.112732001
0.150909007 0.325531006 0.092499003
0.234253004 0.331389993 0.080750003
0.324431986 0.347656012 0.085479997
0.399749994 0.350708008 0.091705002
0.481353998 0.321442008 0.083618000
0.557159007 0.286713004 0.070464998
0.617554009 0.278533995 0.063750997
0.669739008 0.291961998 0.055877998
0.713593006 0.315764993 0.031097000
0.751830995 0.345916986 0.000000000
0.784789979 0.377135992 0.000000000
0.812927008 0.409453988 0.000000000
0.840117991 0.438262999 0.000000000
0.863098025 0.467804015 0.000000000
0.066132002 0.309417993 0.113067999
0.083832003 0.311309993 0.112671003
0.095977999 0.337493986 0.111786000
0.158446997 0.358123988 0.093658000
0.238677993 0.366241008 0.084351003
0.326202005 0.385986000 0.083099000
0.404204994 0.404235989 0.093200997
0.480010986 0.403625011 0.096557997
0.558624029 0.374725014 0.084839001
0.628174007 0.339080989 0.066315003
0.685851991 0.329986989 0.040282998
0.729919016 0.347595006 0.011047000
0.763062000 0.378387004 0.000000000
0.792479992 0.412842005 0.000000000
0.821044981 0.444121987 0.000000000
0.846679986 0.473235995 0.000000000
0.868591011 0.501953006 0.000000000
0.069854997 0.342864990 0.117493004
0.086914003 0.345093012 0.113830999
0.099762000 0.377196997 0.109589003
0.170807004 0.396789998 0.095702998
0.249329001 0.408142000 0.089050002
0.328186005 0.428833008 0.084441997
0.412842005 0.452057004 0.089142002
0.485473990 0.470275998 0.098511003
0.553130984 0.473022014 0.099182002
0.626281977 0.444550008 0.084899999
0.691284001 0.406311005 0.045471001
0.740082026 0.399017006 0.002655000
0.773437977 0.419647008 0.000000000
0.801146984 0.451050013 0.000000000
0.829590023 0.481110007 0.000000000
0.853455007 0.510161996 0.000000000
0.874450982 0.537720025 0.000000000
0.074157998 0.380066007 0.122497998
0.090942003 0.383545011 0.115601003
0.107178003 0.422118992 0.108733997
0.186858997 0.440582007 0.099151999
0.265076011 0.455231011 0.093658000
0.338714987 0.476195991 0.089171998
0.418060005 0.501953006 0.086608998
0.498504996 0.522979975 0.091980003
0.563109994 0.541930974 0.097136997
0.621918023 0.547851980 0.093964003
0.686554015 0.519469976 0.073119998
0.739777029 0.481934011 0.028380999
0.778320014 0.478882015 0.000000000
0.809234977 0.496764988 0.000000000
0.837523997 0.522765994 0.000000000
0.859924018 0.549561024 0.000000000
0.880492985 0.574523985 0.000000000
0.080536000 0.420134991 0.129425004
0.096313000 0.426360995 0.120026000
0.124603003 0.473389000 0.109375000
0.207885996 0.489257991 0.102996998
0.284911990 0.504822016 0.098755002
0.356505990 0.526093006 0.093933001
0.428588986 0.550994992 0.086944997
0.506072998 0.575286984 0.084197998
0.577606022 0.593505979 0.086608998
0.631682992 0.611510992 0.084259003
0.681792974 0.617676020 0.067626998
0.736298025 0.590301991 0.033996999
0.779083014 0.557770014 0.000000000
0.814361989 0.555114985 0.000000000
0.843780994 0.570312977 0.000000000
0.864898980 0.591614008 0.000000000
0.885833979 0.611999989 0.000000000
0.089111000 0.460449010 0.141021997
0.103577003 0.474395990 0.127258003
0.148040995 0.528594971 0.113403000
0.235137999 0.544188976 0.107574001
0.312592000 0.558655024 0.103087999
0.381439000 0.577727973 0.097900003
0.448334008 0.599915028 0.089661002
0.518950999 0.623169005 0.078521997
0.589294016 0.642455995 0.072723001
0.647400022 0.657958984 0.063629001
0.693145990 0.675872982 0.029083000
0.737304986 0.682830989 0.000000000
0.780762017 0.656127989 0.000061000
0.817291021 0.626648009 0.000000000
0.847564995 0.623138011 0.000000000
0.869812012 0.634033024 0.000000000
0.890015006 0.650695980 0.000000000
0.098572001 0.503325999 0.153656006
0.114074998 0.528533995 0.138824001
0.181182995 0.587981999 0.119994998
0.267760992 0.603088021 0.115082003
0.344603986 0.612671018 0.110687003
0.410492003 0.627349973 0.105530001
0.474487007 0.646300972 0.094727002
0.537353992 0.666320980 0.079956003
0.601257026 0.685241997 0.055236999
0.661987007 0.702575982 0.017944001
0.710723996 0.718596995 0.000000000
0.748596013 0.734467030 0.000000000
0.783203006 0.740082026 0.000000000
0.817780018 0.713775992 0.000000000
0.848968983 0.685638011 0.000000000
0.873839974 0.681824028 0.000000000
0.893950999 0.686645985 0.000000000
0.109467000 0.541900992 0.166778997
0.127654999 0.593414009 0.151336998
0.220337003 0.644989014 0.131377995
0.307830989 0.653931022 0.131072998
0.381316990 0.664794981 0.126770005
0.443756014 0.675445974 0.120575003
0.503448009 0.689758003 0.114868000
0.559937000 0.705963016 0.098511003
0.616088986 0.723297000 0.038208000
0.671935976 0.740692019 0.000000000
0.721588016 0.755890012 0.000000000
0.759979010 0.768585026 0.000000000
0.787383974 0.778687000 0.000000000
0.815033019 0.782500982 0.000000000
0.846343994 0.760712028 0.000000000
0.874664009 0.734650016 0.000000000
0.896270990 0.728148997 0.000000000
0.121703997 0.582458019 0.182831004
0.157349005 0.668671012 0.159606993
0.267852992 0.692565978 0.151549995
0.351653993 0.701323986 0.153808996
0.419586003 0.709380984 0.154877007
0.476990014 0.717711985 0.153624997
0.530457020 0.731353998 0.145538002
0.582000971 0.747497976 0.121063001
0.632750988 0.763976991 0.053130999
0.681914985 0.778137028 0.000000000
0.726378977 0.789062977 0.000000000
0.764739990 0.799041986 0.000061000
0.795653999 0.807677984 0.000000000
0.818938971 0.814818978 0.000000000
0.841919005 0.816742003 0.000000000
0.870055974 0.797088981 0.000000000
0.897858024 0.770111024 0.000000000
0.061492998 0.088776000 0.124114998
0.070831001 0.092589997 0.123199001
0.092345998 0.099822998 0.123351999
0.135193005 0.099822998 0.121307001
0.174834996 0.102356002 0.118133999
0.210510001 0.108306997 0.118927002
0.246154994 0.113098003 0.120056003
0.284943014 0.118438996 0.121399000
0.332336009 0.123138003 0.120819002
0.393494010 0.127685994 0.118042000
0.468261987 0.131835997 0.113280997
0.541106999 0.136169001 0.106505997
0.601715028 0.145813003 0.101654001
0.664520025 0.157257006 0.098755002
0.719085991 0.168761998 0.090668000
0.764801025 0.179718003 0.072632000
0.802031994 0.191009998 0.024932999
0.063262999 0.099701002 0.130463004
0.075317003 0.107910000 0.136840999
0.096954003 0.116974004 0.136779994
0.142029002 0.124084003 0.136962995
0.186249003 0.130401999 0.134978995
0.227660999 0.136444002 0.134124994
0.270415992 0.141509995 0.132263005
0.320129007 0.144896999 0.128296003
0.378876001 0.147217005 0.122985996
0.447876006 0.148314998 0.115570001
0.520843983 0.150238007 0.105651997
0.585510015 0.156158000 0.097686999
0.644439995 0.165923998 0.092743002
0.700775027 0.176880002 0.085326999
0.748322010 0.187744007 0.066436999
0.788390994 0.199860007 0.021331999
0.818633974 0.217896000 0.000000000
0.065490998 0.118865997 0.136139005
0.077789001 0.127868995 0.143738002
0.098266996 0.137482002 0.148926005
0.149689004 0.150603995 0.150543004
0.202423006 0.156586006 0.146056995
0.251525998 0.159209996 0.140105993
0.303406000 0.161041006 0.132935002
0.360900998 0.162505999 0.124939002
0.423920006 0.163451999 0.115997002
0.493225008 0.164336994 0.104461998
0.561065972 0.167694002 0.093108997
0.621429026 0.177215993 0.085754000
0.679718018 0.190093994 0.077820003
0.730041981 0.203612998 0.056976002
0.772736013 0.219237998 0.010651000
0.804931998 0.240509003 0.000000000
0.831237972 0.263579994 0.000000000
0.066588998 0.163696006 0.163848996
0.079285003 0.176269993 0.171233997
0.094543003 0.181457996 0.166626006
0.160858005 0.175384998 0.139983997
0.216919005 0.175476000 0.141144007
0.265533000 0.181213006 0.142517000
0.316466987 0.186187997 0.137268007
0.373961985 0.190033004 0.128113002
0.436583996 0.193359002 0.118438996
0.505950987 0.196227998 0.105498999
0.576323986 0.202483997 0.090607002
0.638366997 0.215302005 0.078612998
0.694549978 0.232178003 0.062469002
0.742645025 0.252106011 0.032990001
0.779906988 0.276641995 0.000000000
0.810119987 0.302428991 0.000000000
0.836333990 0.327300996 0.000000000
0.068604000 0.208251998 0.182982996
0.079773001 0.214629993 0.179688007
0.092560001 0.211089998 0.161468998
0.137756005 0.214904994 0.139983997
0.229919001 0.193694994 0.119048998
0.291168004 0.193542004 0.127654999
0.338135004 0.201691002 0.131104007
0.393889993 0.207245007 0.123016000
0.456726015 0.211089998 0.110931002
0.522979975 0.216644004 0.096923999
0.589600027 0.228057995 0.084076002
0.650817990 0.245971993 0.074248999
0.705260992 0.268157989 0.057526000
0.750732005 0.294220001 0.026427999
0.786590993 0.322784007 0.000000000
0.815398991 0.351653993 0.000000000
