public/lut/93.cube
TITLE "17x17x17 Adobe/IRIDAS cube 3D LUT exported with GrossGrade v0.2.2 (beta) 64 bit"
DOMAIN_MIN 0 0 0
DOMAIN_MAX 1 1 1
LUT_3D_SIZE 5
0.000000000 0.000000000 0.000000000
0.228698999 0.000000000 0.000000000
0.406890988 0.000000000 0.000000000
0.536315978 0.000000000 0.000000000
0.608398020 0.000000000 0.000000000
0.000000000 0.217345998 0.012421000
0.195678994 0.213898003 0.001587000
0.394318014 0.196777001 0.000000000
0.562775016 0.165436000 0.000000000
0.666687012 0.118561000 0.000000000
0.000000000 0.353148997 0.036285002
0.141571000 0.366241008 0.023468001
0.326294005 0.372314006 0.000793000
0.544005990 0.353240997 0.000000000
0.706664979 0.304230005 0.000000000
0.000000000 0.447448999 0.102660999
0.091187000 0.495575011 0.095367000
0.193817005 0.553252995 0.112182997
0.609557986 0.600890994 0.006500000
0.816619992 0.562439024 0.000000000
0.000000000 0.679413021 0.421905994
0.039795000 0.809478998 0.510924995
0.601043999 0.845367014 0.569793999
0.834137022 0.865417004 0.596831977
0.947052002 0.862976015 0.617461979
0.000793000 0.000000000 0.239075005
0.231598005 0.000000000 0.216887996
0.417937994 0.000000000 0.186858997
0.554687977 0.000000000 0.156525001
0.636078000 0.000000000 0.126190007
0.000793000 0.225647002 0.244445994
0.211456001 0.220886007 0.212494001
0.439850003 0.201111004 0.178710997
0.603179991 0.159575999 0.142821997
0.689666986 0.115601003 0.115845002
0.000000000 0.396759003 0.259613007
0.139495999 0.417358011 0.247283995
0.421447992 0.421997011 0.194214001
0.640320003 0.393554986 0.119323999
0.773711979 0.287079006 0.088379003
0.000000000 0.531890988 0.328429997
0.090332001 0.597075999 0.351806998
0.361205995 0.639374018 0.358429015
0.713195980 0.670776010 0.324523985
0.890320003 0.613312006 0.090301998
0.017151000 0.792815983 0.616577029
0.397826999 0.857544005 0.635101020
0.654906988 0.850494027 0.643981993
0.836884022 0.867431998 0.654784977
0.950744987 0.872161984 0.711059988
0.001587000 0.000793000 0.450347990
0.235076994 0.000000000 0.417998999
0.434417993 0.000000000 0.368194997
0.571044981 0.000000000 0.306762993
0.648864985 0.000000000 0.246123999
0.000793000 0.217804000 0.447356999
0.214690998 0.219574004 0.419739008
0.455139011 0.205230996 0.378479004
0.627471983 0.156616002 0.303314000
0.719817996 0.112640001 0.226013005
0.000000000 0.412658989 0.443756014
0.135498002 0.437408000 0.442351997
0.449707001 0.451110989 0.410674989
0.686309993 0.421570003 0.344177008
0.822387993 0.275757015 0.178101003
0.000000000 0.557434022 0.477416992
0.087707996 0.644867003 0.520995975
0.450134009 0.691649973 0.528473020
0.745330989 0.705505013 0.498840004
0.906768978 0.641296029 0.407775998
0.031555001 0.813812017 0.703338981
0.463164985 0.868622005 0.717957020
0.709258974 0.869659007 0.730408013
0.853271008 0.878601015 0.726531982
0.952544987 0.879729986 0.765015006
0.002380000 0.000793000 0.631989002
0.232391000 0.000000000 0.595947027
0.437195003 0.000000000 0.536224008
0.593140006 0.000000000 0.452362001
0.669891000 0.000000000 0.356476009
0.001587000 0.201416001 0.626281977
0.213135004 0.203003004 0.607757986
0.456573009 0.186767995 0.564758003
0.652465999 0.144562006 0.495635986
0.751770020 0.108124003 0.361176014
0.000793000 0.392426014 0.590973020
0.131775007 0.428223014 0.602539003
0.461486995 0.447174013 0.585479975
0.715728998 0.441832989 0.550841987
0.860473990 0.275543004 0.422302008
0.001587000 0.562592030 0.610198975
0.088806003 0.662415028 0.663177013
0.441284001 0.719421029 0.683655024
0.772765994 0.738770008 0.664734006
0.927062988 0.685364008 0.612731993
0.062378000 0.845551014 0.796325982
0.470551014 0.879119992 0.805297971
0.744292974 0.883789003 0.805755973
0.875275016 0.906890988 0.822234988
0.959990978 0.901062012 0.838805974
0.003937000 0.000793000 0.782653987
0.229126006 0.000000000 0.747466981
0.442779988 0.000000000 0.683562994
0.613250971 0.000000000 0.590088010
0.687560976 0.000000000 0.457976997
0.002167000 0.173645005 0.770690978
0.204955995 0.169495001 0.744750977
0.462280005 0.147217005 0.704620004
0.666504025 0.125732005 0.634276986
0.768554986 0.101654001 0.483794987
0.001587000 0.365844995 0.719237983
0.123259999 0.391723990 0.736114979
0.460296988 0.392302990 0.715789974
0.745697021 0.382660002 0.683593988
0.888184011 0.206939995 0.564423025
0.004944000 0.585846007 0.740508974
0.089263998 0.658173025 0.784453988
0.489502013 0.703094006 0.795440972
0.799561024 0.726257026 0.789184988
0.957458019 0.726135015 0.770325005
0.078612998 0.842346013 0.850890994
0.424621999 0.884307981 0.875518978
0.767609000 0.900452018 0.879607975
0.914429009 0.929718018 0.907226980
0.974976003 0.940033019 0.925659001
