public/lut/93.cube
TITLE "17x17x17 Adobe/IRIDAS cube 3D LUT exported with GrossGrade v0.2.2 (beta) 64 bit"
DOMAIN_MIN 0 0 0
DOMAIN_MAX 1 1 1
LUT_3D_SIZE 17
0.000000000 0.000000000 0.000000000
0.061096001 0.000000000 0.000000000
0.120177999 0.000000000 0.000000000
0.175629005 0.000000000 0.000000000
0.228698999 0.000000000 0.000000000
0.277496010 0.000000000 0.000000000
0.323760986 0.000000000 0.000000000
0.366791010 0.000000000 0.000000000
0.406890988 0.000000000 0.000000000
0.444121987 0.000000000 0.000000000
0.477905005 0.000000000 0.000000000
0.508575022 0.000000000 0.000000000
0.536315978 0.000000000 0.000000000
0.560851991 0.000000000 0.000000000
0.581359982 0.000000000 0.000000000
0.597382009 0.000000000 0.000000000
0.608398020 0.000000000 0.000000000
0.000000000 0.061127000 0.001587000
0.058837999 0.059997998 0.000793000
0.117919996 0.058288999 0.000000000
0.174103007 0.056519002 0.000000000
0.226959005 0.054717999 0.000000000
0.277038991 0.052887000 0.000000000
0.324248999 0.050781000 0.000000000
0.368317008 0.048401002 0.000000000
0.409301996 0.046386998 0.000000000
0.447968006 0.044677999 0.000000000
0.482910007 0.042938001 0.000000000
0.515380979 0.040801998 0.000000000
0.546051025 0.039337002 0.000000000
0.572844982 0.037230998 0.000000000
0.595856011 0.035521999 0.000000000
0.613189995 0.033264000 0.000000000
0.623778999 0.031738002 0.000000000
0.000000000 0.117950000 0.004639000
0.055358998 0.117981002 0.003845000
0.111694001 0.115997002 0.000793000
0.167449996 0.113007002 0.000000000
0.220946997 0.109679997 0.000000000
0.271483988 0.106170997 0.000000000
0.319550008 0.102783002 0.000000000
0.365539998 0.099182002 0.000000000
0.409087986 0.095581003 0.000000000
0.449340999 0.091370001 0.000000000
0.486847013 0.086792000 0.000000000
0.522156000 0.081786998 0.000000000
0.554992974 0.077087000 0.000000000
0.584778011 0.073273003 0.000000000
0.609802008 0.069824003 0.000000000
0.628234982 0.066223003 0.000000000
0.640717030 0.062408000 0.000000000
0.000000000 0.170166001 0.008514000
0.052184999 0.170867994 0.006989000
0.104004003 0.170166001 0.003876000
0.156920999 0.167236000 0.000793000
0.210174993 0.163115993 0.000000000
0.262115002 0.159026995 0.000000000
0.311340004 0.154877007 0.000000000
0.358368009 0.150330007 0.000000000
0.403533995 0.145691007 0.000000000
0.446747005 0.140441999 0.000000000
0.487549007 0.134430006 0.000000000
0.525421023 0.127167001 0.000000000
0.560944021 0.119446002 0.000000000
0.592194021 0.111023001 0.000000000
0.619445980 0.103058003 0.000000000
0.641083002 0.095946997 0.000000000
0.655242980 0.090851001 0.000000000
0.000000000 0.217345998 0.012421000
0.049072001 0.218505993 0.010101000
0.097930998 0.219634995 0.007782000
0.144896999 0.217407003 0.004669000
0.195678994 0.213898003 0.001587000
0.247437000 0.210114002 0.000000000
0.299255013 0.206756994 0.000000000
0.348174989 0.202332005 0.000000000
0.394318014 0.196777001 0.000000000
0.438903987 0.190642998 0.000000000
0.481994987 0.183594003 0.000000000
0.523711979 0.175292999 0.000000000
0.562775016 0.165436000 0.000000000
0.595093012 0.153808996 0.000000000
0.624328971 0.142058998 0.000000000
0.648773015 0.130371004 0.000000000
0.666687012 0.118561000 0.000000000
0.000000000 0.259124994 0.017639000
0.046264999 0.260619998 0.014008000
0.091643997 0.262573004 0.011688000
0.135498002 0.261626989 0.009216000
0.179107994 0.259734988 0.005432000
0.229308993 0.257079989 0.001587000
0.281127989 0.254058987 0.000000000
0.333191007 0.250762999 0.000000000
0.382660002 0.245697007 0.000000000
0.428375006 0.239075005 0.000000000
0.473114014 0.231720001 0.000000000
0.517516971 0.222960994 0.000000000
0.559418023 0.212769002 0.000000000
0.595580995 0.200896993 0.000000000
0.626891971 0.187438995 0.000000000
0.653687000 0.172179997 0.000000000
0.675689995 0.156494007 0.000000000
0.000000000 0.295684993 0.023071000
0.042755000 0.296967000 0.018677000
0.085326999 0.299194008 0.016052000
0.126433998 0.300231993 0.013885000
0.165619001 0.299773991 0.010162000
0.208556995 0.298034996 0.005432000
0.259155005 0.296660990 0.001587000
0.312256008 0.294220001 0.000000000
0.365996987 0.290466011 0.000000000
0.416076988 0.284882009 0.000000000
0.462006003 0.277312994 0.000000000
0.507507026 0.268494010 0.000000000
0.550689995 0.258819997 0.000000000
0.590606987 0.247771993 0.000000000
0.625060976 0.234038994 0.000000000
0.656036019 0.218596995 0.000000000
0.681854010 0.199768007 0.000000000
0.000000000 0.326721013 0.029266000
0.039825000 0.328429997 0.023864999
0.078948997 0.331328988 0.020935001
0.117035002 0.333678991 0.018738000
0.153899997 0.334502995 0.016052000
0.189545006 0.334868997 0.010864000
0.235259995 0.334441990 0.005432000
0.289734006 0.334502995 0.000793000
0.346953988 0.332764000 0.000000000
0.403656006 0.329041004 0.000000000
0.454865009 0.322937012 0.000000000
0.500916004 0.314177990 0.000000000
0.544434011 0.304809988 0.000000000
0.586273015 0.294678003 0.000000000
0.626525998 0.282898009 0.000000000
0.661559999 0.268371999 0.000000000
0.691802979 0.247803003 0.000000000
0.000000000 0.353148997 0.036285002
0.036040999 0.355529994 0.030060001
0.072448999 0.358978003 0.026916999
0.107666001 0.362731993 0.024994001
0.141571000 0.366241008 0.023468001
0.173187003 0.369080007 0.019409001
0.211456001 0.370056003 0.012421000
0.263947010 0.370788991 0.005432000
0.326294005 0.372314006 0.000793000
0.389586985 0.371825993 0.000000000
0.448974997 0.368407995 0.000000000
0.500060976 0.361876994 0.000000000
0.544005990 0.353240997 0.000000000
0.587463021 0.344482005 0.000000000
0.631896973 0.334991008 0.000000000
0.671752989 0.322052002 0.000000000
0.706664979 0.304230005 0.000000000
0.000000000 0.375640988 0.044952001
0.032958999 0.378601015 0.038208000
0.066071004 0.384155005 0.034271002
0.098145001 0.391021997 0.033356000
0.129120007 0.397094995 0.032561999
0.158295006 0.402709991 0.031342000
0.187530994 0.406554997 0.024689000
0.234833002 0.407653987 0.013885000
0.301849008 0.410553008 0.005035000
0.375853986 0.415192008 0.000000000
0.445037991 0.416289985 0.000000000
0.503112972 0.413269013 0.000000000
0.550445974 0.407379001 0.000000000
0.596526980 0.400635004 0.000000000
0.642028987 0.392058998 0.000000000
0.686065972 0.381531000 0.000000000
0.725677013 0.367523015 0.000000000
0.000000000 0.397125006 0.056945998
0.029906999 0.400635004 0.048308998
0.059448000 0.409575999 0.045074001
0.088500999 0.420410007 0.044617001
0.116576999 0.428772002 0.044617001
0.143188000 0.437377989 0.046326000
0.166351005 0.444884986 0.043761998
0.202087000 0.448455989 0.031250000
0.270141989 0.451384991 0.015686000
0.358642995 0.457946986 0.003693000
0.443419993 0.465575993 0.000000000
0.510680974 0.467804015 0.000000000
0.563598990 0.465240002 0.000000000
0.614380002 0.461760998 0.000000000
0.662536979 0.454254001 0.000000000
0.709167004 0.444976985 0.000000000
0.751250982 0.431946009 0.000000000
0.000000000 0.420073986 0.074340999
0.026854999 0.424896002 0.064361997
0.053040002 0.436583996 0.060791001
0.078979000 0.450195014 0.061492998
0.103821002 0.461486995 0.063262999
0.127471998 0.472382009 0.066924997
0.149444997 0.483642995 0.071625002
0.169006005 0.491851985 0.064911000
0.226471007 0.496612996 0.046631001
0.328278005 0.502593994 0.026062001
0.433135986 0.513976991 0.007935000
0.518676996 0.524779975 0.000000000
0.581299007 0.526427984 0.000000000
0.637848020 0.526031017 0.000000000
0.690429986 0.519896984 0.000000000
0.739349008 0.509917974 0.000000000
0.783080995 0.495330989 0.000000000
0.000000000 0.447448999 0.102660999
0.023071000 0.452758998 0.088988997
0.046509001 0.466796994 0.085998997
0.069274999 0.482697010 0.089263998
0.091187000 0.495575011 0.095367000
0.111938000 0.508880973 0.103577003
0.131164998 0.525023997 0.115355998
0.144104004 0.541260004 0.121428996
0.193817005 0.553252995 0.112182997
0.304504007 0.563262999 0.097351000
0.430144995 0.576599002 0.072540000
0.528931022 0.591400027 0.031982001
0.609557986 0.600890994 0.006500000
0.671630979 0.602051020 0.000000000
0.723694026 0.594147027 0.000000000
0.770874023 0.581450999 0.000000000
0.816619992 0.562439024 0.000000000
0.000000000 0.484100014 0.149719000
0.020020001 0.490631014 0.135070994
0.040100001 0.504760981 0.133759007
0.059691999 0.522460997 0.143188000
0.078429997 0.538268983 0.155028999
0.096161000 0.557770014 0.169952005
0.109862998 0.582031012 0.187286004
0.127625003 0.607849002 0.201477006
0.211700007 0.630280018 0.209717005
0.349242985 0.647460997 0.214049995
0.471893013 0.661987007 0.209656000
0.570312977 0.675719976 0.172545999
0.657166004 0.687653005 0.099730998
0.725188971 0.692077994 0.048889000
0.773193002 0.681914985 0.024078000
0.814453006 0.664062977 0.005524000
0.850890994 0.636810005 0.000000000
0.000000000 0.530700982 0.220703006
0.016968001 0.538878977 0.209167004
0.033904999 0.556457996 0.213836998
0.049896002 0.579650998 0.232635006
0.065338001 0.605408013 0.253113002
0.078093998 0.638701975 0.275146008
0.094054997 0.671844006 0.294829994
0.153228998 0.698242009 0.310669005
0.296631008 0.720520020 0.329131991
0.450562000 0.737091005 0.342101991
0.550414979 0.747008979 0.342467993
0.635985970 0.756133974 0.332702994
0.713042974 0.765349984 0.310180992
0.773804009 0.770843983 0.284972996
0.823669016 0.768463016 0.233367994
0.864226997 0.749602973 0.107787997
0.885773003 0.715088010 0.024200000
0.000000000 0.594054997 0.308593988
0.013885000 0.604979992 0.304138005
0.027100001 0.630156994 0.316101015
0.040252998 0.666594982 0.344666004
0.052611999 0.707885981 0.376953006
0.066161998 0.744719982 0.400054991
0.160278007 0.770995975 0.416900992
0.317992985 0.786406994 0.435180992
0.461273015 0.797607005 0.455688000
0.568085015 0.805939019 0.467406988
0.651580989 0.811156988 0.468079001
0.717224002 0.817412972 0.465485007
0.776337028 0.824799001 0.462096989
0.824005008 0.830048025 0.465698004
0.864684999 0.830565989 0.463836998
0.900817990 0.824523985 0.439025998
0.927245975 0.796172976 0.322021008
0.000000000 0.679413021 0.421905994
0.010864000 0.694518983 0.423981011
0.020996001 0.732879996 0.452208996
0.033172999 0.775635004 0.489502013
0.039795000 0.809478998 0.510924995
0.207976997 0.828583002 0.519653022
0.391144007 0.836456001 0.536987007
0.513153017 0.841216981 0.555359006
0.601043999 0.845367014 0.569793999
0.676635981 0.849090993 0.580169976
0.740050972 0.853699028 0.585388005
0.790130973 0.859588981 0.589142025
0.834137022 0.865417004 0.596831977
0.868773997 0.870208979 0.615325987
0.898711979 0.872313976 0.634033024
0.926422000 0.871033013 0.639770985
0.947052002 0.862976015 0.617461979
0.000000000 0.000000000 0.059356999
0.061096001 0.000000000 0.060547002
0.120544001 0.000000000 0.058867998
0.176055998 0.000000000 0.056458000
0.229034007 0.000000000 0.054625999
0.278687000 0.000000000 0.052703999
0.325347990 0.000000000 0.050964002
0.369019002 0.000000000 0.048827998
0.409698009 0.000000000 0.047088999
0.447692990 0.000000000 0.045044001
0.482208014 0.000000000 0.042938001
0.514007986 0.000000000 0.041503999
0.542205989 0.000000000 0.039337002
0.566742003 0.000000000 0.037230998
0.587799013 0.000000000 0.035521999
0.605072021 0.000000000 0.033325002
0.616150022 0.000000000 0.031799000
0.000000000 0.060028002 0.062316999
0.058867998 0.059448000 0.059997998
0.118865997 0.058228001 0.057647999
0.175139993 0.055907998 0.055847000
0.228668004 0.054138001 0.054016002
0.278991997 0.052246001 0.052246001
0.327118009 0.050354000 0.050354000
0.372375011 0.048401002 0.048431002
0.415161014 0.046386998 0.046783000
0.454102010 0.044677999 0.044677999
0.490081996 0.042938001 0.042938001
0.523926020 0.040801998 0.040801998
0.554749012 0.039337002 0.039337002
0.581085026 0.037230998 0.037230998
0.603455007 0.035521999 0.035521999
0.620635986 0.033264000 0.033264000
0.632445991 0.031738002 0.031738002
0.000000000 0.117950000 0.063965000
0.055328000 0.117279001 0.061737001
0.112700999 0.115051001 0.056580000
0.169678003 0.112029999 0.054047000
0.224151999 0.108551003 0.052124001
0.275451988 0.105347000 0.050873000
0.324645996 0.102050997 0.049042001
0.372009009 0.098663002 0.047545999
0.416718006 0.094788000 0.045715000
0.458281994 0.090545997 0.044006001
0.496704012 0.085937999 0.042206001
0.531859994 0.080871999 0.040314000
0.563934028 0.076660000 0.038543999
0.592926025 0.073334001 0.036469001
0.616608024 0.069824003 0.034759998
0.635039985 0.065704003 0.032623000
0.647858024 0.062408000 0.031005999
0.000000000 0.170837000 0.066132002
0.052184999 0.170837000 0.064452998
0.104369998 0.169738993 0.059478998
0.160187006 0.166534007 0.053557999
0.216033995 0.163025007 0.050354000
0.269470006 0.159209996 0.048431002
0.319916010 0.155028999 0.046997000
0.367736995 0.150603995 0.045685001
0.414092988 0.145721003 0.044098001
0.458191007 0.140105993 0.042633001
0.499603003 0.133575007 0.040741000
0.537598014 0.125824004 0.039276000
0.571349978 0.117523000 0.037323002
0.600646973 0.109099999 0.035491999
0.625487983 0.101685002 0.033996999
0.645781994 0.096038997 0.031891000
0.659026980 0.090851001 0.030212000
0.000000000 0.218963996 0.068847999
0.049072001 0.219604000 0.066742003
0.097565003 0.219604000 0.062927000
0.146484002 0.217528999 0.056549001
0.202880993 0.215575993 0.050934002
0.258697987 0.212738007 0.046967000
0.312041998 0.209136993 0.044922002
0.361541986 0.204071000 0.043427002
0.408172995 0.198211998 0.042144999
0.453552008 0.191528007 0.040679999
0.497559011 0.183837995 0.039246000
0.539124012 0.174683005 0.037689000
0.575500011 0.163360998 0.035828002
0.605193973 0.150695994 0.034271002
0.631377995 0.138062000 0.032471001
0.653931022 0.126525998 0.030944999
0.670197010 0.115874998 0.028839000
0.000000000 0.262360007 0.072815001
0.045775998 0.263305992 0.069426998
0.091643997 0.264129996 0.065734997
0.135436997 0.264342993 0.062103000
0.184417993 0.263000011 0.054749001
0.241638005 0.262084991 0.049011000
0.298278987 0.259979010 0.043731999
0.352813989 0.256531000 0.041198999
0.402770996 0.250609994 0.039733998
0.448700011 0.242919996 0.038605001
0.493712991 0.234436005 0.037415002
0.537200987 0.224335000 0.035889000
0.575958014 0.212249994 0.034302000
0.608367980 0.197661996 0.032623000
0.636107981 0.180907995 0.030913999
0.660674989 0.164245993 0.029418999
0.680817008 0.147948995 0.027892999
0.000000000 0.301055998 0.077881001
0.042755000 0.302307010 0.073181003
0.085235998 0.303496987 0.069274999
0.126159996 0.306091011 0.066223003
0.166808993 0.307159007 0.060486000
0.219329998 0.305756003 0.052917000
0.278899997 0.305267006 0.046356000
0.337677002 0.304504007 0.040649001
0.394073009 0.301270008 0.037445001
0.444366008 0.294678003 0.036072001
0.489257991 0.285492003 0.035156000
0.533416986 0.274933010 0.033599999
0.574799001 0.263518989 0.032042999
0.610718012 0.249480993 0.030853000
0.642028987 0.231170997 0.029327000
0.669891000 0.211426005 0.027832000
0.693726003 0.190276995 0.025818000
0.000000000 0.335570991 0.084533997
0.039825000 0.337493986 0.078827001
0.078704998 0.338409007 0.074188001
0.117035002 0.342896014 0.071167000
0.153136998 0.346619010 0.067870997
0.195831001 0.346863002 0.060454998
0.253143013 0.346190989 0.052673001
0.317200005 0.347290009 0.044220001
0.380095989 0.347595006 0.036804002
0.437988013 0.344603986 0.033599999
0.486815989 0.336944997 0.032593001
0.530547976 0.326355010 0.031342000
0.573669016 0.315551996 0.029998999
0.613098025 0.302947998 0.028534001
0.650268972 0.286406994 0.027344000
0.682494998 0.266418010 0.025818000
0.711121023 0.241698995 0.024352999
0.000000000 0.366302013 0.092834003
0.036040999 0.370209008 0.086731002
0.072265998 0.371582001 0.081359997
0.107483000 0.376617014 0.078918003
0.141144007 0.382660002 0.077393003
0.174926996 0.385711998 0.071563996
0.223389000 0.385742009 0.062469002
0.288848996 0.386505008 0.052979000
0.359955013 0.390076011 0.041717999
0.426483005 0.391326994 0.032226998
0.483734012 0.387665004 0.029358000
0.531127989 0.379882991 0.029022001
0.574523985 0.369536996 0.027496001
0.617096007 0.359008998 0.026550001
0.659973025 0.346374989 0.025177000
0.697692990 0.328460991 0.023590000
0.731231987 0.304657012 0.022095000
0.000000000 0.394042999 0.103302002
0.032958999 0.400512993 0.097961001
0.066071004 0.402709991 0.092133000
0.098145001 0.408385992 0.089752004
0.128997996 0.416869998 0.089661002
0.157622993 0.423797995 0.088104002
0.193817005 0.426422000 0.079467997
0.254669011 0.427215993 0.067841001
0.333893001 0.430969000 0.054749001
0.414458990 0.436493009 0.038054999
0.482849002 0.438080013 0.026764000
0.536377013 0.434509009 0.025970001
0.583281994 0.426636010 0.025238000
0.628966987 0.418242991 0.023894999
0.674010992 0.408722013 0.022857999
0.716216981 0.394286990 0.021331999
0.753784001 0.374817014 0.019805999
0.000000000 0.420684993 0.117950000
0.029906999 0.429351985 0.113251001
0.059448000 0.432220012 0.106078997
0.088500999 0.439269990 0.104767002
0.116364002 0.450042993 0.106049001
0.142638996 0.461304009 0.109589003
0.167907998 0.468079001 0.106505997
0.216827005 0.470611989 0.094177000
0.300568014 0.473601997 0.080139004
0.398223996 0.480255008 0.060242001
0.484039009 0.488402992 0.035248000
0.548736989 0.491088986 0.021545000
0.603179991 0.487518013 0.020996001
0.652770996 0.481934011 0.021392999
0.699127018 0.473785013 0.020508001
0.742249012 0.460785002 0.019073000
0.780609012 0.443268001 0.017548000
0.000000000 0.448668987 0.139648005
0.026854999 0.458983988 0.134460002
0.053040002 0.463073999 0.126862004
0.078979000 0.471222013 0.125519007
0.103759997 0.483031988 0.129943997
0.127471998 0.496917993 0.135773003
0.147339001 0.509398997 0.143188000
0.179473996 0.516357005 0.136870995
0.259276986 0.520934999 0.123322003
0.371825993 0.527343988 0.106353998
0.475403011 0.538726985 0.075072996
0.561339974 0.551299989 0.038422000
0.629395008 0.554260015 0.019866999
0.683135986 0.552031994 0.013367000
0.731445014 0.544463992 0.015076000
0.773895025 0.529114008 0.016814999
0.810302973 0.508849978 0.015228000
0.000000000 0.481261998 0.174376994
0.023621000 0.491759986 0.166991994
0.046509001 0.496948004 0.159088001
0.069274999 0.505797982 0.159484997
0.091187000 0.519134998 0.167541996
0.111786000 0.536315978 0.176605001
0.128601000 0.555572987 0.190001994
0.156982005 0.570556998 0.193237007
0.240997002 0.580718994 0.189575002
0.363586009 0.589905024 0.183074996
0.473632991 0.601226985 0.161864996
0.568786979 0.615966976 0.120972000
0.656677008 0.627655029 0.073974997
0.716125011 0.627655029 0.040375002
0.764129996 0.619507015 0.021790000
0.803497016 0.600861013 0.008392000
0.838164985 0.577484012 0.011841000
0.000000000 0.521484017 0.226745993
0.020020001 0.534789979 0.222197995
0.040100001 0.539825022 0.213744998
0.059691999 0.550567985 0.216919005
0.078429997 0.569305003 0.229614004
0.094604000 0.594390988 0.245819002
0.108429000 0.618346989 0.258208990
0.166228995 0.640289009 0.269257009
0.289245993 0.658783019 0.281127989
0.418761998 0.672240973 0.287353992
0.515411019 0.683135986 0.281708002
0.604705989 0.694549978 0.262084991
0.686614990 0.705322027 0.231353998
0.755585015 0.708588004 0.193786994
0.804749012 0.700012028 0.115936004
0.838898003 0.676726997 0.032990001
0.867401004 0.649872005 0.011078000
0.000000000 0.577332020 0.298065007
0.016968001 0.597473025 0.300841987
0.033813000 0.605132997 0.296204001
0.049896002 0.620177984 0.304138005
0.064148001 0.648590028 0.323119998
0.080321997 0.681213021 0.339538991
0.123016000 0.705443978 0.349364996
0.236237004 0.722625971 0.362946004
0.378174007 0.737182975 0.380066007
0.496185005 0.748687983 0.388915986
0.587189019 0.757202029 0.388366997
0.660950005 0.765532970 0.383789003
0.729125977 0.773437977 0.373046994
0.788239002 0.777435005 0.362029999
0.837646008 0.774779975 0.339417011
0.875365973 0.755187988 0.242950007
0.904479980 0.725890994 0.080719002
0.000061000 0.650847971 0.388244987
0.014008000 0.677460015 0.399596989
0.027222000 0.692200005 0.402312994
0.040314000 0.715026975 0.416718006
0.051819000 0.746613026 0.436522990
0.125244007 0.772583008 0.444611013
0.271851003 0.785399973 0.455017000
0.402617991 0.793456972 0.470672995
0.497406006 0.800781012 0.485137999
0.585937977 0.806671023 0.494231999
0.664672971 0.812255979 0.496796012
0.725890994 0.818572998 0.495727986
0.779510021 0.824890018 0.495667011
0.825775027 0.828705013 0.497925013
0.866088986 0.829253972 0.499451011
0.903289974 0.825286984 0.485168010
0.931029975 0.802825987 0.416076988
0.003845000 0.736603022 0.502288997
0.017761000 0.775299013 0.527924001
0.027923999 0.791747987 0.534546018
0.034148999 0.808502018 0.539093018
0.143310994 0.826569021 0.538268983
0.328491002 0.834960997 0.547028005
0.458588004 0.837952018 0.561950982
0.544188976 0.840911984 0.574127018
0.615203977 0.843719006 0.584197998
0.679046988 0.846648991 0.592773020
0.738922000 0.851257026 0.598479986
0.787383974 0.857025027 0.603942990
0.830780029 0.862884998 0.612854004
0.866333008 0.867706001 0.628112972
0.896820009 0.870422006 0.646270990
0.924499989 0.870453000 0.655974984
0.946411014 0.866393983 0.651367009
0.000000000 0.000000000 0.122559004
0.060669001 0.000000000 0.120026000
0.120544001 0.000000000 0.117371000
0.176666006 0.000000000 0.113372996
0.229491994 0.000000000 0.109314002
0.279846013 0.000000000 0.105438001
0.326934993 0.000000000 0.101439998
0.371185005 0.000000000 0.097900003
0.412169993 0.000000000 0.094054997
0.450774997 0.000000000 0.090332001
0.486236989 0.000000000 0.086577997
0.518341005 0.000000000 0.082641996
0.547272027 0.000000000 0.078644000
0.573242009 0.000000000 0.074799001
0.595734000 0.000000000 0.071319997
0.613007009 0.000000000 0.067261003
0.625122011 0.000000000 0.063477002
0.000000000 0.059997998 0.123259999
0.058867998 0.059448000 0.119567998
0.118621998 0.057677999 0.115691997
0.175842002 0.055907998 0.111694001
0.230194002 0.053497002 0.107910000
0.281188995 0.051665999 0.104309000
0.329986989 0.050322998 0.100708000
0.375762999 0.048401002 0.096923999
0.418639988 0.046386998 0.093231000
0.458526999 0.044677999 0.089569002
0.495941013 0.042938001 0.085754000
0.530822992 0.040801998 0.082213998
0.562653005 0.039337002 0.078247003
0.589965999 0.037078999 0.074767999
0.612549007 0.035521999 0.070831001
0.629424989 0.033264000 0.066803001
0.640900016 0.031738002 0.062987998
0.000000000 0.117645003 0.123993002
0.055328000 0.117004000 0.121734999
0.112396002 0.114409998 0.114105001
0.171142995 0.111298002 0.109252997
0.227356002 0.108185001 0.105742998
0.280333996 0.104979999 0.101806998
0.331084996 0.101623997 0.097961001
0.379242003 0.098266996 0.094818003
0.424652010 0.094543003 0.091370001
0.467009991 0.090332001 0.087921001
0.505890012 0.085510001 0.084259003
0.541900992 0.080688000 0.080413997
0.574158013 0.076660000 0.076874003
0.601684988 0.073334001 0.073334001
0.624083996 0.069824003 0.069824003
0.642150998 0.065673999 0.065673999
0.655487001 0.062408000 0.062408000
0.000000000 0.171691999 0.125824004
0.052184999 0.171448007 0.122772001
0.104004003 0.169281006 0.116699003
0.162047997 0.166656002 0.108306997
0.220642000 0.163268998 0.103148997
0.276428014 0.159606993 0.099395998
0.328857005 0.155333996 0.095581003
0.378571004 0.150757000 0.091643997
0.425292999 0.145721003 0.088348001
0.469603986 0.140349999 0.084960997
0.511291981 0.133544996 0.081817999
0.549377024 0.125487998 0.078368999
0.582367003 0.116547003 0.074828997
0.609588981 0.108062997 0.071381003
0.632171988 0.101318002 0.067780003
0.651642025 0.096038997 0.064087003
0.665466011 0.090851001 0.060242001
0.000000000 0.221251994 0.127930000
0.049072001 0.221375003 0.124054000
0.097565003 0.220214993 0.120513998
0.148223996 0.219054997 0.111298002
0.208648995 0.217224002 0.102844000
0.267852992 0.214141995 0.097473003
0.323424995 0.210205004 0.093139999
0.375000000 0.205230996 0.088806003
0.423308998 0.199187994 0.084656000
0.468750000 0.192596003 0.081390001
0.511810005 0.184600994 0.078400001
0.552245975 0.174805000 0.075317003
0.587219000 0.162567005 0.071929999
0.614989996 0.148589998 0.068542004
0.638641000 0.135284007 0.065186001
0.659453988 0.123687997 0.061889999
