public/lut/94.cube
TITLE "17x17x17 Adobe/IRIDAS cube 3D LUT exported with GrossGrade v0.2.2 (beta) 64 bit"
DOMAIN_MIN 0 0 0
DOMAIN_MAX 1 1 1
LUT_3D_SIZE 5
0.038635001 0.038635001 0.041016001
0.260132015 0.056519002 0.046721999
0.459868997 0.073151000 0.061646000
0.656463981 0.097228996 0.085631996
0.773804009 0.137145996 0.113617003
0.043823000 0.195313007 0.045288000
0.239075005 0.232849002 0.052338000
0.450226009 0.229583994 0.072479002
0.692229986 0.243835002 0.107605003
0.838074028 0.264434993 0.140929997
0.058959998 0.347992003 0.078856997
0.175262004 0.375916004 0.070251003
0.466309011 0.411713004 0.109314002
0.736541986 0.434998006 0.163239002
0.882934988 0.436432004 0.192413002
0.105011001 0.517700016 0.158263996
0.186370999 0.558350027 0.119994998
0.534453988 0.646697998 0.161896005
0.794616997 0.600403011 0.223358005
0.951812983 0.612151980 0.278625011
0.148620993 0.619659007 0.214081004
0.301970989 0.677550972 0.178985998
0.645537972 0.747375011 0.217650995
0.817107975 0.676726997 0.270720989
0.958862007 0.636658013 0.316711009
0.039246000 0.041016001 0.244293004
0.269134998 0.061919998 0.256866008
0.494019002 0.069854997 0.241240993
0.678435981 0.086731002 0.210785002
0.776703000 0.118073002 0.206756994
0.047240999 0.218474999 0.241638005
0.219542995 0.237305000 0.253295988
0.447387993 0.245056003 0.230803996
0.683685005 0.264923006 0.226776004
0.799651980 0.291687012 0.238220006
0.067718998 0.387207001 0.278564006
0.139862001 0.389923006 0.230072007
0.469330013 0.413666010 0.193451002
0.734497011 0.404816002 0.225890994
0.879547000 0.415710002 0.240172997
0.107697003 0.571594000 0.317200005
0.164551005 0.572784007 0.243285999
0.471771002 0.657195985 0.205658004
0.808929026 0.605041981 0.264342993
0.958312988 0.614807010 0.308104992
0.146088004 0.645690978 0.322021008
0.227477998 0.677917004 0.226806998
0.644104004 0.766906977 0.242889002
0.841247976 0.692169011 0.293152004
0.970885992 0.649811029 0.332001001
0.042877000 0.048645001 0.409911990
0.249938995 0.065917999 0.414124012
0.482178003 0.091309004 0.429993004
0.686249018 0.104644999 0.411987007
0.798492014 0.131347999 0.384705007
0.051360998 0.254608005 0.414245993
0.164153993 0.232391000 0.433227986
0.465759009 0.250793010 0.444121987
0.707213998 0.242584005 0.388518989
0.814728022 0.257171988 0.359802008
0.074401997 0.403777987 0.422302008
0.150330007 0.423797995 0.446350008
0.407714993 0.455109000 0.455047995
0.712036014 0.465820014 0.414245993
0.841033995 0.479918987 0.409240991
0.117737003 0.609161019 0.465941995
0.169128001 0.632903993 0.442139000
0.268462986 0.659241021 0.374785990
0.808776975 0.651398003 0.347045988
0.953674018 0.643065989 0.400177002
0.152587995 0.688538015 0.444000006
0.181395993 0.690856993 0.371643007
0.483886987 0.772490978 0.332091987
0.857056022 0.743408024 0.359100014
0.973419011 0.685944021 0.355286002
0.047058001 0.075043000 0.581085026
0.250092000 0.071198002 0.598419011
0.442505002 0.097534001 0.594573975
0.664978027 0.134948999 0.603179991
0.781952024 0.172637999 0.602539003
0.061492998 0.296660990 0.599853992
0.146942005 0.255858988 0.626923025
0.402862996 0.255614996 0.637695014
0.685516000 0.271697998 0.629944026
0.817992985 0.307770014 0.626098990
0.087615997 0.446197987 0.608214974
0.156799003 0.446686000 0.643616021
0.329284996 0.434906006 0.676392019
0.709473014 0.443024009 0.675812006
0.856140018 0.471161008 0.669556022
0.126372993 0.625182986 0.628356993
0.185424998 0.676971018 0.674773991
0.253998011 0.723999023 0.711121023
0.745911002 0.778716981 0.756438971
0.911652029 0.792877018 0.771880984
0.174042001 0.741820991 0.637817025
0.204375997 0.776732981 0.657104015
0.240294993 0.806671023 0.638885021
0.749724984 0.884582996 0.688292980
0.959716976 0.844115973 0.699859977
0.051697001 0.113280997 0.740082026
0.275604010 0.092468001 0.753021002
0.441222996 0.125275001 0.742034972
0.640259027 0.139252007 0.722656012
0.771422982 0.176941007 0.718994021
0.071837999 0.331847996 0.754242003
0.160583004 0.284453988 0.772033989
0.396270990 0.270660013 0.775421023
0.658416986 0.306885004 0.749114990
0.796814024 0.310149997 0.742096007
0.099335000 0.488707989 0.753601015
0.160583004 0.473389000 0.774384022
0.337951988 0.453673989 0.786590993
0.677765012 0.476563007 0.773926020
0.821776986 0.443024009 0.765015006
0.139008000 0.644104004 0.750397027
0.191588998 0.677947998 0.779510021
0.280456990 0.715301991 0.807219982
0.739715993 0.780884027 0.853699028
0.904236019 0.752807975 0.853362978
0.183532998 0.753539979 0.753784001
0.214873999 0.804382026 0.794463992
0.247437000 0.855742991 0.827849984
0.697417974 0.915862978 0.861266971
0.951233029 0.936187983 0.875854015
