public/lut/94.cube
TITLE "17x17x17 Adobe/IRIDAS cube 3D LUT exported with GrossGrade v0.2.2 (beta) 64 bit"
DOMAIN_MIN 0 0 0
DOMAIN_MAX 1 1 1
LUT_3D_SIZE 17
0.038635001 0.038635001 0.041016001
0.094910003 0.043915000 0.043212999
0.150786996 0.048797999 0.043915000
0.205566004 0.052216001 0.044739000
0.260132015 0.056519002 0.046721999
0.311737001 0.061278999 0.050140001
0.360045999 0.064879999 0.053801998
0.409424007 0.068999998 0.057526000
0.459868997 0.073151000 0.061646000
0.511169016 0.077789001 0.066924997
0.563385010 0.082947001 0.072692998
0.613708019 0.089263998 0.078735001
0.656463981 0.097228996 0.085631996
0.692992985 0.105713002 0.092133000
0.724883974 0.114624001 0.098938003
0.751586974 0.124541998 0.105438001
0.773804009 0.137145996 0.113617003
0.037078999 0.079375997 0.039489999
0.088806003 0.083007999 0.039429002
0.141846001 0.084412001 0.041717999
0.196349993 0.088317998 0.043274000
0.250214010 0.092468001 0.045867998
0.301483005 0.095550999 0.048583999
0.350371987 0.098999001 0.051910002
0.400238007 0.102477998 0.055939000
0.452910990 0.106384002 0.060791001
0.507750988 0.111511000 0.066895001
0.564270020 0.116974004 0.073394999
0.618896008 0.122620001 0.081055000
0.666077018 0.128479004 0.088225998
0.705688000 0.133972004 0.094939999
0.739166021 0.140594006 0.101287998
0.766846001 0.148926005 0.107970998
0.790161014 0.161255002 0.115662001
0.038635001 0.117858998 0.039429002
0.075805999 0.124816999 0.039429002
0.136596993 0.128174007 0.040222000
0.192871004 0.126587003 0.042450000
0.246490002 0.127654999 0.044647001
0.297515988 0.131194994 0.048064999
0.345856011 0.134277001 0.052032001
0.395568997 0.137360007 0.056823999
0.449523985 0.140471995 0.062164001
0.507568002 0.144164994 0.067962997
0.567932010 0.148986995 0.075347997
0.626708984 0.154510006 0.083953999
0.677612007 0.159424007 0.092009999
0.719573975 0.164153993 0.099701002
0.754974008 0.169983000 0.106720001
0.784636974 0.177734002 0.113555998
0.809234977 0.192291006 0.121795997
0.041016001 0.156158000 0.041625999
0.069031000 0.163573995 0.041625999
0.117858998 0.172791004 0.041655999
0.186066002 0.179473996 0.044464000
0.247253001 0.179230005 0.049743999
0.298767000 0.176300004 0.052551001
0.346190989 0.176238999 0.055603001
0.394470006 0.178893998 0.059723001
0.447174013 0.182586998 0.065154999
0.505737007 0.185303003 0.071777001
0.569122016 0.187592000 0.079712003
0.631865978 0.191742003 0.088867001
0.686492980 0.196594000 0.098053001
0.732177973 0.201477006 0.106720001
0.770142019 0.206176996 0.114471003
0.800293028 0.214721993 0.122101001
0.826080024 0.226714998 0.130188003
0.043823000 0.195313007 0.045288000
0.068847999 0.203551993 0.043853998
0.103119001 0.213226005 0.043823000
0.165436000 0.227111995 0.046050999
0.239075005 0.232849002 0.052338000
0.300902992 0.234130993 0.060028002
0.351074010 0.229369998 0.065642998
0.398101985 0.227325007 0.068572998
0.450226009 0.229583994 0.072479002
0.508635998 0.233275995 0.078277998
0.571411014 0.237884998 0.086608998
0.635039985 0.241424993 0.096984997
0.692229986 0.243835002 0.107605003
0.740692019 0.247466996 0.117339998
0.779724002 0.250640988 0.125366002
0.811401010 0.256011993 0.132689998
0.838074028 0.264434993 0.140929997
0.045959000 0.235930994 0.051056001
0.069916002 0.243530005 0.048553001
0.098053001 0.253174007 0.047974002
0.144530997 0.264586985 0.049316000
0.226439998 0.281464010 0.054901000
0.294373006 0.281464010 0.063049003
0.353363007 0.281585991 0.072875999
0.406188995 0.278320014 0.079681002
0.456970006 0.276244998 0.084380999
0.513885021 0.278930992 0.089080997
0.577544987 0.283142000 0.095917001
0.641205013 0.289063007 0.106384002
0.697327018 0.293334991 0.117737003
0.746520996 0.294708014 0.128325999
0.787445009 0.296234012 0.137542993
0.819244027 0.299194008 0.145264000
0.846405029 0.304870993 0.152985007
0.048308998 0.275757015 0.058594000
0.070983998 0.282288015 0.054901000
0.097351000 0.291137993 0.053557999
0.134186000 0.299865991 0.054717999
0.205321997 0.316406012 0.058502000
0.290344000 0.324860007 0.066742003
0.349518001 0.323700011 0.076355003
0.408385992 0.325255990 0.087067001
0.468140006 0.323882997 0.095794998
0.524231017 0.322937012 0.102294996
0.585906982 0.326355010 0.109008998
0.650084972 0.331054986 0.117981002
0.706450999 0.336760998 0.129180998
0.754912972 0.339843988 0.139892995
0.794708014 0.340851009 0.148926005
0.826964974 0.342528999 0.157042995
0.854614019 0.346496999 0.164734006
0.052429002 0.313109994 0.067749001
0.074615002 0.318206996 0.062683001
0.099701002 0.326202005 0.060332999
0.131835997 0.334136993 0.060759999
0.185729995 0.345764011 0.063721001
0.279296994 0.363983005 0.071350001
0.349518001 0.365570009 0.080902003
0.402709991 0.364410013 0.091309004
0.471893013 0.369964987 0.103821002
0.540526986 0.371764988 0.114837997
0.600127995 0.372925013 0.124329001
0.661284983 0.376892000 0.133941993
0.718842030 0.379913002 0.143218994
0.768554986 0.383545011 0.153381005
0.807708979 0.384826988 0.162018001
0.837463021 0.384429991 0.168883994
0.864655018 0.388213992 0.176452994
0.058959998 0.347992003 0.078856997
0.080596998 0.351806998 0.071929999
0.103759997 0.358704001 0.067932002
0.131286994 0.366149992 0.067749001
0.175262004 0.375916004 0.070251003
0.259948999 0.395446986 0.076629996
0.348906994 0.410979986 0.086425997
0.408019990 0.410919011 0.097290002
0.466309011 0.411713004 0.109314002
0.546356022 0.422210991 0.124633998
0.621338010 0.428710997 0.139800996
0.680572987 0.430817008 0.152678996
0.736541986 0.434998006 0.163239002
0.788208008 0.437285990 0.172333002
0.829711974 0.438872993 0.180634007
0.858703971 0.436829001 0.186462000
0.882934988 0.436432004 0.192413002
0.067718998 0.381682992 0.092560001
0.087798998 0.385405988 0.083495997
0.108704001 0.391570985 0.076874003
0.131560996 0.399688989 0.075928003
0.168578997 0.410706013 0.078948997
0.239409998 0.428864002 0.084229000
0.334412009 0.454376012 0.093627997
0.417632997 0.470245004 0.105896004
0.476990014 0.468017995 0.118194997
0.543609977 0.469635010 0.132415995
0.631012022 0.481812000 0.151703000
0.705565989 0.486938000 0.170319006
0.759612978 0.491364002 0.184691995
0.810364008 0.496551991 0.195861995
0.852997005 0.498474002 0.204650998
0.885101020 0.497588992 0.210876003
0.908325016 0.494385004 0.215667993
0.078429997 0.420349002 0.111236997
0.097015001 0.424468994 0.098693997
0.116791002 0.431731999 0.088927999
0.136657998 0.441466987 0.086944997
0.165436000 0.454926014 0.090117998
0.223480001 0.473266989 0.095794998
0.313324004 0.498932004 0.104278997
0.414092988 0.528442025 0.116699003
0.498870999 0.536284983 0.131194994
0.559723020 0.524658024 0.144592002
0.628539979 0.523101985 0.159821004
0.717346013 0.533234000 0.182159007
0.783630013 0.537841976 0.202423006
0.831543028 0.544281006 0.217102006
0.871887028 0.548523009 0.228363007
0.904296994 0.549713016 0.236359000
0.929749012 0.549193978 0.242126003
0.091522001 0.468079001 0.134856999
0.108948000 0.472900003 0.118010998
0.127471998 0.480652004 0.103882000
0.146576002 0.492096007 0.101043999
0.172028005 0.507080019 0.104401000
0.222289994 0.524567008 0.109862998
0.309722990 0.549956977 0.118744001
0.411559999 0.579895020 0.130706996
0.513122976 0.594971001 0.145355001
0.590453982 0.585784972 0.160858005
0.644562006 0.569763005 0.173583999
0.714630008 0.566986024 0.190063000
0.796875000 0.575562000 0.215758994
0.850158989 0.577637017 0.233124003
0.887755990 0.584044993 0.246094003
0.917419016 0.586944997 0.256500006
0.942780018 0.587523997 0.263733000
0.105011001 0.517700016 0.158263996
0.121276997 0.523864985 0.138488993
0.138457999 0.530609012 0.120117001
0.156676993 0.541962028 0.116210997
0.186370999 0.558350027 0.119994998
0.240692005 0.576141000 0.126404002
0.327728003 0.600372016 0.136016995
0.427825987 0.627624989 0.148163006
0.534453988 0.646697998 0.161896005
0.618834972 0.640137017 0.176880002
0.671539009 0.617218018 0.191437006
0.728088021 0.604430974 0.205626994
0.794616997 0.600403011 0.223358005
0.859924018 0.601958990 0.245605007
0.898681998 0.605835021 0.258727998
0.928313971 0.610413015 0.269347996
0.951812983 0.612151980 0.278625011
0.117981002 0.561645985 0.181427002
0.133239999 0.567718983 0.157166004
0.149292007 0.573547006 0.135223001
0.167541996 0.585479975 0.131500006
0.206267998 0.602509022 0.136016995
0.268554986 0.620453000 0.143524006
0.352692008 0.642302990 0.153441995
0.452971995 0.667083979 0.165191993
0.563476980 0.686919987 0.178314000
0.645721018 0.680724978 0.192108005
0.693633974 0.655028999 0.207550004
0.747008979 0.637878001 0.222687006
0.803864002 0.625976980 0.235016003
0.859009027 0.619719982 0.253356993
0.904968023 0.619629025 0.269775003
0.934174001 0.623839974 0.280120999
0.958312988 0.627349973 0.289795011
0.129394993 0.592284977 0.199157998
0.143463001 0.597382009 0.171082005
0.158721998 0.604888976 0.149200007
0.179626003 0.618408024 0.145934999
0.228302002 0.635192990 0.151215002
0.302428991 0.654999018 0.160155997
0.386505008 0.675689995 0.169799998
0.484710991 0.698395014 0.180664003
0.592559993 0.716094971 0.193085000
0.669188976 0.707854986 0.206207007
0.711853027 0.681976020 0.220946997
0.760468006 0.663695991 0.235900998
0.813018978 0.646942019 0.247741997
0.862884998 0.635437012 0.263274997
0.903473020 0.628570974 0.276917011
0.937439024 0.632171988 0.290253013
0.960296988 0.635132015 0.299591005
0.139342993 0.609619021 0.209197998
0.152465999 0.614989996 0.177460000
0.168274000 0.624572992 0.158263996
0.200073004 0.640137017 0.157683998
0.258789003 0.657500982 0.164794996
0.339507997 0.678528011 0.174376994
0.426726997 0.698913991 0.184174001
0.519927979 0.719237983 0.194060996
0.614807010 0.732819021 0.204864994
0.683135986 0.722136974 0.217224002
0.723601997 0.697570980 0.231475994
0.765594006 0.680846989 0.246002004
0.813171029 0.662841976 0.258574992
0.863677979 0.648651004 0.271270990
0.902465999 0.637878001 0.284972996
0.936096013 0.634796023 0.298004001
0.962279975 0.639252007 0.309235007
0.148620993 0.619659007 0.214081004
0.160950005 0.625365973 0.178130999
0.181915000 0.639159977 0.166198999
0.232635006 0.658111989 0.169983000
0.301970989 0.677550972 0.178985998
0.385619998 0.698791981 0.188842997
0.477385998 0.719910026 0.198974997
0.567260981 0.739745975 0.208098993
0.645537972 0.747375011 0.217650995
0.701201975 0.732971013 0.229644999
0.739838004 0.709930003 0.243865997
0.776947021 0.693665028 0.258513987
0.817107975 0.676726997 0.270720989
0.866698980 0.660034001 0.280945003
0.907042980 0.647278011 0.295502007
0.934723020 0.637969971 0.306151986
0.958862007 0.636658013 0.316711009
0.036316000 0.039429002 0.092101999
0.097290002 0.044647001 0.094604000
0.160827994 0.046905998 0.093047999
0.214264005 0.048308998 0.086487003
0.265563995 0.050903000 0.083526999
0.315216005 0.054168999 0.083130002
0.363159001 0.056701999 0.083649002
0.411651999 0.060637999 0.085602000
0.461365014 0.064667001 0.088196002
0.511840999 0.069518998 0.091216996
0.563171029 0.074859999 0.095092997
0.612578988 0.080779999 0.099884003
0.654632986 0.087554999 0.104552999
0.689758003 0.095702998 0.109985001
0.720336974 0.105774000 0.116272002
0.746581972 0.116760001 0.122864000
0.768096983 0.130401999 0.131194994
0.037811000 0.080719002 0.089171998
0.085387997 0.085235998 0.091674998
0.148102000 0.090363003 0.091766000
0.202423006 0.092528999 0.088469997
0.255066007 0.095337003 0.087035999
0.306273997 0.099547997 0.088225998
0.355713010 0.103455000 0.089996003
0.405975014 0.107147001 0.092133000
0.458557010 0.111267000 0.095245004
0.512938976 0.115570001 0.098816000
0.568237007 0.119415000 0.102996998
0.620850027 0.124022998 0.108153999
0.664885998 0.130005002 0.113434002
0.701263011 0.135956004 0.118469000
0.731353998 0.144012004 0.123778999
0.756835997 0.158050999 0.131439000
0.779937983 0.175659001 0.140349999
0.039368000 0.122374997 0.088744998
0.070770003 0.126708999 0.086273000
0.136261001 0.130126998 0.081969999
0.194763005 0.131652996 0.086852998
0.248657003 0.135773003 0.088806003
0.299896002 0.139771000 0.089690998
0.348755002 0.142730996 0.090607002
0.398773015 0.145476997 0.092589997
0.452331990 0.148314998 0.095337003
0.509612978 0.151458994 0.099120997
0.569000006 0.154907003 0.103850998
0.626160026 0.158660993 0.109771997
0.674010992 0.162810996 0.115630999
0.713531017 0.167236000 0.121246003
0.745422006 0.174163997 0.127196997
0.772185981 0.186370999 0.133881003
0.795653999 0.201903999 0.142120004
0.041717999 0.162872002 0.088317998
0.068328999 0.165282995 0.082336001
0.113982998 0.172851995 0.077575997
0.188232005 0.180023000 0.078583002
0.251617014 0.176697001 0.082396999
0.302031994 0.175629005 0.086181998
0.349335015 0.177704006 0.089142002
0.398559988 0.181090996 0.091430999
0.452515006 0.184631005 0.094788000
0.511413991 0.187592000 0.099639997
0.573669016 0.190734997 0.105713002
0.634459972 0.194640994 0.112823002
0.686401010 0.198639005 0.120148003
0.729552984 0.202208996 0.126739994
0.763823986 0.207916006 0.132813007
0.791411996 0.217804000 0.139771000
0.816070974 0.230254993 0.147368997
0.043823000 0.203186005 0.089507997
0.068999998 0.205261007 0.082213998
0.098999001 0.213226005 0.077422999
0.160767004 0.226868004 0.076935001
0.241240993 0.230498999 0.080565996
0.305999994 0.228943005 0.086212002
0.355071992 0.224090993 0.089996003
0.402740002 0.222960994 0.092864998
0.455871999 0.225860998 0.096619003
0.514496028 0.230194002 0.101989999
0.577727973 0.234405994 0.109191999
0.641112983 0.237243995 0.118317001
0.696075022 0.239288002 0.126862004
0.742401004 0.241455004 0.134490997
0.778931022 0.245148003 0.141021997
0.808624029 0.250396997 0.146880999
0.832976997 0.261200011 0.155059993
0.045959000 0.244080007 0.093474999
0.070068002 0.246032998 0.085479997
0.094208002 0.252288997 0.080169998
0.139892995 0.264557004 0.078368999
0.223633006 0.280853003 0.081055000
0.295776010 0.278441995 0.087127998
0.357513011 0.276306003 0.095123000
0.410400003 0.272125006 0.100372002
0.461578012 0.269347996 0.103423998
0.519257009 0.271881014 0.107391000
0.582916021 0.276611000 0.114624001
0.646790028 0.281250000 0.124573000
0.702880979 0.283324987 0.134765998
0.751770020 0.284027010 0.144256994
0.790436029 0.284943014 0.151581004
0.820434988 0.288024992 0.157654002
0.845703006 0.295958996 0.164977998
0.048737001 0.283722013 0.100585997
0.070983998 0.284943014 0.090972997
0.093750000 0.290221989 0.084624998
0.129913002 0.300018013 0.081909001
0.199462995 0.316040009 0.082915999
0.288329989 0.325531006 0.089142002
0.350677013 0.321563989 0.097442999
0.411682010 0.319550008 0.107207999
0.472290009 0.317139000 0.113799997
0.527984977 0.314819008 0.118256003
0.589721978 0.316895008 0.123962000
0.653961003 0.321442008 0.132935002
0.709807992 0.325744987 0.143707007
0.759186029 0.327850014 0.154236004
0.799163997 0.327484012 0.162505999
0.830016971 0.329070985 0.169281006
0.856505990 0.333862007 0.176085994
0.053070001 0.320648015 0.109985001
0.073821999 0.321045011 0.098511003
0.096252002 0.325470001 0.090576001
0.126282007 0.334015012 0.086121000
0.179352000 0.345580995 0.086425997
0.272278011 0.364349008 0.091674998
0.347382009 0.365906000 0.099884003
0.403472990 0.361115009 0.109894000
0.474487007 0.363617003 0.121613003
0.543578982 0.364318997 0.131255999
0.602416992 0.362273991 0.138062000
0.663666010 0.363036990 0.145538002
0.720580995 0.366486013 0.155120999
0.769744992 0.369536996 0.165344000
0.808624029 0.370361000 0.173522994
0.839752018 0.372467011 0.180664003
0.866760015 0.376830995 0.187530994
0.059540000 0.355071992 0.121276997
0.078979000 0.355163991 0.108124003
0.100585997 0.358612001 0.098389000
0.126525998 0.366272002 0.092316002
0.168823004 0.376251012 0.091003001
0.249938995 0.395172000 0.095000997
0.341064006 0.410979986 0.103606999
0.405272990 0.410461009 0.113799997
0.466217011 0.407653987 0.125609994
0.549224973 0.415587991 0.140717000
0.624817014 0.420653999 0.154724002
0.682097971 0.418273985 0.164459005
0.737823009 0.419463992 0.173096001
0.788971007 0.420868009 0.181519002
0.827911019 0.421112001 0.188721001
0.857697010 0.421050996 0.195098996
0.883789003 0.424041986 0.201599002
0.067169003 0.388397008 0.135773003
0.086243004 0.389373988 0.121155001
0.106567003 0.392913997 0.108672999
0.128722996 0.400146008 0.099762000
0.162476003 0.411316007 0.097594999
0.228882000 0.429199010 0.101104997
0.323547006 0.453949004 0.109222002
0.410034001 0.471313000 0.120392002
0.473693997 0.468506008 0.132538006
0.543793023 0.465912014 0.146759003
0.634887993 0.476318002 0.166351005
0.709990978 0.481476009 0.184631005
0.762603998 0.482239008 0.195984006
0.813354015 0.483978003 0.204772994
0.854430974 0.483368009 0.211639002
0.885254025 0.481323004 0.217071995
0.909759998 0.480773985 0.222381994
0.077271000 0.426849008 0.154999003
0.095856003 0.430388987 0.138702005
0.114960000 0.434691995 0.122620001
0.134398997 0.442382991 0.109802000
0.160460994 0.455444008 0.106567003
0.212952003 0.473693997 0.110656999
0.302094012 0.498993009 0.118591003
0.402222008 0.529388011 0.129577994
0.490662009 0.539641976 0.143463001
0.557190001 0.526520014 0.157042995
0.629395008 0.520690978 0.172545999
0.723662972 0.531067014 0.196289003
0.790955007 0.537383974 0.216644004
0.837707996 0.541199028 0.229094997
0.877318978 0.542663991 0.237700999
0.910004020 0.542968988 0.244202003
0.934813976 0.541289985 0.248900995
0.089844003 0.473663002 0.177001998
0.107758000 0.481079012 0.159789994
0.125609994 0.485718012 0.138916001
0.144347996 0.493773997 0.122405998
0.166077003 0.506958008 0.118591003
0.212097004 0.525268972 0.123047002
0.296081990 0.550323009 0.131469995
0.396362007 0.579163015 0.142638996
0.502960026 0.599213004 0.156737998
0.587219000 0.592711985 0.171813995
0.644073009 0.571442008 0.184937000
0.717742980 0.565825999 0.201720998
0.805877984 0.576171994 0.229248002
0.859650016 0.580322027 0.246428996
0.894836009 0.584747016 0.257995993
0.925231993 0.586516976 0.266602010
0.949921012 0.586578012 0.272552013
0.102660999 0.520264030 0.196747005
0.119873002 0.530914009 0.178801998
0.136779994 0.536804020 0.154082999
0.154449001 0.543640018 0.134673998
0.176117003 0.556824028 0.131897002
0.227234006 0.576080024 0.137511998
0.311859012 0.600525022 0.146911994
0.411682010 0.627349973 0.158660993
0.525817990 0.652283013 0.172179997
0.616882026 0.648621023 0.186646000
0.671112001 0.621276975 0.201599002
0.730865002 0.606353998 0.216216996
0.801024973 0.600983024 0.234313995
0.870270014 0.604430974 0.257842988
0.908020020 0.609619021 0.269928008
0.936797976 0.613312006 0.280090004
0.957854986 0.614197016 0.287445009
0.114868000 0.559601009 0.212340996
0.131469995 0.573302984 0.195281997
0.147460997 0.578979015 0.166748002
0.164245993 0.585906982 0.147308007
0.191101000 0.599822998 0.145934999
0.248291001 0.618224978 0.152373999
0.334625006 0.641448975 0.162322998
0.437041998 0.666900992 0.174133003
0.553833008 0.690186024 0.187346995
0.643676996 0.686461985 0.201049998
0.693908989 0.659729004 0.215973005
0.748474002 0.641448975 0.231292993
0.808228016 0.627686024 0.244170994
0.866638005 0.621033013 0.262908995
0.914641976 0.623627007 0.279601991
0.943572998 0.628234982 0.289855987
0.963805974 0.630402029 0.297545999
0.125946000 0.588622987 0.225342005
0.141509995 0.601043999 0.205475003
0.156036004 0.606200993 0.174225003
0.174774006 0.616150022 0.158691004
0.214355007 0.631653011 0.159058005
0.278259009 0.649353027 0.165955007
0.366576999 0.671905994 0.176238999
0.471222013 0.696411014 0.187621996
0.582367003 0.717437983 0.199585006
0.664520025 0.711273015 0.212707996
0.710388005 0.683960021 0.227111995
0.757080019 0.665557981 0.241210997
0.811432004 0.648163021 0.253571004
0.866028011 0.636413991 0.269562006
0.912903011 0.630768001 0.285522014
0.947296023 0.636627018 0.298492014
0.967163026 0.638763011 0.305938989
0.135315001 0.605315983 0.234130993
0.150420994 0.618072987 0.207367003
0.165252998 0.625092030 0.174591005
0.192626998 0.638794005 0.166961998
0.247894004 0.655731022 0.170929000
0.320403993 0.675171018 0.179564998
0.410674989 0.697479010 0.190001994
0.515685976 0.721343994 0.200957999
0.616546988 0.737731993 0.212035999
0.686127007 0.727356017 0.224273995
0.728455007 0.701141000 0.238860995
0.770325005 0.684203982 0.253051996
0.817351997 0.666625977 0.265258998
0.870880008 0.651672006 0.278380990
0.912109017 0.640625000 0.292205989
0.945281982 0.638794005 0.304962009
0.968872011 0.642486989 0.314422995
0.144042999 0.615906000 0.241821006
0.159697995 0.630187988 0.205963001
0.176514000 0.640532970 0.179656997
0.219237998 0.658080995 0.176788002
0.283751994 0.676544011 0.183532998
0.362152010 0.697265983 0.193114996
0.457702994 0.719726980 0.203308001
0.562407970 0.742492974 0.213593006
0.650481999 0.751953006 0.223968998
0.706634998 0.737121999 0.235808998
0.744659007 0.713409007 0.249786004
0.781585991 0.696898997 0.263947010
0.821869016 0.679596007 0.276030988
0.872223020 0.662903011 0.286071986
0.915832996 0.649932981 0.300873011
0.945648015 0.640259027 0.311767995
0.967895985 0.640747011 0.321990997
0.037078999 0.038635001 0.144287005
0.091735996 0.043915000 0.146088004
0.159241006 0.050110001 0.152161002
0.220642000 0.053374998 0.149994001
0.274596989 0.052825999 0.139160007
0.325805992 0.053557999 0.130585000
0.375274986 0.055877998 0.126159996
0.424376994 0.059875000 0.124329001
0.473479986 0.064452998 0.123962000
0.522552013 0.068878002 0.124389999
0.571838021 0.074219003 0.125884995
0.619445980 0.080444001 0.127930000
0.659820974 0.086914003 0.130523995
0.693175972 0.093323000 0.133484006
0.721619010 0.100220002 0.136261001
0.745880008 0.108245999 0.140349999
0.766906977 0.118408002 0.146422997
0.037872002 0.081603996 0.138245001
0.076782003 0.083130002 0.144470006
0.147430003 0.089569002 0.148681998
0.212463006 0.093414001 0.144745007
0.265839010 0.092407003 0.132813007
0.313903987 0.092743002 0.124968998
0.361541986 0.094848998 0.122313999
0.410522014 0.097167999 0.121459998
0.461730987 0.099976003 0.121918000
0.514832020 0.103606999 0.123259999
0.569031000 0.107483000 0.125641003
0.620604992 0.112334996 0.129059002
0.663604975 0.118133999 0.132781997
0.698913991 0.124420002 0.136657998
0.727752984 0.133331001 0.141509995
0.752686024 0.146454006 0.148864999
0.775054991 0.164093003 0.157532007
0.040130999 0.122985996 0.137299001
0.069518998 0.126372993 0.141417995
0.129851997 0.131775007 0.144042999
0.200683996 0.138977006 0.144409001
0.254851997 0.138885006 0.135802999
0.302917004 0.139648005 0.130096003
0.351624012 0.142975003 0.129302993
0.402007997 0.146972999 0.130218998
0.455933005 0.151031002 0.131897002
0.513396978 0.154967993 0.133972004
0.572296023 0.159088001 0.137024000
0.627288997 0.164398000 0.140808001
0.672515988 0.169799998 0.144958004
0.709015012 0.175780997 0.149077997
0.737273991 0.187346995 0.155150995
0.762817025 0.199677005 0.161223993
0.785919011 0.215178996 0.169006005
0.042419001 0.166718006 0.139403999
0.069793999 0.171570003 0.140166998
0.105071999 0.177551001 0.137299001
0.185181007 0.183594003 0.130340993
0.249786004 0.182861000 0.133056998
0.299347013 0.185058996 0.135590002
0.347167999 0.188782007 0.135284007
0.397217005 0.193085000 0.134948999
0.451355010 0.197448999 0.135619998
0.510132015 0.200988993 0.137695000
0.571929991 0.204437003 0.140808001
0.631348014 0.208038002 0.144562006
0.680786014 0.211486995 0.148956001
0.720031977 0.215636998 0.153564006
0.751007020 0.222595006 0.158629999
0.777435005 0.230377004 0.163422003
0.801024973 0.242431998 0.170410007
0.045288000 0.211426005 0.142853007
0.070556998 0.215881005 0.138366997
0.095154002 0.219146997 0.130309999
0.152161002 0.226563007 0.120238997
0.239776999 0.232116997 0.119811997
0.306183010 0.226745993 0.123535000
0.353729010 0.225005999 0.128509998
0.401183993 0.228637993 0.132935002
0.455413997 0.233429000 0.135161996
0.515015006 0.238952994 0.137207001
0.578217030 0.243865997 0.141387999
0.639953971 0.246460006 0.147125006
0.692322016 0.248778999 0.153045997
0.735351980 0.251433998 0.158446997
0.768921018 0.255095989 0.163330004
0.796630979 0.259186000 0.167632997
