public/lut/95.cube
TITLE "17x17x17 Adobe/IRIDAS cube 3D LUT exported with GrossGrade v0.2.2 (beta) 64 bit"
DOMAIN_MIN 0 0 0
DOMAIN_MAX 1 1 1
LUT_3D_SIZE 17
0.001587000 0.007111000 0.011841000
0.014526000 0.014801000 0.018005000
0.086883999 0.037749998 0.029572001
0.166869998 0.059540000 0.047485001
0.233825997 0.076660000 0.065613002
0.273009986 0.089630000 0.079650998
0.307799995 0.100830004 0.093506001
0.349029988 0.116668999 0.110321000
0.391815007 0.136107996 0.128571004
0.435303003 0.157196000 0.148620993
0.481720001 0.181305006 0.171387002
0.529754996 0.206604004 0.195526004
0.575653017 0.231506005 0.219025001
0.614960015 0.252990991 0.239531994
0.650817990 0.272765994 0.258331001
0.685486019 0.291992009 0.276580989
0.707367003 0.304412991 0.288390994
0.004669000 0.031891000 0.014923000
0.012970000 0.036469001 0.012665000
0.101623997 0.041992001 0.019562000
0.175751001 0.060547002 0.037749998
0.232512996 0.078887999 0.055236999
0.279296994 0.096802004 0.073638998
0.323119998 0.114471003 0.093170002
0.362365991 0.130066007 0.111908004
0.400023997 0.144164994 0.130980998
0.439361989 0.160278007 0.150481999
0.482086003 0.181182995 0.171599999
0.529754996 0.206421003 0.195709005
0.576111019 0.231445000 0.219359994
0.615325987 0.252959996 0.239776999
0.653289974 0.273986995 0.259734988
0.686034977 0.292053014 0.277251989
0.711700022 0.308043987 0.290405005
0.009369000 0.064056002 0.014984000
0.012970000 0.078491002 0.014099000
0.086700000 0.068726003 0.014099000
0.188232005 0.069061004 0.034393001
0.254913002 0.087250002 0.059875000
0.304749012 0.108124003 0.080688000
0.346832007 0.126099005 0.098449998
0.387207001 0.144379005 0.116241001
0.425873011 0.162689000 0.134887993
0.465667993 0.182616994 0.155090004
0.507996023 0.204375997 0.177794993
0.549926996 0.225310996 0.201446995
0.592559993 0.246886998 0.224639997
0.632140994 0.268249989 0.245574996
0.671477973 0.291655988 0.265258998
0.711181998 0.316742003 0.282348990
0.752686024 0.345306009 0.293213010
0.016266000 0.100037001 0.018005000
0.016113000 0.106232002 0.018616000
0.087860003 0.108856000 0.016968001
0.179230005 0.105194002 0.034302000
0.269775003 0.103515998 0.059356999
0.330444008 0.119292997 0.085326999
0.376403987 0.139983997 0.107787997
0.416016012 0.158751994 0.126587003
0.451660007 0.176941007 0.144805998
0.489684999 0.196807995 0.164794996
0.532135010 0.219696000 0.186127007
0.576294005 0.244202003 0.207458004
0.622924984 0.270781994 0.228790000
0.667450011 0.296967000 0.247620001
0.707764030 0.320984006 0.265197992
0.745697021 0.344208002 0.280761987
0.781677008 0.368072987 0.291473001
0.026031001 0.136504993 0.027008001
0.025787000 0.140869007 0.028380999
0.086700000 0.148314998 0.027496001
0.190613002 0.156036004 0.041809000
0.264739990 0.145691007 0.058623999
0.345275998 0.141449004 0.084014997
0.399536014 0.152832001 0.108764999
0.440825999 0.172576994 0.132995993
0.478332996 0.191620007 0.155333996
0.514403999 0.210663006 0.175231993
0.555846989 0.233337000 0.195678994
0.600158989 0.258605987 0.216491997
0.645080984 0.284790009 0.235870004
0.688934028 0.311340004 0.253051996
0.729979992 0.337036014 0.267302990
0.767853022 0.362365991 0.280609012
0.797913015 0.387145996 0.289977998
0.036316000 0.170990005 0.037108999
0.036072001 0.176146999 0.038635001
0.091155998 0.185120001 0.039124001
0.203949004 0.195526004 0.046112001
0.275696009 0.195831001 0.064758003
0.339965999 0.184508994 0.083434999
0.412018001 0.177123994 0.108489998
0.463348001 0.187041998 0.134460002
0.501128972 0.205779999 0.158629999
0.539093018 0.225281000 0.182433993
0.579346001 0.247283995 0.204680994
0.621276975 0.271239996 0.224243000
0.663604975 0.296021014 0.242339998
0.705780029 0.321776986 0.258574992
0.745482981 0.347198009 0.272399992
0.780791998 0.372467011 0.284148991
0.811004996 0.398925990 0.293884009
0.044647001 0.200470001 0.046082001
0.045166001 0.207184002 0.048156999
0.099395998 0.220154002 0.049927000
0.206879005 0.229401007 0.050262000
0.299071997 0.236908004 0.073882997
0.352874994 0.235839993 0.091216996
0.409485012 0.222838998 0.108581997
0.475158989 0.214873999 0.134552002
0.524260998 0.223144993 0.160247996
0.562713981 0.241150007 0.184661999
0.603362978 0.262207001 0.209747002
0.643554986 0.284729004 0.231415004
0.683440983 0.308411002 0.248535007
0.723479986 0.333312988 0.263671994
0.759674013 0.357147008 0.276825011
0.794281006 0.382842988 0.289153993
0.824492991 0.408751994 0.300200999
0.052429002 0.225615993 0.053436000
0.053833000 0.235442996 0.056304999
0.109435998 0.251129001 0.059326001
0.209747002 0.261016995 0.058410998
0.314087003 0.274933010 0.078948997
0.378722996 0.277954012 0.101287998
0.421386987 0.277373999 0.117187999
0.472595006 0.265136987 0.135010004
0.536041021 0.255553991 0.161010996
0.587463021 0.262847990 0.187103003
0.627258003 0.280517995 0.211243004
0.667450011 0.300628990 0.235167995
0.704346001 0.322021008 0.253845006
0.741057992 0.345367014 0.268341005
0.775237978 0.369109988 0.281188995
0.807922006 0.394623011 0.293792993
0.838531017 0.419768989 0.306488007
0.059570000 0.249512002 0.060454998
0.062531002 0.263458014 0.064727999
0.120421998 0.282714993 0.069061004
0.219420999 0.293242991 0.069366001
0.322113007 0.313324004 0.080994003
0.397614002 0.316437006 0.107543997
0.441985995 0.321289003 0.127441004
0.480895996 0.325073004 0.142761007
0.533721983 0.314117014 0.162627995
0.597473025 0.304901004 0.188842997
0.649536014 0.309937000 0.213806003
0.688812017 0.322723001 0.235747993
0.725005984 0.339569002 0.256408989
0.759338021 0.359955013 0.272765994
0.791687012 0.383605987 0.286132991
0.823180974 0.409667999 0.299286008
0.856658995 0.434540004 0.314514011
0.067169003 0.273956001 0.068024002
0.071135998 0.292358011 0.073638998
0.133056998 0.315703988 0.079071000
0.232970998 0.328155994 0.081207000
0.328063995 0.347656012 0.086029001
0.409545988 0.360352010 0.111206003
0.461914003 0.363402992 0.135376006
0.501160026 0.372925013 0.153808996
0.540984988 0.379424989 0.170562997
0.592742980 0.370819002 0.190856993
0.657471001 0.362212986 0.217345998
0.707854986 0.363312006 0.240264997
0.742706001 0.370056003 0.258026004
0.776184022 0.383605987 0.275543004
0.807799995 0.402832001 0.290740997
0.840301991 0.428528011 0.305817008
0.875885010 0.453887999 0.323700011
0.074738003 0.298339993 0.075409003
0.080779999 0.322661996 0.083130002
0.144317999 0.347961009 0.089690998
0.244415000 0.366057992 0.094391003
0.332794011 0.381989002 0.097655997
0.414490014 0.403595001 0.113342002
0.477661014 0.412903011 0.139708996
0.521667004 0.416168004 0.162781000
0.559601009 0.427886993 0.180939004
0.599182010 0.437714010 0.198730007
0.650452018 0.432586998 0.220275998
0.713409007 0.425018013 0.246277004
0.757568002 0.423004001 0.265258998
0.789153993 0.427581996 0.280028999
0.821747005 0.437285990 0.296142995
0.855255008 0.454986989 0.312438995
0.887786984 0.475127995 0.329986989
0.082213998 0.322418004 0.083130002
0.090880997 0.352874994 0.093047999
0.152190998 0.381653011 0.101531997
0.253387004 0.405059993 0.108733997
0.341033995 0.421752989 0.114197001
0.415253013 0.439727992 0.119140998
0.483031988 0.457702994 0.140380993
0.537536979 0.465851009 0.167846993
0.579346001 0.470795006 0.189636007
0.615752995 0.485137999 0.208008006
0.654143989 0.497954994 0.226745993
0.703032970 0.494262993 0.248778999
0.761565983 0.490662009 0.273925990
0.800140023 0.491118997 0.290740997
0.832427979 0.493225008 0.304962009
0.869140983 0.499480993 0.321960002
0.894622982 0.507080019 0.335204989
0.090026997 0.345306009 0.090453997
0.099730998 0.378417999 0.101837002
0.162505999 0.413269013 0.113159001
0.265076011 0.438140988 0.121826001
0.353058010 0.457915992 0.129271999
0.423949987 0.473358005 0.135344997
0.488586009 0.492644995 0.146789998
0.546721995 0.509033024 0.169678003
0.595489979 0.516846001 0.195892006
0.633971989 0.525116026 0.216674998
0.668945014 0.542632997 0.235076994
0.707916021 0.558013976 0.255066007
0.748871028 0.555297971 0.274719000
0.801270008 0.554260015 0.298705995
0.842559993 0.558411002 0.317656994
0.886870980 0.562255979 0.337799013
0.904724002 0.562927008 0.346190989
0.095031999 0.360137999 0.095519997
0.106688999 0.397614002 0.108764999
0.174529999 0.436035007 0.121857002
0.278075993 0.464385986 0.132721007
0.366028011 0.486510992 0.141601995
0.436004996 0.506165028 0.150238007
0.496917993 0.523742974 0.157562003
0.555359006 0.542755008 0.174805000
0.606445014 0.556854010 0.199645996
0.651122987 0.566986024 0.224243000
0.689025998 0.580353022 0.245026007
0.718140006 0.598601997 0.261047006
0.749724984 0.614104986 0.278290004
0.784942985 0.609314024 0.296355993
0.845184028 0.616791010 0.326171994
0.903106987 0.627166986 0.354523003
0.914398015 0.630096018 0.360504001
0.104736000 0.387207001 0.105469003
0.117218003 0.425262004 0.119446002
0.188782007 0.467498988 0.135040000
0.290832996 0.495849997 0.146301001
0.379180998 0.518494010 0.155913994
0.448547006 0.538666010 0.165222004
0.508971989 0.557281017 0.174408004
0.566314995 0.576569021 0.186492994
0.617919981 0.592651010 0.206207007
0.663025022 0.605773985 0.230164006
0.704010010 0.621185005 0.252685994
0.736388981 0.636413991 0.271057010
0.759216011 0.650359988 0.284209996
0.789215028 0.667450011 0.301726997
0.824706972 0.664124012 0.321074992
0.900786996 0.682525992 0.361541986
0.922942996 0.698424995 0.375458002
0.156708002 0.516753972 0.157226995
0.168945000 0.545714974 0.169678003
0.186127007 0.577057004 0.183105007
0.290131003 0.595978022 0.191222996
0.386566013 0.611023009 0.198669001
0.459991008 0.624939024 0.206238002
0.520111024 0.634552002 0.212402001
0.578032970 0.644622982 0.219329998
0.631682992 0.658385992 0.228148997
0.677215993 0.667725027 0.241638005
0.714600027 0.671692014 0.259795994
0.747161984 0.679931998 0.278351009
0.778228998 0.692017019 0.296539009
0.802002013 0.706268013 0.310851991
0.836914003 0.724731028 0.332123011
0.868224978 0.721130013 0.349884003
0.926024973 0.751250982 0.385589987
0.218383998 0.652863026 0.218750000
0.227782995 0.672515988 0.228119001
0.230286002 0.683685005 0.233458996
0.294250011 0.697937012 0.240081996
0.390899986 0.708343983 0.246337995
0.467833996 0.711974978 0.250030994
0.532104015 0.713898003 0.253203988
0.590728998 0.716736019 0.257324010
0.642516971 0.722931027 0.263671994
0.691437006 0.730377018 0.270904988
0.731872976 0.733551025 0.278198004
0.760802984 0.734650016 0.290192008
0.794463992 0.741913021 0.309783995
0.826934993 0.753234982 0.329192996
0.847136974 0.762969971 0.342009991
0.887054026 0.783905029 0.367888987
0.916351020 0.778075993 0.383758992
0.002319000 0.021790000 0.038086001
0.029175000 0.017944001 0.036559999
0.114288002 0.035521999 0.040465999
0.195831001 0.055907998 0.059691999
0.258118004 0.074524000 0.078735001
0.293792993 0.089325003 0.091553003
0.331207007 0.107543997 0.105377004
0.374146014 0.127899006 0.121613003
0.415802002 0.147582993 0.139374003
0.456450999 0.167998999 0.158813000
0.498932004 0.190368995 0.179931998
0.543365002 0.213836998 0.202362001
0.586609006 0.237334996 0.224639997
0.623992980 0.257964998 0.244202003
0.657500982 0.276459008 0.261840999
0.686707020 0.292724997 0.277373999
0.707396984 0.304291010 0.288543999
0.004639000 0.036529999 0.042725001
0.011627000 0.046631001 0.052673001
0.079925999 0.058196999 0.055907998
0.161987007 0.080292001 0.070251003
0.233215004 0.099486999 0.085937999
0.294250011 0.115172997 0.100555003
0.350281000 0.132201999 0.117310002
0.399048001 0.147857994 0.133392006
0.430359006 0.159514993 0.144775003
0.456604004 0.171050996 0.158020005
0.496520996 0.189239994 0.178893998
0.543304026 0.213744998 0.202758998
0.587067008 0.237609997 0.225219995
0.627044976 0.259276986 0.246032998
0.661895990 0.279448986 0.264129996
0.699859977 0.306243986 0.280517995
0.745544016 0.340912014 0.290192008
0.015320000 0.091247998 0.042725001
0.015198000 0.094025001 0.051635999
0.073882997 0.087006003 0.039611999
0.175476000 0.089630000 0.054016002
0.249146000 0.107391000 0.071746998
0.310425013 0.126495004 0.088531002
0.362334996 0.142058998 0.103363000
0.405272990 0.156586006 0.117583998
0.443358988 0.173217997 0.134247005
0.483916998 0.194092005 0.156525001
0.530121028 0.218230993 0.182769999
0.576629996 0.243285999 0.208251998
0.618651986 0.266357005 0.230407998
0.659698009 0.289458990 0.251433998
0.697417974 0.312164009 0.267852992
0.736755013 0.337493986 0.279083014
0.772490978 0.362060994 0.287414998
0.022430001 0.122040004 0.029387999
0.024292000 0.130309999 0.045012999
0.069824003 0.141479000 0.036773998
0.166045994 0.126892000 0.038300000
0.263641000 0.119415000 0.057037000
0.329315007 0.128539994 0.078217000
0.378571004 0.146514997 0.097809002
0.421386987 0.165497005 0.116791002
0.462554991 0.186157003 0.136474997
0.505614996 0.209319994 0.158112004
0.552672982 0.235259995 0.181488007
0.602020025 0.262970001 0.205901995
0.647614002 0.288666010 0.228637993
0.689849973 0.313019007 0.248932004
0.727234006 0.335418999 0.265594006
0.760590017 0.358002007 0.276764005
0.792786002 0.380585015 0.288879007
0.029998999 0.151306003 0.030792000
0.033721998 0.163055003 0.042663999
0.072571002 0.184386998 0.040375002
0.179260001 0.177794993 0.038695998
0.257384986 0.165222004 0.056671001
0.339599997 0.156463996 0.080169998
0.399230987 0.161406994 0.102448002
0.444000006 0.178435996 0.124481000
0.485778987 0.199645996 0.145751998
0.527405024 0.222229004 0.166443005
0.572387993 0.247406006 0.187621996
0.619965017 0.275330007 0.209044993
0.667052984 0.304565012 0.229614004
0.709075987 0.332336009 0.247589007
0.746215999 0.357116997 0.264373988
0.777068973 0.379639000 0.277435005
0.808288991 0.401122987 0.291718006
0.037994001 0.177581996 0.038483001
0.042908002 0.195923001 0.045623999
0.078308001 0.212066993 0.046875000
0.183136001 0.215424001 0.045318998
0.269501001 0.216095001 0.063842997
0.333678991 0.205566004 0.083099000
0.406311005 0.193755999 0.105530001
0.462799013 0.197295994 0.128937006
0.507538021 0.214416996 0.152710006
0.550445974 0.235930994 0.175200999
0.593627989 0.260650992 0.195952997
0.639862001 0.288239002 0.216582999
0.682129025 0.315856993 0.234436005
0.722411990 0.345337003 0.251098990
0.758697987 0.374359012 0.266754001
0.792450011 0.403441995 0.281890988
0.822265983 0.427643001 0.296294987
0.044829998 0.199370995 0.045531999
0.051238999 0.225676998 0.053100999
0.085662998 0.239380002 0.055206001
0.186157003 0.247620001 0.054320998
0.289885998 0.259613007 0.071075000
0.348816007 0.258545011 0.090301998
0.403930992 0.245636001 0.108825997
0.470519990 0.234679997 0.131989002
0.525054991 0.236876994 0.156188995
0.570526004 0.252472013 0.180236995
0.615813971 0.275512993 0.203338996
0.658325016 0.301331013 0.223144993
0.697510004 0.327605993 0.240264997
0.735473990 0.356323004 0.256469995
0.769622982 0.386566013 0.271026999
0.804077029 0.415894002 0.286956996
0.835358024 0.444976985 0.302367985
0.050384998 0.219025001 0.051086001
0.059661999 0.253051996 0.061554000
0.095154002 0.271575987 0.065307997
0.195648000 0.280669987 0.065796003
0.298584014 0.296416998 0.073853001
0.370972008 0.301055998 0.097259998
0.416045994 0.299804986 0.116301998
0.468596995 0.290802002 0.135498002
0.533568978 0.279785007 0.160126001
0.588622987 0.280272990 0.184325993
0.634276986 0.294983000 0.207672000
0.676544011 0.316864014 0.229003996
0.713958979 0.341643989 0.246428996
0.749023020 0.369536996 0.261840999
0.781554997 0.398773015 0.276275992
0.815612972 0.426452994 0.292571992
0.847594976 0.456786990 0.308593988
0.056152001 0.237731993 0.056823999
0.067962997 0.279785007 0.069762997
0.106841996 0.303191990 0.075409003
0.207305998 0.314361989 0.077147998
0.300415009 0.328217000 0.079071000
0.384856999 0.342346013 0.101685002
0.439269990 0.345734000 0.125549003
0.478850991 0.348206013 0.143218994
0.531615973 0.340851009 0.163727000
0.596648991 0.330170006 0.189362004
0.650421023 0.331573009 0.212798998
0.692505002 0.343506008 0.233429000
0.731872976 0.361633003 0.252777010
0.764617980 0.385955989 0.268065989
0.795166016 0.414763987 0.282593012
0.829802990 0.441466987 0.299529999
0.861603022 0.470061988 0.315856993
0.061035000 0.254303008 0.062164001
0.076568998 0.307770014 0.078429997
0.118256003 0.334441990 0.085631996
0.218108997 0.350158989 0.089142002
0.307372987 0.363159001 0.091553003
0.392365009 0.384063989 0.104950003
0.457152992 0.392242014 0.130706996
0.500153005 0.396789998 0.153075993
0.538909972 0.402191013 0.170715004
0.592437983 0.396912009 0.192993000
0.657410026 0.389771014 0.219451994
0.708405018 0.390717000 0.241301998
0.746825993 0.398041010 0.259186000
0.779479980 0.412018001 0.274872005
0.810851991 0.435393989 0.290313989
0.846374989 0.461791992 0.308319002
0.878448009 0.488617003 0.325042993
0.065765001 0.269928008 0.066680998
0.086121000 0.336699992 0.087615997
0.127228007 0.367370993 0.096648999
0.228698999 0.386871010 0.102264002
0.318726003 0.403503001 0.107391000
0.395446986 0.419983000 0.112427004
0.463867009 0.437682986 0.132172003
0.517669976 0.444335997 0.158751994
0.559508979 0.452910990 0.180664003
0.598205984 0.462067008 0.199096993
0.649932981 0.458191007 0.222106993
0.714263976 0.453491002 0.249695003
0.759459972 0.453613013 0.269134998
0.790893972 0.457520008 0.283142000
0.825744987 0.469603986 0.299652010
0.865265012 0.488525003 0.319092005
0.893065989 0.512908995 0.334320009
0.071106002 0.286835015 0.071686000
0.095611997 0.364104986 0.097075999
0.134430006 0.399414003 0.108214997
0.239105001 0.421265006 0.115295000
0.329712003 0.441284001 0.122374997
0.399872005 0.455871999 0.127654999
0.465485007 0.474730998 0.137878001
0.527435005 0.491425008 0.160980001
0.578429997 0.500365973 0.187683001
0.617981017 0.512023985 0.208618000
0.653625011 0.522125006 0.226989999
0.702208996 0.519531012 0.250366002
0.763489008 0.517059028 0.277617991
0.802124023 0.518371999 0.294891000
0.838379025 0.523590028 0.311432004
0.883361995 0.527984977 0.331696004
0.901427984 0.542603016 0.342101991
0.076080002 0.302428991 0.076568998
0.104065001 0.388579994 0.105713002
0.143829003 0.428375006 0.119263001
0.250427008 0.453368992 0.128296003
0.339691013 0.473937988 0.136261001
0.410492003 0.492706001 0.144164994
0.470916986 0.508666992 0.150818005
0.532288015 0.529205024 0.165680006
0.589294016 0.544586003 0.190734997
0.636382997 0.553955019 0.216613993
0.674346983 0.569489002 0.237305000
0.705994010 0.582396984 0.254547000
0.748016000 0.580353022 0.275757015
0.805023015 0.578400016 0.302886993
0.852111995 0.584075987 0.325316995
0.898528993 0.588653982 0.346587986
0.908141971 0.586700022 0.351105005
0.079223998 0.313385010 0.080048002
0.111359000 0.408782989 0.112915002
0.156799003 0.451171994 0.128296003
0.262237996 0.478118986 0.138702005
0.349274009 0.502318978 0.148773000
0.420592993 0.523437977 0.158080995
0.483429015 0.541229010 0.166626006
0.541167974 0.558624029 0.175567999
0.597838998 0.578705013 0.195281997
0.649109006 0.595062017 0.222289994
0.690460026 0.607391000 0.245422006
0.722869992 0.625427008 0.263518989
0.750640988 0.640137017 0.279266000
0.790069997 0.637145996 0.300933987
0.856994987 0.643981993 0.334960997
0.912445009 0.650879025 0.362457007
0.917052984 0.648833990 0.364562988
0.087981999 0.338196009 0.088440001
0.125000000 0.442566007 0.126404002
0.168792993 0.485931009 0.143066004
0.273254007 0.514343023 0.154510006
0.363068014 0.537353992 0.164368004
0.433075011 0.559265018 0.174805000
0.495667011 0.577911019 0.184235007
0.553192019 0.596068978 0.194122002
0.608214974 0.615294993 0.207885996
0.659882009 0.632263005 0.228882000
0.704070985 0.646362007 0.253082007
0.739593983 0.661559999 0.273438007
0.770049989 0.682312012 0.291442990
0.803161979 0.702911019 0.311401010
0.838440001 0.695190012 0.330810994
0.913361013 0.705260992 0.371215999
0.924255013 0.710205019 0.377898991
0.137633994 0.472075999 0.138214007
0.177979007 0.565581977 0.178618997
0.187438995 0.594635010 0.191405997
0.273559988 0.619140983 0.202208996
0.371215999 0.633911014 0.209502995
0.444121987 0.646637022 0.216582999
0.506775022 0.658721983 0.224121004
0.565703988 0.669616997 0.231689006
0.622223020 0.681273997 0.240172997
0.675536990 0.694031000 0.250396997
0.717926025 0.701599002 0.263947010
0.753356993 0.709351003 0.283813000
0.791565001 0.728515983 0.306731999
0.820128977 0.743134022 0.324310005
0.853271008 0.758789003 0.345093012
0.884002984 0.749481022 0.361755013
0.927765012 0.760344982 0.388123006
0.200988993 0.616150022 0.201385006
0.234130993 0.685393989 0.234467000
0.241180003 0.703948975 0.243469000
0.282837003 0.718719006 0.250335991
0.373748988 0.725281000 0.254669011
0.452515006 0.729828000 0.258666992
0.516632020 0.735747993 0.263947010
0.578278005 0.740723014 0.269501001
0.634247005 0.745025992 0.275146008
0.686401010 0.751617014 0.282622993
0.735535026 0.760680974 0.291869998
0.775452018 0.770659983 0.304473996
0.810333014 0.780487001 0.323760986
0.841919005 0.789398015 0.342896014
0.864807010 0.798552990 0.357421994
0.899567008 0.811767995 0.379790992
0.928252995 0.800200999 0.394226015
0.001587000 0.045318998 0.079986997
0.010315000 0.034942999 0.075957999
0.133635998 0.041839998 0.056519002
0.220917001 0.063110001 0.071960002
0.289092988 0.084441997 0.093383998
0.333160013 0.100951999 0.109222002
0.360962003 0.113861002 0.120604999
0.395202994 0.132935002 0.134582996
0.436737001 0.156951994 0.150878996
0.477355987 0.179168999 0.168945000
0.517364979 0.200073004 0.189208999
0.557739019 0.221741006 0.209717005
0.596557975 0.242798001 0.229857996
0.632416010 0.262573004 0.248657003
0.664124012 0.280211985 0.265410990
0.687012017 0.292937994 0.277496010
0.704163015 0.302399009 0.286895990
0.006195000 0.059845001 0.084930003
0.009125000 0.070587002 0.093108997
0.097930998 0.062224999 0.082794003
0.184753001 0.076903999 0.082488999
0.256805003 0.096161000 0.097167999
0.317992985 0.115264997 0.114501998
0.369812012 0.131865993 0.130463004
0.415069997 0.146636993 0.145568997
0.451110989 0.162384003 0.159454003
0.478210002 0.178069994 0.171295002
0.511047006 0.196227998 0.186400995
0.554778993 0.220000997 0.208343998
0.595734000 0.242156997 0.229797006
0.632140994 0.261902004 0.249054000
0.664947987 0.281250000 0.265502989
0.700989008 0.308806986 0.278869987
0.744476020 0.339783013 0.291900992
0.013885000 0.096161000 0.095825002
0.014404000 0.101837002 0.100220002
0.067809999 0.100464001 0.101623997
0.156859994 0.112457000 0.106232002
0.232970998 0.132415995 0.118408002
0.300200999 0.150969997 0.131560996
0.359618992 0.166991994 0.144072995
0.412842005 0.183319002 0.158417001
0.462677002 0.200623006 0.174103007
0.512085021 0.219269007 0.191162005
0.563080013 0.241150007 0.210265994
0.612244010 0.264984012 0.230377004
0.653046012 0.286774009 0.247314006
0.687653005 0.309051991 0.261810005
0.728209972 0.337157995 0.284851015
0.770049989 0.366088986 0.307036996
0.806457996 0.389281988 0.319884986
0.036377002 0.165863007 0.108887002
0.034118999 0.159912005 0.095825002
0.058745999 0.158875003 0.100647002
0.153564006 0.145691007 0.087523997
0.246735007 0.145568997 0.099792004
0.314301014 0.161987007 0.116699003
0.370819002 0.181457996 0.130463004
0.422607005 0.199493006 0.145142004
0.474700987 0.217285007 0.161133006
0.530791998 0.236693993 0.178740993
0.585114002 0.258300990 0.198364004
0.632507026 0.282256991 0.218383998
0.675629020 0.307372987 0.237792999
0.717194021 0.331909001 0.257750988
0.757385015 0.359252989 0.279877007
0.793640018 0.382506996 0.296416998
0.825164974 0.402832001 0.309264988
0.052306999 0.215758994 0.095673002
0.043976001 0.190704003 0.077026002
0.056549001 0.207825005 0.092864998
0.160370007 0.200683996 0.077910997
0.247283995 0.184631005 0.076416001
0.332183987 0.178893998 0.093718998
0.397736013 0.186462000 0.111389004
0.446594000 0.201537997 0.128051996
0.490143001 0.220154002 0.145385996
0.536499023 0.242431998 0.164551005
0.587554991 0.269042999 0.186127007
0.637176991 0.297760010 0.208281994
0.684356987 0.325744987 0.230529994
0.728119016 0.351226985 0.251372993
0.763641000 0.375274986 0.269042999
0.795135021 0.396178991 0.283843994
