public/lut/95.cube
TITLE "17x17x17 Adobe/IRIDAS cube 3D LUT exported with GrossGrade v0.2.2 (beta) 64 bit"
DOMAIN_MIN 0 0 0
DOMAIN_MAX 1 1 1
LUT_3D_SIZE 5
0.001587000 0.007111000 0.011841000
0.233825997 0.076660000 0.065613002
0.391815007 0.136107996 0.128571004
0.575653017 0.231506005 0.219025001
0.707367003 0.304412991 0.288390994
0.026031001 0.136504993 0.027008001
0.264739990 0.145691007 0.058623999
0.478332996 0.191620007 0.155333996
0.645080984 0.284790009 0.235870004
0.797913015 0.387145996 0.289977998
0.059570000 0.249512002 0.060454998
0.322113007 0.313324004 0.080994003
0.533721983 0.314117014 0.162627995
0.725005984 0.339569002 0.256408989
0.856658995 0.434540004 0.314514011
0.090026997 0.345306009 0.090453997
0.353058010 0.457915992 0.129271999
0.595489979 0.516846001 0.195892006
0.748871028 0.555297971 0.274719000
0.904724002 0.562927008 0.346190989
0.218383998 0.652863026 0.218750000
0.390899986 0.708343983 0.246337995
0.642516971 0.722931027 0.263671994
0.794463992 0.741913021 0.309783995
0.916351020 0.778075993 0.383758992
0.010651000 0.096161000 0.168243006
0.324860007 0.104309000 0.114868000
0.479369998 0.171050996 0.177398995
0.615387022 0.253235012 0.239806995
0.753296018 0.342925996 0.303557992
0.052154999 0.217773005 0.217559993
0.209868997 0.220092997 0.216979995
0.475493997 0.292266995 0.249267995
0.703155994 0.397522002 0.325287014
0.854645014 0.478911996 0.386687994
0.128601000 0.426941007 0.253601015
0.198944002 0.412566990 0.196715996
0.513275027 0.409240991 0.171082005
0.742156982 0.473785013 0.274657995
0.890349984 0.572234988 0.349426001
0.113067999 0.406006008 0.126404002
0.225830004 0.553130984 0.203734994
0.549072027 0.591919005 0.205810994
0.765106022 0.652893007 0.287689000
0.917267025 0.649567008 0.364899009
0.211760998 0.639221013 0.212127998
0.357757986 0.759094000 0.271789998
0.618499994 0.795013011 0.301575005
0.818237007 0.827515006 0.342620999
0.931396008 0.832031012 0.402251989
0.059845001 0.191680998 0.329742014
0.308777004 0.148102000 0.257506996
0.560944021 0.244140998 0.230164006
0.709351003 0.335631996 0.296875000
0.816039979 0.417632997 0.354645014
0.091278002 0.273407012 0.382813007
0.155242994 0.326842993 0.427704006
0.504547000 0.354034007 0.339203000
0.718474984 0.457183987 0.407683998
0.852630973 0.523742974 0.453217000
0.134460002 0.408385992 0.448119998
0.152953997 0.465424001 0.479797006
0.462646008 0.490996987 0.466338992
0.738524973 0.570250988 0.501343012
0.908813000 0.637328982 0.524963021
0.260773003 0.693085015 0.592833996
0.220458999 0.616973996 0.472075999
0.491149992 0.654448986 0.472961009
0.770905018 0.717864990 0.401520014
0.924408019 0.719817996 0.462523997
0.291045994 0.784331977 0.352936000
0.291961998 0.780669987 0.382355005
0.594237983 0.896393001 0.418242991
0.810271978 0.872802973 0.450805992
0.935333014 0.864715993 0.434296012
0.142120004 0.340941995 0.528869987
0.166015998 0.298705995 0.474335015
0.545624018 0.317139000 0.390929997
0.729400992 0.417816013 0.394134998
0.826996028 0.502593994 0.482665986
0.155150995 0.398438007 0.558960021
0.200165004 0.488068014 0.631072998
0.414429009 0.414214998 0.574463010
0.725067019 0.479705989 0.492706001
0.854065001 0.561065972 0.558624029
0.200042993 0.484589010 0.620208979
0.228119001 0.554320991 0.665344000
0.439727992 0.606719971 0.695128977
0.738189995 0.595703006 0.608977973
0.881195009 0.681457996 0.663055003
0.248046994 0.629974008 0.696197987
0.271789998 0.699921012 0.739531994
0.326294005 0.741820991 0.749114990
0.758849978 0.758513987 0.710784972
0.922455013 0.780395985 0.710174978
0.380219012 0.914611995 0.837158024
0.532288015 0.947601020 0.832458019
0.434906006 0.940093994 0.752960026
0.804015994 0.928802013 0.691833019
0.929046988 0.900054991 0.683562994
0.242798001 0.564177990 0.746276975
0.231353998 0.553802013 0.722931027
0.404175013 0.475281000 0.688995004
0.760712028 0.485870004 0.691588998
0.863189995 0.503234982 0.616486013
0.236388996 0.559570014 0.732451975
0.275878996 0.648773015 0.804229975
0.402404994 0.610870004 0.795349002
0.747375011 0.558715999 0.777161002
0.897338986 0.553619027 0.714783013
0.266021997 0.619445980 0.770752013
0.285582989 0.677643001 0.814971983
0.444121987 0.725739002 0.847961009
0.718750000 0.628021002 0.823059022
0.906189024 0.640411019 0.771117985
0.288085997 0.687865973 0.816864014
0.307799995 0.750702024 0.864319026
0.353516012 0.787872016 0.869994998
0.718231022 0.802917004 0.883208990
0.910827994 0.759765983 0.801514030
0.325134009 0.805999994 0.882233024
0.343842000 0.858947992 0.914246023
0.357757986 0.896210015 0.925934017
0.714416981 0.936432004 0.917846978
0.932403982 0.942322016 0.838469982
