public/lut/96.cube
TITLE "17x17x17 Adobe/IRIDAS cube 3D LUT exported with GrossGrade v0.2.2 (beta) 64 bit"
DOMAIN_MIN 0 0 0
DOMAIN_MAX 1 1 1
LUT_3D_SIZE 5
0.000000000 0.000000000 0.000000000
0.221558005 0.000000000 0.000000000
0.420958996 0.009064000 0.015381000
0.621062994 0.054443002 0.074127004
0.784484982 0.126250997 0.156433001
0.000000000 0.198639005 0.000793000
0.203734994 0.191985995 0.001587000
0.426025003 0.201842993 0.037078999
0.642211974 0.246032998 0.113495000
0.822387993 0.307830989 0.199828997
0.010651000 0.327118009 0.016968001
0.210968003 0.358368009 0.045196999
0.427154988 0.344085991 0.077301003
0.653320014 0.390899986 0.170012996
0.822661996 0.458801001 0.265929997
0.108002000 0.462128013 0.098968998
0.283966005 0.507507026 0.145996004
0.520080984 0.564606011 0.238342002
0.681334972 0.519653022 0.272644013
0.807281017 0.569091976 0.358978003
0.322418004 0.620666981 0.278106987
0.440979004 0.646697998 0.319824010
0.610351980 0.691375971 0.407714993
0.808838010 0.743804991 0.512969971
0.856231987 0.655578971 0.485504001
0.000000000 0.000000000 0.234741002
0.215362996 0.000000000 0.216827005
0.395325005 0.010254000 0.206267998
0.608031988 0.070648000 0.242706001
0.800629020 0.157317996 0.304931998
0.000000000 0.195464998 0.197295994
0.189971998 0.194457993 0.202728003
0.411590993 0.206909001 0.220214993
0.632538021 0.246643007 0.265166998
0.806151986 0.297881991 0.316101015
0.025818000 0.375640988 0.235900998
0.185608000 0.361389011 0.219879001
0.421570003 0.367949992 0.230682001
0.660461009 0.414214998 0.299804986
0.828125000 0.485228986 0.372680992
0.137725994 0.520690978 0.321868986
0.260161996 0.523132026 0.264068991
0.467864990 0.560576975 0.324402004
0.686828971 0.552489996 0.363860995
0.823547006 0.594330013 0.420165986
0.335875988 0.649169981 0.485962003
0.427094012 0.674133003 0.392181009
0.566864014 0.693175972 0.462799013
0.778168023 0.745208979 0.551392019
0.873169005 0.674591005 0.504700005
0.000000000 0.005920000 0.450713992
0.205138996 0.006317000 0.423797995
0.369933993 0.024048001 0.391846001
0.575836003 0.067841001 0.384186000
0.788239002 0.189850003 0.465575993
0.000000000 0.201995999 0.405914009
0.181305006 0.208221003 0.411255002
0.366088986 0.216095001 0.401520014
0.603119016 0.269623011 0.443848014
0.803497016 0.347106993 0.501984000
0.000000000 0.316864014 0.339385986
0.138762996 0.338348001 0.363312006
0.364562988 0.394196004 0.436522990
0.625549018 0.457457989 0.522888005
0.824554026 0.499785990 0.521820009
0.111846998 0.535399973 0.474456996
0.238251001 0.573333979 0.502502024
0.425812006 0.581328988 0.510895014
0.698180974 0.597075999 0.516632020
0.862213016 0.639374018 0.526458979
0.305175990 0.719177008 0.657867014
0.376617014 0.714905024 0.630280018
0.553557992 0.714478016 0.582031012
0.750275016 0.755156994 0.607146978
0.909606993 0.703887999 0.538025022
0.000000000 0.038635001 0.665893972
0.192963004 0.040008999 0.634582996
0.354400992 0.057861000 0.584869027
0.551330984 0.098205999 0.534271002
0.763122976 0.197356999 0.583588004
0.000000000 0.236297995 0.625976980
0.173217997 0.246765003 0.632874012
0.324645996 0.246368006 0.595703006
0.551514030 0.288147002 0.608520985
0.773193002 0.378601015 0.680969000
0.000000000 0.365814000 0.550384998
0.136444002 0.391083002 0.577117980
0.296355993 0.423400998 0.609344006
0.560424984 0.471587986 0.658936024
0.799866021 0.558440983 0.731200993
0.014404000 0.423981011 0.484497011
0.124297999 0.463714987 0.527007997
0.276183993 0.517974973 0.587067008
0.637145996 0.655578971 0.735046029
0.858002007 0.701354980 0.729645014
0.177460000 0.596953988 0.638336003
0.264007986 0.651520014 0.688628972
0.391815007 0.714478016 0.747130990
0.708281994 0.785431027 0.733794987
0.934753001 0.761596978 0.650330007
0.007904000 0.097930998 0.875182986
0.188995004 0.104644999 0.855682015
0.339020014 0.126555994 0.812224984
0.496674001 0.178710997 0.779114008
0.717224002 0.272399992 0.812775016
0.010254000 0.290587991 0.839507997
0.174254999 0.298949987 0.837981999
0.306488007 0.303954989 0.806213021
0.507293999 0.354308993 0.800476015
0.721252024 0.419647008 0.818085015
0.014984000 0.439666986 0.765320003
0.151611000 0.455505013 0.777068973
0.254577994 0.460846007 0.771027029
0.515015006 0.524200022 0.810851991
0.724822998 0.568877995 0.820374012
0.030944999 0.504088998 0.680969000
0.132172003 0.529694021 0.704528987
0.214782998 0.546599984 0.717346013
0.573455989 0.660827994 0.818359017
0.761840999 0.711395025 0.843536019
0.084259003 0.504149973 0.615630984
0.142638996 0.535950005 0.646606028
0.182311997 0.550781012 0.663361013
0.577392995 0.692291021 0.790039003
0.880981028 0.867492974 0.898864985
