public/lut/96.cube
TITLE "17x17x17 Adobe/IRIDAS cube 3D LUT exported with GrossGrade v0.2.2 (beta) 64 bit"
DOMAIN_MIN 0 0 0
DOMAIN_MAX 1 1 1
LUT_3D_SIZE 17
0.000000000 0.000000000 0.000000000
0.061646000 0.000000000 0.000000000
0.117095999 0.000000000 0.000000000
0.170287997 0.000000000 0.000000000
0.221558005 0.000000000 0.000000000
0.272125006 0.000000000 0.000549000
0.321960002 0.001282000 0.002075000
0.371367991 0.003601000 0.007202000
0.420958996 0.009064000 0.015381000
0.471496999 0.017578000 0.026611000
0.522765994 0.027984999 0.040863000
0.573180974 0.040619001 0.056915000
0.621062994 0.054443002 0.074127004
0.665557981 0.068542004 0.091766000
0.706390023 0.084351003 0.110381998
0.745850027 0.103790000 0.131926998
0.784484982 0.126250997 0.156433001
0.000000000 0.058867998 0.000000000
0.058837999 0.058837999 0.000000000
0.114990003 0.057128999 0.000000000
0.167907998 0.055847000 0.000000000
0.219757006 0.054016002 0.000000000
0.271544993 0.052703999 0.000732000
0.322997987 0.052521002 0.003357000
0.373596013 0.054382000 0.009216000
0.423920006 0.059264999 0.018890001
0.474792004 0.067351997 0.031585999
0.526610970 0.077393003 0.046631001
0.577239990 0.089233004 0.063506998
0.625244021 0.102233998 0.081115998
0.669463992 0.115874998 0.099518001
0.710327029 0.130889997 0.118927002
0.749267995 0.148406997 0.140288994
0.787841976 0.169098005 0.164948002
0.000000000 0.112000003 0.000000000
0.055328000 0.111327998 0.000000000
0.109650001 0.109650001 0.000000000
0.162354007 0.107543997 0.000000000
0.215057001 0.104675002 0.000000000
0.268738002 0.102813996 0.001343000
0.321808010 0.102448002 0.004944000
0.374267995 0.104705997 0.012726000
0.426514000 0.110106997 0.023956001
0.479247987 0.118317001 0.037811000
0.531890988 0.128876001 0.054657001
0.583069026 0.140869007 0.072844997
0.631226003 0.153595001 0.091674998
0.675934017 0.166565001 0.110625997
0.717621028 0.180450007 0.129913002
0.757721007 0.195952997 0.150757000
0.797882020 0.214416996 0.174346998
0.000000000 0.158080995 0.000000000
0.052246001 0.157440007 0.000000000
0.103973001 0.156403005 0.000793000
0.155791998 0.153290004 0.000000000
0.209472999 0.150635004 0.000610000
0.264586985 0.148926005 0.002777000
0.319153011 0.148773000 0.007935000
0.372985989 0.151916996 0.017242000
0.426849008 0.157897994 0.030060001
0.481079012 0.166077003 0.045471001
0.535309017 0.176605001 0.063477002
0.588042974 0.188659996 0.082611002
0.638306022 0.201691002 0.102356002
0.685181022 0.215362996 0.122130997
0.728760004 0.229461998 0.142089993
0.770080984 0.244690001 0.163176998
0.811187983 0.262084991 0.186309993
0.000000000 0.198639005 0.000793000
0.049072001 0.198302999 0.000793000
0.098297000 0.198364004 0.001587000
0.152465999 0.197815001 0.002167000
0.203734994 0.191985995 0.001587000
0.259521008 0.190001994 0.004303000
0.315735012 0.191162005 0.011536000
0.370880008 0.195281997 0.022522001
0.426025003 0.201842993 0.037078999
0.481566995 0.210448995 0.053801998
0.536957026 0.220978007 0.072815001
0.590911984 0.233032003 0.093079001
0.642211974 0.246032998 0.113495000
0.690338016 0.259766012 0.134155005
0.736083984 0.274536014 0.155028999
0.780426025 0.290832996 0.177338004
0.822387993 0.307830989 0.199828997
0.000000000 0.234344006 0.002106000
0.046264999 0.234496996 0.002106000
0.093414001 0.236603007 0.002258000
0.147705004 0.239531994 0.005920000
0.205504999 0.237700999 0.007935000
0.255706996 0.229523003 0.008179000
0.311493009 0.229340002 0.015686000
0.368957996 0.234558001 0.028534001
0.425110012 0.241698995 0.044707999
0.481537014 0.250885010 0.063141003
0.537841976 0.261871010 0.083251998
0.592621028 0.274199992 0.104552999
0.644562006 0.287230998 0.125670999
0.693633974 0.300994992 0.147002995
0.740966976 0.316222996 0.169036999
0.787598014 0.333038002 0.192473993
0.828002989 0.347838998 0.212219000
0.001282000 0.266449004 0.005219000
0.044677999 0.267670006 0.003937000
0.090392999 0.272399992 0.004425000
0.144684002 0.277954012 0.011444000
0.206176996 0.282714993 0.019714000
0.260405988 0.275573999 0.021331999
0.309691995 0.267394990 0.023468001
0.366272002 0.269531012 0.035248000
0.424957007 0.277435005 0.053497002
0.481934011 0.287200987 0.073334001
0.538818002 0.298920006 0.094879001
0.594177008 0.311706990 0.116974004
0.646728992 0.325103998 0.139099002
0.696502984 0.339233011 0.161133006
0.745635986 0.355132997 0.184357002
0.794312000 0.372283995 0.208739996
0.829010010 0.386016995 0.226898000
0.004395000 0.297149986 0.009552000
0.045074001 0.299560994 0.007965000
0.090820000 0.306183010 0.009918000
0.145598993 0.313843012 0.019653000
0.207062006 0.322266012 0.031311002
0.267120004 0.324584991 0.041076999
0.316985995 0.313506991 0.041595001
0.366454989 0.305359006 0.046142999
0.424529999 0.309691995 0.062896997
0.484008998 0.319976985 0.084656000
0.541077018 0.332001001 0.107605003
0.596557975 0.345551014 0.130980998
0.649536014 0.359589010 0.153808996
0.700133979 0.374359012 0.176758006
0.750397027 0.391173989 0.201141000
0.798552990 0.409545988 0.226928994
0.827759027 0.423004001 0.244476005
0.010651000 0.327118009 0.016968001
0.048920002 0.330902010 0.014648000
0.096161000 0.338593006 0.019043000
0.150969997 0.348174989 0.030792000
0.210968003 0.358368009 0.045196999
0.273712009 0.367920011 0.061035000
0.330565989 0.366943002 0.069153003
0.377319008 0.352416992 0.068878002
0.427154988 0.344085991 0.077301003
0.486297995 0.350647002 0.098021999
0.545379996 0.362762004 0.122345001
0.600890994 0.375977010 0.146148995
0.653320014 0.390899986 0.170012996
0.703400016 0.407043010 0.194335997
0.753386974 0.425262004 0.220489994
0.799956977 0.444274992 0.246978998
0.822661996 0.458801001 0.265929997
0.023010001 0.357634991 0.028198000
0.060089000 0.362426996 0.026946999
0.107513003 0.370819002 0.033325002
0.161590993 0.382445991 0.046905998
0.219574004 0.394409001 0.063965000
0.282288015 0.406342000 0.080139004
0.344603986 0.415984988 0.097686999
0.398162991 0.412169993 0.105896004
0.442687988 0.394683987 0.106445000
0.492035002 0.385497987 0.117095999
0.549956977 0.393157989 0.140198007
0.605773985 0.406006008 0.164825007
0.656799018 0.420410007 0.189147994
0.705901980 0.437835991 0.214935005
0.755187988 0.457305998 0.242584005
0.797515988 0.476653993 0.269623011
0.814728022 0.492462009 0.290802002
0.042450000 0.390136987 0.044403002
0.080200002 0.395415992 0.046082001
0.125732005 0.404266000 0.053497002
0.178467005 0.417816013 0.068115003
0.234679997 0.431488007 0.086333998
0.295165986 0.444701999 0.104065001
0.358458996 0.457581013 0.124481000
0.419860989 0.467711985 0.144805998
0.470275998 0.461699992 0.152495995
0.511536002 0.440063000 0.152557001
0.558075011 0.429015994 0.164245993
0.611023009 0.437195003 0.187713996
0.661010981 0.450713992 0.212402001
0.709533989 0.466704994 0.238097996
0.758484006 0.486541986 0.266907007
0.791199028 0.507018983 0.295989990
0.809418023 0.522095025 0.314484000
0.070068002 0.425170988 0.067443997
0.107941002 0.430725008 0.071625002
0.150757000 0.439392000 0.078795999
0.201842993 0.454346001 0.094604000
0.256377995 0.469330013 0.113495000
0.313782007 0.483489990 0.134430006
0.375580013 0.497619987 0.153961003
0.438567996 0.511047006 0.177155003
0.497527987 0.521088004 0.199585006
0.544646978 0.513427973 0.207672000
0.580994010 0.487365991 0.205841005
0.621338010 0.473845989 0.216370001
0.668456972 0.482360989 0.239806995
0.716003001 0.495849997 0.265442014
0.762085021 0.513976991 0.294524997
0.786804020 0.533936024 0.322479010
0.807892025 0.547210991 0.335723996
0.108002000 0.462128013 0.098968998
0.143341005 0.468475014 0.103271000
0.182708994 0.476348996 0.110137999
0.231720001 0.491638005 0.126587003
0.283966005 0.507507026 0.145996004
0.338440001 0.522185981 0.167754993
0.396941990 0.536682010 0.187316999
0.459015012 0.551422000 0.211181998
0.520080984 0.564606011 0.238342002
0.575896978 0.574615002 0.261597008
0.618194997 0.565948009 0.269318014
0.646300972 0.534606993 0.263092011
0.681334972 0.519653022 0.272644013
0.725615978 0.527770996 0.297607005
0.764252007 0.542877018 0.327484012
0.788239002 0.556976020 0.345459014
0.807281017 0.569091976 0.358978003
0.152770996 0.501250982 0.136139005
0.185760006 0.507996023 0.140441999
0.221680000 0.514708996 0.147002995
0.267578006 0.529388011 0.163451999
0.316924989 0.545044005 0.183228001
0.368225008 0.559844971 0.204680994
0.422545999 0.574036002 0.227997005
0.480652004 0.588347971 0.249420002
0.541656017 0.603209972 0.275909007
0.599976003 0.615692019 0.304809988
0.649689019 0.623444021 0.328613013
0.685181022 0.614715993 0.337096989
0.705994010 0.581299007 0.326233000
0.736236989 0.565551996 0.336456001
0.770294011 0.575562000 0.362488002
0.793609977 0.580078006 0.371459991
0.808960021 0.588042974 0.384094000
0.204192996 0.541869998 0.178832993
0.235045999 0.548676014 0.182922006
0.267242014 0.554168999 0.189788997
0.309051991 0.567107975 0.205504999
0.354736000 0.581786990 0.224822998
0.402556986 0.595947027 0.246094003
0.452423006 0.609435976 0.270141989
0.506165028 0.622771978 0.290587991
0.562407970 0.636107981 0.314940989
0.621245980 0.649689019 0.346130013
0.672698975 0.661559999 0.381958008
0.709685981 0.669098020 0.412658989
0.739197016 0.662415028 0.413269013
0.752746999 0.627502024 0.396667004
0.784057975 0.609710991 0.394713998
0.807372987 0.607268989 0.402527004
0.815521002 0.606841981 0.412292004
0.261718988 0.582672000 0.226776004
0.290069997 0.589325011 0.230743006
0.318877995 0.593536019 0.237822995
0.355347008 0.603515983 0.252258003
0.396789998 0.616364002 0.270720989
0.440216005 0.629088998 0.291411996
0.485778987 0.641174018 0.314635992
0.533966005 0.652984977 0.338593006
0.585693002 0.665161014 0.360199004
0.638458014 0.677612007 0.392639011
0.689606011 0.690979004 0.431885004
0.736938000 0.703094006 0.454163015
0.777283013 0.709473014 0.464446992
0.807343006 0.703552008 0.467285007
0.812682986 0.662688971 0.442779988
0.832274973 0.639038026 0.440124989
0.831299007 0.629851997 0.446074992
0.322418004 0.620666981 0.278106987
0.348174989 0.626677990 0.281769007
0.374175996 0.630127013 0.290008992
0.404480010 0.636291981 0.302367985
0.440979004 0.646697998 0.319824010
0.479858011 0.657622993 0.339783013
0.520537972 0.668456972 0.362121999
0.563202024 0.679503977 0.387939006
0.610351980 0.691375971 0.407714993
0.659026980 0.703612983 0.442474008
0.707274973 0.716491997 0.483063012
0.758544981 0.730926991 0.497283995
0.808838010 0.743804991 0.512969971
0.852081001 0.749846995 0.526215017
0.884552002 0.742706001 0.529999018
0.876403987 0.688171029 0.492004007
0.856231987 0.655578971 0.485504001
0.000000000 0.000000000 0.060486000
0.059448000 0.000000000 0.059448000
0.117614999 0.000000000 0.058777001
0.169891000 0.000000000 0.056458000
0.219940007 0.000000000 0.054717999
0.269591987 0.000000000 0.053528000
0.318848014 0.001282000 0.053374998
0.368683010 0.003601000 0.055633999
0.418457001 0.009064000 0.061675999
0.469116002 0.017944001 0.071381003
0.520752013 0.029510001 0.083922997
0.572112978 0.043090999 0.099182002
0.620971978 0.058258001 0.115387000
0.666229010 0.073882997 0.132506996
0.707764030 0.090942003 0.150085002
0.747039974 0.110321000 0.169769004
0.785645008 0.132903993 0.192291006
0.000000000 0.058867998 0.058867998
0.058258001 0.058258001 0.058258001
0.114655003 0.057098001 0.057098001
0.167632997 0.055328000 0.055847000
0.219391003 0.054016002 0.054138001
0.271301001 0.052703999 0.053374998
0.322876006 0.052703999 0.054412998
0.373901010 0.054717999 0.058136001
0.424773991 0.059845001 0.066101000
0.476074010 0.067870997 0.077026002
0.528046012 0.077666998 0.090178996
0.578827024 0.088684000 0.104584001
0.626495004 0.100647002 0.119934000
0.670226991 0.113830999 0.135956004
0.710632026 0.128539994 0.153198004
0.749481022 0.146088004 0.172545999
0.787536979 0.166840002 0.195098996
0.000000000 0.111969002 0.055877998
0.055328000 0.111023001 0.055298001
0.109618999 0.109618999 0.054687999
0.161713004 0.107239000 0.054047000
0.214294001 0.104979999 0.052887000
0.267670006 0.103119001 0.052703999
0.320953012 0.102844000 0.055023000
0.373566002 0.104888998 0.060516000
0.426025003 0.110106997 0.069305003
0.478516012 0.118042000 0.081267998
0.531005979 0.128204003 0.096436001
0.581848025 0.139771000 0.112853996
0.629729986 0.151978001 0.129700005
0.673919976 0.164581001 0.146759003
0.715148985 0.178192005 0.164185002
0.755065978 0.193359002 0.182922006
0.794951975 0.211700007 0.204437003
0.000000000 0.158386007 0.052855998
0.052246001 0.157440007 0.052795000
0.103912003 0.156403005 0.052855998
0.155333996 0.153473005 0.051665999
0.208373994 0.151093006 0.051453002
0.262908995 0.149260998 0.052094001
0.317719012 0.149474993 0.056000002
0.371917993 0.152221993 0.062560998
0.426055998 0.157837003 0.073151000
0.480621010 0.166260004 0.086792000
0.535094976 0.176941007 0.103240997
0.588164985 0.189208999 0.121184997
0.638000011 0.201965004 0.139434993
0.683898985 0.214721993 0.157134995
0.726257026 0.227874994 0.174834996
0.766632020 0.242188007 0.193817005
0.806609988 0.258605987 0.214995995
0.000000000 0.199707001 0.051453002
0.048950002 0.198456004 0.051453002
0.097900003 0.197998002 0.050934002
0.149872005 0.197968006 0.051453002
0.202971995 0.192566007 0.050262000
0.258361995 0.190430000 0.051849000
0.314209014 0.191894993 0.057587001
0.369385004 0.195556998 0.065796003
0.424744010 0.201752007 0.077698000
0.480681986 0.210418999 0.092804000
0.536864996 0.221558005 0.110779002
0.591583014 0.234191999 0.129973993
0.643280029 0.247406006 0.149292007
0.691406012 0.261047006 0.168029994
0.736419976 0.275238007 0.187195003
0.779114008 0.290192008 0.207092002
0.819153011 0.305480987 0.227569997
0.000000000 0.236633003 0.051270001
0.046264999 0.235625997 0.050811999
0.092712000 0.235779002 0.049683001
0.142700002 0.238922000 0.051483002
0.202545002 0.238952994 0.054138001
0.254608005 0.230682001 0.053252999
0.309783995 0.229889005 0.059174001
0.367065012 0.234711006 0.069641002
0.423431009 0.241455004 0.082641996
0.480286002 0.250732005 0.099395998
0.537415028 0.262299001 0.118865997
0.593109012 0.275269002 0.139312997
0.645934999 0.288910002 0.159606993
0.695496023 0.303009003 0.179535002
0.742859006 0.318329006 0.200011998
0.788909972 0.334473014 0.221435994
0.829468012 0.348906994 0.240326002
0.000793000 0.270538002 0.053557999
0.045348998 0.269591987 0.051910002
0.089325003 0.271393001 0.049988002
0.138671994 0.276764005 0.052611999
0.200195000 0.282074004 0.060364000
0.258240014 0.278961003 0.064361997
0.308441013 0.269623011 0.065277003
0.363525003 0.269897014 0.074005000
0.422394007 0.277099997 0.088898003
0.480560005 0.286895990 0.106934004
0.538268983 0.299286008 0.128021002
0.594635010 0.312774986 0.149535999
0.648193002 0.326903999 0.170837000
0.698791981 0.341522008 0.191771999
0.748076975 0.357452005 0.213469997
0.796142995 0.375061005 0.236785993
0.831511974 0.389252007 0.254669011
0.004333000 0.302276999 0.060302999
0.046509001 0.302123994 0.055450000
0.088623002 0.305420011 0.052917000
0.139008000 0.312438995 0.057037000
0.198273003 0.319732994 0.068634003
0.261200011 0.325439006 0.079406999
0.315551996 0.318511993 0.081696004
0.364318997 0.308075011 0.083618000
0.420349002 0.309814006 0.096161000
0.481353998 0.319945991 0.115906000
0.540648997 0.332520008 0.138031006
0.597473025 0.346832007 0.160918996
0.651275992 0.361571997 0.183197007
0.702026010 0.377196997 0.205475003
0.751586974 0.394652992 0.229186997
0.800445974 0.413666010 0.254272014
0.828979015 0.427399009 0.271270990
0.012177000 0.332549989 0.071654998
0.052521002 0.334075987 0.061737001
0.092528999 0.338654011 0.058777001
0.143799007 0.346801996 0.065552004
0.201141000 0.355681986 0.079193003
0.263641000 0.365143001 0.092804000
0.324645996 0.369201988 0.104094997
0.375977010 0.359008998 0.106201001
0.424102992 0.347382009 0.109924003
0.481720001 0.351074010 0.126953006
0.543335021 0.363891989 0.150695994
0.600585997 0.378203988 0.174438000
0.653838992 0.394012004 0.197815001
0.703917980 0.410766989 0.221496999
0.753570974 0.429749012 0.247131005
0.801635981 0.449676991 0.273499012
0.823090017 0.464325011 0.291961998
0.027588001 0.362426996 0.087433003
0.064087003 0.366638005 0.071227998
0.103515998 0.372345001 0.069762997
0.154113993 0.381316990 0.078612998
0.209839001 0.391846001 0.093445003
0.270233005 0.402678996 0.108733997
0.333404988 0.413634986 0.126342997
0.392426014 0.416198999 0.138549998
0.441132009 0.402740002 0.139679000
0.488860995 0.389739990 0.145568997
0.546234012 0.394928008 0.166198999
0.603972971 0.409027010 0.191071004
0.655914009 0.424468994 0.215149000
0.705627024 0.442351997 0.240143001
0.755402029 0.462096989 0.266968012
0.798461974 0.483092993 0.295165986
0.816314995 0.498535007 0.314087003
0.049346998 0.394196004 0.105163999
0.082396999 0.401428014 0.085326999
0.122345001 0.407471001 0.087158002
0.171050996 0.416931003 0.097228996
0.225127995 0.429046988 0.112700999
0.282683998 0.441132009 0.130980998
0.344788015 0.453491002 0.148040995
0.408203006 0.465851009 0.169098005
0.464904994 0.467072010 0.182190001
0.510833979 0.449799001 0.182433993
0.555939019 0.434601009 0.189392000
0.609070003 0.440429986 0.211303994
0.660187006 0.454407007 0.235779002
0.709351003 0.471404999 0.260924995
0.758697987 0.491730005 0.288940012
0.792725027 0.513823986 0.318969995
0.812744021 0.528168023 0.334044993
0.075957999 0.428741008 0.123993002
0.108795002 0.438567996 0.106384002
0.149169996 0.444671988 0.110840000
0.194977000 0.453857005 0.121215999
0.246978998 0.467009991 0.137511998
0.301910013 0.480376989 0.156920999
0.360900998 0.493346989 0.174621999
0.424286008 0.506958008 0.196349993
0.487152010 0.520294011 0.221558005
0.540221989 0.519684017 0.234405994
0.580383003 0.497893989 0.232056007
0.619659007 0.480194002 0.238312006
0.667786002 0.486541986 0.260650992
0.715606987 0.500122011 0.285461009
0.762359977 0.519134998 0.314025998
0.790252984 0.540497005 0.341248006
0.811461985 0.553557992 0.353210002
0.108124003 0.465546012 0.146118000
0.144988999 0.477234006 0.135619998
0.183379993 0.483765006 0.140380993
0.225615993 0.492096007 0.150878996
0.275054991 0.505492985 0.167480007
0.327423006 0.519348025 0.187073007
0.382842988 0.532715023 0.208221003
0.442748994 0.546570003 0.228394002
0.506286979 0.561065972 0.253356993
0.567017019 0.574523985 0.281280994
0.613861024 0.571624994 0.292724997
0.645874023 0.545044005 0.285308987
0.680724978 0.526122987 0.291595012
0.725220025 0.532073975 0.315124989
0.764159977 0.547455013 0.344269007
0.792114019 0.563567996 0.361663997
0.811309993 0.575469971 0.374054015
0.145721003 0.504302979 0.171082005
0.188019007 0.517548025 0.170532003
0.224243000 0.524231017 0.175506994
0.262421012 0.530914009 0.185608000
0.308777004 0.543853998 0.202483997
0.358031988 0.557525992 0.221924007
0.409637004 0.570891976 0.244353995
0.465728998 0.584473014 0.263855010
0.525604010 0.598662972 0.287719995
0.586974978 0.612823009 0.317595989
0.643585026 0.625122011 0.346648991
0.683502018 0.621215999 0.358765006
0.706237972 0.590698004 0.344727010
0.736052990 0.571838021 0.352173001
0.770232975 0.579895020 0.376740009
0.797272027 0.585632026 0.384856999
0.813202024 0.594115973 0.396697998
0.192505002 0.544434011 0.202788994
0.237517998 0.558867991 0.210906997
0.271393001 0.565216005 0.216216996
0.305388987 0.570312977 0.225922003
0.347687006 0.581664979 0.242156997
0.393433005 0.594604015 0.261505008
0.441161990 0.607116997 0.283142000
0.492217988 0.619629025 0.305938989
0.547333002 0.632690012 0.327850014
0.605773985 0.645995975 0.353911996
0.661072016 0.659119010 0.391295999
0.706268013 0.670531988 0.426544011
0.738219976 0.667632997 0.430938989
0.753632009 0.635864019 0.412079006
0.784362972 0.615630984 0.407043010
0.811583996 0.612761974 0.413482994
0.819213986 0.611693978 0.421936005
0.250366002 0.585296988 0.247986004
0.292450011 0.599669993 0.256316990
0.323639005 0.605408013 0.261871010
0.353821009 0.608856022 0.271362007
0.390839010 0.617583990 0.286285013
0.432190001 0.628661990 0.304839998
0.475555003 0.639801025 0.325713992
0.521332026 0.650757015 0.350127995
0.571564019 0.662536979 0.370361000
0.625275016 0.674866021 0.395568997
0.677703977 0.687927008 0.434845001
0.727111995 0.701385021 0.466248006
0.774260998 0.711669981 0.476624012
0.806518972 0.708190978 0.480590999
0.813965023 0.670807004 0.455231011
0.837737978 0.645569026 0.449248999
0.835418999 0.634643972 0.453339010
0.311522990 0.623351991 0.296721995
0.349487007 0.636047006 0.304351985
0.377532989 0.640655994 0.310516000
0.404632986 0.643463016 0.320190012
0.435364008 0.648681998 0.333220989
0.471619010 0.657410026 0.350555003
0.510619998 0.667388976 0.370941013
0.552062988 0.677947998 0.394989014
0.597594976 0.689484000 0.417998999
0.645781994 0.701416016 0.451781988
0.695617974 0.714294016 0.488068014
0.747711003 0.728851020 0.505065978
0.800200999 0.743103027 0.520569026
0.850555003 0.753723025 0.535492003
0.885161996 0.748749018 0.540252984
0.878692985 0.696776986 0.501281977
0.860167980 0.660247982 0.490112007
0.000000000 0.000000000 0.118896000
0.058867998 0.000000000 0.118652001
0.116393998 0.000000000 0.116393998
0.168761998 0.000000000 0.112457000
0.218353003 0.000000000 0.109894000
0.265991002 0.000549000 0.108153999
0.312866002 0.002075000 0.106720001
0.361144990 0.004395000 0.106872998
0.411285013 0.010162000 0.110473998
0.463225991 0.019409001 0.118225001
0.516601980 0.032623000 0.129883006
0.569793999 0.048096001 0.144104004
0.620757997 0.064850003 0.159301996
0.667450011 0.081634998 0.174774006
0.709716976 0.099059999 0.190917999
0.749817014 0.117858998 0.208373994
0.789398015 0.139525995 0.227965996
0.000000000 0.058288999 0.117035002
0.057739001 0.057739001 0.116089001
0.114318997 0.057098001 0.114014000
0.166565001 0.055328000 0.111633003
0.216431007 0.054016002 0.109589003
0.266144007 0.052887000 0.107483000
0.316924989 0.053162001 0.106934004
0.367980987 0.055023000 0.108795002
0.419494987 0.060364000 0.114257999
0.471771002 0.068664998 0.122955002
0.524658024 0.079894997 0.134490997
0.576385021 0.092407003 0.147674993
0.625244021 0.105896004 0.161956996
0.670044005 0.120148003 0.176941007
0.711333990 0.135223001 0.192871004
0.750640988 0.152282998 0.210357994
0.789581001 0.172028005 0.230254993
0.000000000 0.111327998 0.111327998
0.055298001 0.110687003 0.110687003
0.109283000 0.109283000 0.109589003
0.160735995 0.107178003 0.108856000
0.212432995 0.105042003 0.107178003
0.265197992 0.103455000 0.105621003
0.318329006 0.103332996 0.106476001
0.370972008 0.105255000 0.110413000
0.423920006 0.110106997 0.117310002
0.477019995 0.117766999 0.126800999
0.529541016 0.127167001 0.138916001
0.580536008 0.137970001 0.153045997
0.628386974 0.149811000 0.167724997
0.672240973 0.162139997 0.182799995
0.713074028 0.175567999 0.198456004
0.752471983 0.191467002 0.216156006
0.792297006 0.209808007 0.235625997
0.000000000 0.157622993 0.105713002
0.052184999 0.157592997 0.106049001
0.103577003 0.156128004 0.105651997
0.153899997 0.153687000 0.105286002
0.205810994 0.151581004 0.105132997
0.260253996 0.150665000 0.104767002
0.314940989 0.150940001 0.106934004
0.369323999 0.153839007 0.112213001
0.423949987 0.159271002 0.120696999
0.478973001 0.167144999 0.131714001
0.533843994 0.177184999 0.145264000
0.586609006 0.188446000 0.160095006
0.635895014 0.200256005 0.175751001
0.681061029 0.212311000 0.191710994
0.723021984 0.224976003 0.208038002
0.763366997 0.239226997 0.225555003
0.803650022 0.256042004 0.245208994
0.000000000 0.202117994 0.104705997
0.048950002 0.200774997 0.103394002
0.097870000 0.198607996 0.102356002
0.146271005 0.197784007 0.102996998
0.200988993 0.193419993 0.100676998
0.255401999 0.192291006 0.102325000
0.310638011 0.194000006 0.106597997
0.366515994 0.197661996 0.113525003
0.422820985 0.203766003 0.123259999
0.479950011 0.212402001 0.135864004
0.536987007 0.223267004 0.150786996
0.592072010 0.235474005 0.167236000
0.643646002 0.248412997 0.184631005
0.691039979 0.261292011 0.201752007
0.734679997 0.274414003 0.218811005
0.776337028 0.288451999 0.236908004
