public/lut/97.cube
TITLE "17x17x17 Adobe/IRIDAS cube 3D LUT exported with GrossGrade v0.2.2 (beta) 64 bit"
DOMAIN_MIN 0 0 0
DOMAIN_MAX 1 1 1
LUT_3D_SIZE 5
0.000000000 0.000000000 0.000000000
0.219299003 0.000000000 0.000000000
0.384276986 0.000000000 0.000793000
0.536194026 0.012421000 0.026031001
0.693419993 0.074676998 0.104156002
0.000000000 0.197998002 0.000000000
0.197295994 0.189453006 0.000610000
0.382201999 0.176360995 0.014587000
0.554656982 0.186798006 0.064331003
0.710479975 0.227569997 0.141997993
0.038573999 0.312133998 0.006317000
0.235045999 0.315093994 0.030762000
0.397675008 0.309753001 0.068816997
0.572387993 0.328339010 0.136932001
0.713898003 0.353576988 0.211577997
0.263489008 0.454802990 0.132903993
0.406067014 0.471648991 0.164001003
0.549041986 0.478698999 0.204041004
0.677887022 0.459351003 0.250945985
0.772521973 0.463104010 0.308898985
0.583922982 0.602385998 0.339965999
0.651825011 0.625275016 0.380585015
0.722716987 0.626221001 0.397217005
0.807860970 0.622313976 0.421234012
0.834380984 0.596313000 0.446227998
0.000000000 0.000000000 0.233062997
0.215118006 0.000000000 0.215118006
0.389434993 0.000793000 0.191071004
0.553192019 0.023071000 0.197144002
0.698913991 0.080292001 0.237243995
0.000000000 0.196838006 0.197876006
0.189850003 0.191437006 0.198669001
0.386840999 0.192931995 0.205963001
0.599640012 0.226379007 0.245453000
0.757843018 0.261810005 0.287169993
0.007874000 0.322876006 0.154387996
0.238830999 0.352324992 0.184814006
0.431488007 0.339965999 0.205443993
0.634216011 0.372772008 0.263947010
0.791565001 0.410248011 0.322418004
0.236114994 0.474976003 0.216370001
0.449310005 0.538788021 0.291076988
0.586273015 0.555388987 0.322418004
0.735778987 0.549744010 0.370543987
0.809723020 0.543762028 0.394957989
0.599273980 0.619994998 0.401885986
0.694976985 0.659424007 0.433838010
0.772430003 0.661406994 0.444519013
0.852936029 0.658661008 0.460083008
0.852385998 0.617065012 0.464203000
0.000000000 0.000793000 0.437714010
0.205321997 0.001984000 0.416411996
0.372741997 0.002777000 0.377045006
0.579192996 0.051146999 0.377808005
0.732788026 0.122040004 0.401580989
0.000000000 0.205170006 0.404083014
0.181244001 0.210326999 0.403290004
0.365875006 0.205566004 0.396820009
0.602661014 0.264007986 0.437346995
0.763641000 0.313416004 0.466430992
0.019714000 0.370575011 0.381195009
0.169861004 0.386260986 0.394775003
0.399811000 0.410735995 0.459044993
0.641174018 0.462981999 0.515320003
0.807067990 0.497345001 0.520354986
0.146088004 0.500580013 0.393036008
0.387115002 0.570679009 0.471100003
0.617096007 0.621062994 0.494933993
0.744872987 0.616150022 0.483458996
0.840880990 0.595427990 0.472259998
0.639708996 0.681549013 0.481353998
0.723510981 0.697052002 0.489654988
0.822174013 0.712677002 0.501984000
0.888733029 0.694733024 0.499877989
0.873901010 0.640869021 0.483397990
0.000000000 0.017333999 0.634216011
0.192200005 0.028198000 0.623046994
0.342101991 0.039214998 0.576812983
0.557525992 0.072754003 0.545073986
0.746338010 0.183837995 0.587341011
0.000977000 0.237426996 0.617431998
0.182373002 0.259644002 0.629547000
0.341522008 0.274536014 0.615478992
0.578278005 0.296021014 0.631896973
0.762390018 0.357421994 0.657135010
0.029967999 0.418731987 0.588379025
0.187744007 0.450042993 0.613586009
0.378966987 0.481049001 0.638794005
0.598694026 0.509216011 0.699096978
0.769226015 0.554625988 0.713898003
0.145873994 0.586609006 0.611145020
0.273438007 0.619140983 0.641875982
0.526642025 0.664306998 0.722351015
0.680388987 0.688507020 0.750916004
0.836700022 0.686401010 0.690948009
0.567565978 0.741729975 0.661437988
0.668762028 0.761901975 0.668273985
0.779236019 0.779754996 0.671721995
0.865387022 0.777679026 0.656952024
0.914794981 0.751677990 0.634459972
0.003174000 0.066771999 0.829375982
0.181945994 0.076049998 0.814177990
0.331786990 0.109894000 0.786132991
0.513671994 0.141234994 0.756805003
0.745270014 0.206847996 0.732116997
0.020904999 0.282471001 0.812195003
0.197540000 0.303802013 0.817534983
0.346008003 0.323211998 0.793914974
0.555755973 0.358612001 0.806304991
0.749145985 0.395172000 0.798218012
0.062500000 0.467528999 0.762206972
0.216124997 0.501648009 0.785399973
0.363525003 0.522705019 0.781554997
0.620453000 0.563385010 0.827086985
0.744262993 0.573669016 0.809601009
0.158050999 0.624786019 0.749237001
0.262360007 0.639159977 0.753418028
0.514892995 0.684813976 0.813018978
0.684387028 0.715911984 0.832702994
0.783356011 0.721405029 0.824950993
0.462311000 0.748351991 0.788146973
0.566588998 0.786742985 0.816406012
0.666015983 0.818359017 0.832916021
0.770080984 0.844177008 0.791442990
0.893005013 0.844848990 0.774231017
