public/lut/97.cube
TITLE "17x17x17 Adobe/IRIDAS cube 3D LUT exported with GrossGrade v0.2.2 (beta) 64 bit"
DOMAIN_MIN 0 0 0
DOMAIN_MAX 1 1 1
LUT_3D_SIZE 17
0.000000000 0.000000000 0.000000000
0.061646000 0.000000000 0.000000000
0.117095999 0.000000000 0.000000000
0.170287997 0.000000000 0.000000000
0.219299003 0.000000000 0.000000000
0.264403999 0.000000000 0.000000000
0.306670994 0.000000000 0.000000000
0.346709996 0.000000000 0.000000000
0.384276986 0.000000000 0.000793000
0.422423989 0.000336000 0.002716000
0.461212009 0.001862000 0.007385000
0.497649997 0.005219000 0.014160000
0.536194026 0.012421000 0.026031001
0.575622976 0.023621000 0.041839998
0.617249012 0.040008999 0.061188001
0.658141971 0.057739001 0.083282001
0.693419993 0.074676998 0.104156002
0.000000000 0.058867998 0.000000000
0.058837999 0.058837999 0.000000000
0.114990003 0.057128999 0.000000000
0.167664006 0.055847000 0.000000000
0.216461003 0.054016002 0.000000000
0.262053996 0.052246001 0.000000000
0.304901004 0.050354000 0.000000000
0.345519990 0.048431002 0.000000000
0.384674013 0.046783000 0.001190000
0.424560994 0.046082001 0.004578000
0.464049995 0.046142999 0.010010000
0.503448009 0.049500000 0.019286999
0.547913015 0.058623999 0.035521999
0.588195980 0.069824003 0.051697001
0.627318978 0.082549997 0.069916002
0.663940012 0.095886000 0.088988997
0.697021008 0.109802000 0.108887002
0.000000000 0.112000003 0.000000000
0.055328000 0.111327998 0.000000000
0.109954998 0.109954998 0.000000000
0.161255002 0.107483000 0.000000000
0.210174993 0.105042003 0.000000000
0.256713986 0.101746000 0.000000000
0.300262004 0.098357998 0.000000000
0.344298989 0.095458999 0.001465000
0.386840999 0.092987001 0.004242000
0.426818997 0.091370001 0.008484000
0.466948986 0.091735996 0.015686000
0.506775022 0.094299003 0.026703000
0.548278987 0.100830004 0.041168001
0.590637028 0.111450002 0.058594000
0.629149973 0.122130997 0.076599002
0.665802002 0.133819997 0.095946997
0.696686029 0.144501001 0.113738999
0.000000000 0.158203006 0.000000000
0.052246001 0.157440007 0.000000000
0.103973001 0.156158000 0.000000000
0.153473005 0.153290004 0.000000000
0.202911004 0.150238007 0.000000000
0.250916004 0.146362007 0.000641000
0.296478003 0.142333999 0.001434000
0.339477986 0.138488993 0.003448000
0.381743997 0.135315001 0.006561000
0.426849008 0.135132000 0.014832000
0.470764011 0.136748999 0.026031001
0.510070980 0.139129996 0.036926001
0.551635981 0.144988999 0.051483002
0.590911984 0.152099997 0.067139000
0.629700005 0.161651999 0.085326999
0.668700993 0.174103007 0.106232002
0.705932975 0.188141003 0.128296003
0.000000000 0.197998002 0.000000000
0.048950002 0.197235003 0.000000000
0.098266996 0.195678994 0.000000000
0.147826999 0.192931995 0.000000000
0.197295994 0.189453006 0.000610000
0.246582001 0.185883000 0.002106000
0.293792993 0.182159007 0.005035000
0.339843988 0.179352000 0.009308000
0.382201999 0.176360995 0.014587000
0.425018013 0.175567999 0.022857999
0.469909996 0.178192005 0.035278000
0.512755990 0.181853995 0.049164001
0.554656982 0.186798006 0.064331003
0.594542980 0.193664998 0.080902003
0.634033024 0.202788994 0.099547997
0.671905994 0.213927999 0.119537003
0.710479975 0.227569997 0.141997993
0.000000000 0.231200993 0.000000000
0.048096001 0.230803996 0.000000000
0.097411998 0.229369998 0.000000000
0.147643998 0.226471007 0.000000000
0.197510004 0.223389000 0.001923000
0.245269999 0.220337003 0.005035000
0.291808993 0.217590004 0.009949000
0.340667993 0.216704994 0.018402001
0.385863990 0.216095001 0.027161000
0.425994992 0.214873999 0.034942999
0.469238013 0.216796994 0.047088999
0.513947010 0.221100003 0.062592000
0.554382026 0.224669993 0.077271000
0.598999023 0.234008998 0.097473003
0.639129996 0.243256003 0.116852000
0.676909983 0.252869010 0.136322007
0.712494016 0.263428003 0.156676993
0.002075000 0.259124994 0.000000000
0.054352000 0.260497987 0.000488000
0.103027001 0.259186000 0.001282000
0.151732996 0.255890012 0.001923000
0.202117994 0.253235012 0.006104000
0.248321995 0.250945985 0.011475000
0.292816013 0.248870999 0.017944001
0.339080989 0.248535007 0.026916999
0.385132015 0.249663994 0.037749998
0.429199010 0.251372993 0.049408000
0.471709996 0.253113002 0.062103000
0.513947010 0.256072998 0.076691002
0.557434022 0.261687994 0.094391003
0.601073980 0.270202994 0.114044003
0.643036008 0.279938012 0.134520993
0.681213021 0.288879007 0.154754996
0.713164985 0.296234012 0.173279002
0.012909000 0.284363002 0.000458000
0.067382999 0.287658989 0.002777000
0.116852000 0.286742985 0.005524000
0.165374994 0.285338998 0.008911000
0.215545997 0.282927990 0.016174000
0.261168987 0.281859994 0.025146000
0.301970989 0.280120999 0.032042999
0.341522008 0.277985007 0.038605001
0.385437012 0.278930992 0.049132999
0.433623999 0.283508003 0.064911000
0.477324992 0.286713004 0.079773001
0.517609000 0.289124012 0.094512999
0.563598990 0.296660990 0.114593998
0.603332996 0.302460015 0.132232994
0.647125006 0.312988013 0.153961003
0.680510998 0.318603992 0.171599999
0.713286996 0.326171994 0.191162005
0.038573999 0.312133998 0.006317000
0.091980003 0.315887004 0.012909000
0.139220998 0.315795988 0.017548000
0.187073007 0.316466987 0.023345999
0.235045999 0.315093994 0.030762000
0.277283013 0.311614990 0.038300000
0.318572998 0.310393989 0.049164001
0.358153999 0.309906006 0.058959998
0.397675008 0.309753001 0.068816997
0.442261010 0.313140988 0.083649002
0.488433987 0.318511993 0.101195998
0.531280994 0.323089987 0.118683003
0.572387993 0.328339010 0.136932001
0.608153999 0.331847996 0.153075993
0.650940001 0.341796994 0.174805000
0.680419981 0.345153987 0.190491006
0.713898003 0.353576988 0.211577997
0.075409003 0.341614008 0.021331999
0.127441004 0.346587986 0.031799000
0.173096001 0.348906994 0.039124001
0.218017995 0.351013005 0.045929000
0.262237996 0.351532012 0.052733999
0.300902992 0.345580995 0.056853998
0.344269007 0.342711985 0.067932002
0.390350014 0.345459014 0.085510001
0.428467005 0.345672995 0.098266996
0.463562012 0.344574004 0.108764999
0.506133974 0.349121004 0.125762999
0.548736989 0.354979992 0.145416006
0.583617985 0.357268989 0.161223993
0.621674001 0.363007009 0.180327997
0.657317996 0.368683010 0.198974997
0.689301014 0.373870999 0.216796994
0.719054997 0.380066007 0.235474005
0.121703997 0.374083996 0.047821000
0.174774006 0.380737007 0.060729999
0.217712000 0.383331001 0.068236999
0.255829006 0.384552002 0.073334001
0.300049007 0.389191002 0.082855001
0.340880990 0.388152987 0.089934997
0.379516989 0.381621987 0.095977999
0.424376994 0.379882991 0.109862998
0.467132986 0.381256014 0.127410993
0.501708984 0.380829006 0.140258998
0.532012999 0.379180998 0.151764005
0.564086974 0.379608005 0.167694002
0.600281000 0.383758992 0.186187997
0.640015006 0.391387999 0.207610995
0.673278987 0.396210015 0.225433007
0.703857005 0.400757015 0.244536996
0.724030018 0.400664985 0.257140994
0.186004996 0.414245993 0.085998997
0.236388996 0.419860989 0.099365003
0.271820009 0.420592993 0.104461998
0.302794993 0.419434011 0.106995001
0.347229004 0.427399009 0.118896000
0.388702005 0.432159007 0.129608005
0.422728986 0.428252995 0.135253996
0.460601985 0.422210991 0.142761007
0.505463004 0.421875000 0.158325002
0.545653999 0.422728986 0.174713001
0.571289003 0.415648997 0.182982996
0.595122993 0.409027010 0.193054006
0.632750988 0.414368004 0.214049995
0.660369992 0.414306998 0.229828000
0.699463010 0.423370004 0.251251012
0.723114014 0.423920006 0.267517000
0.737884998 0.421173006 0.276428014
0.263489008 0.454802990 0.132903993
0.305420011 0.461578012 0.143889993
0.338317990 0.465178996 0.149749994
0.371062994 0.467743009 0.155791998
0.406067014 0.471648991 0.164001003
0.437804997 0.474395990 0.170715004
0.474853992 0.479461998 0.181731999
0.511780024 0.481079012 0.192780003
0.549041986 0.478698999 0.204041004
0.583832026 0.473389000 0.214294001
0.615325987 0.465424001 0.223480001
0.648559988 0.460204989 0.235900998
0.677887022 0.459351003 0.250945985
0.703948975 0.456786990 0.267578006
0.732025027 0.458862007 0.284729004
0.752593994 0.460175008 0.298096001
0.772521973 0.463104010 0.308898985
0.342987001 0.494598001 0.182465002
0.380950987 0.504974008 0.193969995
0.405456990 0.505218983 0.196624994
0.437285990 0.511963010 0.204742000
0.463744998 0.512786984 0.209564000
0.491515994 0.514892995 0.215973005
0.523193002 0.520264030 0.225799993
0.553986013 0.523253977 0.235687003
0.583557010 0.522888005 0.245177999
0.613952994 0.521820009 0.255980998
0.647948980 0.519195974 0.268920988
0.682312012 0.514252007 0.283111989
0.715301991 0.514221013 0.300139993
0.756865978 0.521697998 0.324248999
0.768005013 0.514557004 0.330871999
0.778168023 0.516387999 0.342406988
0.785278022 0.514648020 0.352203012
0.427765012 0.539306998 0.237854004
0.448974997 0.541015983 0.240692005
0.472564995 0.544005990 0.244994998
0.495148003 0.545319021 0.248932004
0.519379020 0.547088981 0.254364014
0.545989990 0.551819026 0.262268007
0.572844982 0.555023015 0.270812988
0.597625971 0.555481017 0.278380990
0.621307015 0.554351985 0.286377013
0.644958019 0.550689995 0.294983000
0.673035026 0.547667980 0.306549013
0.710999012 0.554351985 0.328583002
0.748749018 0.565612972 0.354613990
0.770752013 0.563171029 0.360808998
0.789153993 0.566711009 0.369690001
0.796721995 0.561919987 0.376830995
0.799530029 0.552338004 0.383118004
0.504424989 0.575195014 0.288910002
0.519164979 0.572632015 0.288971007
0.537322998 0.573364019 0.291931003
0.558288991 0.576629996 0.297423989
0.580322027 0.579773009 0.303802013
0.602599978 0.582794011 0.310546994
0.628386974 0.587707996 0.320129007
0.654663026 0.591919005 0.330199987
0.677765012 0.594177008 0.342285007
0.695922971 0.592895985 0.353911996
0.710999012 0.589874029 0.365173012
0.737671018 0.594359994 0.379180998
0.784119010 0.607788026 0.390258998
0.816497982 0.613372982 0.399901986
0.817229986 0.601440012 0.404053003
0.817596018 0.589874029 0.408843994
0.818786979 0.581909001 0.415466011
0.583922982 0.602385998 0.339965999
0.602325022 0.608031988 0.344909996
0.619140983 0.614104986 0.355742991
0.635559022 0.620911002 0.369628996
0.651825011 0.625275016 0.380585015
0.672028005 0.629577994 0.386108011
0.690002024 0.630707026 0.389771014
0.705565989 0.628966987 0.393462986
0.722716987 0.626221001 0.397217005
0.739929020 0.622559011 0.401244998
0.753844976 0.617401004 0.405396014
0.772643983 0.614989996 0.411193997
0.807860970 0.622313976 0.421234012
0.840240002 0.629974008 0.432433993
0.840179026 0.621551991 0.437653005
0.835663021 0.607666016 0.441253990
0.834380984 0.596313000 0.446227998
0.000000000 0.000000000 0.060486000
0.059448000 0.000000000 0.059448000
0.117614999 0.000000000 0.058777001
0.170012996 0.000000000 0.056519002
0.219086006 0.000000000 0.054717999
0.264342993 0.000000000 0.052887000
0.306396008 0.000000000 0.050964002
0.346801996 0.000000000 0.049102999
0.386382997 0.000000000 0.048126001
0.425292999 0.000793000 0.049132999
0.462249994 0.002380000 0.051116999
0.499237001 0.006012000 0.056396000
0.542388976 0.015717000 0.069733001
0.586059988 0.029877000 0.086456001
0.625092030 0.044495001 0.102477998
0.664306998 0.061310001 0.121367998
0.694793999 0.075653002 0.137145996
0.000000000 0.058867998 0.058867998
0.058258001 0.058258001 0.058258001
0.114655003 0.057098001 0.057098001
0.167449996 0.055847000 0.055847000
0.216431007 0.054016002 0.054016002
0.262053996 0.052246001 0.052246001
0.304717988 0.050354000 0.050354000
0.346404999 0.048431002 0.049469002
0.388152987 0.047088999 0.049469002
0.428986013 0.046783000 0.051116999
0.467254996 0.047485001 0.054535002
0.506042004 0.050811999 0.062256001
0.548705995 0.059174001 0.075653002
0.591338992 0.071960002 0.091430999
0.633544981 0.086150996 0.109771997
0.669128001 0.099030003 0.126404002
0.701416016 0.112579003 0.143524006
0.000000000 0.112029999 0.055907998
0.055328000 0.111023001 0.055328000
0.109618999 0.109618999 0.054687999
0.161223993 0.107513003 0.053528000
0.209625006 0.104675002 0.052216001
0.256316990 0.101746000 0.050873000
0.301849008 0.098357998 0.050140001
0.346313000 0.095581003 0.049469002
0.389618009 0.093445003 0.050781000
0.430633992 0.092377000 0.053925000
0.470885992 0.093474999 0.060302999
0.513733029 0.098572001 0.071654998
0.556182981 0.106505997 0.085297003
0.596648991 0.115355998 0.099639997
0.635375977 0.125946000 0.115722999
0.673552990 0.139099002 0.134398997
0.706664979 0.151703000 0.152344003
0.000000000 0.158112004 0.052795000
0.052246001 0.157440007 0.052246001
0.103942998 0.155730993 0.051665999
0.153961003 0.153290004 0.050995000
0.202605993 0.150177002 0.049743999
0.249420002 0.146118000 0.048920002
0.295807004 0.142120004 0.048218001
0.341704994 0.138854995 0.049316000
0.388123006 0.137268007 0.053649999
0.435364008 0.138885006 0.061951000
0.477569997 0.140746996 0.070556998
0.516174018 0.143341005 0.079223998
0.562255979 0.152587995 0.095458999
0.606688976 0.163176998 0.112946004
0.647033989 0.173737004 0.130005002
0.686919987 0.186492994 0.149444997
0.716247976 0.195129007 0.164551005
0.000000000 0.197723001 0.049132999
0.048950002 0.197020993 0.048950002
0.098266996 0.195495993 0.048950002
0.149323002 0.192809999 0.048278999
0.197540000 0.189208999 0.047058001
0.247070000 0.185669005 0.047974002
0.293181986 0.181945994 0.049254999
0.337859988 0.178558007 0.051116999
0.385345012 0.177643001 0.058044001
0.433562994 0.180023000 0.068328999
0.477508992 0.182922006 0.078766003
0.519073009 0.186615005 0.089722000
0.564911008 0.194855005 0.105834998
0.610291004 0.205017000 0.123778999
0.652863026 0.215850994 0.142272994
0.692718983 0.227477998 0.161530003
0.723999023 0.236480996 0.177672997
0.000000000 0.231720001 0.046264999
0.046783000 0.231261998 0.045775998
0.096344002 0.229889005 0.045593001
0.148163006 0.227325007 0.045593001
0.199737996 0.223968998 0.046082001
0.247649997 0.220580995 0.048492000
0.293303996 0.217712000 0.052184999
0.339661002 0.216248006 0.058104999
0.387939006 0.217345998 0.067413002
0.433928996 0.219299003 0.077514999
0.477477998 0.221954003 0.088287003
0.522521973 0.227202997 0.102233998
0.567840993 0.234528005 0.118652001
0.612426996 0.243622005 0.136504993
0.654296994 0.253264993 0.154602006
0.692809999 0.263305992 0.173308998
0.724487007 0.271851003 0.189788997
0.001282000 0.260376006 0.042755000
0.048553001 0.260497987 0.042755000
0.102966003 0.261078000 0.043915000
0.155090004 0.260010004 0.045715000
0.205109000 0.256316990 0.047363002
0.252472013 0.252869010 0.051392000
0.297637999 0.250762999 0.057769999
0.343719006 0.251221001 0.067290999
0.393097013 0.254485995 0.079650998
0.439696997 0.257476985 0.091216996
0.481171012 0.258971989 0.101685002
0.525177002 0.263610989 0.115417004
0.571991026 0.271605998 0.133514002
0.615387022 0.279724002 0.151458994
0.654296994 0.287200987 0.168303996
0.693481028 0.297545999 0.187987998
0.724152029 0.304657012 0.204346001
0.008484000 0.285614014 0.039825000
0.060486000 0.287445009 0.041016001
0.118408002 0.291260004 0.046112001
0.166840002 0.290405005 0.048920002
0.214629993 0.287322998 0.052551001
0.261108011 0.283264011 0.057861000
0.304381996 0.280914009 0.065948002
0.347229004 0.281006008 0.075499997
0.396270990 0.285582989 0.090240002
0.447571009 0.292053014 0.106903002
0.490417004 0.294647008 0.119384997
0.529296994 0.296386987 0.131226003
0.574828982 0.303954989 0.148986995
0.618134022 0.312225014 0.167419001
0.655884027 0.319213986 0.184417993
0.694854975 0.329070985 0.204650998
0.724030018 0.334259003 0.220245004
0.031311002 0.313170999 0.040741000
0.086883999 0.318237007 0.047210999
0.140563995 0.321197987 0.054962002
0.186646000 0.322052002 0.059905998
0.235596001 0.323913991 0.067534998
0.281524986 0.318787009 0.073028997
0.323363990 0.313872993 0.081542999
0.361755013 0.311493009 0.090790004
0.405945003 0.314422995 0.104369998
0.456481993 0.322021008 0.122803003
0.502044976 0.327239990 0.138977006
0.540436029 0.329284996 0.152221993
0.581085026 0.334320009 0.168060005
0.621703982 0.341277987 0.185637996
0.659515023 0.348571986 0.203308001
0.698853016 0.357697010 0.222687006
0.730865002 0.364165992 0.240204006
0.072021000 0.347900003 0.054290999
0.126555994 0.355713010 0.065825999
0.172942996 0.355132997 0.072875999
0.220550999 0.358489990 0.081511997
0.269897014 0.365051001 0.091797002
0.315582007 0.362396002 0.098816000
0.357360989 0.354339987 0.105896004
0.395844012 0.349090993 0.115570001
0.437072992 0.350800008 0.128967002
0.477813989 0.353729010 0.142975003
0.515471995 0.355042011 0.156737998
0.554778993 0.358642995 0.172729000
0.593932986 0.363525003 0.189484000
0.630492985 0.368469000 0.206696004
0.666930974 0.374877989 0.224030003
0.705841005 0.383605987 0.242736995
0.739197016 0.391510010 0.261352986
0.126221001 0.386444002 0.081634998
0.174683005 0.391846001 0.092620999
0.221375003 0.394928008 0.102081001
0.266205013 0.397765994 0.110596001
0.311646014 0.404022008 0.120667003
0.353026986 0.404724002 0.128234997
0.393860012 0.399993986 0.134735003
0.435425013 0.394165009 0.144347996
0.480681986 0.393188000 0.158813000
0.518981993 0.392486989 0.171325997
0.544128001 0.386687994 0.179504007
0.574065983 0.385192990 0.192139000
0.613403022 0.391387999 0.210693002
0.649138987 0.396544993 0.229094997
0.683411002 0.401854992 0.246277004
0.720153987 0.410095006 0.266083002
0.742218018 0.411193997 0.278472990
0.188538000 0.421752989 0.115417004
0.232819006 0.426207989 0.125366002
0.280151010 0.434753001 0.137725994
0.318969995 0.437866002 0.145080999
0.358550996 0.442595989 0.153687000
0.394562006 0.444366008 0.160460994
0.433654994 0.446960002 0.169799998
0.472534001 0.443634003 0.178252995
0.515929997 0.438048989 0.189362004
0.560211003 0.437041998 0.204192996
0.590148985 0.433349997 0.214782998
0.611815989 0.424652010 0.222106993
0.645142019 0.424988002 0.236725003
0.680388987 0.428833008 0.254332989
0.714172006 0.433777004 0.272064000
0.748809993 0.442169011 0.291411996
0.759582996 0.438293010 0.298462003
0.260284007 0.458220989 0.155517995
0.308685005 0.470885992 0.170837000
0.344512999 0.474395990 0.178192005
0.380645990 0.480408013 0.186370999
0.413879007 0.484100014 0.193176001
0.449126989 0.488463998 0.201874003
0.486389011 0.493102998 0.212340996
0.517120004 0.490355998 0.218903005
0.548552990 0.487183005 0.226471007
0.586884022 0.486968994 0.239318997
0.626739979 0.485962003 0.253387004
0.660309017 0.481231987 0.264403999
0.688080013 0.471863002 0.273407012
0.720673025 0.470427990 0.289763987
0.750427008 0.475189000 0.307891995
0.776703000 0.482818991 0.320648015
0.790069997 0.485320985 0.331115991
0.350739002 0.503386974 0.208526999
0.391631991 0.517211974 0.222289994
0.418365002 0.518096983 0.226013005
0.446105987 0.521270990 0.231261998
0.473755002 0.523773015 0.236725003
0.503539979 0.527465999 0.244110003
0.535736024 0.532531977 0.253722996
0.561981022 0.531219006 0.259795994
0.587830007 0.529296994 0.266326994
0.616210997 0.528289974 0.275269002
0.650847971 0.527588010 0.288451999
0.692932010 0.530578971 0.307556003
0.727111995 0.528900027 0.323058993
0.756622016 0.526184022 0.338164985
0.771575987 0.530945003 0.351929009
0.784331977 0.534331977 0.360718012
0.791229010 0.528563976 0.367035002
0.429320991 0.539856017 0.255919993
0.459594995 0.551635981 0.265442014
0.479034007 0.550507009 0.266602010
0.500549018 0.550781012 0.269562006
0.526580989 0.555755973 0.276336998
0.554809988 0.561371028 0.284972996
0.586121023 0.569580019 0.296355993
0.611603022 0.570861995 0.303986013
0.631958008 0.566284001 0.308990002
0.654114008 0.563109994 0.316619992
0.684020996 0.563171029 0.329620004
0.722136974 0.569458008 0.350493997
0.758880973 0.580932975 0.371582001
0.787415028 0.583862007 0.377472013
0.798981011 0.581023991 0.383789003
0.806366026 0.575713992 0.389954001
0.807648003 0.564301014 0.394470006
0.503112972 0.573333979 0.301575005
0.529174984 0.583099008 0.310516000
0.545836985 0.582580984 0.312317014
0.565276980 0.584685981 0.316406012
0.588409007 0.588440001 0.322784007
0.615478992 0.594452024 0.332123011
0.641448975 0.598662972 0.340912014
0.662109017 0.597687006 0.346953988
0.680541992 0.597504020 0.356597990
0.698943973 0.600403011 0.372345001
0.718109012 0.601898015 0.385405988
0.747741997 0.604674995 0.392334014
0.790283024 0.613341987 0.400757015
0.818481028 0.616608024 0.409027010
0.823242009 0.609314024 0.413879007
0.824096978 0.597961009 0.417847008
0.824890018 0.589690983 0.423157007
0.593231022 0.610320985 0.356689006
0.610137999 0.623076975 0.374237001
0.624328971 0.626190007 0.382629007
0.641510010 0.630614996 0.390442014
0.663788021 0.637023985 0.395446986
0.684174001 0.640625000 0.399138987
0.705811024 0.643981993 0.403564006
0.720978022 0.641387999 0.406493992
0.736176014 0.638122976 0.409667999
0.756133974 0.636932015 0.414153993
0.773833990 0.633575022 0.418457001
0.792145014 0.630614996 0.423431009
0.821869016 0.633971989 0.431670994
0.850403011 0.640807986 0.441924989
0.848021984 0.630096018 0.445313007
0.843352973 0.615417004 0.447479010
0.839080989 0.601989985 0.450684011
0.000000000 0.000000000 0.118896000
0.058867998 0.000000000 0.118652001
0.116393998 0.000000000 0.116393998
0.168761998 0.000000000 0.112457000
0.218505993 0.000000000 0.109283000
0.263550013 0.000000000 0.105469003
0.305878013 0.000000000 0.101439998
0.347472996 0.000000000 0.098297000
0.389007986 0.000000000 0.096588001
0.427154988 0.000793000 0.095031999
0.463562012 0.002655000 0.095367000
0.504700005 0.008270000 0.101654001
0.546630979 0.018036000 0.112671003
0.587952018 0.031493999 0.125641003
0.627776980 0.046599999 0.140441999
0.665283024 0.062500000 0.156403005
0.698455989 0.078093998 0.172241002
0.000000000 0.058288999 0.117035002
0.057739001 0.057739001 0.116089001
0.114349000 0.057128999 0.114349000
0.166778997 0.055328000 0.111298002
0.215485007 0.053528000 0.107849002
0.260895014 0.052094001 0.104248002
0.303864002 0.050200999 0.100951999
0.345490009 0.048401002 0.098540999
0.388031006 0.047455002 0.097198002
0.431731999 0.047759999 0.098511003
0.472961009 0.049683001 0.101806998
0.513031006 0.054535002 0.108733997
0.555481017 0.063689999 0.119781002
0.598694026 0.076384999 0.134247005
0.637299001 0.088715002 0.148254007
0.672272027 0.101318002 0.162659004
0.702637017 0.113617003 0.176666006
0.000000000 0.111327998 0.111633003
0.055298001 0.110687003 0.110687003
0.109283000 0.109283000 0.109283000
0.160767004 0.107178003 0.107178003
0.208679006 0.104369998 0.104675002
0.254456013 0.101379000 0.102477998
0.298676014 0.098601997 0.100493997
0.344390988 0.096588001 0.099884003
0.390717000 0.095946997 0.101349004
0.437835991 0.097442999 0.105774000
0.482178003 0.100005999 0.111450002
0.522063971 0.103698999 0.117706001
0.562195003 0.110596001 0.128113002
0.602081001 0.119567998 0.140655994
0.640929997 0.130614996 0.154877007
0.689635992 0.150665000 0.178039998
0.721831977 0.162993997 0.192993000
0.000000000 0.157622993 0.105042003
0.052184999 0.156951994 0.104705997
0.103577003 0.155242994 0.103577003
0.152740002 0.152740002 0.101806998
0.200957999 0.149474993 0.100249998
0.249969006 0.146271005 0.098601997
0.298552990 0.143218994 0.097809002
0.347137004 0.141663000 0.099609002
0.393036008 0.140166998 0.102020003
0.436951011 0.139832005 0.105926998
0.481597990 0.143218994 0.113770001
0.528533995 0.150909007 0.126038000
0.576323986 0.161284998 0.141601995
0.616364002 0.169373006 0.154541001
0.657593012 0.180664003 0.170258000
0.700500011 0.195618004 0.189392000
0.729218006 0.204284996 0.201903999
0.000000000 0.197173998 0.098724000
0.048950002 0.196990997 0.098357998
0.097930998 0.195435002 0.097626001
0.147094995 0.192505002 0.096008003
0.196898997 0.189117000 0.094756998
0.249054000 0.186004996 0.094237998
0.298247993 0.182891995 0.095215000
0.344695985 0.180450007 0.097351000
0.390076011 0.179504007 0.101929002
0.435180992 0.180847004 0.109039001
0.481445014 0.185332999 0.119231999
0.531036019 0.194000006 0.133972004
0.581421018 0.205321997 0.151306003
0.624145985 0.214294001 0.166045994
0.664856017 0.224151999 0.181945994
0.704315007 0.236022994 0.198699996
