public/lut/98.cube
TITLE "17x17x17 Adobe/IRIDAS cube 3D LUT exported with GrossGrade v0.2.2 (beta) 64 bit"
DOMAIN_MIN 0 0 0
DOMAIN_MAX 1 1 1
LUT_3D_SIZE 17
0.000000000 0.000000000 0.000000000
0.061646000 0.000000000 0.000000000
0.117095999 0.000000000 0.000000000
0.170287997 0.000000000 0.000000000
0.219299003 0.000000000 0.000000000
0.267242014 0.000000000 0.000000000
0.318329006 0.000000000 0.000488000
0.372130990 0.000793000 0.004028000
0.426726997 0.004730000 0.013000000
0.480895996 0.012848000 0.025818000
0.534331977 0.024048001 0.040863000
0.586121023 0.036469001 0.056915000
0.635955989 0.050507002 0.074280001
0.683624029 0.065246999 0.093108997
0.729004025 0.080596998 0.112853996
0.768311024 0.095673002 0.131409004
0.788604975 0.102631003 0.140594006
0.000000000 0.058867998 0.000000000
0.058837999 0.058837999 0.000000000
0.114990003 0.057128999 0.000000000
0.167664006 0.055847000 0.000000000
0.216613993 0.054016002 0.000000000
0.264984012 0.052246001 0.000000000
0.316071004 0.050354000 0.000488000
0.370270014 0.049469002 0.004028000
0.425384998 0.051819000 0.013397000
0.480010986 0.058318999 0.026550001
0.533356011 0.068085000 0.041595001
0.585327029 0.079223998 0.058104999
0.635375977 0.091034003 0.075866997
0.683257997 0.104156002 0.094727002
0.728729010 0.118225001 0.114624001
0.767700016 0.131011993 0.133178994
0.788177013 0.136536002 0.142242000
0.000000000 0.112000003 0.000000000
0.055328000 0.111327998 0.000000000
0.109954998 0.109954998 0.000000000
0.161223993 0.107483000 0.000000000
0.210357994 0.104705997 0.000000000
0.258758992 0.101746000 0.000000000
0.310912997 0.098328002 0.000702000
0.365783989 0.096436001 0.005280000
0.421112001 0.097655997 0.014893000
0.476043999 0.102844000 0.028441999
0.529846013 0.110931002 0.043334998
0.581969976 0.120269999 0.060059000
0.632202029 0.130919993 0.078217000
0.680176020 0.142272994 0.097167999
0.725861013 0.154724002 0.117554002
0.764586985 0.165770993 0.135773003
0.784759998 0.169738993 0.144988999
0.000000000 0.158203006 0.000000000
0.052246001 0.157440007 0.000000000
0.103973001 0.155945003 0.000000000
0.153228998 0.153473005 0.000000000
0.202025995 0.150238007 0.000000000
0.254058987 0.146362007 0.000000000
0.306885004 0.143250003 0.002075000
0.360870004 0.141632006 0.008484000
0.416382015 0.142761007 0.019409001
0.471527010 0.146942005 0.032990001
0.525635004 0.153778002 0.048186999
0.577606022 0.161406994 0.065002002
0.627746999 0.170166001 0.082824998
0.675629020 0.179810002 0.101868004
0.721038997 0.190338001 0.121795997
0.759612978 0.199553996 0.140015006
0.779083014 0.201171994 0.148926005
0.000000000 0.197906002 0.000000000
0.048950002 0.197510004 0.000000000
0.097565003 0.195678994 0.000000000
0.147125006 0.193969995 0.000000000
0.192534998 0.189025998 0.000000000
0.244598001 0.184874997 0.000000000
0.300994992 0.182953000 0.002655000
0.358612001 0.184753001 0.012604000
0.413787991 0.188567996 0.026611000
0.467377007 0.192473993 0.041290000
0.521148980 0.197052002 0.056549001
0.573578000 0.202911004 0.072998002
0.623627007 0.210114002 0.090972997
0.671294987 0.218048006 0.110016003
0.716491997 0.226714998 0.129943997
0.753479004 0.233429000 0.147156000
0.772247016 0.233184993 0.155670002
0.000000000 0.235229000 0.000000000
0.046294998 0.234558001 0.000000000
0.093353003 0.233092993 0.000000000
0.141449004 0.231383994 0.000000000
0.194580004 0.231353998 0.001343000
0.236145005 0.220062003 0.000000000
0.290955007 0.215850994 0.003052000
0.351624012 0.219757006 0.014587000
0.410827994 0.227631003 0.031280998
0.468109012 0.236237004 0.050384998
0.520812988 0.242431998 0.068604000
0.570038021 0.246978998 0.086608998
0.619414985 0.251648009 0.104065001
0.667479992 0.257384986 0.122528002
0.712311029 0.264068991 0.141815007
0.746948004 0.268065989 0.157714993
0.764617980 0.265991002 0.165648997
0.004944000 0.276030988 0.000488000
0.049042001 0.275359988 0.001282000
0.094391003 0.274260998 0.001282000
0.141875997 0.272552013 0.002563000
0.194092005 0.273467988 0.004242000
0.250000000 0.273925990 0.011383000
0.288451999 0.254364014 0.008362000
0.341704994 0.248595998 0.015778000
0.404419005 0.258026004 0.035583001
0.464172006 0.269501001 0.056244001
0.522918999 0.281677008 0.078552000
0.577057004 0.291687012 0.100281000
0.624846995 0.297791004 0.120819002
0.668090999 0.302276999 0.141326994
0.708800972 0.306762993 0.161438003
0.740447998 0.307007015 0.175109997
0.756805003 0.302367985 0.181945994
0.020447001 0.321716011 0.006866000
0.062316999 0.321227998 0.008087000
0.105651997 0.320282012 0.009125000
0.150940001 0.318756014 0.011230000
0.198761001 0.318298012 0.013855000
0.256348014 0.324036002 0.023987001
0.309174001 0.316437006 0.031647000
0.344940007 0.291168004 0.028229000
0.396270990 0.284667999 0.039062999
0.458983988 0.295897990 0.062194999
0.519043028 0.309540004 0.086150996
0.579468012 0.325378001 0.110748000
0.635192990 0.339691013 0.135681003
0.683044016 0.349822998 0.160034001
0.723205984 0.355376989 0.182769999
0.750580013 0.353850991 0.197327003
0.762421012 0.345946997 0.203491002
0.046082001 0.370819002 0.022491001
0.085083000 0.370299995 0.024780000
0.125701994 0.369598001 0.026306000
0.167998999 0.368346989 0.029022001
0.212432995 0.367309988 0.032531999
0.262053996 0.369690001 0.039825000
0.325623006 0.377288997 0.056671001
0.372803003 0.360686988 0.061340000
0.403046012 0.328918010 0.056426998
0.453217000 0.322113007 0.068939000
0.515411019 0.333649009 0.094452001
0.575043023 0.347869992 0.119690001
0.635712028 0.366912991 0.147002995
0.693297982 0.385955989 0.174834996
0.742859006 0.401641995 0.202300996
0.775757015 0.406158000 0.220825002
0.787994027 0.399567008 0.227814004
0.079131998 0.421967000 0.047088999
0.115295000 0.421783000 0.049102999
0.152618006 0.421204001 0.051116999
0.191771999 0.420197010 0.053986002
0.233062997 0.418945014 0.057799999
0.279846013 0.420044005 0.065002002
0.335631996 0.426757991 0.078156002
0.400635004 0.432433993 0.097900003
0.439361989 0.405822992 0.098968998
0.461852998 0.367157012 0.090545997
0.511658013 0.360504001 0.105255000
0.572754025 0.371643007 0.131897002
0.630187988 0.386200011 0.158629999
0.688872993 0.406951994 0.187926993
0.745818973 0.431457996 0.219146997
0.789215028 0.448913991 0.243194997
0.808867991 0.454986989 0.255492985
0.118773997 0.474548012 0.076599002
0.151549995 0.474518001 0.078521997
0.185760006 0.474059999 0.080565996
0.221863002 0.473174989 0.083434999
0.260711998 0.472045988 0.087921001
0.304473996 0.472382009 0.095123000
0.354492009 0.476166010 0.106140003
0.416747987 0.487578988 0.127013996
0.479218006 0.488891989 0.147551998
0.506470025 0.450774997 0.142333999
0.520142019 0.405243009 0.130463004
0.568848014 0.399628013 0.147247002
0.627960026 0.410248011 0.174834996
0.682648003 0.424683005 0.202880993
0.738036990 0.446289003 0.233887002
0.783568978 0.470642000 0.261658013
0.808135986 0.490509003 0.280243009
0.163696006 0.527130008 0.110413000
0.193237007 0.527007997 0.112152003
0.224243000 0.526703000 0.114197001
0.257598996 0.526031017 0.117279001
0.294097990 0.525237978 0.122009002
0.334899992 0.524932981 0.129639000
0.381713986 0.527770996 0.142303005
0.434296012 0.534026980 0.157166004
0.501128972 0.549163997 0.183837995
0.559113026 0.545257986 0.204132006
0.571991026 0.493804991 0.190399006
0.577332020 0.443114996 0.175200999
0.625609994 0.439361989 0.195160002
0.680664003 0.448639005 0.223205999
0.733520985 0.462830007 0.252014011
0.776244998 0.481353998 0.277832001
0.798430979 0.501403987 0.296936005
0.212615997 0.577666998 0.147797003
0.238860995 0.577697992 0.149200007
0.266968012 0.577575982 0.151336998
0.297484994 0.577117980 0.154845998
0.331389993 0.576354980 0.160126001
0.369751006 0.576018989 0.168335006
0.413329989 0.577911019 0.180785999
0.462859988 0.583252013 0.195801005
0.516815007 0.591674984 0.215240002
0.585570991 0.608489990 0.247832999
0.637421012 0.598541021 0.266083002
0.633635998 0.532927990 0.241973996
0.635773003 0.481842011 0.226685002
0.680786014 0.478026986 0.247620001
0.733153999 0.485900998 0.275725991
0.773132026 0.496978998 0.299621999
0.787994027 0.511200011 0.317261010
0.263884991 0.624724984 0.188262999
0.286682010 0.624634027 0.189300999
0.311675996 0.624572992 0.191559002
0.339538991 0.624237001 0.195495993
0.371062994 0.623749018 0.201354995
0.407043010 0.623229980 0.209808007
0.447692990 0.624359012 0.221892998
0.493469000 0.628632009 0.238800004
0.543578982 0.636017025 0.256408989
0.600098014 0.647125006 0.279846013
0.664611995 0.659393013 0.316864014
0.705048025 0.640137017 0.331878990
0.691588998 0.568603992 0.297668010
0.690918028 0.518218994 0.283782989
0.735382020 0.513823986 0.304107994
0.772002995 0.519958019 0.329773009
0.779021978 0.526763976 0.344940007
0.317901999 0.668060005 0.231353998
0.337188989 0.668060005 0.232329994
0.359070003 0.667937994 0.234741002
0.384308010 0.667603016 0.238860995
0.413574010 0.667479992 0.245331004
0.447144002 0.667023003 0.254211009
0.484679997 0.667328000 0.266021997
0.526854992 0.670653999 0.282379001
0.573853016 0.677489996 0.300049007
0.625122011 0.686797976 0.320769995
0.683318973 0.701447010 0.363707989
0.740172982 0.708984017 0.407471001
0.763244987 0.674041986 0.394012004
0.747893989 0.602936029 0.362152010
0.745971978 0.550507009 0.341187000
0.769257009 0.549651980 0.368865997
0.775695980 0.547942996 0.376709014
0.374756008 0.708862007 0.277496010
0.390442014 0.708922982 0.278441995
0.409729004 0.709167004 0.281280994
0.432220012 0.708984017 0.285674989
0.459044993 0.708739996 0.292418987
0.489960015 0.708710015 0.301788002
0.524779975 0.708832026 0.314025998
0.563628972 0.711242974 0.330444008
0.607268989 0.717437983 0.351043999
0.656280994 0.726867974 0.379547000
0.707794011 0.738434017 0.417510986
0.775969982 0.757263005 0.453429997
0.845856011 0.762817025 0.463836998
0.832213998 0.701447010 0.437743992
0.806151986 0.634979010 0.414398015
0.782562017 0.581695974 0.401367009
0.782440007 0.571289003 0.406798989
0.435272008 0.750885010 0.327820003
0.447661996 0.751007020 0.328765988
0.463714987 0.750945985 0.331450999
0.483886987 0.751312017 0.336578012
0.507903993 0.751281977 0.343658000
0.536377013 0.751250982 0.352997005
0.569671988 0.750732005 0.369843006
0.607330024 0.751586974 0.397491008
0.648468018 0.755919993 0.437256008
0.694793999 0.765411019 0.466399997
0.743651986 0.773986995 0.477385998
0.795135021 0.777283013 0.490173012
0.862121999 0.784271002 0.504760981
0.918304026 0.781250000 0.510773003
0.879700005 0.727385998 0.488128990
0.830383003 0.652710021 0.457794011
0.796082020 0.596252024 0.441864014
0.000000000 0.000000000 0.060486000
0.059448000 0.000000000 0.059448000
0.117614999 0.000000000 0.058777001
0.170012996 0.000000000 0.056519002
0.219086006 0.000000000 0.054717999
0.267181009 0.000000000 0.052887000
0.317656994 0.000000000 0.051024999
0.371246010 0.000458000 0.052460000
0.425841987 0.003937000 0.059021000
0.480224997 0.011353000 0.070068002
0.533508003 0.022522001 0.082855001
0.585114002 0.034942999 0.096863002
0.634827018 0.048492000 0.112488002
0.682281017 0.063019000 0.128967002
0.727783024 0.078247003 0.146972999
0.767302990 0.093200997 0.163727000
0.787688971 0.099976003 0.170715004
0.000000000 0.058867998 0.058867998
0.058258001 0.058258001 0.058258001
0.114655003 0.057098001 0.057098001
0.167449996 0.055847000 0.055847000
0.216431007 0.054016002 0.054016002
0.265044987 0.052246001 0.052094001
0.316650003 0.050354000 0.050811999
0.370819002 0.049896002 0.053497002
0.425902992 0.053406000 0.061340000
0.480498999 0.060637999 0.073090002
0.534119010 0.070648000 0.086089998
0.586211979 0.081665002 0.100708000
0.636200011 0.093872003 0.116699003
0.684081972 0.107055999 0.133759007
0.729828000 0.121399000 0.152161002
0.768737972 0.134215996 0.168640003
0.789276004 0.140198007 0.176269993
0.000000000 0.112029999 0.055907998
0.055328000 0.111023001 0.055328000
0.109618999 0.109618999 0.054687999
0.161223993 0.107513003 0.053528000
0.209839001 0.104705997 0.052216001
0.258331001 0.101746000 0.050415002
0.310608000 0.098328002 0.050140001
0.365936011 0.096892998 0.053284001
0.421752989 0.099426001 0.061646000
0.477050990 0.105742998 0.074065998
0.531096995 0.114501998 0.087860003
0.583405018 0.124176003 0.103087999
0.633789003 0.135101005 0.119354002
0.681945980 0.146851003 0.136932001
0.727599978 0.159392998 0.155273005
0.766143978 0.170624003 0.171813995
0.786530018 0.174926996 0.179352000
0.000000000 0.158112004 0.052855998
0.052246001 0.157440007 0.052246001
0.103973001 0.155730993 0.051665999
0.152985007 0.153228998 0.050903000
0.202362001 0.150177002 0.049743999
0.254119992 0.146271005 0.048370000
0.305907995 0.142792001 0.049254999
0.359833002 0.141051993 0.053893998
0.415802002 0.142853007 0.063293003
0.471313000 0.147948995 0.075805999
0.525726020 0.155487001 0.090117998
0.578217030 0.163696006 0.105315998
0.628570974 0.173187003 0.122040004
0.676971018 0.183562994 0.139832005
0.722869992 0.194763005 0.158691004
0.761200011 0.204467997 0.175171003
0.781127989 0.207122996 0.182922006
0.000000000 0.197723001 0.049072001
0.048950002 0.197327003 0.048950002
0.097565003 0.195618004 0.048950002
0.146118000 0.193451002 0.048278999
0.192534998 0.188812003 0.046905998
0.245208994 0.185363993 0.046204001
0.302581996 0.184325993 0.048340000
0.358855993 0.185089007 0.056030001
0.412261993 0.187438995 0.068297997
0.465941995 0.191405997 0.081696004
0.520476997 0.196655005 0.095337003
0.573119998 0.203308001 0.110625997
0.623351991 0.210998997 0.127441004
0.671447992 0.219696000 0.145202994
0.716888011 0.229003996 0.163727000
0.754424989 0.236603007 0.180084005
0.773590028 0.237305000 0.187438995
0.000000000 0.235045999 0.045775998
0.046264999 0.234528005 0.045593001
0.092987001 0.232970998 0.045593001
0.140288994 0.230895996 0.044861000
0.191894993 0.230132997 0.045348998
0.236388996 0.220489994 0.043457001
0.292418987 0.217712000 0.046234000
0.354369998 0.222229004 0.056549001
0.413666010 0.229766995 0.071960002
0.468475014 0.236388996 0.088744998
0.518616021 0.240601003 0.105103001
0.567902029 0.245148003 0.121490002
0.618499994 0.250274986 0.137207001
0.666625977 0.256927013 0.154571995
0.711791992 0.264373988 0.172882006
0.747406006 0.269531012 0.188049003
0.765349984 0.268126994 0.194855005
0.005402000 0.275909007 0.043517999
0.048340000 0.275269002 0.043517999
0.093718998 0.274138987 0.043976001
0.140717000 0.272094995 0.044677999
0.191771999 0.272064000 0.045258000
0.246825993 0.272796988 0.050629001
0.288055003 0.255706996 0.047607001
0.343719006 0.251922995 0.055420000
0.408813000 0.262023985 0.073882997
0.469909996 0.273681998 0.093689002
0.526458979 0.284363002 0.114105001
0.576629996 0.291168004 0.133635998
0.622070014 0.295013011 0.151916996
0.664885998 0.299468994 0.170958996
0.707213998 0.304320991 0.189087003
0.740203977 0.305846989 0.202025995
0.756958008 0.302154988 0.207885996
0.020447001 0.321716011 0.046264999
0.060637999 0.321074992 0.046967000
0.104675002 0.320037991 0.049346998
0.149932995 0.318511993 0.051024999
0.196930006 0.317413002 0.052673001
0.252716005 0.321990997 0.059845001
0.308196992 0.318390012 0.068512000
0.345946997 0.295105010 0.065704003
0.398285002 0.288818002 0.075255997
0.464722008 0.301391989 0.097565003
0.527161002 0.315948009 0.120086998
0.585448980 0.330994010 0.143646002
0.637299001 0.342498988 0.166626006
0.681914985 0.348358005 0.188049003
0.720122993 0.351745993 0.208496004
0.746367991 0.349730998 0.221466005
0.758270025 0.342438012 0.226348996
0.046448000 0.370757997 0.058623999
0.083740003 0.370270014 0.060332999
0.124695003 0.369475991 0.063141003
0.167083994 0.368225008 0.065369003
0.210693002 0.366730005 0.068755999
0.259979010 0.368041992 0.073853001
0.322510004 0.376525998 0.089142002
0.373322010 0.364989996 0.096100003
0.405333996 0.334625006 0.091063999
0.455597013 0.327026010 0.102112003
0.520905018 0.340424001 0.126739994
0.582489014 0.357239008 0.151611000
0.642395020 0.376953006 0.178222999
0.696747005 0.393462986 0.204375997
0.742645025 0.403899997 0.228668004
0.772490978 0.403595001 0.243744001
0.783385992 0.394318014 0.247986004
0.079590000 0.421997011 0.079773001
0.113617003 0.421631008 0.081573002
0.151732996 0.421081990 0.084472999
0.190979004 0.420105010 0.087096997
0.231841996 0.418671012 0.090697996
0.278259009 0.418915004 0.095977999
0.331970006 0.424102992 0.106628001
0.397460997 0.432617009 0.126800999
0.440735012 0.411713004 0.130676001
0.464446992 0.373717993 0.122101001
0.513794005 0.366791010 0.135436997
0.576752007 0.380127013 0.161621004
0.635406017 0.397522002 0.188324004
0.693938971 0.420807004 0.217742994
0.750609994 0.442871004 0.246795997
0.792815983 0.455962986 0.267852992
0.809113026 0.455413997 0.275970012
0.119110003 0.474640012 0.105988003
0.150145993 0.474274009 0.107818998
0.184998006 0.473969012 0.110625997
0.221160993 0.473114014 0.113495000
0.259674013 0.472106993 0.117554002
0.302825987 0.471466005 0.123230003
0.352782995 0.474730998 0.132964998
0.412108988 0.484589010 0.151244998
0.475432992 0.489441007 0.172667995
0.508331001 0.457702994 0.170745999
0.523132026 0.412414998 0.158508003
0.571442008 0.406798989 0.174011007
0.631226003 0.419463992 0.201508000
0.687195003 0.436859012 0.229552999
0.744231999 0.461273015 0.260650992
0.791106999 0.486541986 0.288085997
0.810302973 0.503203988 0.305664003
0.164185002 0.527221978 0.136932001
0.191771999 0.526794016 0.138062000
0.223601997 0.526642025 0.141204998
0.256897002 0.526000977 0.144196004
0.292998999 0.525207996 0.148468003
0.333404988 0.524353027 0.154724002
0.379790992 0.526520014 0.166168004
0.432312012 0.532471001 0.180144995
0.496154994 0.546416998 0.204407007
0.555236995 0.546387017 0.225585997
0.574463010 0.501739979 0.215667993
0.580353022 0.450652987 0.199707001
0.628570974 0.447144002 0.218628004
0.684448004 0.458678991 0.246399000
0.738861024 0.475524992 0.275269002
0.783538997 0.496674001 0.301544011
0.799926996 0.521362007 0.325439006
0.212860003 0.577911019 0.171478003
0.237305000 0.577422976 0.171905994
0.266234994 0.577515006 0.175171003
0.296783000 0.577086985 0.178344995
0.330565989 0.576294005 0.183044001
0.368469000 0.575562000 0.190093994
0.411437988 0.576752007 0.201385006
0.460693002 0.581726015 0.215790004
0.513641000 0.589630008 0.233795002
0.579773009 0.606078982 0.264191002
0.634582996 0.601348996 0.284698009
0.638122976 0.542693973 0.265136987
0.638671994 0.489623994 0.247498006
0.684143007 0.486236989 0.267394990
0.737396002 0.496154994 0.295410007
0.778168023 0.510101020 0.320526004
0.789429009 0.528351009 0.341735989
0.264191002 0.624846995 0.208679006
0.285003990 0.624390006 0.208862007
0.311248988 0.624390006 0.211577997
0.339080989 0.624114990 0.215149000
0.370514005 0.623656988 0.220580995
0.406158000 0.623138011 0.228577003
0.446166992 0.623565972 0.239655003
0.491394013 0.627197027 0.255645990
0.541504025 0.634398997 0.272552013
0.595641971 0.644531012 0.293792993
0.660705984 0.659636974 0.331696004
0.708527029 0.648315012 0.352050990
0.695984006 0.577880979 0.316588998
0.694060981 0.526305974 0.301147014
0.738677979 0.522796988 0.320953012
0.773132026 0.532166004 0.348937988
0.781310976 0.540893972 0.364196986
0.318114996 0.668242991 0.248474002
0.335570991 0.667786002 0.248595998
0.358765006 0.667846978 0.251433998
0.383819997 0.667479992 0.255279988
0.412842005 0.667328000 0.261352986
0.445984006 0.666900992 0.269683987
0.483307004 0.666840017 0.280822992
0.525023997 0.669434011 0.296204001
0.571471989 0.675750971 0.313140988
0.622741997 0.685059011 0.332886010
0.678070009 0.698638976 0.374725014
0.735503972 0.709258974 0.420044005
0.769867003 0.685028017 0.411101997
0.751312017 0.612396002 0.379119992
0.749390006 0.558929026 0.355042011
0.773711979 0.558776975 0.380187988
0.781342030 0.559020996 0.387726009
0.374969006 0.709044993 0.291411996
0.388855010 0.708648980 0.291411996
0.409301996 0.709106028 0.294616997
0.431823999 0.708893001 0.298981011
0.458220989 0.708588004 0.305236995
0.489165992 0.708588004 0.314301014
0.523956001 0.708465993 0.326018989
0.562224984 0.710327029 0.341338992
0.605163991 0.715851009 0.361144990
0.654052973 0.725188971 0.387237996
0.705260992 0.736724973 0.423949987
0.768706977 0.754088998 0.461181998
0.837584972 0.762085021 0.472014993
0.841400027 0.713379025 0.451873988
0.812102973 0.644195974 0.425476015
0.787445009 0.590301991 0.410492003
0.787658989 0.580536008 0.415221989
0.435485989 0.751098990 0.338593006
0.446105987 0.750671029 0.338593006
0.463317990 0.750792980 0.341675013
0.483397990 0.751160026 0.346527010
0.507018983 0.751128972 0.353302002
0.535064995 0.751038015 0.362183005
0.568023980 0.750609994 0.377898991
0.605346978 0.750976980 0.403869987
0.646179020 0.754455984 0.441619992
0.692169011 0.764038026 0.472106993
0.741364002 0.773406982 0.485045999
0.791900992 0.776763976 0.496154994
0.855895996 0.783080995 0.509856999
0.917479992 0.783599973 0.517302990
0.893005013 0.743041992 0.501434028
0.837279975 0.662169993 0.465606987
0.801971018 0.605225027 0.447937012
0.000000000 0.000000000 0.118896000
0.058867998 0.000000000 0.118652001
0.116393998 0.000000000 0.116393998
0.168761998 0.000000000 0.112457000
0.217742994 0.000000000 0.108948000
0.265839010 0.000000000 0.105347000
0.316864014 0.000000000 0.101685002
0.370696992 0.000458000 0.101256996
0.425354004 0.003937000 0.106201001
0.479339987 0.011292000 0.114655003
0.532593012 0.021392999 0.125458002
0.584197998 0.033325002 0.137511998
0.633849978 0.046417002 0.150878996
0.681091011 0.060608000 0.165191993
0.726378977 0.075774997 0.181030005
0.766174018 0.090636998 0.195861995
0.786468983 0.097167999 0.200896993
0.000000000 0.058288999 0.117035002
0.057739001 0.057739001 0.116089001
0.114349000 0.057128999 0.114349000
0.166778997 0.055328000 0.111298002
0.215453997 0.053528000 0.107879996
0.263428003 0.052094001 0.104278997
0.314940989 0.050140001 0.100951999
0.369109988 0.049469002 0.101166002
0.424163997 0.051575001 0.106597997
0.478821009 0.058350001 0.116180003
0.532348990 0.068115003 0.127625003
0.584411979 0.079285003 0.140349999
0.634307981 0.091339000 0.154296994
0.682159007 0.104523003 0.169464007
0.727783024 0.118561000 0.185669005
0.767426014 0.131652996 0.200745001
0.787903011 0.137420997 0.206207007
0.000000000 0.111327998 0.111633003
0.055298001 0.110687003 0.110687003
0.109283000 0.109283000 0.109283000
0.160583004 0.107178003 0.107178003
0.209105998 0.104340002 0.104340002
0.257690012 0.101379000 0.101685002
0.310425013 0.098968998 0.100676998
0.365967005 0.098968998 0.103210002
0.422149986 0.102539003 0.110260002
0.477721989 0.109070003 0.120483004
0.531799018 0.117858998 0.132446006
0.584258974 0.127776995 0.145813003
0.634521008 0.138733000 0.160492003
0.682799995 0.150726005 0.176117003
0.728667974 0.163635001 0.192901999
0.767455995 0.175231993 0.207947001
0.788085997 0.180419996 0.214232996
0.000000000 0.157409996 0.105042003
0.052184999 0.156951994 0.104705997
0.103606999 0.155242994 0.103606999
0.152740002 0.152740002 0.101806998
0.201202005 0.149719000 0.099518001
0.250609994 0.145813003 0.097503997
0.303070009 0.142975003 0.097626001
0.358612001 0.142364994 0.101685002
0.415771008 0.145598993 0.109710999
0.472290009 0.151824996 0.120880000
0.526978016 0.159851000 0.133789003
0.579711974 0.168792993 0.148040995
0.630432010 0.178740993 0.163268998
0.678924978 0.189696997 0.179748997
0.725005984 0.201324001 0.196930006
0.763336003 0.211426005 0.212006003
0.783599973 0.215178996 0.218505993
0.000000000 0.197356999 0.098724000
0.048950002 0.196807995 0.098357998
0.097565003 0.195251003 0.097565003
0.144713998 0.192688003 0.096008003
0.191742003 0.188629001 0.094054997
0.244323999 0.185912997 0.092772998
0.301636010 0.184661999 0.093627997
0.357300013 0.183990002 0.099547997
0.410706013 0.186523005 0.110198997
0.465240002 0.191925004 0.122589000
0.520264030 0.198241994 0.135498002
0.573333979 0.205963001 0.149994001
0.623932004 0.214569002 0.165802002
0.672424018 0.224213004 0.182526007
0.718474984 0.234741002 0.200225994
0.756622016 0.243590996 0.215667993
