public/lut/98.cube
TITLE "17x17x17 Adobe/IRIDAS cube 3D LUT exported with GrossGrade v0.2.2 (beta) 64 bit"
DOMAIN_MIN 0 0 0
DOMAIN_MAX 1 1 1
LUT_3D_SIZE 5
0.000000000 0.000000000 0.000000000
0.219299003 0.000000000 0.000000000
0.426726997 0.004730000 0.013000000
0.635955989 0.050507002 0.074280001
0.788604975 0.102631003 0.140594006
0.000000000 0.197906002 0.000000000
0.192534998 0.189025998 0.000000000
0.413787991 0.188567996 0.026611000
0.623627007 0.210114002 0.090972997
0.772247016 0.233184993 0.155670002
0.046082001 0.370819002 0.022491001
0.212432995 0.367309988 0.032531999
0.403046012 0.328918010 0.056426998
0.635712028 0.366912991 0.147002995
0.787994027 0.399567008 0.227814004
0.212615997 0.577666998 0.147797003
0.331389993 0.576354980 0.160126001
0.516815007 0.591674984 0.215240002
0.635773003 0.481842011 0.226685002
0.787994027 0.511200011 0.317261010
0.435272008 0.750885010 0.327820003
0.507903993 0.751281977 0.343658000
0.648468018 0.755919993 0.437256008
0.862121999 0.784271002 0.504760981
0.796082020 0.596252024 0.441864014
0.000000000 0.000000000 0.233062997
0.214965999 0.000000000 0.215636998
0.418671012 0.003143000 0.201691002
0.631653011 0.046326000 0.228210002
0.784911990 0.095398001 0.263336003
0.000000000 0.195403993 0.195923001
0.188659996 0.189239994 0.195281997
0.405120999 0.197844997 0.211364999
0.626250982 0.233429000 0.254516989
0.786773980 0.269286990 0.295958996
0.040741000 0.372375011 0.180327997
0.194152996 0.365814000 0.186432004
0.403899997 0.351776004 0.205901995
0.645812988 0.391876012 0.268768013
0.776305974 0.384337991 0.310516000
0.214019999 0.578278005 0.244353995
0.318298012 0.575989008 0.261444002
0.494720012 0.578612983 0.296112001
0.650481999 0.519958019 0.313140988
0.812804997 0.584290028 0.403106987
0.437103003 0.750823975 0.370819002
0.496764988 0.751281977 0.389557004
0.632903993 0.748656988 0.461151004
0.833588004 0.778198004 0.524414003
0.826354980 0.640532970 0.471374989
0.000000000 0.006714000 0.453613013
0.205078006 0.000793000 0.428131014
0.390533000 0.011047000 0.413177013
0.609099984 0.052490000 0.406830013
0.773651004 0.103210002 0.412445009
0.000000000 0.212311000 0.416442990
0.182403997 0.210388005 0.410582989
0.369933993 0.193604007 0.400909007
0.599792004 0.217804000 0.410797000
0.761322021 0.235687003 0.405243009
0.011047000 0.361755013 0.372772008
0.164123997 0.360931009 0.372191995
0.374237001 0.385071009 0.429320991
0.611298025 0.429199010 0.480865002
0.792510986 0.477692008 0.507659972
0.200470001 0.582031012 0.443848014
0.291595012 0.575775027 0.430023015
0.427031994 0.576049984 0.463317990
0.653380990 0.570434988 0.497406006
0.821044981 0.632018983 0.514679015
0.423400998 0.755981028 0.483153999
0.462219000 0.752471983 0.473845989
0.599059999 0.752929986 0.561554015
0.780700982 0.778380990 0.585541010
0.845336974 0.702697992 0.552734017
0.000000000 0.039214998 0.672210991
0.192260996 0.026794000 0.648864985
0.342682004 0.029175000 0.601746023
0.575195014 0.079681002 0.617461979
0.760712028 0.133392006 0.600830019
0.003754000 0.261779994 0.646210015
0.172974005 0.253235012 0.633331001
0.310425013 0.207488999 0.582458019
0.560059011 0.237334996 0.609497011
0.748260021 0.267150998 0.605560005
0.016968001 0.413695991 0.585906982
0.170775995 0.429381996 0.589690983
0.362792999 0.433043987 0.599213004
0.540526986 0.422271997 0.627135992
0.739502013 0.443908989 0.654663026
0.126953006 0.557190001 0.568237007
0.220000997 0.560088992 0.567444026
0.390991002 0.566895008 0.600555003
0.596161008 0.618408024 0.705536008
0.804778993 0.677917004 0.684937000
0.399901986 0.766234994 0.665099978
0.440643013 0.760742009 0.659484982
0.552093983 0.754486024 0.663635015
0.696259022 0.774505973 0.688171029
0.866791010 0.802398980 0.700195014
0.006317000 0.084716998 0.868134022
0.181793004 0.063660003 0.841796994
0.322845012 0.058655001 0.786132991
0.436583996 0.089354999 0.749877989
0.723694026 0.167969003 0.773559988
0.028991999 0.313080013 0.846924007
0.171508998 0.298247993 0.827880979
0.298034996 0.240051001 0.769713998
0.427307010 0.240386993 0.735535026
0.711028993 0.296326011 0.766448975
0.073638998 0.492401004 0.784393013
0.220458999 0.509705007 0.787047982
0.369080007 0.500427008 0.776825011
0.461273015 0.425568014 0.729797006
0.689606011 0.475555003 0.776854992
0.123168997 0.586090028 0.708617985
0.226135001 0.601624012 0.712768972
0.400573999 0.633026004 0.738281012
0.600098014 0.643554986 0.777405024
0.727936029 0.668090999 0.797820985
0.304412991 0.715911984 0.712219000
0.349242985 0.724242985 0.716400027
0.463470012 0.750487983 0.747070014
0.651031017 0.777526975 0.781157970
0.834044993 0.827148020 0.789520025
