public/lut/99.cube
TITLE "17x17x17 Adobe/IRIDAS cube 3D LUT exported with GrossGrade v0.2.2 (beta) 64 bit"
DOMAIN_MIN 0 0 0
DOMAIN_MAX 1 1 1
LUT_3D_SIZE 17
0.000000000 0.000000000 0.000000000
0.029479999 0.000000000 0.000000000
0.058745999 0.000000000 0.000000000
0.101685002 0.000000000 0.000000000
0.154785007 0.000000000 0.000000000
0.208588004 0.002106000 0.002106000
0.259247005 0.008087000 0.007294000
0.308898985 0.017120000 0.015961001
0.358673006 0.028380999 0.026825000
0.409271002 0.041565001 0.040008999
0.460967988 0.054443002 0.053130999
0.512268007 0.067078002 0.065552004
0.562530994 0.078368999 0.076903999
0.613739014 0.089630000 0.087890998
0.663604975 0.098968998 0.097015001
0.714049995 0.108093001 0.106293000
0.759064019 0.121399000 0.120086998
0.000000000 0.029479999 0.000000000
0.029418999 0.029418999 0.000000000
0.059937000 0.030212000 0.000000000
0.106384002 0.029418999 0.000000000
0.156920999 0.030792000 0.000000000
0.210265994 0.035186999 0.003387000
0.261292011 0.043274000 0.009613000
0.311554015 0.054138001 0.019378999
0.361847013 0.067657001 0.031463999
0.412537009 0.081450999 0.044769000
0.464203000 0.095306002 0.058472000
0.516234994 0.108521000 0.071410999
0.567322016 0.120086998 0.082549997
0.617156982 0.130005002 0.092468001
0.667114019 0.138153002 0.100922003
0.717957020 0.146210000 0.109862998
0.759612978 0.157317996 0.122985996
0.000000000 0.059386998 0.000000000
0.029387999 0.059448000 0.000000000
0.063721001 0.059448000 0.000000000
0.118164003 0.061035000 0.000000000
0.170166001 0.065307997 0.001282000
0.219542995 0.072296001 0.005035000
0.270233005 0.084137000 0.013214000
0.320221007 0.097747996 0.024536001
0.369904011 0.111327998 0.037659001
0.421294987 0.125519007 0.051543999
0.472687006 0.139252007 0.065002002
0.522948980 0.151093006 0.076903999
0.573059022 0.161713004 0.087890998
0.622466981 0.170532003 0.097411998
0.673400998 0.177886993 0.106078997
0.724304020 0.184998006 0.114380002
0.760437012 0.195709005 0.128509998
0.003632000 0.101227000 0.000000000
0.034515001 0.101929002 0.000000000
0.076903999 0.100464001 0.000000000
0.136169001 0.107634999 0.002075000
0.184540004 0.109252997 0.004395000
0.231749997 0.115447998 0.009613000
0.281677008 0.127471998 0.019043000
0.331481993 0.140808001 0.031433001
0.381348014 0.154174998 0.044799998
0.431549013 0.167419001 0.057799999
0.481934011 0.179839998 0.070343003
0.532073975 0.190887004 0.081696004
0.582306027 0.201019004 0.092316002
0.633484006 0.210388005 0.102539003
0.683135986 0.218291998 0.111908004
0.727569997 0.226105005 0.122864000
0.763611019 0.234954998 0.137511998
0.012634000 0.148163006 0.000000000
0.044799998 0.149077997 0.000000000
0.096069001 0.152129993 0.001282000
0.153931007 0.159697995 0.006561000
0.199950993 0.163573995 0.011047000
0.244536996 0.165374994 0.016998000
0.291779011 0.171783000 0.025543001
0.341277987 0.182769999 0.037659001
0.392212003 0.196014002 0.051330999
0.443085015 0.208862007 0.064423002
0.492949992 0.220092997 0.075897001
0.542479992 0.230224997 0.086760998
0.592437983 0.239776999 0.096709996
0.643341005 0.248778999 0.106995001
0.690307975 0.256989002 0.117523000
0.728148997 0.264954001 0.132172003
0.766143978 0.274322987 0.148193002
0.022125000 0.193511993 0.000793000
0.058623999 0.195495993 0.001343000
0.111846998 0.201049998 0.004944000
0.165497005 0.207001001 0.011139000
0.214873999 0.214355007 0.019409001
0.259368986 0.218688995 0.026916999
0.304596007 0.221283004 0.035186999
0.352081001 0.227631003 0.045258000
0.401062012 0.237029999 0.056701999
0.451294005 0.247832999 0.068542004
0.503021002 0.259826988 0.081298999
0.553650022 0.270202994 0.092162997
0.602294981 0.278656006 0.101104997
0.651916981 0.288024992 0.113617003
0.692077994 0.294494987 0.127379999
0.730072021 0.301818997 0.143004999
0.768706977 0.309845001 0.159363002
0.031433001 0.236511007 0.002869000
0.071227998 0.239226997 0.004395000
0.124237001 0.245422006 0.008972000
0.175506994 0.251861989 0.016449001
0.225067005 0.259918004 0.027008001
0.272430003 0.267394990 0.037018001
0.318298012 0.272338986 0.045685001
0.363586009 0.275299013 0.053741001
0.411011010 0.280945003 0.063568003
0.460693002 0.289763987 0.074401997
0.511596978 0.299926996 0.085387997
0.561767995 0.309325993 0.096619003
0.609221995 0.317229986 0.109375000
0.655578971 0.324829012 0.124968998
0.693817019 0.330383003 0.140045002
0.731688976 0.336273015 0.155242994
0.771942019 0.343169987 0.172241002
0.040741000 0.279327005 0.005951000
0.083861999 0.283142000 0.008270000
0.137237996 0.289642006 0.015320000
0.186157003 0.296478003 0.023314999
0.233398005 0.303954989 0.033234000
0.283234000 0.313262999 0.045012999
0.331665009 0.322174013 0.055358998
0.378387004 0.327971995 0.064514004
0.424591005 0.330779999 0.072509997
0.471985012 0.335326999 0.082336001
0.519867003 0.341583014 0.094208002
0.565765023 0.346893013 0.106536999
0.609528005 0.352050990 0.120911002
0.653991997 0.358002007 0.137237996
0.696289003 0.363647014 0.153687000
0.735229015 0.368683010 0.169189006
0.773070991 0.374206990 0.185303003
0.052979000 0.324279994 0.010254000
0.097686999 0.327392995 0.013702000
0.149597004 0.334502995 0.022583000
0.197113007 0.341980010 0.031097000
0.243042007 0.349426001 0.040008999
0.292053014 0.358521014 0.051270001
0.343414009 0.368743986 0.064331003
0.393371999 0.377685994 0.077056997
0.440093994 0.381713986 0.087798998
0.484008998 0.380919993 0.097717002
0.527588010 0.381164998 0.109741002
0.570679009 0.383666992 0.123351999
0.611846983 0.386168987 0.136596993
0.653380990 0.389679015 0.151306003
0.694549978 0.392975003 0.166808993
0.734099984 0.397186011 0.182739004
0.772643983 0.401641995 0.199219003
0.069945998 0.367096007 0.018371999
0.114380002 0.369628996 0.022980001
0.163482994 0.376098990 0.032166000
0.208710000 0.382140994 0.040771000
0.253540009 0.388213992 0.049469002
0.300597996 0.395720989 0.060454998
0.351868004 0.404998988 0.075134002
0.404572010 0.415526986 0.092041001
0.455047995 0.425507009 0.108002000
0.499969006 0.427733988 0.121094003
0.539520025 0.422576994 0.131286994
0.579773009 0.420776010 0.143188000
0.621155024 0.422913015 0.156859994
0.659424007 0.423096001 0.170012996
0.696654975 0.423400998 0.183745995
0.734557986 0.424834996 0.198882997
0.770781994 0.426178008 0.214081004
0.092834003 0.401549995 0.032226998
0.136016995 0.403656006 0.037659001
0.181395993 0.407806009 0.045807000
0.222809002 0.411071986 0.053406000
0.264984012 0.415008992 0.062346999
0.310851991 0.422057986 0.075011998
0.359283000 0.431396008 0.089965999
0.412719995 0.444000006 0.108306997
0.467285007 0.458770990 0.127776995
0.519226015 0.471953988 0.145659998
0.562713981 0.473540992 0.158996999
0.597838998 0.464935005 0.168335006
0.635161996 0.461365014 0.180298001
0.672393978 0.459656000 0.193085000
0.709563971 0.457825005 0.206664994
0.746551991 0.455871999 0.220917001
0.769439995 0.451079994 0.230927005
0.119171001 0.423492014 0.047759999
0.158629999 0.424652010 0.052611999
0.199187994 0.427399009 0.060150001
0.238342002 0.430999994 0.068604000
0.278075993 0.435211003 0.077881001
0.322815001 0.443816990 0.090972997
0.369933993 0.454802990 0.106322996
0.421721995 0.468842000 0.125121996
0.477385998 0.484984994 0.145843998
0.534424007 0.504302979 0.167449996
0.588317990 0.522002995 0.187713996
0.628112972 0.521606028 0.200531006
0.657715023 0.507385015 0.208526999
0.691711009 0.499237001 0.219726995
0.728851020 0.494170994 0.232604995
0.763366997 0.488983005 0.245422006
0.775481999 0.480498999 0.251495004
0.143799007 0.435149997 0.061615001
0.180664003 0.438385010 0.067688003
0.218048006 0.442809999 0.075622998
0.254761010 0.446929991 0.085418999
0.293303996 0.451934993 0.096465997
0.337128013 0.462249994 0.109894000
0.384887993 0.475127995 0.126129001
0.435272008 0.490539998 0.144501001
0.489899009 0.509186029 0.165770993
0.546142995 0.528747976 0.187683001
0.602356017 0.551422000 0.210114002
0.655395985 0.571807981 0.231232002
0.691284001 0.566223025 0.242553994
0.718445003 0.545653999 0.250427008
0.750092030 0.534179986 0.263855010
0.774596989 0.524353027 0.273681998
0.783721983 0.514739990 0.279448986
0.182556003 0.457946986 0.087127998
0.214661002 0.460236013 0.092712000
0.248137996 0.465332001 0.100403003
0.283508003 0.470946997 0.110870004
0.321503013 0.478424013 0.123076998
0.361571997 0.487029999 0.136078000
0.406920999 0.499846995 0.151886001
0.456176996 0.516022027 0.169220001
0.507812977 0.533783019 0.188690007
0.563171029 0.555359006 0.211303994
0.615875006 0.575684011 0.232666001
0.665741026 0.594237983 0.252227992
0.719237983 0.614867985 0.275848001
0.749541998 0.605408013 0.293884009
0.768859982 0.580353022 0.308959991
0.778137028 0.564055979 0.314484000
0.784759998 0.552550972 0.319855005
0.246277004 0.499877989 0.129120007
0.272430003 0.504974008 0.134186000
0.302733988 0.511017025 0.141083002
0.335449010 0.517150998 0.148956001
0.371612996 0.525695980 0.161193997
0.408295006 0.533478022 0.174011007
0.448029011 0.542937994 0.187255993
0.493010998 0.556580007 0.202880993
0.540099978 0.571654975 0.220580995
0.587463021 0.587127984 0.239441007
0.637755990 0.605408013 0.259582996
0.685669005 0.621215999 0.278717011
0.724304020 0.633849978 0.305541992
0.767822027 0.655364990 0.357024997
0.802031994 0.640778005 0.368561000
0.810088992 0.610992014 0.366759986
0.801422000 0.588012993 0.361876994
0.299957007 0.527465999 0.163543999
0.322205007 0.532378972 0.167998999
0.350066990 0.541382015 0.175872996
0.381072998 0.550719976 0.184937000
0.417571992 0.564971983 0.197265998
0.455871999 0.578064024 0.211548001
0.495209008 0.590606987 0.226013005
0.536864996 0.603729010 0.241393998
0.579192996 0.616150022 0.257416010
0.622893989 0.629211009 0.274260998
0.667235970 0.641234994 0.291442990
0.707520008 0.651520014 0.317016989
0.741455019 0.662994027 0.357178003
0.779754996 0.674010992 0.388915986
0.849152029 0.696807981 0.430144995
0.868010998 0.675903022 0.434875011
0.840179026 0.628448009 0.414673001
0.378661990 0.587219000 0.216064006
0.396178991 0.590575993 0.219208002
0.418365002 0.596161008 0.224487007
0.445037991 0.604888976 0.232361004
0.474608988 0.614502013 0.241668999
0.507843018 0.626891971 0.253021002
0.545531988 0.640685976 0.266387999
0.587768972 0.657288015 0.284087986
0.629088998 0.670502007 0.301117003
0.669646978 0.679901004 0.314330995
0.706268013 0.688781977 0.343201011
0.735625982 0.694793999 0.387665004
0.770569026 0.699280024 0.413879007
0.814177990 0.705565989 0.439025998
0.864075005 0.720703006 0.470672995
0.934997976 0.753386974 0.519500971
0.905578971 0.700562000 0.492828012
0.000000000 0.000000000 0.032439999
0.030212000 0.000000000 0.030212000
0.059326001 0.000000000 0.029418999
0.110106997 0.000000000 0.029418999
0.159851000 0.000000000 0.030212000
0.210143998 0.002655000 0.034393001
0.260345012 0.008026000 0.041016001
0.311340004 0.017059000 0.050537001
0.361694008 0.028351000 0.062408000
0.411774009 0.040771000 0.074340999
0.462311000 0.053557999 0.086150996
0.512969971 0.065917999 0.097838998
0.563140988 0.076903999 0.108764999
0.613770008 0.087830000 0.119231999
0.663085997 0.096557997 0.128113002
0.713012993 0.105559997 0.136810005
0.757659972 0.119415000 0.149932995
0.000000000 0.029479999 0.029479999
0.029418999 0.029418999 0.029418999
0.058807001 0.029479999 0.029479999
0.107726999 0.029418999 0.029418999
0.162384003 0.032288000 0.031555001
0.213836998 0.038238999 0.036162999
0.265778005 0.047424000 0.044403002
0.317687988 0.058899000 0.055328000
0.368835002 0.071258999 0.068145998
0.419983000 0.083282001 0.080292001
0.471558005 0.095550999 0.093079001
0.523895025 0.108489998 0.105957001
0.575164974 0.119658999 0.117310002
0.625762999 0.129333004 0.127228007
0.676392019 0.137848005 0.136382997
0.726867974 0.145905003 0.144775003
0.765747011 0.157532007 0.155517995
0.000000000 0.059386998 0.030121000
0.029327000 0.060486000 0.030121000
0.063598998 0.060516000 0.029479999
0.119080000 0.063141003 0.030060001
0.170470998 0.068726003 0.033661000
0.220397994 0.077331997 0.039032001
0.271544993 0.089386001 0.048981000
0.322632015 0.102141999 0.061035000
0.373382986 0.114960000 0.074036002
0.424712986 0.128142998 0.087433003
0.476195991 0.141144007 0.100403003
0.527863026 0.152770996 0.112640001
0.578583002 0.162354007 0.122893997
0.628814995 0.170532003 0.132049993
0.679596007 0.177855998 0.140411004
0.730103016 0.184814006 0.148620993
0.769806027 0.195923001 0.161651999
0.002228000 0.099030003 0.030121000
0.036681999 0.107726999 0.029479999
0.079131998 0.106903002 0.030121000
0.138671994 0.112090997 0.033020001
0.187316999 0.112640001 0.036040999
0.235137999 0.120177999 0.043030001
0.284393013 0.132721007 0.054076999
0.333801001 0.146056995 0.067078002
0.383513987 0.158660993 0.079833999
0.434235007 0.171387002 0.092772998
0.484802008 0.183197007 0.105194002
0.534973025 0.193451002 0.116576999
0.585236013 0.202971995 0.127288997
0.633942008 0.210998997 0.136687994
0.683197021 0.218079001 0.145293996
0.728606999 0.225127995 0.154937997
0.768737972 0.234711006 0.168700993
0.011841000 0.147308007 0.030151000
0.050078999 0.158996999 0.030792000
0.097534001 0.159667999 0.031585999
0.155487001 0.164123997 0.038146999
0.203278005 0.167632997 0.043212999
0.248900995 0.170012996 0.049927000
0.297363013 0.177276999 0.060608000
0.346466005 0.188262999 0.073181003
0.395325005 0.200042993 0.085326999
0.444945991 0.211700007 0.097992003
0.494720012 0.222626001 0.109894000
0.544098020 0.232666001 0.120636001
0.594237983 0.242461994 0.131255999
0.643158019 0.251221001 0.140961006
0.689086974 0.258971989 0.150909007
0.727416992 0.266418010 0.163910002
0.765380979 0.274506003 0.177794993
0.022125000 0.193389997 0.030944999
0.061310001 0.203887999 0.033080999
0.111450002 0.207610995 0.035918999
0.166106999 0.210357994 0.042663999
0.217620999 0.217957005 0.051941000
0.262023985 0.221832007 0.059723001
0.307891995 0.224639997 0.068236999
0.356231987 0.231292993 0.079163000
0.405396014 0.241027996 0.090911999
0.454865009 0.251648009 0.102721997
0.505187988 0.262481987 0.114532001
0.555817008 0.272857994 0.125701994
0.604888976 0.281951994 0.135651007
0.651122987 0.290344000 0.146636993
0.691344976 0.297271997 0.159332007
0.729125977 0.304596007 0.173583999
0.765685976 0.311340004 0.187316999
0.030944999 0.235657007 0.033080999
0.070556998 0.245697007 0.036132999
0.123962000 0.252411008 0.041198999
0.176666006 0.255279988 0.048615001
0.226105005 0.262421012 0.058685001
0.275085002 0.270568997 0.069672003
0.320679009 0.275391012 0.078612998
0.367339998 0.278869987 0.087707996
0.416016012 0.285095006 0.098572001
0.466095001 0.294281006 0.109650001
0.516846001 0.304168999 0.120453000
0.566192985 0.313232005 0.131072998
0.612854004 0.320708990 0.143066004
0.655426025 0.327271014 0.156128004
0.693297982 0.332946986 0.169646993
0.731812000 0.339446992 0.183928996
0.769500971 0.345611989 0.198333994
0.039978001 0.277770996 0.036132999
0.080932997 0.288300008 0.040008999
0.137756005 0.296905994 0.047913000
0.188170999 0.300720006 0.056212999
0.234588996 0.306335002 0.065186001
0.285492003 0.316466987 0.077637002
0.333678991 0.324921012 0.088469997
0.380645990 0.330779999 0.097838998
0.429443002 0.335449010 0.107787997
0.478332996 0.340332001 0.118408002
0.526184022 0.346100003 0.129394993
0.572205007 0.351500988 0.140869007
0.616424978 0.356353998 0.153991997
0.658630013 0.361786008 0.168212995
0.697174013 0.366486013 0.181610003
0.736663997 0.372040004 0.196135998
0.776244998 0.377624989 0.211151004
0.049713001 0.322784007 0.040436000
0.094727002 0.333983988 0.046569999
0.151672006 0.342772990 0.056549001
0.199157998 0.346435994 0.064696997
0.244536996 0.351958990 0.072662003
0.293181986 0.360992014 0.083557002
0.345245004 0.371459991 0.097136997
0.394591987 0.379761010 0.109252997
0.442261010 0.384552002 0.120453000
0.489776999 0.385895014 0.131865993
0.535064995 0.386748999 0.143616006
0.578369021 0.389007986 0.155762002
0.620788991 0.391205013 0.168303996
0.663146973 0.394744992 0.181976005
0.702820003 0.398041010 0.195556998
0.740601003 0.401793987 0.209229007
0.777283013 0.405396014 0.223205999
0.064606003 0.366943002 0.047943000
0.112000003 0.378417999 0.056823999
0.165497005 0.383881003 0.065765001
0.210448995 0.386382997 0.073119998
0.254516989 0.390410990 0.080963001
0.301299989 0.397675008 0.091522001
0.353637993 0.407990009 0.106384002
0.406219006 0.418395996 0.122405998
0.455413997 0.426818997 0.136870995
0.502563000 0.430694997 0.150420994
0.547973990 0.429749012 0.163055003
0.590331972 0.428649992 0.174683005
0.630614996 0.428588986 0.186217993
0.670440972 0.428649992 0.198607996
0.709411979 0.429138005 0.211700007
0.746765018 0.429993004 0.224944994
0.773101985 0.429993004 0.235137999
0.085235998 0.400146008 0.057861000
0.131104007 0.409851015 0.067230001
0.180327997 0.412230998 0.075347997
0.223297000 0.414550990 0.083618000
0.265166998 0.416900992 0.092254996
0.311951011 0.424315989 0.104340002
0.360839993 0.433898985 0.118285999
0.414337009 0.446808010 0.135651007
0.469208002 0.461425990 0.154358000
0.519958019 0.473540992 0.170929000
0.566009998 0.477631003 0.184998006
0.608246028 0.473663002 0.197082996
0.647307992 0.470032007 0.208465993
0.684051991 0.466430992 0.219604000
0.720641971 0.462707996 0.231323004
0.756348014 0.459320009 0.243530005
0.771544993 0.454315007 0.249573007
0.106293000 0.417908013 0.067596003
0.150573999 0.425720006 0.076995999
0.196655005 0.429931998 0.086731002
0.237334996 0.433593988 0.096375003
0.277770996 0.437743992 0.106384002
0.323303014 0.446197987 0.119202003
0.370972008 0.456970006 0.133331001
0.422942996 0.470764011 0.149932995
0.480437994 0.488433987 0.170349002
0.537078977 0.507476985 0.190917999
0.587341011 0.522521973 0.208496004
0.630370975 0.525207996 0.222351000
0.669677973 0.517150998 0.233916998
0.707427979 0.508942008 0.245086998
0.742401004 0.500976980 0.255432010
0.766265988 0.491759986 0.263184011
0.776580989 0.482391000 0.267517000
0.129120007 0.430083990 0.079223998
0.173339993 0.439696997 0.090911999
0.215758994 0.445250988 0.100983001
0.254608005 0.450134009 0.111298002
0.294616997 0.456573009 0.123108000
0.337036014 0.464538991 0.135924995
0.384826988 0.477692008 0.151366994
0.435882986 0.493133992 0.168152004
0.491607994 0.511780024 0.187255993
0.549773991 0.532805979 0.208801001
0.604797006 0.554382026 0.229828000
0.653961003 0.571869016 0.248137996
0.694122016 0.569885015 0.260803014
0.733916998 0.556518972 0.274078012
0.766083002 0.544341981 0.288269013
0.776489019 0.529906988 0.290161014
0.784515023 0.517028987 0.292908013
0.168792993 0.452910990 0.101929002
0.212432995 0.466156006 0.115295000
0.249298006 0.472014993 0.124358997
0.286040992 0.478179991 0.134338006
0.324645996 0.485260010 0.147247002
0.364226997 0.492615014 0.160095006
0.409514993 0.505432010 0.175262004
0.458526999 0.521057010 0.191863999
0.509796023 0.537872016 0.208862007
0.565063000 0.558533013 0.228790000
0.618499994 0.578827024 0.249480993
0.668976009 0.597747982 0.268433005
0.719512999 0.616210997 0.290039003
0.750030994 0.608642995 0.310516000
0.777405024 0.591858029 0.334991008
0.782226980 0.574280024 0.332702994
0.784241021 0.554534972 0.330597013
0.238159001 0.499146014 0.142487004
0.275573999 0.513306022 0.154510006
0.305664003 0.518616021 0.161041006
0.339111000 0.525330007 0.169861004
0.375335991 0.533661008 0.181580007
0.413818002 0.542603016 0.195160002
0.451995999 0.550384998 0.207764000
0.495299995 0.561919987 0.221741006
0.543273985 0.577057004 0.237639993
0.590668023 0.591766000 0.254608005
0.640137017 0.608336985 0.273467988
0.689391971 0.625000000 0.292542011
0.728577018 0.638396978 0.319121987
0.767853022 0.656525016 0.367736995
0.804931998 0.645049989 0.380614996
0.821044981 0.622039974 0.383513987
0.804168999 0.591826975 0.372498006
0.295592993 0.525817990 0.174866006
0.323181003 0.537169993 0.183257997
0.351226985 0.545653999 0.190704003
0.382995993 0.555786014 0.200073004
0.420471013 0.570526004 0.212615997
0.463836998 0.590637028 0.228423998
0.503632009 0.603729010 0.243194997
0.540832996 0.610900998 0.255919993
0.582091987 0.621155024 0.270325005
0.626372993 0.634216011 0.286864996
0.670166016 0.645416021 0.302794993
0.711181998 0.656463981 0.329865009
0.743255973 0.666900992 0.371033013
0.779877007 0.675078988 0.396728992
0.849518001 0.697205007 0.437133998
0.871796012 0.678924978 0.443298012
0.841919005 0.633635998 0.422271997
0.375366002 0.586760998 0.225189000
0.397278011 0.594788015 0.230987996
0.421478003 0.602478027 0.237243995
0.447418004 0.610413015 0.244536996
0.476653993 0.619781017 0.253448009
0.510375977 0.632202029 0.264618009
0.547240973 0.645843983 0.277191013
0.587981999 0.660857975 0.293426991
0.630645990 0.674713016 0.310393989
0.673187017 0.685364008 0.324310005
0.709411979 0.693908989 0.355652004
0.739655018 0.700896978 0.402130008
0.777588010 0.706085026 0.424773991
0.819000006 0.711090028 0.447905988
0.865234017 0.721893013 0.475585997
0.939330995 0.757476985 0.526367009
0.906830013 0.704468012 0.497191995
0.000000000 0.000000000 0.060577001
0.029479999 0.000000000 0.059570000
0.066711001 0.000000000 0.059296001
0.119965002 0.000000000 0.062103000
0.170135006 0.002777000 0.065857001
0.219634995 0.007202000 0.071777001
0.269836009 0.015381000 0.080688000
0.320190012 0.025390999 0.091614000
0.369964987 0.037048001 0.103179999
0.420563012 0.049408000 0.115051001
0.471343994 0.061767999 0.127045006
0.521606028 0.072783999 0.138183996
0.572234988 0.083343998 0.148743004
0.622619987 0.093262002 0.158843994
0.672760010 0.101958998 0.167694002
0.723357975 0.110443003 0.176055998
0.764038026 0.122559004 0.185363993
0.000000000 0.029418999 0.058867998
0.029418999 0.029418999 0.058929000
0.063721001 0.029418999 0.059418000
0.118285999 0.031555001 0.062622003
0.170349002 0.034545999 0.066497996
0.220580995 0.039763998 0.072417997
0.271423012 0.048553001 0.081482001
0.322144002 0.060120001 0.092896000
0.372772008 0.072356999 0.105132997
0.423797995 0.084839001 0.117279001
0.475037009 0.097136997 0.129120007
0.525786996 0.108337000 0.140288994
0.575438976 0.118317001 0.150452003
0.625000000 0.127563000 0.159821004
0.676146984 0.136474997 0.169220001
0.726653993 0.144653007 0.177764997
0.767302990 0.156311005 0.187713996
0.000000000 0.058837999 0.058929000
0.029387999 0.059326001 0.059448000
0.061066002 0.061005000 0.059386998
0.114868000 0.068695001 0.065186001
0.170745999 0.076843001 0.071808003
0.221863002 0.084564000 0.078552000
0.272949010 0.094085999 0.088225998
0.324523985 0.105163999 0.099547997
0.375366002 0.115234002 0.110808998
0.426055998 0.126250997 0.122284003
0.477385998 0.138306007 0.134307995
0.528563976 0.149840996 0.145781994
0.579528987 0.160034001 0.156342000
0.630554020 0.168915004 0.165923998
0.680908024 0.176300004 0.174133003
0.731536984 0.183745995 0.182251006
0.772858024 0.195129007 0.194335997
0.000641000 0.104950003 0.062683001
0.033813000 0.108489998 0.062134001
0.072265998 0.111815996 0.063079998
0.135284007 0.118591003 0.069762997
0.185852006 0.122192003 0.076201998
0.233916998 0.130768001 0.085326999
0.282561988 0.141234994 0.095917001
0.332183987 0.151672006 0.107116997
0.382140994 0.161956996 0.118010998
0.432372987 0.172607005 0.129485995
0.482757986 0.183594003 0.141326994
0.533263981 0.193542004 0.152069002
0.584290028 0.202728003 0.162384003
0.635010004 0.210235998 0.171173006
0.684875011 0.216919005 0.179015994
0.730377018 0.224426001 0.188079998
0.770812988 0.234070003 0.200378001
0.013214000 0.155059993 0.065857001
0.045531999 0.156494007 0.064300999
0.085083000 0.163818002 0.064971998
0.151336998 0.169738993 0.074219003
0.203551993 0.173614994 0.080932997
0.249298006 0.176514000 0.089325003
0.296752989 0.183928996 0.100066997
0.344603986 0.194122002 0.111236997
0.392731011 0.204315007 0.122680999
0.442077994 0.214965999 0.134338006
0.492249012 0.225615993 0.145905003
0.542083979 0.235291004 0.156646997
0.592315972 0.244385004 0.167114004
0.641663015 0.252472013 0.176514000
0.687224984 0.259186000 0.185303003
0.726653993 0.265991002 0.196135998
