public/lut/99.cube
TITLE "17x17x17 Adobe/IRIDAS cube 3D LUT exported with GrossGrade v0.2.2 (beta) 64 bit"
DOMAIN_MIN 0 0 0
DOMAIN_MAX 1 1 1
LUT_3D_SIZE 5
0.000000000 0.000000000 0.000000000
0.154785007 0.000000000 0.000000000
0.358673006 0.028380999 0.026825000
0.562530994 0.078368999 0.076903999
0.759064019 0.121399000 0.120086998
0.012634000 0.148163006 0.000000000
0.199950993 0.163573995 0.011047000
0.392212003 0.196014002 0.051330999
0.592437983 0.239776999 0.096709996
0.766143978 0.274322987 0.148193002
0.052979000 0.324279994 0.010254000
0.243042007 0.349426001 0.040008999
0.440093994 0.381713986 0.087798998
0.611846983 0.386168987 0.136596993
0.772643983 0.401641995 0.199219003
0.143799007 0.435149997 0.061615001
0.293303996 0.451934993 0.096465997
0.489899009 0.509186029 0.165770993
0.691284001 0.566223025 0.242553994
0.783721983 0.514739990 0.279448986
0.378661990 0.587219000 0.216064006
0.474608988 0.614502013 0.241668999
0.629088998 0.670502007 0.301117003
0.770569026 0.699280024 0.413879007
0.905578971 0.700562000 0.492828012
0.000000000 0.000610000 0.123993002
0.188109994 0.018524000 0.147674993
0.387665004 0.060272001 0.187713996
0.582672000 0.096832000 0.225189000
0.771057010 0.130980998 0.256011993
0.002960000 0.159392998 0.149566993
0.188904002 0.186920002 0.168152004
0.389526010 0.215393007 0.204803005
0.591705024 0.242736995 0.237549007
0.767883003 0.270141989 0.267273009
0.050507002 0.345032007 0.174713001
0.228332996 0.364380002 0.182648003
0.443450987 0.395446986 0.226471007
0.618439019 0.402191013 0.262481987
0.774474978 0.419952005 0.301757991
0.100281000 0.414214998 0.172882006
0.273865014 0.463073999 0.199402004
0.482208014 0.518585026 0.263458014
0.694396973 0.577362001 0.315703988
0.783447027 0.526885986 0.344238013
0.339843988 0.576141000 0.242248997
0.473327994 0.629271984 0.284545988
0.637145996 0.697234988 0.340851009
0.788268983 0.722259998 0.452086985
0.919434011 0.720275998 0.516083002
0.000000000 0.049316000 0.300139993
0.178955004 0.062194999 0.310698986
0.421021014 0.099701002 0.341919005
0.608887017 0.122313999 0.370667011
0.781463981 0.150085002 0.386963010
0.006104000 0.189941004 0.315429986
0.153075993 0.207550004 0.335541010
0.413390994 0.243285999 0.357178003
0.610596001 0.264313012 0.384613007
0.773070991 0.282622993 0.388428003
0.037078999 0.354979992 0.345153987
0.184937000 0.375762999 0.361938000
0.418823004 0.410950005 0.379608005
0.600188971 0.432648003 0.404175013
0.755340993 0.431549013 0.409027010
0.155640006 0.512176991 0.366668999
0.234038994 0.490967005 0.335907012
0.444427013 0.525664985 0.359923989
0.680419981 0.593505979 0.411040992
0.778473020 0.553864002 0.433806986
0.377074987 0.633880973 0.375458002
0.431243986 0.644409001 0.348969012
0.638122976 0.749695003 0.418884009
0.777679026 0.749145985 0.508179009
0.927947998 0.742461979 0.554565012
0.003357000 0.087615997 0.470459014
0.176452994 0.097717002 0.473632991
0.409729004 0.128509998 0.490447998
0.626281977 0.145751998 0.523163021
0.776978016 0.177581996 0.523132026
0.011047000 0.221313000 0.482665986
0.145416006 0.238860995 0.505585015
0.387695014 0.258056998 0.515259027
0.624419987 0.289885998 0.541320980
0.768554986 0.311614990 0.523528993
0.032715000 0.375916004 0.512481987
0.166901007 0.391326994 0.527312994
0.367949992 0.421967000 0.552612007
0.600861013 0.446837991 0.529296994
0.748627007 0.453613013 0.522307992
0.105255000 0.482268989 0.481842011
0.211426005 0.504547000 0.497559011
0.383789003 0.553223014 0.522643983
0.633635998 0.618377984 0.540741026
0.770752013 0.624419987 0.586791992
0.299194008 0.645385981 0.532622993
0.399322987 0.713593006 0.556396008
0.533051014 0.739715993 0.538483024
0.756165028 0.798340023 0.572570980
0.930817008 0.796142995 0.637817025
0.010254000 0.133026004 0.655762017
0.173430994 0.136353001 0.650909007
0.375153005 0.154785007 0.680664003
0.610778987 0.180206001 0.698913991
0.770995975 0.222778007 0.684265018
0.014801000 0.259216011 0.661742985
0.138671994 0.275848001 0.686432004
0.352966011 0.289795011 0.708252013
0.596801996 0.315429986 0.729247987
0.763549984 0.353455007 0.691895008
0.037445001 0.409545988 0.685944021
0.162597999 0.417968988 0.691192985
0.338317990 0.445923001 0.712311029
0.528563976 0.454589993 0.703429997
0.734375000 0.486176014 0.675598025
0.090880997 0.502197027 0.619994998
0.183745995 0.520659983 0.635773003
0.329102010 0.551757991 0.656554997
0.535247982 0.617736995 0.686034977
0.738708019 0.625335991 0.688965023
0.204009995 0.572205007 0.597747982
0.261505008 0.603851020 0.617187977
0.344298989 0.647979975 0.640289009
0.594848990 0.726348996 0.675049007
0.870299995 0.868317008 0.779510021
